P3
320 320
255
74 56 42 80 61 45 86 66 48 92 71 51 98 76 54 104 57 57 110 62 42 78 67 45 84 72 48 90 77 51 96 58 54 102 63 57 108 68 42 76 73 45 82 78 48 88 59 51 94 64 54 100 69 57 106 74 42 74 79 45 80 60 48 86 65 51 92 70 54 98 75 57 104 56 42 110 61 45 78 66 48 84 71 51 90 76 54 96 57 57 102 62 42 108 67 45 76 72 48 82 77 51 88 58 54 94 63 57 100 68 42 106 73 45 74 78 48 80 59 51 86 64 54 92 69 57 98 74 42 104 79 45 110 60 48 78 65 51 84 70 54 90 75 57 96 56 42 102 61 45 108 66 48 76 71 51 82 76 54 88 57 57 94 62 42 100 67 45 106 72 48 74 77 51 80 58 54 86 63 57 92 68 42 98 73 45 104 78 48 110 59 51 78 64 54 84 69 57 90 74 42 96 79 45 102 60 48 108 65 51 76 70 54 82 75 57 88 56 42 94 61 45 100 66 48 106 71 51 74 76 54 80 57 57 86 62 42 92 67 45 98 72 48 104 77 51 110 58 54 78 63 57 84 68 42 90 73 45 96 78 48 102 59 51 108 64 54 76 69 57 82 74 42 88 79 45 94 60 48 100 65 51 106 70 54 74 75 57 80 56 42 86 61 45 92 66 48 98 71 51 104 76 54 110 57 57 78 62 42 84 67 45 90 72 48 96 77 51 102 58 54 108 63 57 76 68 42 82 73 45 88 78 48 94 59 51 100 64 54 106 69 57 74 74 42 80 79 45 86 60 48 92 65 51 98 70 54 104 75 57 110 56 42 78 61 45 84 66 48 90 71 51 96 76 54 102 57 57 108 62 42 76 67 45 82 72 48 88 77 51 94 58 54 100 63 57 106 68 42 74 73 45 80 78 48 86 59 51 92 64 54 98 69 57 104 74 42 110 79 45 78 60 48 84 65 51 90 70 54 96 75 57 102 56 42 108 61 45 76 66 48 82 71 51 88 76 54 94 57 57 100 62 42 106 67 45 74 72 48 80 77 51 86 58 54 92 63 57 98 68 42 104 73 45 110 78 48 78 59 51 84 64 54 90 69 57 96 74 42 102 79 45 108 60 48 76 65 51 82 70 54 88 75 57 94 56 42 100 61 45 106 66 48 74 71 51 80 76 54 86 57 57 92 62 42 98 67 45 104 72 48 110 77 51 78 58 54 84 63 57 90 68 42 96 73 45 102 78 48 108 59 51 76 64 54 82 69 57 88 74 42 94 79 45 100 60 48 106 65 51 74 70 54 80 75 57 86 56 42 92 61 45 98 66 48 104 71 51 110 76 54 78 57 57 84 62 42 90 67 45 96 72 48 102 77 51 108 58 54 76 63 57 82 68 42 88 73 45 94 78 48 100 59 51 106 64 54 74 69 57 80 74 42 86 79 45 92 60 48 98 65 51 104 70 54 110 75 57 78 56 42 84 61 45 90 66 48 96 71 51 102 76 54 108 57 57 76 62 42 82 67 45 88 72 48 94 77 51 100 58 54 106 63 57 74 68 42 80 73 45 86 78 48 92 59 51 98 64 54 104 69 57 110 74 42 78 79 45 84 60 48 90 65 51 96 70 54 102 75 57 108 56 42 76 61 45 82 66 48 88 71 51 94 76 54 100 57 57 106 62 42 74 67 45 80 72 48 86 77 51 92 58 54 98 63 57 104 68 42 110 73 45 78 78 48 84 59 51 90 64 54 96 69 57 102 74 42 108 79 45 76 60 48 82 65 51 88 70 54 94 75 57 100 56 42 106 61 45 74 66 48 80 71 51 86 76 54 92 57 57 98 62 42 104 67 45 110 72 48 78 77 51 84 58 54 90 63 57 96 68 42 102 73 45 108 78 48 76 59 51 82 64 54 88 69 57 94 74 42 100 79 45 106 60 48 74 65 51 80 70 54 86 75 57 92 56 42 98 61 45 104 66 48 110 71 51 78 76 54 84 57 57 90 62 42 96 67 45 102 72 48 108 77 51 76 58 54 82 63 57 88 68 42 94 73 45 100 78 48 106 59 51 74 64 54 80 69 57 86 74 42 92 79 45 98 60 48 104 65 51 110 70 54 78 75 57 84 56 42 90 61 45 96 66 48 102 71 51 108 76 54 76 57 57 82 62 42 88 67 45
79 58 50 85 63 53 91 68 56 97 73 59 103 78 44 109 59 47 77 64 50 83 69 53 89 74 56 95 79 59 101 60 44 107 65 47 75 70 50 81 75 53 87 56 56 93 61 59 99 66 44 105 71 47 111 76 50 79 57 53 85 62 56 91 67 59 97 72 44 103 77 47 109 58 50 77 63 53 83 68 56 89 73 59 95 78 44 101 59 47 107 64 50 75 69 53 81 74 56 87 79 59 93 60 44 99 65 47 105 70 50 111 75 53 79 56 56 85 61 59 91 66 44 97 71 47 103 76 50 109 57 53 77 62 56 83 67 59 89 72 44 95 77 47 101 58 50 107 63 53 75 68 56 81 73 59 87 78 44 93 59 47 99 64 50 105 69 53 111 74 56 79 79 59 85 60 44 91 65 47 97 70 50 103 75 53 109 56 56 77 61 59 83 66 44 89 71 47 95 76 50 101 57 53 107 62 56 75 67 59 81 72 44 87 77 47 93 58 50 99 63 53 105 68 56 111 73 59 79 78 44 85 59 47 91 64 50 97 69 53 103 74 56 109 79 59 77 60 44 83 65 47 89 70 50 95 75 53 101 56 56 107 61 59 75 66 44 81 71 47 87 76 50 93 57 53 99 62 56 105 67 59 111 72 44 79 77 47 85 58 50 91 63 53 97 68 56 103 73 59 109 78 44 77 59 47 83 64 50 89 69 53 95 74 56 101 79 59 107 60 44 75 65 47 81 70 50 87 75 53 93 56 56 99 61 59 105 66 44 111 71 47 79 76 50 85 57 53 91 62 56 97 67 59 103 72 44 109 77 47 77 58 50 83 63 53 89 68 56 95 73 59 101 78 44 107 59 47 75 64 50 81 69 53 87 74 56 93 79 59 99 60 44 105 65 47 111 70 50 79 75 53 85 56 56 91 61 59 97 66 44 103 71 47 109 76 50 77 57 53 83 62 56 89 67 59 95 72 44 101 77 47 107 58 50 75 63 53 81 68 56 87 73 59 93 78 44 99 59 47 105 64 50 111 69 53 79 74 56 85 79 59 91 60 44 97 65 47 103 70 50 109 75 53 77 56 56 83 61 59 89 66 44 95 71 47 101 76 50 107 57 53 75 62 56 81 67 59 87 72 44 93 77 47 99 58 50 105 63 53 111 68 56 79 73 59 85 78 44 91 59 47 97 64 50 103 69 53 109 74 56 77 79 59 83 60 44 89 65 47 95 70 50 101 75 53 107 56 56 75 61 59 81 66 44 87 71 47 93 76 50 99 57 53 105 62 56 111 67 59 79 72 44 85 77 47 91 58 50 97 63 53 103 68 56 109 73 59 77 78 44 83 59 47 89 64 50 95 69 53 101 74 56 107 79 59 75 60 44 81 65 47 87 70 50 93 75 53 99 56 56 105 61 59 111 66 44 79 71 47 85 76 50 91 57 53 97 62 56 103 67 59 109 72 44 77 77 47 83 58 50 89 63 53 95 68 56 101 73 59 107 78 44 75 59 47 81 64 50 87 69 53 93 74 56 99 79 59 105 60 44 111 65 47 79 70 50 85 75 53 91 56 56 97 61 59 103 66 44 109 71 47 77 76 50 83 57 53 89 62 56 95 67 59 101 72 44 107 77 47 75 58 50 81 63 53 87 68 56 93 73 59 99 78 44 105 59 47 111 64 50 79 69 53 85 74 56 91 79 59 97 60 44 103 65 47 109 70 50 77 75 53 83 56 56 89 61 59 95 66 44 101 71 47 107 76 50 75 57 53 81 62 56 87 67 59 93 72 44 99 77 47 105 58 50 111 63 53 79 68 56 85 73 59 91 78 44 97 59 47 103 64 50 109 69 53 77 74 56 83 79 59 89 60 44 95 65 47 101 70 50 107 75 53 75 56 56 81 61 59 87 66 44 93 71 47 99 76 50 105 57 53 111 62 56 79 67 59 85 72 44 91 77 47 97 58 50 103 63 53 109 68 56 77 73 59 83 78 44 89 59 47 95 64 50 101 69 53 107 74 56 75 79 59 81 60 44 87 65 47 93 70 50 99 75 53 105 56 56 111 61 59 79 66 44 85 71 47 91 76 50 97 57 53 103 62 56 109 67 59 77 72 44 83 77 47 89 58 50 95 63 53 101 68 56 107 73 59 75 78 44 81 59 47 87 64 50 93 69 53
84 60 58 90 65 43 96 70 46 102 75 49 108 56 52 76 61 55 82 66 58 88 71 43 94 76 46 100 57 49 106 62 52 74 67 55 80 72 58 86 77 43 92 58 46 98 63 49 104 68 52 110 73 55 78 78 58 84 59 43 90 64 46 96 69 49 102 74 52 108 79 55 76 60 58 82 65 43 88 70 46 94 75 49 100 56 52 106 61 55 74 66 58 80 71 43 86 76 46 92 57 49 98 62 52 104 67 55 110 72 58 78 77 43 84 58 46 90 63 49 96 68 52 102 73 55 108 78 58 76 59 43 82 64 46 88 69 49 94 74 52 100 79 55 106 60 58 74 65 43 80 70 46 86 75 49 92 56 52 98 61 55 104 66 58 110 71 43 78 76 46 84 57 49 90 62 52 96 67 55 102 72 58 108 77 43 76 58 46 82 63 49 88 68 52 94 73 55 100 78 58 106 59 43 74 64 46 80 69 49 86 74 52 92 79 55 98 60 58 104 65 43 110 70 46 78 75 49 84 56 52 90 61 55 96 66 58 102 71 43 108 76 46 76 57 49 82 62 52 88 67 55 94 72 58 100 77 43 106 58 46 74 63 49 80 68 52 86 73 55 92 78 58 98 59 43 104 64 46 110 69 49 78 74 52 84 79 55 90 60 58 96 65 43 102 70 46 108 75 49 76 56 52 82 61 55 88 66 58 94 71 43 100 76 46 106 57 49 74 62 52 80 67 55 86 72 58 92 77 43 98 58 46 104 63 49 110 68 52 78 73 55 84 78 58 90 59 43 96 64 46 102 69 49 108 74 52 76 79 55 82 60 58 88 65 43 94 70 46 100 75 49 106 56 52 74 61 55 80 66 58 86 71 43 92 76 46 98 57 49 104 62 52 110 67 55 78 72 58 84 77 43 90 58 46 96 63 49 102 68 52 108 73 55 76 78 58 82 59 43 88 64 46 94 69 49 100 74 52 106 79 55 74 60 58 80 65 43 86 70 46 92 75 49 98 56 52 104 61 55 110 66 58 78 71 43 84 76 46 90 57 49 96 62 52 102 67 55 108 72 58 76 77 43 82 58 46 88 63 49 94 68 52 100 73 55 106 78 58 74 59 43 80 64 46 86 69 49 92 74 52 98 79 55 104 60 58 110 65 43 78 70 46 84 75 49 90 56 52 96 61 55 102 66 58 108 71 43 76 76 46 82 57 49 88 62 52 94 67 55 100 72 58 106 77 43 74 58 46 80 63 49 86 68 52 92 73 55 98 78 58 104 59 43 110 64 46 78 69 49 84 74 52 90 79 55 96 60 58 102 65 43 108 70 46 76 75 49 82 56 52 88 61 55 94 66 58 100 71 43 106 76 46 74 57 49 80 62 52 86 67 55 92 72 58 98 77 43 104 58 46 110 63 49 78 68 52 84 73 55 90 78 58 96 59 43 102 64 46 108 69 49 76 74 52 82 79 55 88 60 58 94 65 43 100 70 46 106 75 49 74 56 52 80 61 55 86 66 58 92 71 43 98 76 46 104 57 49 110 62 52 78 67 55 84 72 58 90 77 43 96 58 46 102 63 49 108 68 52 76 73 55 82 78 58 88 59 43 94 64 46 100 69 49 106 74 52 74 79 55 80 60 58 86 65 43 92 70 46 98 75 49 104 56 52 110 61 55 78 66 58 84 71 43 90 76 46 96 57 49 102 62 52 108 67 55 76 72 58 82 77 43 88 58 46 94 63 49 100 68 52 106 73 55 74 78 58 80 59 43 86 64 46 92 69 49 98 74 52 104 79 55 110 60 58 78 65 43 84 70 46 90 75 49 96 56 52 102 61 55 108 66 58 76 71 43 82 76 46 88 57 49 94 62 52 100 67 55 106 72 58 74 77 43 80 58 46 86 63 49 92 68 52 98 73 55 104 78 58 110 59 43 78 64 46 84 69 49 90 74 52 96 79 55 102 60 58 108 65 43 76 70 46 82 75 49 88 56 52 94 61 55 100 66 58 106 71 43 74 76 46 80 57 49 86 62 52 92 67 55 98 72 58 104 77 43 110 58 46 78 63 49 84 68 52 90 73 55 96 78 58 102 59 43 108 64 46 76 69 49 82 74 52 88 79 55 94 60 58 100 65 43 106 70 46 74 75 49 80 56 52 86 61 55 92 66 58 98 71 43
89 62 48 95 67 51 101 72 54 107 77 57 75 58 42 81 63 45 87 68 48 93 73 51 99 78 54 105 59 57 111 64 42 79 69 45 85 74 48 91 79 51 97 60 54 103 65 57 109 70 42 77 75 45 83 56 48 89 61 51 95 66 54 101 71 57 107 76 42 75 57 45 81 62 48 87 67 51 93 72 54 99 77 57 105 58 42 111 63 45 79 68 48 85 73 51 91 78 54 97 59 57 103 64 42 109 69 45 77 74 48 83 79 51 89 60 54 95 65 57 101 70 42 107 75 45 75 56 48 81 61 51 87 66 54 93 71 57 99 76 42 105 57 45 111 62 48 79 67 51 85 72 54 91 77 57 97 58 42 103 63 45 109 68 48 77 73 51 83 78 54 89 59 57 95 64 42 101 69 45 107 74 48 75 79 51 81 60 54 87 65 57 93 70 42 99 75 45 105 56 48 111 61 51 79 66 54 85 71 57 91 76 42 97 57 45 103 62 48 109 67 51 77 72 54 83 77 57 89 58 42 95 63 45 101 68 48 107 73 51 75 78 54 81 59 57 87 64 42 93 69 45 99 74 48 105 79 51 111 60 54 79 65 57 85 70 42 91 75 45 97 56 48 103 61 51 109 66 54 77 71 57 83 76 42 89 57 45 95 62 48 101 67 51 107 72 54 75 77 57 81 58 42 87 63 45 93 68 48 99 73 51 105 78 54 111 59 57 79 64 42 85 69 45 91 74 48 97 79 51 103 60 54 109 65 57 77 70 42 83 75 45 89 56 48 95 61 51 101 66 54 107 71 57 75 76 42 81 57 45 87 62 48 93 67 51 99 72 54 105 77 57 111 58 42 79 63 45 85 68 48 91 73 51 97 78 54 103 59 57 109 64 42 77 69 45 83 74 48 89 79 51 95 60 54 101 65 57 107 70 42 75 75 45 81 56 48 87 61 51 93 66 54 99 71 57 105 76 42 111 57 45 79 62 48 85 67 51 91 72 54 97 77 57 103 58 42 109 63 45 77 68 48 83 73 51 89 78 54 95 59 57 101 64 42 107 69 45 75 74 48 81 79 51 87 60 54 93 65 57 99 70 42 105 75 45 111 56 48 79 61 51 85 66 54 91 71 57 97 76 42 103 57 45 109 62 48 77 67 51 83 72 54 89 77 57 95 58 42 101 63 45 107 68 48 75 73 51 81 78 54 87 59 57 93 64 42 99 69 45 105 74 48 111 79 51 79 60 54 85 65 57 91 70 42 97 75 45 103 56 48 109 61 51 77 66 54 83 71 57 89 76 42 95 57 45 101 62 48 107 67 51 75 72 54 81 77 57 87 58 42 93 63 45 99 68 48 105 73 51 111 78 54 79 59 57 85 64 42 91 69 45 97 74 48 103 79 51 109 60 54 77 65 57 83 70 42 89 75 45 95 56 48 101 61 51 107 66 54 75 71 57 81 76 42 87 57 45 93 62 48 99 67 51 105 72 54 111 77 57 79 58 42 85 63 45 91 68 48 97 73 51 103 78 54 109 59 57 77 64 42 83 69 45 89 74 48 95 79 51 101 60 54 107 65 57 75 70 42 81 75 45 87 56 48 93 61 51 99 66 54 105 71 57 111 76 42 79 57 45 85 62 48 91 67 51 97 72 54 103 77 57 109 58 42 77 63 45 83 68 48 89 73 51 95 78 54 101 59 57 107 64 42 75 69 45 81 74 48 87 79 51 93 60 54 99 65 57 105 70 42 111 75 45 79 56 48 85 61 51 91 66 54 97 71 57 103 76 42 109 57 45 77 62 48 83 67 51 89 72 54 95 77 57 101 58 42 107 63 45 75 68 48 81 73 51 87 78 54 93 59 57 99 64 42 105 69 45 111 74 48 79 79 51 85 60 54 91 65 57 97 70 42 103 75 45 109 56 48 77 61 51 83 66 54 89 71 57 95 76 42 101 57 45 107 62 48 75 67 51 81 72 54 87 77 57 93 58 42 99 63 45 105 68 48 111 73 51 79 78 54 85 59 57 91 64 42 97 69 45 103 74 48 109 79 51 77 60 54 83 65 57 89 70 42 95 75 45 101 56 48 107 61 51 75 66 54 81 71 57 87 76 42 93 57 45 99 62 48 105 67 51 111 72 54 79 77 57 85 58 42 91 63 45 97 68 48 103 73 51
94 64 56 100 69 59 106 74 44 74 79 47 80 60 50 86 65 53 92 70 56 98 75 59 104 56 44 110 61 47 78 66 50 84 71 53 90 76 56 96 57 59 102 62 44 108 67 47 76 72 50 82 77 53 88 58 56 94 63 59 100 68 44 106 73 47 74 78 50 80 59 53 86 64 56 92 69 59 98 74 44 104 79 47 110 60 50 78 65 53 84 70 56 90 75 59 96 56 44 102 61 47 108 66 50 76 71 53 82 76 56 88 57 59 94 62 44 100 67 47 106 72 50 74 77 53 80 58 56 86 63 59 92 68 44 98 73 47 104 78 50 110 59 53 78 64 56 84 69 59 90 74 44 96 79 47 102 60 50 108 65 53 76 70 56 82 75 59 88 56 44 94 61 47 100 66 50 106 71 53 74 76 56 80 57 59 86 62 44 92 67 47 98 72 50 104 77 53 110 58 56 78 63 59 84 68 44 90 73 47 96 78 50 102 59 53 108 64 56 76 69 59 82 74 44 88 79 47 94 60 50 100 65 53 106 70 56 74 75 59 80 56 44 86 61 47 92 66 50 98 71 53 104 76 56 110 57 59 78 62 44 84 67 47 90 72 50 96 77 53 102 58 56 108 63 59 76 68 44 82 73 47 88 78 50 94 59 53 100 64 56 106 69 59 74 74 44 80 79 47 86 60 50 92 65 53 98 70 56 104 75 59 110 56 44 78 61 47 84 66 50 90 71 53 96 76 56 102 57 59 108 62 44 76 67 47 82 72 50 88 77 53 94 58 56 100 63 59 106 68 44 74 73 47 80 78 50 86 59 53 92 64 56 98 69 59 104 74 44 110 79 47 78 60 50 84 65 53 90 70 56 96 75 59 102 56 44 108 61 47 76 66 50 82 71 53 88 76 56 94 57 59 100 62 44 106 67 47 74 72 50 80 77 53 86 58 56 92 63 59 98 68 44 104 73 47 110 78 50 78 59 53 84 64 56 90 69 59 96 74 44 102 79 47 108 60 50 76 65 53 82 70 56 88 75 59 94 56 44 100 61 47 106 66 50 74 71 53 80 76 56 86 57 59 92 62 44 98 67 47 104 72 50 110 77 53 78 58 56 84 63 59 90 68 44 96 73 47 102 78 50 108 59 53 76 64 56 82 69 59 88 74 44 94 79 47 100 60 50 106 65 53 74 70 56 80 75 59 86 56 44 92 61 47 98 66 50 104 71 53 110 76 56 78 57 59 84 62 44 90 67 47 96 72 50 102 77 53 108 58 56 76 63 59 82 68 44 88 73 47 94 78 50 100 59 53 106 64 56 74 69 59 80 74 44 86 79 47 92 60 50 98 65 53 104 70 56 110 75 59 78 56 44 84 61 47 90 66 50 96 71 53 102 76 56 108 57 59 76 62 44 82 67 47 88 72 50 94 77 53 100 58 56 106 63 59 74 68 44 80 73 47 86 78 50 92 59 53 98 64 56 104 69 59 110 74 44 78 79 47 84 60 50 90 65 53 96 70 56 102 75 59 108 56 44 76 61 47 82 66 50 88 71 53 94 76 56 100 57 59 106 62 44 74 67 47 80 72 50 86 77 53 92 58 56 98 63 59 104 68 44 110 73 47 78 78 50 84 59 53 90 64 56 96 69 59 102 74 44 108 79 47 76 60 50 82 65 53 88 70 56 94 75 59 100 56 44 106 61 47 74 66 50 80 71 53 86 76 56 92 57 59 98 62 44 104 67 47 110 72 50 78 77 53 84 58 56 90 63 59 96 68 44 102 73 47 108 78 50 76 59 53 82 64 56 88 69 59 94 74 44 100 79 47 106 60 50 74 65 53 80 70 56 86 75 59 92 56 44 98 61 47 104 66 50 110 71 53 78 76 56 84 57 59 90 62 44 96 67 47 102 72 50 108 77 53 76 58 56 82 63 59 88 68 44 94 73 47 100 78 50 106 59 53 74 64 56 80 69 59 86 74 44 92 79 47 98 60 50 104 65 53 110 70 56 78 75 59 84 56 44 90 61 47 96 66 50 102 71 53 108 76 56 76 57 59 82 62 44 88 67 47 94 72 50 100 77 53 106 58 56 74 63 59 80 68 44 86 73 47 92 78 50 98 59 53 104 64 56 110 69 59 78 74 44 84 79 47 90 60 50 96 65 53 102 70 56 108 75 59
99 66 46 105 71 49 111 76 52 79 57 55 85 62 58 91 67 43 97 72 46 103 77 49 109 58 52 77 63 55 83 68 58 89 73 43 95 78 46 101 59 49 107 64 52 75 69 55 81 74 58 87 79 43 93 60 46 99 65 49 105 70 52 111 75 55 79 56 58 85 61 43 91 66 46 97 71 49 103 76 52 109 57 55 77 62 58 83 67 43 89 72 46 95 77 49 101 58 52 107 63 55 75 68 58 81 73 43 87 78 46 93 59 49 99 64 52 105 69 55 111 74 58 79 79 43 85 60 46 91 65 49 97 70 52 103 75 55 109 56 58 77 61 43 83 66 46 89 71 49 95 76 52 101 57 55 107 62 58 75 67 43 81 72 46 87 77 49 93 58 52 99 63 55 105 68 58 111 73 43 79 78 46 85 59 49 91 64 52 97 69 55 103 74 58 109 79 43 77 60 46 83 65 49 89 70 52 95 75 55 101 56 58 107 61 43 75 66 46 81 71 49 87 76 52 93 57 55 99 62 58 105 67 43 111 72 46 79 77 49 85 58 52 91 63 55 97 68 58 103 73 43 109 78 46 77 59 49 83 64 52 89 69 55 95 74 58 101 79 43 107 60 46 75 65 49 81 70 52 87 75 55 93 56 58 99 61 43 105 66 46 111 71 49 79 76 52 85 57 55 91 62 58 97 67 43 103 72 46 109 77 49 77 58 52 83 63 55 89 68 58 95 73 43 101 78 46 107 59 49 75 64 52 81 69 55 87 74 58 93 79 43 99 60 46 105 65 49 111 70 52 79 75 55 85 56 58 91 61 43 97 66 46 103 71 49 109 76 52 77 57 55 83 62 58 89 67 43 95 72 46 101 77 49 107 58 52 75 63 55 81 68 58 87 73 43 93 78 46 99 59 49 105 64 52 111 69 55 79 74 58 85 79 43 91 60 46 97 65 49 103 70 52 109 75 55 77 56 58 83 61 43 89 66 46 95 71 49 101 76 52 107 57 55 75 62 58 81 67 43 87 72 46 93 77 49 99 58 52 105 63 55 111 68 58 79 73 43 85 78 46 91 59 49 97 64 52 103 69 55 109 74 58 77 79 43 83 60 46 89 65 49 95 70 52 101 75 55 107 56 58 75 61 43 81 66 46 87 71 49 93 76 52 99 57 55 105 62 58 111 67 43 79 72 46 85 77 49 91 58 52 97 63 55 103 68 58 109 73 43 77 78 46 83 59 49 89 64 52 95 69 55 101 74 58 107 79 43 75 60 46 81 65 49 87 70 52 93 75 55 99 56 58 105 61 43 111 66 46 79 71 49 85 76 52 91 57 55 97 62 58 103 67 43 109 72 46 77 77 49 83 58 52 89 63 55 95 68 58 101 73 43 107 78 46 75 59 49 81 64 52 87 69 55 93 74 58 99 79 43 105 60 46 111 65 49 79 70 52 85 75 55 91 56 58 97 61 43 103 66 46 109 71 49 77 76 52 83 57 55 89 62 58 95 67 43 101 72 46 107 77 49 75 58 52 81 63 55 87 68 58 93 73 43 99 78 46 105 59 49 111 64 52 79 69 55 85 74 58 91 79 43 97 60 46 103 65 49 109 70 52 77 75 55 83 56 58 89 61 43 95 66 46 101 71 49 107 76 52 75 57 55 81 62 58 87 67 43 93 72 46 99 77 49 105 58 52 111 63 55 79 68 58 85 73 43 91 78 46 97 59 49 103 64 52 109 69 55 77 74 58 83 79 43 89 60 46 95 65 49 101 70 52 107 75 55 75 56 58 81 61 43 87 66 46 93 71 49 99 76 52 105 57 55 111 62 58 79 67 43 85 72 46 91 77 49 97 58 52 103 63 55 109 68 58 77 73 43 83 78 46 89 59 49 95 64 52 101 69 55 107 74 58 75 79 43 81 60 46 87 65 49 93 70 52 99 75 55 105 56 58 111 61 43 79 66 46 85 71 49 91 76 52 97 57 55 103 62 58 109 67 43 77 72 46 83 77 49 89 58 52 95 63 55 101 68 58 107 73 43 75 78 46 81 59 49 87 64 52 93 69 55 99 74 58 105 79 43 111 60 46 79 65 49 85 70 52 91 75 55 97 56 58 103 61 43 109 66 46 77 71 49 83 76 52 89 57 55 95 62 58 101 67 43 107 72 46 75 77 49
104 68 54 110 73 57 78 78 42 84 59 45 90 64 48 96 69 51 102 74 54 108 79 57 76 60 42 82 65 45 88 70 48 94 75 51 100 56 54 106 61 57 74 66 42 80 71 45 86 76 48 92 57 51 98 62 54 104 67 57 110 72 42 78 77 45 84 58 48 90 63 51 96 68 54 102 73 57 108 78 42 76 59 45 82 64 48 88 69 51 94 74 54 100 79 57 106 60 42 74 65 45 80 70 48 86 75 51 92 56 54 98 61 57 104 66 42 110 71 45 78 76 48 84 57 51 90 62 54 96 67 57 102 72 42 108 77 45 76 58 48 82 63 51 88 68 54 94 73 57 100 78 42 106 59 45 74 64 48 80 69 51 86 74 54 92 79 57 98 60 42 104 65 45 110 70 48 78 75 51 84 56 54 90 61 57 96 66 42 102 71 45 108 76 48 76 57 51 82 62 54 88 67 57 94 72 42 100 77 45 106 58 48 74 63 51 80 68 54 86 73 57 92 78 42 98 59 45 104 64 48 110 69 51 78 74 54 84 79 57 90 60 42 96 65 45 102 70 48 108 75 51 76 56 54 82 61 57 88 66 42 94 71 45 100 76 48 106 57 51 74 62 54 80 67 57 86 72 42 92 77 45 98 58 48 104 63 51 110 68 54 78 73 57 84 78 42 90 59 45 96 64 48 102 69 51 108 74 54 76 79 57 82 60 42 88 65 45 94 70 48 100 75 51 106 56 54 74 61 57 80 66 42 86 71 45 92 76 48 98 57 51 104 62 54 110 67 57 78 72 42 84 77 45 90 58 48 96 63 51 102 68 54 108 73 57 76 78 42 82 59 45 88 64 48 94 69 51 100 74 54 106 79 57 74 60 42 80 65 45 86 70 48 92 75 51 98 56 54 104 61 57 110 66 42 78 71 45 84 76 48 90 57 51 96 62 54 102 67 57 108 72 42 76 77 45 82 58 48 88 63 51 94 68 54 100 73 57 106 78 42 74 59 45 80 64 48 86 69 51 92 74 54 98 79 57 104 60 42 110 65 45 78 70 48 84 75 51 90 56 54 96 61 57 102 66 42 108 71 45 76 76 48 82 57 51 88 62 54 94 67 57 100 72 42 106 77 45 74 58 48 80 63 51 86 68 54 92 73 57 98 78 42 104 59 45 110 64 48 78 69 51 84 74 54 90 79 57 96 60 42 102 65 45 108 70 48 76 75 51 82 56 54 88 61 57 94 66 42 100 71 45 106 76 48 74 57 51 80 62 54 86 67 57 92 72 42 98 77 45 104 58 48 110 63 51 78 68 54 84 73 57 90 78 42 96 59 45 102 64 48 108 69 51 76 74 54 82 79 57 88 60 42 94 65 45 100 70 48 106 75 51 74 56 54 80 61 57 86 66 42 92 71 45 98 76 48 104 57 51 110 62 54 78 67 57 84 72 42 90 77 45 96 58 48 102 63 51 108 68 54 76 73 57 82 78 42 88 59 45 94 64 48 100 69 51 106 74 54 74 79 57 80 60 42 86 65 45 92 70 48 98 75 51 104 56 54 110 61 57 78 66 42 84 71 45 90 76 48 96 57 51 102 62 54 108 67 57 76 72 42 82 77 45 88 58 48 94 63 51 100 68 54 106 73 57 74 78 42 80 59 45 86 64 48 92 69 51 98 74 54 104 79 57 110 60 42 78 65 45 84 70 48 90 75 51 96 56 54 102 61 57 108 66 42 76 71 45 82 76 48 88 57 51 94 62 54 100 67 57 106 72 42 74 77 45 80 58 48 86 63 51 92 68 54 98 73 57 104 78 42 110 59 45 78 64 48 84 69 51 90 74 54 96 79 57 102 60 42 108 65 45 76 70 48 82 75 51 88 56 54 94 61 57 100 66 42 106 71 45 74 76 48 80 57 51 86 62 54 92 67 57 98 72 42 104 77 45 110 58 48 78 63 51 84 68 54 90 73 57 96 78 42 102 59 45 108 64 48 76 69 51 82 74 54 88 79 57 94 60 42 100 65 45 106 70 48 74 75 51 80 56 54 86 61 57 92 66 42 98 71 45 104 76 48 110 57 51 78 62 54 84 67 57 90 72 42 96 77 45 102 58 48 108 63 51 76 68 54 82 73 57 88 78 42 94 59 45 100 64 48 106 69 51 74 74 54 80 79 57
109 70 44 77 75 47 83 56 50 89 61 53 95 66 56 101 71 59 107 76 44 75 57 47 81 62 50 87 67 53 93 72 56 99 77 59 105 58 44 111 63 47 79 68 50 85 73 53 91 78 56 97 59 59 103 64 44 109 69 47 77 74 50 83 79 53 89 60 56 95 65 59 101 70 44 107 75 47 75 56 50 81 61 53 87 66 56 93 71 59 99 76 44 105 57 47 111 62 50 79 67 53 85 72 56 91 77 59 97 58 44 103 63 47 109 68 50 77 73 53 83 78 56 89 59 59 95 64 44 101 69 47 107 74 50 75 79 53 81 60 56 87 65 59 93 70 44 99 75 47 105 56 50 111 61 53 79 66 56 85 71 59 91 76 44 97 57 47 103 62 50 109 67 53 77 72 56 83 77 59 89 58 44 95 63 47 101 68 50 107 73 53 75 78 56 81 59 59 87 64 44 93 69 47 99 74 50 105 79 53 111 60 56 79 65 59 85 70 44 91 75 47 97 56 50 103 61 53 109 66 56 77 71 59 83 76 44 89 57 47 95 62 50 101 67 53 107 72 56 75 77 59 81 58 44 87 63 47 93 68 50 99 73 53 105 78 56 111 59 59 79 64 44 85 69 47 91 74 50 97 79 53 103 60 56 109 65 59 77 70 44 83 75 47 89 56 50 95 61 53 101 66 56 107 71 59 75 76 44 81 57 47 87 62 50 93 67 53 99 72 56 105 77 59 111 58 44 79 63 47 85 68 50 91 73 53 97 78 56 103 59 59 109 64 44 77 69 47 83 74 50 89 79 53 95 60 56 101 65 59 107 70 44 75 75 47 81 56 50 87 61 53 93 66 56 99 71 59 105 76 44 111 57 47 79 62 50 85 67 53 91 72 56 97 77 59 103 58 44 109 63 47 77 68 50 83 73 53 89 78 56 95 59 59 101 64 44 107 69 47 75 74 50 81 79 53 87 60 56 93 65 59 99 70 44 105 75 47 111 56 50 79 61 53 85 66 56 91 71 59 97 76 44 103 57 47 109 62 50 77 67 53 83 72 56 89 77 59 95 58 44 101 63 47 107 68 50 75 73 53 81 78 56 87 59 59 93 64 44 99 69 47 105 74 50 111 79 53 79 60 56 85 65 59 91 70 44 97 75 47 103 56 50 109 61 53 77 66 56 83 71 59 89 76 44 95 57 47 101 62 50 107 67 53 75 72 56 81 77 59 87 58 44 93 63 47 99 68 50 105 73 53 111 78 56 79 59 59 85 64 44 91 69 47 97 74 50 103 79 53 109 60 56 77 65 59 83 70 44 89 75 47 95 56 50 101 61 53 107 66 56 75 71 59 81 76 44 87 57 47 93 62 50 99 67 53 105 72 56 111 77 59 79 58 44 85 63 47 91 68 50 97 73 53 103 78 56 109 59 59 77 64 44 83 69 47 89 74 50 95 79 53 101 60 56 107 65 59 75 70 44 81 75 47 87 56 50 93 61 53 99 66 56 105 71 59 111 76 44 79 57 47 85 62 50 91 67 53 97 72 56 103 77 59 109 58 44 77 63 47 83 68 50 89 73 53 95 78 56 101 59 59 107 64 44 75 69 47 81 74 50 87 79 53 93 60 56 99 65 59 105 70 44 111 75 47 79 56 50 85 61 53 91 66 56 97 71 59 103 76 44 109 57 47 77 62 50 83 67 53 89 72 56 95 77 59 101 58 44 107 63 47 75 68 50 81 73 53 87 78 56 93 59 59 99 64 44 105 69 47 111 74 50 79 79 53 85 60 56 91 65 59 97 70 44 103 75 47 109 56 50 77 61 53 83 66 56 89 71 59 95 76 44 101 57 47 107 62 50 75 67 53 81 72 56 87 77 59 93 58 44 99 63 47 105 68 50 111 73 53 79 78 56 85 59 59 91 64 44 97 69 47 103 74 50 109 79 53 77 60 56 83 65 59 89 70 44 95 75 47 101 56 50 107 61 53 75 66 56 81 71 59 87 76 44 93 57 47 99 62 50 105 67 53 111 72 56 79 77 59 85 58 44 91 63 47 97 68 50 103 73 53 109 78 56 77 59 59 83 64 44 89 69 47 95 74 50 101 79 53 107 60 56 75 65 59 81 70 44 87 75 47 93 56 50 99 61 53 105 66 56 111 71 59 79 76 44 85 57 47
76 72 52 82 77 55 88 58 58 94 63 43 100 68 46 106 73 49 74 78 52 80 59 55 86 64 58 92 69 43 98 74 46 104 79 49 110 60 52 78 65 55 84 70 58 90 75 43 96 56 46 102 61 49 108 66 52 76 71 55 82 76 58 88 57 43 94 62 46 100 67 49 106 72 52 74 77 55 80 58 58 86 63 43 92 68 46 98 73 49 104 78 52 110 59 55 78 64 58 84 69 43 90 74 46 96 79 49 102 60 52 108 65 55 76 70 58 82 75 43 88 56 46 94 61 49 100 66 52 106 71 55 74 76 58 80 57 43 86 62 46 92 67 49 98 72 52 104 77 55 110 58 58 78 63 43 84 68 46 90 73 49 96 78 52 102 59 55 108 64 58 76 69 43 82 74 46 88 79 49 94 60 52 100 65 55 106 70 58 74 75 43 80 56 46 86 61 49 92 66 52 98 71 55 104 76 58 110 57 43 78 62 46 84 67 49 90 72 52 96 77 55 102 58 58 108 63 43 76 68 46 82 73 49 88 78 52 94 59 55 100 64 58 106 69 43 74 74 46 80 79 49 86 60 52 92 65 55 98 70 58 104 75 43 110 56 46 78 61 49 84 66 52 90 71 55 96 76 58 102 57 43 108 62 46 76 67 49 82 72 52 88 77 55 94 58 58 100 63 43 106 68 46 74 73 49 80 78 52 86 59 55 92 64 58 98 69 43 104 74 46 110 79 49 78 60 52 84 65 55 90 70 58 96 75 43 102 56 46 108 61 49 76 66 52 82 71 55 88 76 58 94 57 43 100 62 46 106 67 49 74 72 52 80 77 55 86 58 58 92 63 43 98 68 46 104 73 49 110 78 52 78 59 55 84 64 58 90 69 43 96 74 46 102 79 49 108 60 52 76 65 55 82 70 58 88 75 43 94 56 46 100 61 49 106 66 52 74 71 55 80 76 58 86 57 43 92 62 46 98 67 49 104 72 52 110 77 55 78 58 58 84 63 43 90 68 46 96 73 49 102 78 52 108 59 55 76 64 58 82 69 43 88 74 46 94 79 49 100 60 52 106 65 55 74 70 58 80 75 43 86 56 46 92 61 49 98 66 52 104 71 55 110 76 58 78 57 43 84 62 46 90 67 49 96 72 52 102 77 55 108 58 58 76 63 43 82 68 46 88 73 49 94 78 52 100 59 55 106 64 58 74 69 43 80 74 46 86 79 49 92 60 52 98 65 55 104 70 58 110 75 43 78 56 46 84 61 49 90 66 52 96 71 55 102 76 58 108 57 43 76 62 46 82 67 49 88 72 52 94 77 55 100 58 58 106 63 43 74 68 46 80 73 49 86 78 52 92 59 55 98 64 58 104 69 43 110 74 46 78 79 49 84 60 52 90 65 55 96 70 58 102 75 43 108 56 46 76 61 49 82 66 52 88 71 55 94 76 58 100 57 43 106 62 46 74 67 49 80 72 52 86 77 55 92 58 58 98 63 43 104 68 46 110 73 49 78 78 52 84 59 55 90 64 58 96 69 43 102 74 46 108 79 49 76 60 52 82 65 55 88 70 58 94 75 43 100 56 46 106 61 49 74 66 52 80 71 55 86 76 58 92 57 43 98 62 46 104 67 49 110 72 52 78 77 55 84 58 58 90 63 43 96 68 46 102 73 49 108 78 52 76 59 55 82 64 58 88 69 43 94 74 46 100 79 49 106 60 52 74 65 55 80 70 58 86 75 43 92 56 46 98 61 49 104 66 52 110 71 55 78 76 58 84 57 43 90 62 46 96 67 49 102 72 52 108 77 55 76 58 58 82 63 43 88 68 46 94 73 49 100 78 52 106 59 55 74 64 58 80 69 43 86 74 46 92 79 49 98 60 52 104 65 55 110 70 58 78 75 43 84 56 46 90 61 49 96 66 52 102 71 55 108 76 58 76 57 43 82 62 46 88 67 49 94 72 52 100 77 55 106 58 58 74 63 43 80 68 46 86 73 49 92 78 52 98 59 55 104 64 58 110 69 43 78 74 46 84 79 49 90 60 52 96 65 55 102 70 58 108 75 43 76 56 46 82 61 49 88 66 52 94 71 55 100 76 58 106 57 43 74 62 46 80 67 49 86 72 52 92 77 55 98 58 58 104 63 43 110 68 46 78 73 49 84 78 52 90 59 55
81 74 42 87 79 45 93 60 48 99 65 51 105 70 54 111 75 57 79 56 42 85 61 45 91 66 48 97 71 51 103 76 54 109 57 57 77 62 42 83 67 45 89 72 48 95 77 51 101 58 54 107 63 57 75 68 42 81 73 45 87 78 48 93 59 51 99 64 54 105 69 57 111 74 42 79 79 45 85 60 48 91 65 51 97 70 54 103 75 57 109 56 42 77 61 45 83 66 48 89 71 51 95 76 54 101 57 57 107 62 42 75 67 45 81 72 48 87 77 51 93 58 54 99 63 57 105 68 42 111 73 45 79 78 48 85 59 51 91 64 54 97 69 57 103 74 42 109 79 45 77 60 48 83 65 51 89 70 54 95 75 57 101 56 42 107 61 45 75 66 48 81 71 51 87 76 54 93 57 57 99 62 42 105 67 45 111 72 48 79 77 51 85 58 54 91 63 57 97 68 42 103 73 45 109 78 48 77 59 51 83 64 54 89 69 57 95 74 42 101 79 45 107 60 48 75 65 51 81 70 54 87 75 57 93 56 42 99 61 45 105 66 48 111 71 51 79 76 54 85 57 57 91 62 42 97 67 45 103 72 48 109 77 51 77 58 54 83 63 57 89 68 42 95 73 45 101 78 48 107 59 51 75 64 54 81 69 57 87 74 42 93 79 45 99 60 48 105 65 51 111 70 54 79 75 57 85 56 42 91 61 45 97 66 48 103 71 51 109 76 54 77 57 57 83 62 42 89 67 45 95 72 48 101 77 51 107 58 54 75 63 57 81 68 42 87 73 45 93 78 48 99 59 51 105 64 54 111 69 57 79 74 42 85 79 45 91 60 48 97 65 51 103 70 54 109 75 57 77 56 42 83 61 45 89 66 48 95 71 51 101 76 54 107 57 57 75 62 42 81 67 45 87 72 48 93 77 51 99 58 54 105 63 57 111 68 42 79 73 45 85 78 48 91 59 51 97 64 54 103 69 57 109 74 42 77 79 45 83 60 48 89 65 51 95 70 54 101 75 57 107 56 42 75 61 45 81 66 48 87 71 51 93 76 54 99 57 57 105 62 42 111 67 45 79 72 48 85 77 51 91 58 54 97 63 57 103 68 42 109 73 45 77 78 48 83 59 51 89 64 54 95 69 57 101 74 42 107 79 45 75 60 48 81 65 51 87 70 54 93 75 57 99 56 42 105 61 45 111 66 48 79 71 51 85 76 54 91 57 57 97 62 42 103 67 45 109 72 48 77 77 51 83 58 54 89 63 57 95 68 42 101 73 45 107 78 48 75 59 51 81 64 54 87 69 57 93 74 42 99 79 45 105 60 48 111 65 51 79 70 54 85 75 57 91 56 42 97 61 45 103 66 48 109 71 51 77 76 54 83 57 57 89 62 42 95 67 45 101 72 48 107 77 51 75 58 54 81 63 57 87 68 42 93 73 45 99 78 48 105 59 51 111 64 54 79 69 57 85 74 42 91 79 45 97 60 48 103 65 51 109 70 54 77 75 57 83 56 42 89 61 45 95 66 48 101 71 51 107 76 54 75 57 57 81 62 42 87 67 45 93 72 48 99 77 51 105 58 54 111 63 57 79 68 42 85 73 45 91 78 48 97 59 51 103 64 54 109 69 57 77 74 42 83 79 45 89 60 48 95 65 51 101 70 54 107 75 57 75 56 42 81 61 45 87 66 48 93 71 51 99 76 54 105 57 57 111 62 42 79 67 45 85 72 48 91 77 51 97 58 54 103 63 57 109 68 42 77 73 45 83 78 48 89 59 51 95 64 54 101 69 57 107 74 42 75 79 45 81 60 48 87 65 51 93 70 54 99 75 57 105 56 42 111 61 45 79 66 48 85 71 51 91 76 54 97 57 57 103 62 42 109 67 45 77 72 48 83 77 51 89 58 54 95 63 57 101 68 42 107 73 45 75 78 48 81 59 51 87 64 54 93 69 57 99 74 42 105 79 45 111 60 48 79 65 51 85 70 54 91 75 57 97 56 42 103 61 45 109 66 48 77 71 51 83 76 54 89 57 57 95 62 42 101 67 45 107 72 48 75 77 51 81 58 54 87 63 57 93 68 42 99 73 45 105 78 48 111 59 51 79 64 54 85 69 57 91 74 42 97 79 45 103 60 48 109 65 51 77 70 54 83 75 57 89 56 42 95 61 45
86 76 50 92 57 53 98 62 56 104 67 59 110 72 44 78 77 47 84 58 50 90 63 53 96 68 56 102 73 59 108 78 44 76 59 47 82 64 50 88 69 53 94 74 56 100 79 59 106 60 44 74 65 47 80 70 50 86 75 53 92 56 56 98 61 59 104 66 44 110 71 47 78 76 50 84 57 53 90 62 56 96 67 59 102 72 44 108 77 47 76 58 50 82 63 53 88 68 56 94 73 59 100 78 44 106 59 47 74 64 50 80 69 53 86 74 56 92 79 59 98 60 44 104 65 47 110 70 50 78 75 53 84 56 56 90 61 59 96 66 44 102 71 47 108 76 50 76 57 53 82 62 56 88 67 59 94 72 44 100 77 47 106 58 50 74 63 53 80 68 56 86 73 59 92 78 44 98 59 47 104 64 50 110 69 53 78 74 56 84 79 59 90 60 44 96 65 47 102 70 50 108 75 53 76 56 56 82 61 59 88 66 44 94 71 47 100 76 50 106 57 53 74 62 56 80 67 59 86 72 44 92 77 47 98 58 50 104 63 53 110 68 56 78 73 59 84 78 44 90 59 47 96 64 50 102 69 53 108 74 56 76 79 59 82 60 44 88 65 47 94 70 50 100 75 53 106 56 56 74 61 59 80 66 44 86 71 47 92 76 50 98 57 53 104 62 56 110 67 59 78 72 44 84 77 47 90 58 50 96 63 53 102 68 56 108 73 59 76 78 44 82 59 47 88 64 50 94 69 53 100 74 56 106 79 59 74 60 44 80 65 47 86 70 50 92 75 53 98 56 56 104 61 59 110 66 44 78 71 47 84 76 50 90 57 53 96 62 56 102 67 59 108 72 44 76 77 47 82 58 50 88 63 53 94 68 56 100 73 59 106 78 44 74 59 47 80 64 50 86 69 53 92 74 56 98 79 59 104 60 44 110 65 47 78 70 50 84 75 53 90 56 56 96 61 59 102 66 44 108 71 47 76 76 50 82 57 53 88 62 56 94 67 59 100 72 44 106 77 47 74 58 50 80 63 53 86 68 56 92 73 59 98 78 44 104 59 47 110 64 50 78 69 53 84 74 56 90 79 59 96 60 44 102 65 47 108 70 50 76 75 53 82 56 56 88 61 59 94 66 44 100 71 47 106 76 50 74 57 53 80 62 56 86 67 59 92 72 44 98 77 47 104 58 50 110 63 53 78 68 56 84 73 59 90 78 44 96 59 47 102 64 50 108 69 53 76 74 56 82 79 59 88 60 44 94 65 47 100 70 50 106 75 53 74 56 56 80 61 59 86 66 44 92 71 47 98 76 50 104 57 53 110 62 56 78 67 59 84 72 44 90 77 47 96 58 50 102 63 53 108 68 56 76 73 59 82 78 44 88 59 47 94 64 50 100 69 53 106 74 56 74 79 59 80 60 44 86 65 47 92 70 50 98 75 53 104 56 56 110 61 59 78 66 44 84 71 47 90 76 50 96 57 53 102 62 56 108 67 59 76 72 44 82 77 47 88 58 50 94 63 53 100 68 56 106 73 59 74 78 44 80 59 47 86 64 50 92 69 53 98 74 56 104 79 59 110 60 44 78 65 47 84 70 50 90 75 53 96 56 56 102 61 59 108 66 44 76 71 47 82 76 50 88 57 53 94 62 56 100 67 59 106 72 44 74 77 47 80 58 50 86 63 53 92 68 56 98 73 59 104 78 44 110 59 47 78 64 50 84 69 53 90 74 56 96 79 59 102 60 44 108 65 47 76 70 50 82 75 53 88 56 56 94 61 59 100 66 44 106 71 47 74 76 50 80 57 53 86 62 56 92 67 59 98 72 44 104 77 47 110 58 50 78 63 53 84 68 56 90 73 59 96 78 44 102 59 47 108 64 50 76 69 53 82 74 56 88 79 59 94 60 44 100 65 47 106 70 50 74 75 53 80 56 56 86 61 59 92 66 44 98 71 47 104 76 50 110 57 53 78 62 56 84 67 59 90 72 44 96 77 47 102 58 50 108 63 53 76 68 56 82 73 59 88 78 44 94 59 47 100 64 50 106 69 53 74 74 56 80 79 59 86 60 44 92 65 47 98 70 50 104 75 53 110 56 56 78 61 59 84 66 44 90 71 47 96 76 50 102 57 53 108 62 56 76 67 59 82 72 44 88 77 47 94 58 50 100 63 53
91 78 58 97 59 43 103 64 46 109 69 49 77 74 52 83 79 55 89 60 58 95 65 43 101 70 46 107 75 49 75 56 52 81 61 55 87 66 58 93 71 43 99 76 46 105 57 49 111 62 52 79 67 55 85 72 58 91 77 43 97 58 46 103 63 49 109 68 52 77 73 55 83 78 58 89 59 43 95 64 46 101 69 49 107 74 52 75 79 55 81 60 58 87 65 43 93 70 46 99 75 49 105 56 52 111 61 55 79 66 58 85 71 43 91 76 46 97 57 49 103 62 52 109 67 55 77 72 58 83 77 43 89 58 46 95 63 49 101 68 52 107 73 55 75 78 58 81 59 43 87 64 46 93 69 49 99 74 52 105 79 55 111 60 58 79 65 43 85 70 46 91 75 49 97 56 52 103 61 55 109 66 58 77 71 43 83 76 46 89 57 49 95 62 52 101 67 55 107 72 58 75 77 43 81 58 46 87 63 49 93 68 52 99 73 55 105 78 58 111 59 43 79 64 46 85 69 49 91 74 52 97 79 55 103 60 58 109 65 43 77 70 46 83 75 49 89 56 52 95 61 55 101 66 58 107 71 43 75 76 46 81 57 49 87 62 52 93 67 55 99 72 58 105 77 43 111 58 46 79 63 49 85 68 52 91 73 55 97 78 58 103 59 43 109 64 46 77 69 49 83 74 52 89 79 55 95 60 58 101 65 43 107 70 46 75 75 49 81 56 52 87 61 55 93 66 58 99 71 43 105 76 46 111 57 49 79 62 52 85 67 55 91 72 58 97 77 43 103 58 46 109 63 49 77 68 52 83 73 55 89 78 58 95 59 43 101 64 46 107 69 49 75 74 52 81 79 55 87 60 58 93 65 43 99 70 46 105 75 49 111 56 52 79 61 55 85 66 58 91 71 43 97 76 46 103 57 49 109 62 52 77 67 55 83 72 58 89 77 43 95 58 46 101 63 49 107 68 52 75 73 55 81 78 58 87 59 43 93 64 46 99 69 49 105 74 52 111 79 55 79 60 58 85 65 43 91 70 46 97 75 49 103 56 52 109 61 55 77 66 58 83 71 43 89 76 46 95 57 49 101 62 52 107 67 55 75 72 58 81 77 43 87 58 46 93 63 49 99 68 52 105 73 55 111 78 58 79 59 43 85 64 46 91 69 49 97 74 52 103 79 55 109 60 58 77 65 43 83 70 46 89 75 49 95 56 52 101 61 55 107 66 58 75 71 43 81 76 46 87 57 49 93 62 52 99 67 55 105 72 58 111 77 43 79 58 46 85 63 49 91 68 52 97 73 55 103 78 58 109 59 43 77 64 46 83 69 49 89 74 52 95 79 55 101 60 58 107 65 43 75 70 46 81 75 49 87 56 52 93 61 55 99 66 58 105 71 43 111 76 46 79 57 49 85 62 52 91 67 55 97 72 58 103 77 43 109 58 46 77 63 49 83 68 52 89 73 55 95 78 58 101 59 43 107 64 46 75 69 49 81 74 52 87 79 55 93 60 58 99 65 43 105 70 46 111 75 49 79 56 52 85 61 55 91 66 58 97 71 43 103 76 46 109 57 49 77 62 52 83 67 55 89 72 58 95 77 43 101 58 46 107 63 49 75 68 52 81 73 55 87 78 58 93 59 43 99 64 46 105 69 49 111 74 52 79 79 55 85 60 58 91 65 43 97 70 46 103 75 49 109 56 52 77 61 55 83 66 58 89 71 43 95 76 46 101 57 49 107 62 52 75 67 55 81 72 58 87 77 43 93 58 46 99 63 49 105 68 52 111 73 55 79 78 58 85 59 43 91 64 46 97 69 49 103 74 52 109 79 55 77 60 58 83 65 43 89 70 46 95 75 49 101 56 52 107 61 55 75 66 58 81 71 43 87 76 46 93 57 49 99 62 52 105 67 55 111 72 58 79 77 43 85 58 46 91 63 49 97 68 52 103 73 55 109 78 58 77 59 43 83 64 46 89 69 49 95 74 52 101 79 55 107 60 58 75 65 43 81 70 46 87 75 49 93 56 52 99 61 55 105 66 58 111 71 43 79 76 46 85 57 49 91 62 52 97 67 55 103 72 58 109 77 43 77 58 46 83 63 49 89 68 52 95 73 55 101 78 58 107 59 43 75 64 46 81 69 49 87 74 52 93 79 55 99 60 58 105 65 43
96 56 48 102 61 51 108 66 54 76 71 57 82 76 42 88 57 45 94 62 48 100 67 51 106 72 54 74 77 57 80 58 42 86 63 45 92 68 48 98 73 51 104 78 54 110 59 57 78 64 42 84 69 45 90 74 48 96 79 51 102 60 54 108 65 57 76 70 42 82 75 45 88 56 48 94 61 51 100 66 54 106 71 57 74 76 42 80 57 45 86 62 48 92 67 51 98 72 54 104 77 57 110 58 42 78 63 45 84 68 48 90 73 51 96 78 54 102 59 57 108 64 42 76 69 45 82 74 48 88 79 51 94 60 54 100 65 57 106 70 42 74 75 45 80 56 48 86 61 51 92 66 54 98 71 57 104 76 42 110 57 45 78 62 48 84 67 51 90 72 54 96 77 57 102 58 42 108 63 45 76 68 48 82 73 51 88 78 54 94 59 57 100 64 42 106 69 45 74 74 48 80 79 51 86 60 54 92 65 57 98 70 42 104 75 45 110 56 48 78 61 51 84 66 54 90 71 57 96 76 42 102 57 45 108 62 48 76 67 51 82 72 54 88 77 57 94 58 42 100 63 45 106 68 48 74 73 51 80 78 54 86 59 57 92 64 42 98 69 45 104 74 48 110 79 51 78 60 54 84 65 57 90 70 42 96 75 45 102 56 48 108 61 51 76 66 54 82 71 57 88 76 42 94 57 45 100 62 48 106 67 51 74 72 54 80 77 57 86 58 42 92 63 45 98 68 48 104 73 51 110 78 54 78 59 57 84 64 42 90 69 45 96 74 48 102 79 51 108 60 54 76 65 57 82 70 42 88 75 45 94 56 48 100 61 51 106 66 54 74 71 57 80 76 42 86 57 45 92 62 48 98 67 51 104 72 54 110 77 57 78 58 42 84 63 45 90 68 48 96 73 51 102 78 54 108 59 57 76 64 42 82 69 45 88 74 48 94 79 51 100 60 54 106 65 57 74 70 42 80 75 45 86 56 48 92 61 51 98 66 54 104 71 57 110 76 42 78 57 45 84 62 48 90 67 51 96 72 54 102 77 57 108 58 42 76 63 45 82 68 48 88 73 51 94 78 54 100 59 57 106 64 42 74 69 45 80 74 48 86 79 51 92 60 54 98 65 57 104 70 42 110 75 45 78 56 48 84 61 51 90 66 54 96 71 57 102 76 42 108 57 45 76 62 48 82 67 51 88 72 54 94 77 57 100 58 42 106 63 45 74 68 48 80 73 51 86 78 54 92 59 57 98 64 42 104 69 45 110 74 48 78 79 51 84 60 54 90 65 57 96 70 42 102 75 45 108 56 48 76 61 51 82 66 54 88 71 57 94 76 42 100 57 45 106 62 48 74 67 51 80 72 54 86 77 57 92 58 42 98 63 45 104 68 48 110 73 51 78 78 54 84 59 57 90 64 42 96 69 45 102 74 48 108 79 51 76 60 54 82 65 57 88 70 42 94 75 45 100 56 48 106 61 51 74 66 54 80 71 57 86 76 42 92 57 45 98 62 48 104 67 51 110 72 54 78 77 57 84 58 42 90 63 45 96 68 48 102 73 51 108 78 54 76 59 57 82 64 42 88 69 45 94 74 48 100 79 51 106 60 54 74 65 57 80 70 42 86 75 45 92 56 48 98 61 51 104 66 54 110 71 57 78 76 42 84 57 45 90 62 48 96 67 51 102 72 54 108 77 57 76 58 42 82 63 45 88 68 48 94 73 51 100 78 54 106 59 57 74 64 42 80 69 45 86 74 48 92 79 51 98 60 54 104 65 57 110 70 42 78 75 45 84 56 48 90 61 51 96 66 54 102 71 57 108 76 42 76 57 45 82 62 48 88 67 51 94 72 54 100 77 57 106 58 42 74 63 45 80 68 48 86 73 51 92 78 54 98 59 57 104 64 42 110 69 45 78 74 48 84 79 51 90 60 54 96 65 57 102 70 42 108 75 45 76 56 48 82 61 51 88 66 54 94 71 57 100 76 42 106 57 45 74 62 48 80 67 51 86 72 54 92 77 57 98 58 42 104 63 45 110 68 48 78 73 51 84 78 54 90 59 57 96 64 42 102 69 45 108 74 48 76 79 51 82 60 54 88 65 57 94 70 42 100 75 45 106 56 48 74 61 51 80 66 54 86 71 57 92 76 42 98 57 45 104 62 48 110 67 51
101 58 56 107 63 59 75 68 44 81 73 47 87 78 50 93 59 53 99 64 56 105 69 59 111 74 44 79 79 47 85 60 50 91 65 53 97 70 56 103 75 59 109 56 44 77 61 47 83 66 50 89 71 53 95 76 56 101 57 59 107 62 44 75 67 47 81 72 50 87 77 53 93 58 56 99 63 59 105 68 44 111 73 47 79 78 50 85 59 53 91 64 56 97 69 59 103 74 44 109 79 47 77 60 50 83 65 53 89 70 56 95 75 59 101 56 44 107 61 47 75 66 50 81 71 53 87 76 56 93 57 59 99 62 44 105 67 47 111 72 50 79 77 53 85 58 56 91 63 59 97 68 44 103 73 47 109 78 50 77 59 53 83 64 56 89 69 59 95 74 44 101 79 47 107 60 50 75 65 53 81 70 56 87 75 59 93 56 44 99 61 47 105 66 50 111 71 53 79 76 56 85 57 59 91 62 44 97 67 47 103 72 50 109 77 53 77 58 56 83 63 59 89 68 44 95 73 47 101 78 50 107 59 53 75 64 56 81 69 59 87 74 44 93 79 47 99 60 50 105 65 53 111 70 56 79 75 59 85 56 44 91 61 47 97 66 50 103 71 53 109 76 56 77 57 59 83 62 44 89 67 47 95 72 50 101 77 53 107 58 56 75 63 59 81 68 44 87 73 47 93 78 50 99 59 53 105 64 56 111 69 59 79 74 44 85 79 47 91 60 50 97 65 53 103 70 56 109 75 59 77 56 44 83 61 47 89 66 50 95 71 53 101 76 56 107 57 59 75 62 44 81 67 47 87 72 50 93 77 53 99 58 56 105 63 59 111 68 44 79 73 47 85 78 50 91 59 53 97 64 56 103 69 59 109 74 44 77 79 47 83 60 50 89 65 53 95 70 56 101 75 59 107 56 44 75 61 47 81 66 50 87 71 53 93 76 56 99 57 59 105 62 44 111 67 47 79 72 50 85 77 53 91 58 56 97 63 59 103 68 44 109 73 47 77 78 50 83 59 53 89 64 56 95 69 59 101 74 44 107 79 47 75 60 50 81 65 53 87 70 56 93 75 59 99 56 44 105 61 47 111 66 50 79 71 53 85 76 56 91 57 59 97 62 44 103 67 47 109 72 50 77 77 53 83 58 56 89 63 59 95 68 44 101 73 47 107 78 50 75 59 53 81 64 56 87 69 59 93 74 44 99 79 47 105 60 50 111 65 53 79 70 56 85 75 59 91 56 44 97 61 47 103 66 50 109 71 53 77 76 56 83 57 59 89 62 44 95 67 47 101 72 50 107 77 53 75 58 56 81 63 59 87 68 44 93 73 47 99 78 50 105 59 53 111 64 56 79 69 59 85 74 44 91 79 47 97 60 50 103 65 53 109 70 56 77 75 59 83 56 44 89 61 47 95 66 50 101 71 53 107 76 56 75 57 59 81 62 44 87 67 47 93 72 50 99 77 53 105 58 56 111 63 59 79 68 44 85 73 47 91 78 50 97 59 53 103 64 56 109 69 59 77 74 44 83 79 47 89 60 50 95 65 53 101 70 56 107 75 59 75 56 44 81 61 47 87 66 50 93 71 53 99 76 56 105 57 59 111 62 44 79 67 47 85 72 50 91 77 53 97 58 56 103 63 59 109 68 44 77 73 47 83 78 50 89 59 53 95 64 56 101 69 59 107 74 44 75 79 47 81 60 50 87 65 53 93 70 56 99 75 59 105 56 44 111 61 47 79 66 50 85 71 53 91 76 56 97 57 59 103 62 44 109 67 47 77 72 50 83 77 53 89 58 56 95 63 59 101 68 44 107 73 47 75 78 50 81 59 53 87 64 56 93 69 59 99 74 44 105 79 47 111 60 50 79 65 53 85 70 56 91 75 59 97 56 44 103 61 47 109 66 50 77 71 53 83 76 56 89 57 59 95 62 44 101 67 47 107 72 50 75 77 53 81 58 56 87 63 59 93 68 44 99 73 47 105 78 50 111 59 53 79 64 56 85 69 59 91 74 44 97 79 47 103 60 50 109 65 53 77 70 56 83 75 59 89 56 44 95 61 47 101 66 50 107 71 53 75 76 56 81 57 59 87 62 44 93 67 47 99 72 50 105 77 53 111 58 56 79 63 59 85 68 44 91 73 47 97 78 50 103 59 53 109 64 56 77 69 59
106 60 46 74 65 49 80 70 52 86 75 55 92 56 58 98 61 43 104 66 46 110 71 49 78 76 52 84 57 55 90 62 58 96 67 43 102 72 46 108 77 49 76 58 52 82 63 55 88 68 58 94 73 43 100 78 46 106 59 49 74 64 52 80 69 55 86 74 58 92 79 43 98 60 46 104 65 49 110 70 52 78 75 55 84 56 58 90 61 43 96 66 46 102 71 49 108 76 52 76 57 55 82 62 58 88 67 43 94 72 46 100 77 49 106 58 52 74 63 55 80 68 58 86 73 43 92 78 46 98 59 49 104 64 52 110 69 55 78 74 58 84 79 43 90 60 46 96 65 49 102 70 52 108 75 55 76 56 58 82 61 43 88 66 46 94 71 49 100 76 52 106 57 55 74 62 58 80 67 43 86 72 46 92 77 49 98 58 52 104 63 55 110 68 58 78 73 43 84 78 46 90 59 49 96 64 52 102 69 55 108 74 58 76 79 43 82 60 46 88 65 49 94 70 52 100 75 55 106 56 58 74 61 43 80 66 46 86 71 49 92 76 52 98 57 55 104 62 58 110 67 43 78 72 46 84 77 49 90 58 52 96 63 55 102 68 58 108 73 43 76 78 46 82 59 49 88 64 52 94 69 55 100 74 58 106 79 43 74 60 46 80 65 49 86 70 52 92 75 55 98 56 58 104 61 43 110 66 46 78 71 49 84 76 52 90 57 55 96 62 58 102 67 43 108 72 46 76 77 49 82 58 52 88 63 55 94 68 58 100 73 43 106 78 46 74 59 49 80 64 52 86 69 55 92 74 58 98 79 43 104 60 46 110 65 49 78 70 52 84 75 55 90 56 58 96 61 43 102 66 46 108 71 49 76 76 52 82 57 55 88 62 58 94 67 43 100 72 46 106 77 49 74 58 52 80 63 55 86 68 58 92 73 43 98 78 46 104 59 49 110 64 52 78 69 55 84 74 58 90 79 43 96 60 46 102 65 49 108 70 52 76 75 55 82 56 58 88 61 43 94 66 46 100 71 49 106 76 52 74 57 55 80 62 58 86 67 43 92 72 46 98 77 49 104 58 52 110 63 55 78 68 58 84 73 43 90 78 46 96 59 49 102 64 52 108 69 55 76 74 58 82 79 43 88 60 46 94 65 49 100 70 52 106 75 55 74 56 58 80 61 43 86 66 46 92 71 49 98 76 52 104 57 55 110 62 58 78 67 43 84 72 46 90 77 49 96 58 52 102 63 55 108 68 58 76 73 43 82 78 46 88 59 49 94 64 52 100 69 55 106 74 58 74 79 43 80 60 46 86 65 49 92 70 52 98 75 55 104 56 58 110 61 43 78 66 46 84 71 49 90 76 52 96 57 55 102 62 58 108 67 43 76 72 46 82 77 49 88 58 52 94 63 55 100 68 58 106 73 43 74 78 46 80 59 49 86 64 52 92 69 55 98 74 58 104 79 43 110 60 46 78 65 49 84 70 52 90 75 55 96 56 58 102 61 43 108 66 46 76 71 49 82 76 52 88 57 55 94 62 58 100 67 43 106 72 46 74 77 49 80 58 52 86 63 55 92 68 58 98 73 43 104 78 46 110 59 49 78 64 52 84 69 55 90 74 58 96 79 43 102 60 46 108 65 49 76 70 52 82 75 55 88 56 58 94 61 43 100 66 46 106 71 49 74 76 52 80 57 55 86 62 58 92 67 43 98 72 46 104 77 49 110 58 52 78 63 55 84 68 58 90 73 43 96 78 46 102 59 49 108 64 52 76 69 55 82 74 58 88 79 43 94 60 46 100 65 49 106 70 52 74 75 55 80 56 58 86 61 43 92 66 46 98 71 49 104 76 52 110 57 55 78 62 58 84 67 43 90 72 46 96 77 49 102 58 52 108 63 55 76 68 58 82 73 43 88 78 46 94 59 49 100 64 52 106 69 55 74 74 58 80 79 43 86 60 46 92 65 49 98 70 52 104 75 55 110 56 58 78 61 43 84 66 46 90 71 49 96 76 52 102 57 55 108 62 58 76 67 43 82 72 46 88 77 49 94 58 52 100 63 55 106 68 58 74 73 43 80 78 46 86 59 49 92 64 52 98 69 55 104 74 58 110 79 43 78 60 46 84 65 49 90 70 52 96 75 55 102 56 58 108 61 43 76 66 46 82 71 49
111 62 54 79 67 57 85 72 42 91 77 45 97 58 48 103 63 51 109 68 54 77 73 57 83 78 42 89 59 45 95 64 48 101 69 51 107 74 54 75 79 57 81 60 42 87 65 45 93 70 48 99 75 51 105 56 54 111 61 57 79 66 42 85 71 45 91 76 48 97 57 51 103 62 54 109 67 57 77 72 42 83 77 45 89 58 48 95 63 51 101 68 54 107 73 57 75 78 42 81 59 45 87 64 48 93 69 51 99 74 54 105 79 57 111 60 42 79 65 45 85 70 48 91 75 51 97 56 54 103 61 57 109 66 42 77 71 45 83 76 48 89 57 51 95 62 54 101 67 57 107 72 42 75 77 45 81 58 48 87 63 51 93 68 54 99 73 57 105 78 42 111 59 45 79 64 48 85 69 51 91 74 54 97 79 57 103 60 42 109 65 45 77 70 48 83 75 51 89 56 54 95 61 57 101 66 42 107 71 45 75 76 48 81 57 51 87 62 54 93 67 57 99 72 42 105 77 45 111 58 48 79 63 51 85 68 54 91 73 57 97 78 42 103 59 45 109 64 48 77 69 51 83 74 54 89 79 57 95 60 42 101 65 45 107 70 48 75 75 51 81 56 54 87 61 57 93 66 42 99 71 45 105 76 48 111 57 51 79 62 54 85 67 57 91 72 42 97 77 45 103 58 48 109 63 51 77 68 54 83 73 57 89 78 42 95 59 45 101 64 48 107 69 51 75 74 54 81 79 57 87 60 42 93 65 45 99 70 48 105 75 51 111 56 54 79 61 57 85 66 42 91 71 45 97 76 48 103 57 51 109 62 54 77 67 57 83 72 42 89 77 45 95 58 48 101 63 51 107 68 54 75 73 57 81 78 42 87 59 45 93 64 48 99 69 51 105 74 54 111 79 57 79 60 42 85 65 45 91 70 48 97 75 51 103 56 54 109 61 57 77 66 42 83 71 45 89 76 48 95 57 51 101 62 54 107 67 57 75 72 42 81 77 45 87 58 48 93 63 51 99 68 54 105 73 57 111 78 42 79 59 45 85 64 48 91 69 51 97 74 54 103 79 57 109 60 42 77 65 45 83 70 48 89 75 51 95 56 54 101 61 57 107 66 42 75 71 45 81 76 48 87 57 51 93 62 54 99 67 57 105 72 42 111 77 45 79 58 48 85 63 51 91 68 54 97 73 57 103 78 42 109 59 45 77 64 48 83 69 51 89 74 54 95 79 57 101 60 42 107 65 45 75 70 48 81 75 51 87 56 54 93 61 57 99 66 42 105 71 45 111 76 48 79 57 51 85 62 54 91 67 57 97 72 42 103 77 45 109 58 48 77 63 51 83 68 54 89 73 57 95 78 42 101 59 45 107 64 48 75 69 51 81 74 54 87 79 57 93 60 42 99 65 45 105 70 48 111 75 51 79 56 54 85 61 57 91 66 42 97 71 45 103 76 48 109 57 51 77 62 54 83 67 57 89 72 42 95 77 45 101 58 48 107 63 51 75 68 54 81 73 57 87 78 42 93 59 45 99 64 48 105 69 51 111 74 54 79 79 57 85 60 42 91 65 45 97 70 48 103 75 51 109 56 54 77 61 57 83 66 42 89 71 45 95 76 48 101 57 51 107 62 54 75 67 57 81 72 42 87 77 45 93 58 48 99 63 51 105 68 54 111 73 57 79 78 42 85 59 45 91 64 48 97 69 51 103 74 54 109 79 57 77 60 42 83 65 45 89 70 48 95 75 51 101 56 54 107 61 57 75 66 42 81 71 45 87 76 48 93 57 51 99 62 54 105 67 57 111 72 42 79 77 45 85 58 48 91 63 51 97 68 54 103 73 57 109 78 42 77 59 45 83 64 48 89 69 51 95 74 54 101 79 57 107 60 42 75 65 45 81 70 48 87 75 51 93 56 54 99 61 57 105 66 42 111 71 45 79 76 48 85 57 51 91 62 54 97 67 57 103 72 42 109 77 45 77 58 48 83 63 51 89 68 54 95 73 57 101 78 42 107 59 45 75 64 48 81 69 51 87 74 54 93 79 57 99 60 42 105 65 45 111 70 48 79 75 51 85 56 54 91 61 57 97 66 42 103 71 45 109 76 48 77 57 51 83 62 54 89 67 57 95 72 42 101 77 45 107 58 48 75 63 51 81 68 54 87 73 57
78 64 44 84 69 47 90 74 50 96 79 53 102 60 56 108 65 59 76 70 44 82 75 47 88 56 50 94 61 53 100 66 56 106 71 59 74 76 44 80 57 47 86 62 50 92 67 53 98 72 56 104 77 59 110 58 44 78 63 47 84 68 50 90 73 53 96 78 56 102 59 59 108 64 44 76 69 47 82 74 50 88 79 53 94 60 56 100 65 59 106 70 44 74 75 47 80 56 50 86 61 53 92 66 56 98 71 59 104 76 44 110 57 47 78 62 50 84 67 53 90 72 56 96 77 59 102 58 44 108 63 47 76 68 50 82 73 53 88 78 56 94 59 59 100 64 44 106 69 47 74 74 50 80 79 53 86 60 56 92 65 59 98 70 44 104 75 47 110 56 50 78 61 53 84 66 56 90 71 59 96 76 44 102 57 47 108 62 50 76 67 53 82 72 56 88 77 59 94 58 44 100 63 47 106 68 50 74 73 53 80 78 56 86 59 59 92 64 44 98 69 47 104 74 50 110 79 53 78 60 56 84 65 59 90 70 44 96 75 47 102 56 50 108 61 53 76 66 56 82 71 59 88 76 44 94 57 47 100 62 50 106 67 53 74 72 56 80 77 59 86 58 44 92 63 47 98 68 50 104 73 53 110 78 56 78 59 59 84 64 44 90 69 47 96 74 50 102 79 53 108 60 56 76 65 59 82 70 44 88 75 47 94 56 50 100 61 53 106 66 56 74 71 59 80 76 44 86 57 47 92 62 50 98 67 53 104 72 56 110 77 59 78 58 44 84 63 47 90 68 50 96 73 53 102 78 56 108 59 59 76 64 44 82 69 47 88 74 50 94 79 53 100 60 56 106 65 59 74 70 44 80 75 47 86 56 50 92 61 53 98 66 56 104 71 59 110 76 44 78 57 47 84 62 50 90 67 53 96 72 56 102 77 59 108 58 44 76 63 47 82 68 50 88 73 53 94 78 56 100 59 59 106 64 44 74 69 47 80 74 50 86 79 53 92 60 56 98 65 59 104 70 44 110 75 47 78 56 50 84 61 53 90 66 56 96 71 59 102 76 44 108 57 47 76 62 50 82 67 53 88 72 56 94 77 59 100 58 44 106 63 47 74 68 50 80 73 53 86 78 56 92 59 59 98 64 44 104 69 47 110 74 50 78 79 53 84 60 56 90 65 59 96 70 44 102 75 47 108 56 50 76 61 53 82 66 56 88 71 59 94 76 44 100 57 47 106 62 50 74 67 53 80 72 56 86 77 59 92 58 44 98 63 47 104 68 50 110 73 53 78 78 56 84 59 59 90 64 44 96 69 47 102 74 50 108 79 53 76 60 56 82 65 59 88 70 44 94 75 47 100 56 50 106 61 53 74 66 56 80 71 59 86 76 44 92 57 47 98 62 50 104 67 53 110 72 56 78 77 59 84 58 44 90 63 47 96 68 50 102 73 53 108 78 56 76 59 59 82 64 44 88 69 47 94 74 50 100 79 53 106 60 56 74 65 59 80 70 44 86 75 47 92 56 50 98 61 53 104 66 56 110 71 59 78 76 44 84 57 47 90 62 50 96 67 53 102 72 56 108 77 59 76 58 44 82 63 47 88 68 50 94 73 53 100 78 56 106 59 59 74 64 44 80 69 47 86 74 50 92 79 53 98 60 56 104 65 59 110 70 44 78 75 47 84 56 50 90 61 53 96 66 56 102 71 59 108 76 44 76 57 47 82 62 50 88 67 53 94 72 56 100 77 59 106 58 44 74 63 47 80 68 50 86 73 53 92 78 56 98 59 59 104 64 44 110 69 47 78 74 50 84 79 53 90 60 56 96 65 59 102 70 44 108 75 47 76 56 50 82 61 53 88 66 56 94 71 59 100 76 44 106 57 47 74 62 50 80 67 53 86 72 56 92 77 59 98 58 44 104 63 47 110 68 50 78 73 53 84 78 56 90 59 59 96 64 44 102 69 47 108 74 50 76 79 53 82 60 56 88 65 59 94 70 44 100 75 47 106 56 50 74 61 53 80 66 56 86 71 59 92 76 44 98 57 47 104 62 50 110 67 53 78 72 56 84 77 59 90 58 44 96 63 47 102 68 50 108 73 53 76 78 56 82 59 59 88 64 44 94 69 47 100 74 50 106 79 53 74 60 56 80 65 59 86 70 44 92 75 47
83 66 52 89 71 55 95 76 58 101 57 43 107 62 46 75 67 49 81 72 52 87 77 55 93 58 58 99 63 43 105 68 46 111 73 49 79 78 52 85 59 55 91 64 58 97 69 43 103 74 46 109 79 49 77 60 52 83 65 55 89 70 58 95 75 43 101 56 46 107 61 49 75 66 52 81 71 55 87 76 58 93 57 43 99 62 46 105 67 49 111 72 52 79 77 55 85 58 58 91 63 43 97 68 46 103 73 49 109 78 52 77 59 55 83 64 58 89 69 43 95 74 46 101 79 49 107 60 52 75 65 55 81 70 58 87 75 43 93 56 46 99 61 49 105 66 52 111 71 55 79 76 58 85 57 43 91 62 46 97 67 49 103 72 52 109 77 55 77 58 58 83 63 43 89 68 46 95 73 49 101 78 52 107 59 55 75 64 58 81 69 43 87 74 46 93 79 49 99 60 52 105 65 55 111 70 58 79 75 43 85 56 46 91 61 49 97 66 52 103 71 55 109 76 58 77 57 43 83 62 46 89 67 49 95 72 52 101 77 55 107 58 58 75 63 43 81 68 46 87 73 49 93 78 52 99 59 55 105 64 58 111 69 43 79 74 46 85 79 49 91 60 52 97 65 55 103 70 58 109 75 43 77 56 46 83 61 49 89 66 52 95 71 55 101 76 58 107 57 43 75 62 46 81 67 49 87 72 52 93 77 55 99 58 58 105 63 43 111 68 46 79 73 49 85 78 52 91 59 55 97 64 58 103 69 43 109 74 46 77 79 49 83 60 52 89 65 55 95 70 58 101 75 43 107 56 46 75 61 49 81 66 52 87 71 55 93 76 58 99 57 43 105 62 46 111 67 49 79 72 52 85 77 55 91 58 58 97 63 43 103 68 46 109 73 49 77 78 52 83 59 55 89 64 58 95 69 43 101 74 46 107 79 49 75 60 52 81 65 55 87 70 58 93 75 43 99 56 46 105 61 49 111 66 52 79 71 55 85 76 58 91 57 43 97 62 46 103 67 49 109 72 52 77 77 55 83 58 58 89 63 43 95 68 46 101 73 49 107 78 52 75 59 55 81 64 58 87 69 43 93 74 46 99 79 49 105 60 52 111 65 55 79 70 58 85 75 43 91 56 46 97 61 49 103 66 52 109 71 55 77 76 58 83 57 43 89 62 46 95 67 49 101 72 52 107 77 55 75 58 58 81 63 43 87 68 46 93 73 49 99 78 52 105 59 55 111 64 58 79 69 43 85 74 46 91 79 49 97 60 52 103 65 55 109 70 58 77 75 43 83 56 46 89 61 49 95 66 52 101 71 55 107 76 58 75 57 43 81 62 46 87 67 49 93 72 52 99 77 55 105 58 58 111 63 43 79 68 46 85 73 49 91 78 52 97 59 55 103 64 58 109 69 43 77 74 46 83 79 49 89 60 52 95 65 55 101 70 58 107 75 43 75 56 46 81 61 49 87 66 52 93 71 55 99 76 58 105 57 43 111 62 46 79 67 49 85 72 52 91 77 55 97 58 58 103 63 43 109 68 46 77 73 49 83 78 52 89 59 55 95 64 58 101 69 43 107 74 46 75 79 49 81 60 52 87 65 55 93 70 58 99 75 43 105 56 46 111 61 49 79 66 52 85 71 55 91 76 58 97 57 43 103 62 46 109 67 49 77 72 52 83 77 55 89 58 58 95 63 43 101 68 46 107 73 49 75 78 52 81 59 55 87 64 58 93 69 43 99 74 46 105 79 49 111 60 52 79 65 55 85 70 58 91 75 43 97 56 46 103 61 49 109 66 52 77 71 55 83 76 58 89 57 43 95 62 46 101 67 49 107 72 52 75 77 55 81 58 58 87 63 43 93 68 46 99 73 49 105 78 52 111 59 55 79 64 58 85 69 43 91 74 46 97 79 49 103 60 52 109 65 55 77 70 58 83 75 43 89 56 46 95 61 49 101 66 52 107 71 55 75 76 58 81 57 43 87 62 46 93 67 49 99 72 52 105 77 55 111 58 58 79 63 43 85 68 46 91 73 49 97 78 52 103 59 55 109 64 58 77 69 43 83 74 46 89 79 49 95 60 52 101 65 55 107 70 58 75 75 43 81 56 46 87 61 49 93 66 52 99 71 55 105 76 58 111 57 43 79 62 46 85 67 49 91 72 52 97 77 55
88 68 42 94 73 45 100 78 48 106 59 51 74 64 54 80 69 57 86 74 42 92 79 45 98 60 48 104 65 51 110 70 54 78 75 57 84 56 42 90 61 45 96 66 48 102 71 51 108 76 54 76 57 57 82 62 42 88 67 45 94 72 48 100 77 51 106 58 54 74 63 57 80 68 42 86 73 45 92 78 48 98 59 51 104 64 54 110 69 57 78 74 42 84 79 45 90 60 48 96 65 51 102 70 54 108 75 57 76 56 42 82 61 45 88 66 48 94 71 51 100 76 54 106 57 57 74 62 42 80 67 45 86 72 48 92 77 51 98 58 54 104 63 57 110 68 42 78 73 45 84 78 48 90 59 51 96 64 54 102 69 57 108 74 42 76 79 45 82 60 48 88 65 51 94 70 54 100 75 57 106 56 42 74 61 45 80 66 48 86 71 51 92 76 54 98 57 57 104 62 42 110 67 45 78 72 48 84 77 51 90 58 54 96 63 57 102 68 42 108 73 45 76 78 48 82 59 51 88 64 54 94 69 57 100 74 42 106 79 45 74 60 48 80 65 51 86 70 54 92 75 57 98 56 42 104 61 45 110 66 48 78 71 51 84 76 54 90 57 57 96 62 42 102 67 45 108 72 48 76 77 51 82 58 54 88 63 57 94 68 42 100 73 45 106 78 48 74 59 51 80 64 54 86 69 57 92 74 42 98 79 45 104 60 48 110 65 51 78 70 54 84 75 57 90 56 42 96 61 45 102 66 48 108 71 51 76 76 54 82 57 57 88 62 42 94 67 45 100 72 48 106 77 51 74 58 54 80 63 57 86 68 42 92 73 45 98 78 48 104 59 51 110 64 54 78 69 57 84 74 42 90 79 45 96 60 48 102 65 51 108 70 54 76 75 57 82 56 42 88 61 45 94 66 48 100 71 51 106 76 54 74 57 57 80 62 42 86 67 45 92 72 48 98 77 51 104 58 54 110 63 57 78 68 42 84 73 45 90 78 48 96 59 51 102 64 54 108 69 57 76 74 42 82 79 45 88 60 48 94 65 51 100 70 54 106 75 57 74 56 42 80 61 45 86 66 48 92 71 51 98 76 54 104 57 57 110 62 42 78 67 45 84 72 48 90 77 51 96 58 54 102 63 57 108 68 42 76 73 45 82 78 48 88 59 51 94 64 54 100 69 57 106 74 42 74 79 45 80 60 48 86 65 51 92 70 54 98 75 57 104 56 42 110 61 45 78 66 48 84 71 51 90 76 54 96 57 57 102 62 42 108 67 45 76 72 48 82 77 51 88 58 54 94 63 57 100 68 42 106 73 45 74 78 48 80 59 51 86 64 54 92 69 57 98 74 42 104 79 45 110 60 48 78 65 51 84 70 54 90 75 57 96 56 42 102 61 45 108 66 48 76 71 51 82 76 54 88 57 57 94 62 42 100 67 45 106 72 48 74 77 51 80 58 54 86 63 57 92 68 42 98 73 45 104 78 48 110 59 51 78 64 54 84 69 57 90 74 42 96 79 45 102 60 48 108 65 51 76 70 54 82 75 57 88 56 42 94 61 45 100 66 48 106 71 51 74 76 54 80 57 57 86 62 42 92 67 45 98 72 48 104 77 51 110 58 54 78 63 57 84 68 42 90 73 45 96 78 48 102 59 51 108 64 54 76 69 57 82 74 42 88 79 45 94 60 48 100 65 51 106 70 54 74 75 57 80 56 42 86 61 45 92 66 48 98 71 51 104 76 54 110 57 57 78 62 42 84 67 45 90 72 48 96 77 51 102 58 54 108 63 57 76 68 42 82 73 45 88 78 48 94 59 51 100 64 54 106 69 57 74 74 42 80 79 45 86 60 48 92 65 51 98 70 54 104 75 57 110 56 42 78 61 45 84 66 48 90 71 51 96 76 54 102 57 57 108 62 42 76 67 45 82 72 48 88 77 51 94 58 54 100 63 57 106 68 42 74 73 45 80 78 48 86 59 51 92 64 54 98 69 57 104 74 42 110 79 45 78 60 48 84 65 51 90 70 54 96 75 57 102 56 42 108 61 45 76 66 48 82 71 51 88 76 54 94 57 57 100 62 42 106 67 45 74 72 48 80 77 51 86 58 54 92 63 57 98 68 42 104 73 45 110 78 48 78 59 51 84 64 54 90 69 57 96 74 42 102 79 45
93 70 50 99 75 53 105 56 56 111 61 59 79 66 44 85 71 47 91 76 50 97 57 53 103 62 56 109 67 59 77 72 44 83 77 47 89 58 50 95 63 53 101 68 56 107 73 59 75 78 44 81 59 47 87 64 50 93 69 53 99 74 56 105 79 59 111 60 44 79 65 47 85 70 50 91 75 53 97 56 56 103 61 59 109 66 44 77 71 47 83 76 50 89 57 53 95 62 56 101 67 59 107 72 44 75 77 47 81 58 50 87 63 53 93 68 56 99 73 59 105 78 44 111 59 47 79 64 50 85 69 53 91 74 56 97 79 59 103 60 44 109 65 47 77 70 50 83 75 53 89 56 56 95 61 59 101 66 44 107 71 47 75 76 50 81 57 53 87 62 56 93 67 59 99 72 44 105 77 47 111 58 50 79 63 53 85 68 56 91 73 59 97 78 44 103 59 47 109 64 50 77 69 53 83 74 56 89 79 59 95 60 44 101 65 47 107 70 50 75 75 53 81 56 56 87 61 59 93 66 44 99 71 47 105 76 50 111 57 53 79 62 56 85 67 59 91 72 44 97 77 47 103 58 50 109 63 53 77 68 56 83 73 59 89 78 44 95 59 47 101 64 50 107 69 53 75 74 56 81 79 59 87 60 44 93 65 47 99 70 50 105 75 53 111 56 56 79 61 59 85 66 44 91 71 47 97 76 50 103 57 53 109 62 56 77 67 59 83 72 44 89 77 47 95 58 50 101 63 53 107 68 56 75 73 59 81 78 44 87 59 47 93 64 50 99 69 53 105 74 56 111 79 59 79 60 44 85 65 47 91 70 50 97 75 53 103 56 56 109 61 59 77 66 44 83 71 47 89 76 50 95 57 53 101 62 56 107 67 59 75 72 44 81 77 47 87 58 50 93 63 53 99 68 56 105 73 59 111 78 44 79 59 47 85 64 50 91 69 53 97 74 56 103 79 59 109 60 44 77 65 47 83 70 50 89 75 53 95 56 56 101 61 59 107 66 44 75 71 47 81 76 50 87 57 53 93 62 56 99 67 59 105 72 44 111 77 47 79 58 50 85 63 53 91 68 56 97 73 59 103 78 44 109 59 47 77 64 50 83 69 53 89 74 56 95 79 59 101 60 44 107 65 47 75 70 50 81 75 53 87 56 56 93 61 59 99 66 44 105 71 47 111 76 50 79 57 53 85 62 56 91 67 59 97 72 44 103 77 47 109 58 50 77 63 53 83 68 56 89 73 59 95 78 44 101 59 47 107 64 50 75 69 53 81 74 56 87 79 59 93 60 44 99 65 47 105 70 50 111 75 53 79 56 56 85 61 59 91 66 44 97 71 47 103 76 50 109 57 53 77 62 56 83 67 59 89 72 44 95 77 47 101 58 50 107 63 53 75 68 56 81 73 59 87 78 44 93 59 47 99 64 50 105 69 53 111 74 56 79 79 59 85 60 44 91 65 47 97 70 50 103 75 53 109 56 56 77 61 59 83 66 44 89 71 47 95 76 50 101 57 53 107 62 56 75 67 59 81 72 44 87 77 47 93 58 50 99 63 53 105 68 56 111 73 59 79 78 44 85 59 47 91 64 50 97 69 53 103 74 56 109 79 59 77 60 44 83 65 47 89 70 50 95 75 53 101 56 56 107 61 59 75 66 44 81 71 47 87 76 50 93 57 53 99 62 56 105 67 59 111 72 44 79 77 47 85 58 50 91 63 53 97 68 56 103 73 59 109 78 44 77 59 47 83 64 50 89 69 53 95 74 56 101 79 59 107 60 44 75 65 47 81 70 50 87 75 53 93 56 56 99 61 59 105 66 44 111 71 47 79 76 50 85 57 53 91 62 56 97 67 59 103 72 44 109 77 47 77 58 50 83 63 53 89 68 56 95 73 59 101 78 44 107 59 47 75 64 50 81 69 53 87 74 56 93 79 59 99 60 44 105 65 47 111 70 50 79 75 53 85 56 56 91 61 59 97 66 44 103 71 47 109 76 50 77 57 53 83 62 56 89 67 59 95 72 44 101 77 47 107 58 50 75 63 53 81 68 56 87 73 59 93 78 44 99 59 47 105 64 50 111 69 53 79 74 56 85 79 59 91 60 44 97 65 47 103 70 50 109 75 53 77 56 56 83 61 59 89 66 44 95 71 47 101 76 50 107 57 53
98 72 58 104 77 43 110 58 46 78 63 49 84 68 52 90 73 55 96 78 58 102 59 43 108 64 46 76 69 49 82 74 52 88 79 55 94 60 58 100 65 43 106 70 46 74 75 49 80 56 52 86 61 55 92 66 58 98 71 43 104 76 46 110 57 49 78 62 52 84 67 55 90 72 58 96 77 43 102 58 46 108 63 49 76 68 52 82 73 55 88 78 58 94 59 43 100 64 46 106 69 49 74 74 52 80 79 55 86 60 58 92 65 43 98 70 46 104 75 49 110 56 52 78 61 55 84 66 58 90 71 43 96 76 46 102 57 49 108 62 52 76 67 55 82 72 58 88 77 43 94 58 46 100 63 49 106 68 52 74 73 55 80 78 58 86 59 43 92 64 46 98 69 49 104 74 52 110 79 55 78 60 58 84 65 43 90 70 46 96 75 49 102 56 52 108 61 55 76 66 58 82 71 43 88 76 46 94 57 49 100 62 52 106 67 55 74 72 58 80 77 43 86 58 46 92 63 49 98 68 52 104 73 55 110 78 58 78 59 43 84 64 46 90 69 49 96 74 52 102 79 55 108 60 58 76 65 43 82 70 46 88 75 49 94 56 52 100 61 55 106 66 58 74 71 43 80 76 46 86 57 49 92 62 52 98 67 55 104 72 58 110 77 43 78 58 46 84 63 49 90 68 52 96 73 55 102 78 58 108 59 43 76 64 46 82 69 49 88 74 52 94 79 55 100 60 58 106 65 43 74 70 46 80 75 49 86 56 52 92 61 55 98 66 58 104 71 43 110 76 46 78 57 49 84 62 52 90 67 55 96 72 58 102 77 43 108 58 46 76 63 49 82 68 52 88 73 55 94 78 58 100 59 43 106 64 46 74 69 49 80 74 52 86 79 55 92 60 58 98 65 43 104 70 46 110 75 49 78 56 52 84 61 55 90 66 58 96 71 43 102 76 46 108 57 49 76 62 52 82 67 55 88 72 58 94 77 43 100 58 46 106 63 49 74 68 52 80 73 55 86 78 58 92 59 43 98 64 46 104 69 49 110 74 52 78 79 55 84 60 58 90 65 43 96 70 46 102 75 49 108 56 52 76 61 55 82 66 58 88 71 43 94 76 46 100 57 49 106 62 52 74 67 55 80 72 58 86 77 43 92 58 46 98 63 49 104 68 52 110 73 55 78 78 58 84 59 43 90 64 46 96 69 49 102 74 52 108 79 55 76 60 58 82 65 43 88 70 46 94 75 49 100 56 52 106 61 55 74 66 58 80 71 43 86 76 46 92 57 49 98 62 52 104 67 55 110 72 58 78 77 43 84 58 46 90 63 49 96 68 52 102 73 55 108 78 58 76 59 43 82 64 46 88 69 49 94 74 52 100 79 55 106 60 58 74 65 43 80 70 46 86 75 49 92 56 52 98 61 55 104 66 58 110 71 43 78 76 46 84 57 49 90 62 52 96 67 55 102 72 58 108 77 43 76 58 46 82 63 49 88 68 52 94 73 55 100 78 58 106 59 43 74 64 46 80 69 49 86 74 52 92 79 55 98 60 58 104 65 43 110 70 46 78 75 49 84 56 52 90 61 55 96 66 58 102 71 43 108 76 46 76 57 49 82 62 52 88 67 55 94 72 58 100 77 43 106 58 46 74 63 49 80 68 52 86 73 55 92 78 58 98 59 43 104 64 46 110 69 49 78 74 52 84 79 55 90 60 58 96 65 43 102 70 46 108 75 49 76 56 52 82 61 55 88 66 58 94 71 43 100 76 46 106 57 49 74 62 52 80 67 55 86 72 58 92 77 43 98 58 46 104 63 49 110 68 52 78 73 55 84 78 58 90 59 43 96 64 46 102 69 49 108 74 52 76 79 55 82 60 58 88 65 43 94 70 46 100 75 49 106 56 52 74 61 55 80 66 58 86 71 43 92 76 46 98 57 49 104 62 52 110 67 55 78 72 58 84 77 43 90 58 46 96 63 49 102 68 52 108 73 55 76 78 58 82 59 43 88 64 46 94 69 49 100 74 52 106 79 55 74 60 58 80 65 43 86 70 46 92 75 49 98 56 52 104 61 55 110 66 58 78 71 43 84 76 46 90 57 49 96 62 52 102 67 55 108 72 58 76 77 43 82 58 46 88 63 49 94 68 52 100 73 55 106 78 58 74 59 43
103 74 48 109 79 51 77 60 54 83 65 57 89 70 42 95 75 45 101 56 48 107 61 51 75 66 54 81 71 57 87 76 42 93 57 45 99 62 48 105 67 51 111 72 54 79 77 57 85 58 42 91 63 45 97 68 48 103 73 51 109 78 54 77 59 57 83 64 42 89 69 45 95 74 48 101 79 51 107 60 54 75 65 57 81 70 42 87 75 45 93 56 48 99 61 51 105 66 54 111 71 57 79 76 42 85 57 45 91 62 48 97 67 51 103 72 54 109 77 57 77 58 42 83 63 45 89 68 48 95 73 51 101 78 54 107 59 57 75 64 42 81 69 45 87 74 48 93 79 51 99 60 54 105 65 57 111 70 42 79 75 45 85 56 48 91 61 51 97 66 54 103 71 57 109 76 42 77 57 45 83 62 48 89 67 51 95 72 54 101 77 57 107 58 42 75 63 45 81 68 48 87 73 51 93 78 54 99 59 57 105 64 42 111 69 45 79 74 48 85 79 51 91 60 54 97 65 57 103 70 42 109 75 45 77 56 48 83 61 51 89 66 54 95 71 57 101 76 42 107 57 45 75 62 48 81 67 51 87 72 54 93 77 57 99 58 42 105 63 45 111 68 48 79 73 51 85 78 54 91 59 57 97 64 42 103 69 45 109 74 48 77 79 51 83 60 54 89 65 57 95 70 42 101 75 45 107 56 48 75 61 51 81 66 54 87 71 57 93 76 42 99 57 45 105 62 48 111 67 51 79 72 54 85 77 57 91 58 42 97 63 45 103 68 48 109 73 51 77 78 54 83 59 57 89 64 42 95 69 45 101 74 48 107 79 51 75 60 54 81 65 57 87 70 42 93 75 45 99 56 48 105 61 51 111 66 54 79 71 57 85 76 42 91 57 45 97 62 48 103 67 51 109 72 54 77 77 57 83 58 42 89 63 45 95 68 48 101 73 51 107 78 54 75 59 57 81 64 42 87 69 45 93 74 48 99 79 51 105 60 54 111 65 57 79 70 42 85 75 45 91 56 48 97 61 51 103 66 54 109 71 57 77 76 42 83 57 45 89 62 48 95 67 51 101 72 54 107 77 57 75 58 42 81 63 45 87 68 48 93 73 51 99 78 54 105 59 57 111 64 42 79 69 45 85 74 48 91 79 51 97 60 54 103 65 57 109 70 42 77 75 45 83 56 48 89 61 51 95 66 54 101 71 57 107 76 42 75 57 45 81 62 48 87 67 51 93 72 54 99 77 57 105 58 42 111 63 45 79 68 48 85 73 51 91 78 54 97 59 57 103 64 42 109 69 45 77 74 48 83 79 51 89 60 54 95 65 57 101 70 42 107 75 45 75 56 48 81 61 51 87 66 54 93 71 57 99 76 42 105 57 45 111 62 48 79 67 51 85 72 54 91 77 57 97 58 42 103 63 45 109 68 48 77 73 51 83 78 54 89 59 57 95 64 42 101 69 45 107 74 48 75 79 51 81 60 54 87 65 57 93 70 42 99 75 45 105 56 48 111 61 51 79 66 54 85 71 57 91 76 42 97 57 45 103 62 48 109 67 51 77 72 54 83 77 57 89 58 42 95 63 45 101 68 48 107 73 51 75 78 54 81 59 57 87 64 42 93 69 45 99 74 48 105 79 51 111 60 54 79 65 57 85 70 42 91 75 45 97 56 48 103 61 51 109 66 54 77 71 57 83 76 42 89 57 45 95 62 48 101 67 51 107 72 54 75 77 57 81 58 42 87 63 45 93 68 48 99 73 51 105 78 54 111 59 57 79 64 42 85 69 45 91 74 48 97 79 51 103 60 54 109 65 57 77 70 42 83 75 45 89 56 48 95 61 51 101 66 54 107 71 57 75 76 42 81 57 45 87 62 48 93 67 51 99 72 54 105 77 57 111 58 42 79 63 45 85 68 48 91 73 51 97 78 54 103 59 57 109 64 42 77 69 45 83 74 48 89 79 51 95 60 54 101 65 57 107 70 42 75 75 45 81 56 48 87 61 51 93 66 54 99 71 57 105 76 42 111 57 45 79 62 48 85 67 51 91 72 54 97 77 57 103 58 42 109 63 45 77 68 48 83 73 51 89 78 54 95 59 57 101 64 42 107 69 45 75 74 48 81 79 51 87 60 54 93 65 57 99 70 42 105 75 45 111 56 48 79 61 51
108 76 56 76 57 59 82 62 44 88 67 47 94 72 50 100 77 53 106 58 56 74 63 59 80 68 44 86 73 47 92 78 50 98 59 53 104 64 56 110 69 59 78 74 44 84 79 47 90 60 50 96 65 53 102 70 56 108 75 59 76 56 44 82 61 47 88 66 50 94 71 53 100 76 56 106 57 59 74 62 44 80 67 47 86 72 50 92 77 53 98 58 56 104 63 59 110 68 44 78 73 47 84 78 50 90 59 53 96 64 56 102 69 59 108 74 44 76 79 47 82 60 50 88 65 53 94 70 56 100 75 59 106 56 44 74 61 47 80 66 50 86 71 53 92 76 56 98 57 59 104 62 44 110 67 47 78 72 50 84 77 53 90 58 56 96 63 59 102 68 44 108 73 47 76 78 50 82 59 53 88 64 56 94 69 59 100 74 44 106 79 47 74 60 50 80 65 53 86 70 56 92 75 59 98 56 44 104 61 47 110 66 50 78 71 53 84 76 56 90 57 59 96 62 44 102 67 47 108 72 50 76 77 53 82 58 56 88 63 59 94 68 44 100 73 47 106 78 50 74 59 53 80 64 56 86 69 59 92 74 44 98 79 47 104 60 50 110 65 53 78 70 56 84 75 59 90 56 44 96 61 47 102 66 50 108 71 53 76 76 56 82 57 59 88 62 44 94 67 47 100 72 50 106 77 53 74 58 56 80 63 59 86 68 44 92 73 47 98 78 50 104 59 53 110 64 56 78 69 59 84 74 44 90 79 47 96 60 50 102 65 53 108 70 56 76 75 59 82 56 44 88 61 47 94 66 50 100 71 53 106 76 56 74 57 59 80 62 44 86 67 47 92 72 50 98 77 53 104 58 56 110 63 59 78 68 44 84 73 47 90 78 50 96 59 53 102 64 56 108 69 59 76 74 44 82 79 47 88 60 50 94 65 53 100 70 56 106 75 59 74 56 44 80 61 47 86 66 50 92 71 53 98 76 56 104 57 59 110 62 44 78 67 47 84 72 50 90 77 53 96 58 56 102 63 59 108 68 44 76 73 47 82 78 50 88 59 53 94 64 56 100 69 59 106 74 44 74 79 47 80 60 50 86 65 53 92 70 56 98 75 59 104 56 44 110 61 47 78 66 50 84 71 53 90 76 56 96 57 59 102 62 44 108 67 47 76 72 50 82 77 53 88 58 56 94 63 59 100 68 44 106 73 47 74 78 50 80 59 53 86 64 56 92 69 59 98 74 44 104 79 47 110 60 50 78 65 53 84 70 56 90 75 59 96 56 44 102 61 47 108 66 50 76 71 53 82 76 56 88 57 59 94 62 44 100 67 47 106 72 50 74 77 53 80 58 56 86 63 59 92 68 44 98 73 47 104 78 50 110 59 53 78 64 56 84 69 59 90 74 44 96 79 47 102 60 50 108 65 53 76 70 56 82 75 59 88 56 44 94 61 47 100 66 50 106 71 53 74 76 56 80 57 59 86 62 44 92 67 47 98 72 50 104 77 53 110 58 56 78 63 59 84 68 44 90 73 47 96 78 50 102 59 53 108 64 56 76 69 59 82 74 44 88 79 47 94 60 50 100 65 53 106 70 56 74 75 59 80 56 44 86 61 47 92 66 50 98 71 53 104 76 56 110 57 59 78 62 44 84 67 47 90 72 50 96 77 53 102 58 56 108 63 59 76 68 44 82 73 47 88 78 50 94 59 53 100 64 56 106 69 59 74 74 44 80 79 47 86 60 50 92 65 53 98 70 56 104 75 59 110 56 44 78 61 47 84 66 50 90 71 53 96 76 56 102 57 59 108 62 44 76 67 47 82 72 50 88 77 53 94 58 56 100 63 59 106 68 44 74 73 47 80 78 50 86 59 53 92 64 56 98 69 59 104 74 44 110 79 47 78 60 50 84 65 53 90 70 56 96 75 59 102 56 44 108 61 47 76 66 50 82 71 53 88 76 56 94 57 59 100 62 44 106 67 47 74 72 50 80 77 53 86 58 56 92 63 59 98 68 44 104 73 47 110 78 50 78 59 53 84 64 56 90 69 59 96 74 44 102 79 47 108 60 50 76 65 53 82 70 56 88 75 59 94 56 44 100 61 47 106 66 50 74 71 53 80 76 56 86 57 59 92 62 44 98 67 47 104 72 50 110 77 53 78 58 56 84 63 59
75 78 46 81 59 49 87 64 52 93 69 55 99 74 58 105 79 43 111 60 46 79 65 49 85 70 52 91 75 55 97 56 58 103 61 43 109 66 46 77 71 49 83 76 52 89 57 55 95 62 58 101 67 43 107 72 46 75 77 49 81 58 52 87 63 55 93 68 58 99 73 43 105 78 46 111 59 49 79 64 52 85 69 55 91 74 58 97 79 43 103 60 46 109 65 49 77 70 52 83 75 55 89 56 58 95 61 43 101 66 46 107 71 49 75 76 52 81 57 55 87 62 58 93 67 43 99 72 46 105 77 49 111 58 52 79 63 55 85 68 58 91 73 43 97 78 46 103 59 49 109 64 52 77 69 55 83 74 58 89 79 43 95 60 46 101 65 49 107 70 52 75 75 55 81 56 58 87 61 43 93 66 46 99 71 49 105 76 52 111 57 55 79 62 58 85 67 43 91 72 46 97 77 49 103 58 52 109 63 55 77 68 58 83 73 43 89 78 46 95 59 49 101 64 52 107 69 55 75 74 58 81 79 43 87 60 46 93 65 49 99 70 52 105 75 55 111 56 58 79 61 43 85 66 46 91 71 49 97 76 52 103 57 55 109 62 58 77 67 43 83 72 46 89 77 49 95 58 52 101 63 55 107 68 58 75 73 43 81 78 46 87 59 49 93 64 52 99 69 55 105 74 58 111 79 43 79 60 46 85 65 49 91 70 52 97 75 55 103 56 58 109 61 43 77 66 46 83 71 49 89 76 52 95 57 55 101 62 58 107 67 43 75 72 46 81 77 49 87 58 52 93 63 55 99 68 58 105 73 43 111 78 46 79 59 49 85 64 52 91 69 55 97 74 58 103 79 43 109 60 46 77 65 49 83 70 52 89 75 55 95 56 58 101 61 43 107 66 46 75 71 49 81 76 52 87 57 55 93 62 58 99 67 43 105 72 46 111 77 49 79 58 52 85 63 55 91 68 58 97 73 43 103 78 46 109 59 49 77 64 52 83 69 55 89 74 58 95 79 43 101 60 46 107 65 49 75 70 52 81 75 55 87 56 58 93 61 43 99 66 46 105 71 49 111 76 52 79 57 55 85 62 58 91 67 43 97 72 46 103 77 49 109 58 52 77 63 55 83 68 58 89 73 43 95 78 46 101 59 49 107 64 52 75 69 55 81 74 58 87 79 43 93 60 46 99 65 49 105 70 52 111 75 55 79 56 58 85 61 43 91 66 46 97 71 49 103 76 52 109 57 55 77 62 58 83 67 43 89 72 46 95 77 49 101 58 52 107 63 55 75 68 58 81 73 43 87 78 46 93 59 49 99 64 52 105 69 55 111 74 58 79 79 43 85 60 46 91 65 49 97 70 52 103 75 55 109 56 58 77 61 43 83 66 46 89 71 49 95 76 52 101 57 55 107 62 58 75 67 43 81 72 46 87 77 49 93 58 52 99 63 55 105 68 58 111 73 43 79 78 46 85 59 49 91 64 52 97 69 55 103 74 58 109 79 43 77 60 46 83 65 49 89 70 52 95 75 55 101 56 58 107 61 43 75 66 46 81 71 49 87 76 52 93 57 55 99 62 58 105 67 43 111 72 46 79 77 49 85 58 52 91 63 55 97 68 58 103 73 43 109 78 46 77 59 49 83 64 52 89 69 55 95 74 58 101 79 43 107 60 46 75 65 49 81 70 52 87 75 55 93 56 58 99 61 43 105 66 46 111 71 49 79 76 52 85 57 55 91 62 58 97 67 43 103 72 46 109 77 49 77 58 52 83 63 55 89 68 58 95 73 43 101 78 46 107 59 49 75 64 52 81 69 55 87 74 58 93 79 43 99 60 46 105 65 49 111 70 52 79 75 55 85 56 58 91 61 43 97 66 46 103 71 49 109 76 52 77 57 55 83 62 58 89 67 43 95 72 46 101 77 49 107 58 52 75 63 55 81 68 58 87 73 43 93 78 46 99 59 49 105 64 52 111 69 55 79 74 58 85 79 43 91 60 46 97 65 49 103 70 52 109 75 55 77 56 58 83 61 43 89 66 46 95 71 49 101 76 52 107 57 55 75 62 58 81 67 43 87 72 46 93 77 49 99 58 52 105 63 55 111 68 58 79 73 43 85 78 46 91 59 49 97 64 52 103 69 55 109 74 58 77 79 43 83 60 46 89 65 49
80 56 54 86 61 57 92 66 42 98 71 45 104 76 48 110 57 51 78 62 54 84 67 57 90 72 42 96 77 45 102 58 48 108 63 51 76 68 54 82 73 57 88 78 42 94 59 45 100 64 48 106 69 51 74 74 54 80 79 57 86 60 42 92 65 45 98 70 48 104 75 51 110 56 54 78 61 57 84 66 42 90 71 45 96 76 48 102 57 51 108 62 54 76 67 57 82 72 42 88 77 45 94 58 48 100 63 51 106 68 54 74 73 57 80 78 42 86 59 45 92 64 48 98 69 51 104 74 54 110 79 57 78 60 42 84 65 45 90 70 48 96 75 51 102 56 54 108 61 57 76 66 42 82 71 45 88 76 48 94 57 51 100 62 54 106 67 57 74 72 42 80 77 45 86 58 48 92 63 51 98 68 54 104 73 57 110 78 42 78 59 45 84 64 48 90 69 51 96 74 54 102 79 57 108 60 42 76 65 45 82 70 48 88 75 51 94 56 54 100 61 57 106 66 42 74 71 45 80 76 48 86 57 51 92 62 54 98 67 57 104 72 42 110 77 45 78 58 48 84 63 51 90 68 54 96 73 57 102 78 42 108 59 45 76 64 48 82 69 51 88 74 54 94 79 57 100 60 42 106 65 45 74 70 48 80 75 51 86 56 54 92 61 57 98 66 42 104 71 45 110 76 48 78 57 51 84 62 54 90 67 57 96 72 42 102 77 45 108 58 48 76 63 51 82 68 54 88 73 57 94 78 42 100 59 45 106 64 48 74 69 51 80 74 54 86 79 57 92 60 42 98 65 45 104 70 48 110 75 51 78 56 54 84 61 57 90 66 42 96 71 45 102 76 48 108 57 51 76 62 54 82 67 57 88 72 42 94 77 45 100 58 48 106 63 51 74 68 54 80 73 57 86 78 42 92 59 45 98 64 48 104 69 51 110 74 54 78 79 57 84 60 42 90 65 45 96 70 48 102 75 51 108 56 54 76 61 57 82 66 42 88 71 45 94 76 48 100 57 51 106 62 54 74 67 57 80 72 42 86 77 45 92 58 48 98 63 51 104 68 54 110 73 57 78 78 42 84 59 45 90 64 48 96 69 51 102 74 54 108 79 57 76 60 42 82 65 45 88 70 48 94 75 51 100 56 54 106 61 57 74 66 42 80 71 45 86 76 48 92 57 51 98 62 54 104 67 57 110 72 42 78 77 45 84 58 48 90 63 51 96 68 54 102 73 57 108 78 42 76 59 45 82 64 48 88 69 51 94 74 54 100 79 57 106 60 42 74 65 45 80 70 48 86 75 51 92 56 54 98 61 57 104 66 42 110 71 45 78 76 48 84 57 51 90 62 54 96 67 57 102 72 42 108 77 45 76 58 48 82 63 51 88 68 54 94 73 57 100 78 42 106 59 45 74 64 48 80 69 51 86 74 54 92 79 57 98 60 42 104 65 45 110 70 48 78 75 51 84 56 54 90 61 57 96 66 42 102 71 45 108 76 48 76 57 51 82 62 54 88 67 57 94 72 42 100 77 45 106 58 48 74 63 51 80 68 54 86 73 57 92 78 42 98 59 45 104 64 48 110 69 51 78 74 54 84 79 57 90 60 42 96 65 45 102 70 48 108 75 51 76 56 54 82 61 57 88 66 42 94 71 45 100 76 48 106 57 51 74 62 54 80 67 57 86 72 42 92 77 45 98 58 48 104 63 51 110 68 54 78 73 57 84 78 42 90 59 45 96 64 48 102 69 51 108 74 54 76 79 57 82 60 42 88 65 45 94 70 48 100 75 51 106 56 54 74 61 57 80 66 42 86 71 45 92 76 48 98 57 51 104 62 54 110 67 57 78 72 42 84 77 45 90 58 48 96 63 51 102 68 54 108 73 57 76 78 42 82 59 45 88 64 48 94 69 51 100 74 54 106 79 57 74 60 42 80 65 45 86 70 48 92 75 51 98 56 54 104 61 57 110 66 42 78 71 45 84 76 48 90 57 51 96 62 54 102 67 57 108 72 42 76 77 45 82 58 48 88 63 51 94 68 54 100 73 57 106 78 42 74 59 45 80 64 48 86 69 51 92 74 54 98 79 57 104 60 42 110 65 45 78 70 48 84 75 51 90 56 54 96 61 57 102 66 42 108 71 45 76 76 48 82 57 51 88 62 54 94 67 57
85 58 44 91 63 47 97 68 50 103 73 53 109 78 56 77 59 59 83 64 44 89 69 47 95 74 50 101 79 53 107 60 56 75 65 59 81 70 44 87 75 47 93 56 50 99 61 53 105 66 56 111 71 59 79 76 44 85 57 47 91 62 50 97 67 53 103 72 56 109 77 59 77 58 44 83 63 47 89 68 50 95 73 53 101 78 56 107 59 59 75 64 44 81 69 47 87 74 50 93 79 53 99 60 56 105 65 59 111 70 44 79 75 47 85 56 50 91 61 53 97 66 56 103 71 59 109 76 44 77 57 47 83 62 50 89 67 53 95 72 56 101 77 59 107 58 44 75 63 47 81 68 50 87 73 53 93 78 56 99 59 59 105 64 44 111 69 47 79 74 50 85 79 53 91 60 56 97 65 59 103 70 44 109 75 47 77 56 50 83 61 53 89 66 56 95 71 59 101 76 44 107 57 47 75 62 50 81 67 53 87 72 56 93 77 59 99 58 44 105 63 47 111 68 50 79 73 53 85 78 56 91 59 59 97 64 44 103 69 47 109 74 50 77 79 53 83 60 56 89 65 59 95 70 44 101 75 47 107 56 50 75 61 53 81 66 56 87 71 59 93 76 44 99 57 47 105 62 50 111 67 53 79 72 56 85 77 59 91 58 44 97 63 47 103 68 50 109 73 53 77 78 56 83 59 59 89 64 44 95 69 47 101 74 50 107 79 53 75 60 56 81 65 59 87 70 44 93 75 47 99 56 50 105 61 53 111 66 56 79 71 59 85 76 44 91 57 47 97 62 50 103 67 53 109 72 56 77 77 59 83 58 44 89 63 47 95 68 50 101 73 53 107 78 56 75 59 59 81 64 44 87 69 47 93 74 50 99 79 53 105 60 56 111 65 59 79 70 44 85 75 47 91 56 50 97 61 53 103 66 56 109 71 59 77 76 44 83 57 47 89 62 50 95 67 53 101 72 56 107 77 59 75 58 44 81 63 47 87 68 50 93 73 53 99 78 56 105 59 59 111 64 44 79 69 47 85 74 50 91 79 53 97 60 56 103 65 59 109 70 44 77 75 47 83 56 50 89 61 53 95 66 56 101 71 59 107 76 44 75 57 47 81 62 50 87 67 53 93 72 56 99 77 59 105 58 44 111 63 47 79 68 50 85 73 53 91 78 56 97 59 59 103 64 44 109 69 47 77 74 50 83 79 53 89 60 56 95 65 59 101 70 44 107 75 47 75 56 50 81 61 53 87 66 56 93 71 59 99 76 44 105 57 47 111 62 50 79 67 53 85 72 56 91 77 59 97 58 44 103 63 47 109 68 50 77 73 53 83 78 56 89 59 59 95 64 44 101 69 47 107 74 50 75 79 53 81 60 56 87 65 59 93 70 44 99 75 47 105 56 50 111 61 53 79 66 56 85 71 59 91 76 44 97 57 47 103 62 50 109 67 53 77 72 56 83 77 59 89 58 44 95 63 47 101 68 50 107 73 53 75 78 56 81 59 59 87 64 44 93 69 47 99 74 50 105 79 53 111 60 56 79 65 59 85 70 44 91 75 47 97 56 50 103 61 53 109 66 56 77 71 59 83 76 44 89 57 47 95 62 50 101 67 53 107 72 56 75 77 59 81 58 44 87 63 47 93 68 50 99 73 53 105 78 56 111 59 59 79 64 44 85 69 47 91 74 50 97 79 53 103 60 56 109 65 59 77 70 44 83 75 47 89 56 50 95 61 53 101 66 56 107 71 59 75 76 44 81 57 47 87 62 50 93 67 53 99 72 56 105 77 59 111 58 44 79 63 47 85 68 50 91 73 53 97 78 56 103 59 59 109 64 44 77 69 47 83 74 50 89 79 53 95 60 56 101 65 59 107 70 44 75 75 47 81 56 50 87 61 53 93 66 56 99 71 59 105 76 44 111 57 47 79 62 50 85 67 53 91 72 56 97 77 59 103 58 44 109 63 47 77 68 50 83 73 53 89 78 56 95 59 59 101 64 44 107 69 47 75 74 50 81 79 53 87 60 56 93 65 59 99 70 44 105 75 47 111 56 50 79 61 53 85 66 56 91 71 59 97 76 44 103 57 47 109 62 50 77 67 53 83 72 56 89 77 59 95 58 44 101 63 47 107 68 50 75 73 53 81 78 56 87 59 59 93 64 44 99 69 47
90 60 52 96 65 55 102 70 58 108 75 43 76 56 46 82 61 49 88 66 52 94 71 55 100 76 58 106 57 43 74 62 46 80 67 49 86 72 52 92 77 55 98 58 58 104 63 43 110 68 46 78 73 49 84 78 52 90 59 55 96 64 58 102 69 43 108 74 46 76 79 49 82 60 52 88 65 55 94 70 58 100 75 43 106 56 46 74 61 49 80 66 52 86 71 55 92 76 58 98 57 43 104 62 46 110 67 49 78 72 52 84 77 55 90 58 58 96 63 43 102 68 46 108 73 49 76 78 52 82 59 55 88 64 58 94 69 43 100 74 46 106 79 49 74 60 52 80 65 55 86 70 58 92 75 43 98 56 46 104 61 49 110 66 52 78 71 55 84 76 58 90 57 43 96 62 46 102 67 49 108 72 52 76 77 55 82 58 58 88 63 43 94 68 46 100 73 49 106 78 52 74 59 55 80 64 58 86 69 43 92 74 46 98 79 49 104 60 52 110 65 55 78 70 58 84 75 43 90 56 46 96 61 49 102 66 52 108 71 55 76 76 58 82 57 43 88 62 46 94 67 49 100 72 52 106 77 55 74 58 58 80 63 43 86 68 46 92 73 49 98 78 52 104 59 55 110 64 58 78 69 43 84 74 46 90 79 49 96 60 52 102 65 55 108 70 58 76 75 43 82 56 46 88 61 49 94 66 52 100 71 55 106 76 58 74 57 43 80 62 46 86 67 49 92 72 52 98 77 55 104 58 58 110 63 43 78 68 46 84 73 49 90 78 52 96 59 55 102 64 58 108 69 43 76 74 46 82 79 49 88 60 52 94 65 55 100 70 58 106 75 43 74 56 46 80 61 49 86 66 52 92 71 55 98 76 58 104 57 43 110 62 46 78 67 49 84 72 52 90 77 55 96 58 58 102 63 43 108 68 46 76 73 49 82 78 52 88 59 55 94 64 58 100 69 43 106 74 46 74 79 49 80 60 52 86 65 55 92 70 58 98 75 43 104 56 46 110 61 49 78 66 52 84 71 55 90 76 58 96 57 43 102 62 46 108 67 49 76 72 52 82 77 55 88 58 58 94 63 43 100 68 46 106 73 49 74 78 52 80 59 55 86 64 58 92 69 43 98 74 46 104 79 49 110 60 52 78 65 55 84 70 58 90 75 43 96 56 46 102 61 49 108 66 52 76 71 55 82 76 58 88 57 43 94 62 46 100 67 49 106 72 52 74 77 55 80 58 58 86 63 43 92 68 46 98 73 49 104 78 52 110 59 55 78 64 58 84 69 43 90 74 46 96 79 49 102 60 52 108 65 55 76 70 58 82 75 43 88 56 46 94 61 49 100 66 52 106 71 55 74 76 58 80 57 43 86 62 46 92 67 49 98 72 52 104 77 55 110 58 58 78 63 43 84 68 46 90 73 49 96 78 52 102 59 55 108 64 58 76 69 43 82 74 46 88 79 49 94 60 52 100 65 55 106 70 58 74 75 43 80 56 46 86 61 49 92 66 52 98 71 55 104 76 58 110 57 43 78 62 46 84 67 49 90 72 52 96 77 55 102 58 58 108 63 43 76 68 46 82 73 49 88 78 52 94 59 55 100 64 58 106 69 43 74 74 46 80 79 49 86 60 52 92 65 55 98 70 58 104 75 43 110 56 46 78 61 49 84 66 52 90 71 55 96 76 58 102 57 43 108 62 46 76 67 49 82 72 52 88 77 55 94 58 58 100 63 43 106 68 46 74 73 49 80 78 52 86 59 55 92 64 58 98 69 43 104 74 46 110 79 49 78 60 52 84 65 55 90 70 58 96 75 43 102 56 46 108 61 49 76 66 52 82 71 55 88 76 58 94 57 43 100 62 46 106 67 49 74 72 52 80 77 55 86 58 58 92 63 43 98 68 46 104 73 49 110 78 52 78 59 55 84 64 58 90 69 43 96 74 46 102 79 49 108 60 52 76 65 55 82 70 58 88 75 43 94 56 46 100 61 49 106 66 52 74 71 55 80 76 58 86 57 43 92 62 46 98 67 49 104 72 52 110 77 55 78 58 58 84 63 43 90 68 46 96 73 49 102 78 52 108 59 55 76 64 58 82 69 43 88 74 46 94 79 49 100 60 52 106 65 55 74 70 58 80 75 43 86 56 46 92 61 49 98 66 52 104 71 55
95 62 42 101 67 45 107 72 48 75 77 51 81 58 54 87 63 57 93 68 42 99 73 45 105 78 48 111 59 51 79 64 54 85 69 57 91 74 42 97 79 45 103 60 48 109 65 51 77 70 54 83 75 57 89 56 42 95 61 45 101 66 48 107 71 51 75 76 54 81 57 57 87 62 42 93 67 45 99 72 48 105 77 51 111 58 54 79 63 57 85 68 42 91 73 45 97 78 48 103 59 51 109 64 54 77 69 57 83 74 42 89 79 45 95 60 48 101 65 51 107 70 54 75 75 57 81 56 42 87 61 45 93 66 48 99 71 51 105 76 54 111 57 57 79 62 42 85 67 45 91 72 48 97 77 51 103 58 54 109 63 57 77 68 42 83 73 45 89 78 48 95 59 51 101 64 54 107 69 57 75 74 42 81 79 45 87 60 48 93 65 51 99 70 54 105 75 57 111 56 42 79 61 45 85 66 48 91 71 51 97 76 54 103 57 57 109 62 42 77 67 45 83 72 48 89 77 51 95 58 54 101 63 57 107 68 42 75 73 45 81 78 48 87 59 51 93 64 54 99 69 57 105 74 42 111 79 45 79 60 48 85 65 51 91 70 54 97 75 57 103 56 42 109 61 45 77 66 48 83 71 51 89 76 54 95 57 57 101 62 42 107 67 45 75 72 48 81 77 51 87 58 54 93 63 57 99 68 42 105 73 45 111 78 48 79 59 51 85 64 54 91 69 57 97 74 42 103 79 45 109 60 48 77 65 51 83 70 54 89 75 57 95 56 42 101 61 45 107 66 48 75 71 51 81 76 54 87 57 57 93 62 42 99 67 45 105 72 48 111 77 51 79 58 54 85 63 57 91 68 42 97 73 45 103 78 48 109 59 51 77 64 54 83 69 57 89 74 42 95 79 45 101 60 48 107 65 51 75 70 54 81 75 57 87 56 42 93 61 45 99 66 48 105 71 51 111 76 54 79 57 57 85 62 42 91 67 45 97 72 48 103 77 51 109 58 54 77 63 57 83 68 42 89 73 45 95 78 48 101 59 51 107 64 54 75 69 57 81 74 42 87 79 45 93 60 48 99 65 51 105 70 54 111 75 57 79 56 42 85 61 45 91 66 48 97 71 51 103 76 54 109 57 57 77 62 42 83 67 45 89 72 48 95 77 51 101 58 54 107 63 57 75 68 42 81 73 45 87 78 48 93 59 51 99 64 54 105 69 57 111 74 42 79 79 45 85 60 48 91 65 51 97 70 54 103 75 57 109 56 42 77 61 45 83 66 48 89 71 51 95 76 54 101 57 57 107 62 42 75 67 45 81 72 48 87 77 51 93 58 54 99 63 57 105 68 42 111 73 45 79 78 48 85 59 51 91 64 54 97 69 57 103 74 42 109 79 45 77 60 48 83 65 51 89 70 54 95 75 57 101 56 42 107 61 45 75 66 48 81 71 51 87 76 54 93 57 57 99 62 42 105 67 45 111 72 48 79 77 51 85 58 54 91 63 57 97 68 42 103 73 45 109 78 48 77 59 51 83 64 54 89 69 57 95 74 42 101 79 45 107 60 48 75 65 51 81 70 54 87 75 57 93 56 42 99 61 45 105 66 48 111 71 51 79 76 54 85 57 57 91 62 42 97 67 45 103 72 48 109 77 51 77 58 54 83 63 57 89 68 42 95 73 45 101 78 48 107 59 51 75 64 54 81 69 57 87 74 42 93 79 45 99 60 48 105 65 51 111 70 54 79 75 57 85 56 42 91 61 45 97 66 48 103 71 51 109 76 54 77 57 57 83 62 42 89 67 45 95 72 48 101 77 51 107 58 54 75 63 57 81 68 42 87 73 45 93 78 48 99 59 51 105 64 54 111 69 57 79 74 42 85 79 45 91 60 48 97 65 51 103 70 54 109 75 57 77 56 42 83 61 45 89 66 48 95 71 51 101 76 54 107 57 57 75 62 42 81 67 45 87 72 48 93 77 51 99 58 54 105 63 57 111 68 42 79 73 45 85 78 48 91 59 51 97 64 54 103 69 57 109 74 42 77 79 45 83 60 48 89 65 51 95 70 54 101 75 57 107 56 42 75 61 45 81 66 48 87 71 51 93 76 54 99 57 57 105 62 42 111 67 45 79 72 48 85 77 51 91 58 54 97 63 57 103 68 42 109 73 45
100 64 50 106 69 53 74 74 56 80 79 59 86 60 44 92 65 47 98 70 50 104 75 53 110 56 56 78 61 59 84 66 44 90 71 47 96 76 50 102 57 53 108 62 56 76 67 59 82 72 44 88 77 47 94 58 50 100 63 53 106 68 56 74 73 59 80 78 44 86 59 47 92 64 50 98 69 53 104 74 56 110 79 59 78 60 44 84 65 47 90 70 50 96 75 53 102 56 56 108 61 59 76 66 44 82 71 47 88 76 50 94 57 53 100 62 56 106 67 59 74 72 44 80 77 47 86 58 50 92 63 53 98 68 56 104 73 59 110 78 44 78 59 47 84 64 50 90 69 53 96 74 56 102 79 59 108 60 44 76 65 47 82 70 50 88 75 53 94 56 56 100 61 59 106 66 44 74 71 47 80 76 50 86 57 53 92 62 56 98 67 59 104 72 44 110 77 47 78 58 50 84 63 53 90 68 56 96 73 59 102 78 44 108 59 47 76 64 50 82 69 53 88 74 56 94 79 59 100 60 44 106 65 47 74 70 50 80 75 53 86 56 56 92 61 59 98 66 44 104 71 47 110 76 50 78 57 53 84 62 56 90 67 59 96 72 44 102 77 47 108 58 50 76 63 53 82 68 56 88 73 59 94 78 44 100 59 47 106 64 50 74 69 53 80 74 56 86 79 59 92 60 44 98 65 47 104 70 50 110 75 53 78 56 56 84 61 59 90 66 44 96 71 47 102 76 50 108 57 53 76 62 56 82 67 59 88 72 44 94 77 47 100 58 50 106 63 53 74 68 56 80 73 59 86 78 44 92 59 47 98 64 50 104 69 53 110 74 56 78 79 59 84 60 44 90 65 47 96 70 50 102 75 53 108 56 56 76 61 59 82 66 44 88 71 47 94 76 50 100 57 53 106 62 56 74 67 59 80 72 44 86 77 47 92 58 50 98 63 53 104 68 56 110 73 59 78 78 44 84 59 47 90 64 50 96 69 53 102 74 56 108 79 59 76 60 44 82 65 47 88 70 50 94 75 53 100 56 56 106 61 59 74 66 44 80 71 47 86 76 50 92 57 53 98 62 56 104 67 59 110 72 44 78 77 47 84 58 50 90 63 53 96 68 56 102 73 59 108 78 44 76 59 47 82 64 50 88 69 53 94 74 56 100 79 59 106 60 44 74 65 47 80 70 50 86 75 53 92 56 56 98 61 59 104 66 44 110 71 47 78 76 50 84 57 53 90 62 56 96 67 59 102 72 44 108 77 47 76 58 50 82 63 53 88 68 56 94 73 59 100 78 44 106 59 47 74 64 50 80 69 53 86 74 56 92 79 59 98 60 44 104 65 47 110 70 50 78 75 53 84 56 56 90 61 59 96 66 44 102 71 47 108 76 50 76 57 53 82 62 56 88 67 59 94 72 44 100 77 47 106 58 50 74 63 53 80 68 56 86 73 59 92 78 44 98 59 47 104 64 50 110 69 53 78 74 56 84 79 59 90 60 44 96 65 47 102 70 50 108 75 53 76 56 56 82 61 59 88 66 44 94 71 47 100 76 50 106 57 53 74 62 56 80 67 59 86 72 44 92 77 47 98 58 50 104 63 53 110 68 56 78 73 59 84 78 44 90 59 47 96 64 50 102 69 53 108 74 56 76 79 59 82 60 44 88 65 47 94 70 50 100 75 53 106 56 56 74 61 59 80 66 44 86 71 47 92 76 50 98 57 53 104 62 56 110 67 59 78 72 44 84 77 47 90 58 50 96 63 53 102 68 56 108 73 59 76 78 44 82 59 47 88 64 50 94 69 53 100 74 56 106 79 59 74 60 44 80 65 47 86 70 50 92 75 53 98 56 56 104 61 59 110 66 44 78 71 47 84 76 50 90 57 53 96 62 56 102 67 59 108 72 44 76 77 47 82 58 50 88 63 53 94 68 56 100 73 59 106 78 44 74 59 47 80 64 50 86 69 53 92 74 56 98 79 59 104 60 44 110 65 47 78 70 50 84 75 53 90 56 56 96 61 59 102 66 44 108 71 47 76 76 50 82 57 53 88 62 56 94 67 59 100 72 44 106 77 47 74 58 50 80 63 53 86 68 56 92 73 59 98 78 44 104 59 47 110 64 50 78 69 53 84 74 56 90 79 59 96 60 44 102 65 47 108 70 50 76 75 53
105 66 58 111 71 43 79 76 46 85 57 49 91 62 52 97 67 55 103 72 58 109 77 43 77 58 46 83 63 49 89 68 52 95 73 55 101 78 58 107 59 43 75 64 46 81 69 49 87 74 52 93 79 55 99 60 58 105 65 43 111 70 46 79 75 49 85 56 52 91 61 55 97 66 58 103 71 43 109 76 46 77 57 49 83 62 52 89 67 55 95 72 58 101 77 43 107 58 46 75 63 49 81 68 52 87 73 55 93 78 58 99 59 43 105 64 46 111 69 49 79 74 52 85 79 55 91 60 58 97 65 43 103 70 46 109 75 49 77 56 52 83 61 55 89 66 58 95 71 43 101 76 46 107 57 49 75 62 52 81 67 55 87 72 58 93 77 43 99 58 46 105 63 49 111 68 52 79 73 55 85 78 58 91 59 43 97 64 46 103 69 49 109 74 52 77 79 55 83 60 58 89 65 43 95 70 46 101 75 49 107 56 52 75 61 55 81 66 58 87 71 43 93 76 46 99 57 49 105 62 52 111 67 55 79 72 58 85 77 43 91 58 46 97 63 49 103 68 52 109 73 55 77 78 58 83 59 43 89 64 46 95 69 49 101 74 52 107 79 55 75 60 58 81 65 43 87 70 46 93 75 49 99 56 52 105 61 55 111 66 58 79 71 43 85 76 46 91 57 49 97 62 52 103 67 55 109 72 58 77 77 43 83 58 46 89 63 49 95 68 52 101 73 55 107 78 58 75 59 43 81 64 46 87 69 49 93 74 52 99 79 55 105 60 58 111 65 43 79 70 46 85 75 49 91 56 52 97 61 55 103 66 58 109 71 43 77 76 46 83 57 49 89 62 52 95 67 55 101 72 58 107 77 43 75 58 46 81 63 49 87 68 52 93 73 55 99 78 58 105 59 43 111 64 46 79 69 49 85 74 52 91 79 55 97 60 58 103 65 43 109 70 46 77 75 49 83 56 52 89 61 55 95 66 58 101 71 43 107 76 46 75 57 49 81 62 52 87 67 55 93 72 58 99 77 43 105 58 46 111 63 49 79 68 52 85 73 55 91 78 58 97 59 43 103 64 46 109 69 49 77 74 52 83 79 55 89 60 58 95 65 43 101 70 46 107 75 49 75 56 52 81 61 55 87 66 58 93 71 43 99 76 46 105 57 49 111 62 52 79 67 55 85 72 58 91 77 43 97 58 46 103 63 49 109 68 52 77 73 55 83 78 58 89 59 43 95 64 46 101 69 49 107 74 52 75 79 55 81 60 58 87 65 43 93 70 46 99 75 49 105 56 52 111 61 55 79 66 58 85 71 43 91 76 46 97 57 49 103 62 52 109 67 55 77 72 58 83 77 43 89 58 46 95 63 49 101 68 52 107 73 55 75 78 58 81 59 43 87 64 46 93 69 49 99 74 52 105 79 55 111 60 58 79 65 43 85 70 46 91 75 49 97 56 52 103 61 55 109 66 58 77 71 43 83 76 46 89 57 49 95 62 52 101 67 55 107 72 58 75 77 43 81 58 46 87 63 49 93 68 52 99 73 55 105 78 58 111 59 43 79 64 46 85 69 49 91 74 52 97 79 55 103 60 58 109 65 43 77 70 46 83 75 49 89 56 52 95 61 55 101 66 58 107 71 43 75 76 46 81 57 49 87 62 52 93 67 55 99 72 58 105 77 43 111 58 46 79 63 49 85 68 52 91 73 55 97 78 58 103 59 43 109 64 46 77 69 49 83 74 52 89 79 55 95 60 58 101 65 43 107 70 46 75 75 49 81 56 52 87 61 55 93 66 58 99 71 43 105 76 46 111 57 49 79 62 52 85 67 55 91 72 58 97 77 43 103 58 46 109 63 49 77 68 52 83 73 55 89 78 58 95 59 43 101 64 46 107 69 49 75 74 52 81 79 55 87 60 58 93 65 43 99 70 46 105 75 49 111 56 52 79 61 55 85 66 58 91 71 43 97 76 46 103 57 49 109 62 52 77 67 55 83 72 58 89 77 43 95 58 46 101 63 49 107 68 52 75 73 55 81 78 58 87 59 43 93 64 46 99 69 49 105 74 52 111 79 55 79 60 58 85 65 43 91 70 46 97 75 49 103 56 52 109 61 55 77 66 58 83 71 43 89 76 46 95 57 49 101 62 52 107 67 55 75 72 58 81 77 43
110 68 48 78 73 51 84 78 54 90 59 57 96 64 42 102 69 45 108 74 48 76 79 51 82 60 54 88 65 57 94 70 42 100 75 45 106 56 48 74 61 51 80 66 54 86 71 57 92 76 42 98 57 45 104 62 48 110 67 51 78 72 54 84 77 57 90 58 42 96 63 45 102 68 48 108 73 51 76 78 54 82 59 57 88 64 42 94 69 45 100 74 48 106 79 51 74 60 54 80 65 57 86 70 42 92 75 45 98 56 48 104 61 51 110 66 54 78 71 57 84 76 42 90 57 45 96 62 48 102 67 51 108 72 54 76 77 57 82 58 42 88 63 45 94 68 48 100 73 51 106 78 54 74 59 57 80 64 42 86 69 45 92 74 48 98 79 51 104 60 54 110 65 57 78 70 42 84 75 45 90 56 48 96 61 51 102 66 54 108 71 57 76 76 42 82 57 45 88 62 48 94 67 51 100 72 54 106 77 57 74 58 42 80 63 45 86 68 48 92 73 51 98 78 54 104 59 57 110 64 42 78 69 45 84 74 48 90 79 51 96 60 54 102 65 57 108 70 42 76 75 45 82 56 48 88 61 51 94 66 54 100 71 57 106 76 42 74 57 45 80 62 48 86 67 51 92 72 54 98 77 57 104 58 42 110 63 45 78 68 48 84 73 51 90 78 54 96 59 57 102 64 42 108 69 45 76 74 48 82 79 51 88 60 54 94 65 57 100 70 42 106 75 45 74 56 48 80 61 51 86 66 54 92 71 57 98 76 42 104 57 45 110 62 48 78 67 51 84 72 54 90 77 57 96 58 42 102 63 45 108 68 48 76 73 51 82 78 54 88 59 57 94 64 42 100 69 45 106 74 48 74 79 51 80 60 54 86 65 57 92 70 42 98 75 45 104 56 48 110 61 51 78 66 54 84 71 57 90 76 42 96 57 45 102 62 48 108 67 51 76 72 54 82 77 57 88 58 42 94 63 45 100 68 48 106 73 51 74 78 54 80 59 57 86 64 42 92 69 45 98 74 48 104 79 51 110 60 54 78 65 57 84 70 42 90 75 45 96 56 48 102 61 51 108 66 54 76 71 57 82 76 42 88 57 45 94 62 48 100 67 51 106 72 54 74 77 57 80 58 42 86 63 45 92 68 48 98 73 51 104 78 54 110 59 57 78 64 42 84 69 45 90 74 48 96 79 51 102 60 54 108 65 57 76 70 42 82 75 45 88 56 48 94 61 51 100 66 54 106 71 57 74 76 42 80 57 45 86 62 48 92 67 51 98 72 54 104 77 57 110 58 42 78 63 45 84 68 48 90 73 51 96 78 54 102 59 57 108 64 42 76 69 45 82 74 48 88 79 51 94 60 54 100 65 57 106 70 42 74 75 45 80 56 48 86 61 51 92 66 54 98 71 57 104 76 42 110 57 45 78 62 48 84 67 51 90 72 54 96 77 57 102 58 42 108 63 45 76 68 48 82 73 51 88 78 54 94 59 57 100 64 42 106 69 45 74 74 48 80 79 51 86 60 54 92 65 57 98 70 42 104 75 45 110 56 48 78 61 51 84 66 54 90 71 57 96 76 42 102 57 45 108 62 48 76 67 51 82 72 54 88 77 57 94 58 42 100 63 45 106 68 48 74 73 51 80 78 54 86 59 57 92 64 42 98 69 45 104 74 48 110 79 51 78 60 54 84 65 57 90 70 42 96 75 45 102 56 48 108 61 51 76 66 54 82 71 57 88 76 42 94 57 45 100 62 48 106 67 51 74 72 54 80 77 57 86 58 42 92 63 45 98 68 48 104 73 51 110 78 54 78 59 57 84 64 42 90 69 45 96 74 48 102 79 51 108 60 54 76 65 57 82 70 42 88 75 45 94 56 48 100 61 51 106 66 54 74 71 57 80 76 42 86 57 45 92 62 48 98 67 51 104 72 54 110 77 57 78 58 42 84 63 45 90 68 48 96 73 51 102 78 54 108 59 57 76 64 42 82 69 45 88 74 48 94 79 51 100 60 54 106 65 57 74 70 42 80 75 45 86 56 48 92 61 51 98 66 54 104 71 57 110 76 42 78 57 45 84 62 48 90 67 51 96 72 54 102 77 57 108 58 42 76 63 45 82 68 48 88 73 51 94 78 54 100 59 57 106 64 42 74 69 45 80 74 48 86 79 51
77 70 56 83 75 59 89 56 44 95 61 47 101 66 50 107 71 53 75 76 56 81 57 59 87 62 44 93 67 47 99 72 50 105 77 53 111 58 56 79 63 59 85 68 44 91 73 47 97 78 50 103 59 53 109 64 56 77 69 59 83 74 44 89 79 47 95 60 50 101 65 53 107 70 56 75 75 59 81 56 44 87 61 47 93 66 50 99 71 53 105 76 56 111 57 59 79 62 44 85 67 47 91 72 50 97 77 53 103 58 56 109 63 59 77 68 44 83 73 47 89 78 50 95 59 53 101 64 56 107 69 59 75 74 44 81 79 47 87 60 50 93 65 53 99 70 56 105 75 59 111 56 44 79 61 47 85 66 50 91 71 53 97 76 56 103 57 59 109 62 44 77 67 47 83 72 50 89 77 53 95 58 56 101 63 59 107 68 44 75 73 47 81 78 50 87 59 53 93 64 56 99 69 59 105 74 44 111 79 47 79 60 50 85 65 53 91 70 56 97 75 59 103 56 44 109 61 47 77 66 50 83 71 53 89 76 56 95 57 59 101 62 44 107 67 47 75 72 50 81 77 53 87 58 56 93 63 59 99 68 44 105 73 47 111 78 50 79 59 53 85 64 56 91 69 59 97 74 44 103 79 47 109 60 50 77 65 53 83 70 56 89 75 59 95 56 44 101 61 47 107 66 50 75 71 53 81 76 56 87 57 59 93 62 44 99 67 47 105 72 50 111 77 53 79 58 56 85 63 59 91 68 44 97 73 47 103 78 50 109 59 53 77 64 56 83 69 59 89 74 44 95 79 47 101 60 50 107 65 53 75 70 56 81 75 59 87 56 44 93 61 47 99 66 50 105 71 53 111 76 56 79 57 59 85 62 44 91 67 47 97 72 50 103 77 53 109 58 56 77 63 59 83 68 44 89 73 47 95 78 50 101 59 53 107 64 56 75 69 59 81 74 44 87 79 47 93 60 50 99 65 53 105 70 56 111 75 59 79 56 44 85 61 47 91 66 50 97 71 53 103 76 56 109 57 59 77 62 44 83 67 47 89 72 50 95 77 53 101 58 56 107 63 59 75 68 44 81 73 47 87 78 50 93 59 53 99 64 56 105 69 59 111 74 44 79 79 47 85 60 50 91 65 53 97 70 56 103 75 59 109 56 44 77 61 47 83 66 50 89 71 53 95 76 56 101 57 59 107 62 44 75 67 47 81 72 50 87 77 53 93 58 56 99 63 59 105 68 44 111 73 47 79 78 50 85 59 53 91 64 56 97 69 59 103 74 44 109 79 47 77 60 50 83 65 53 89 70 56 95 75 59 101 56 44 107 61 47 75 66 50 81 71 53 87 76 56 93 57 59 99 62 44 105 67 47 111 72 50 79 77 53 85 58 56 91 63 59 97 68 44 103 73 47 109 78 50 77 59 53 83 64 56 89 69 59 95 74 44 101 79 47 107 60 50 75 65 53 81 70 56 87 75 59 93 56 44 99 61 47 105 66 50 111 71 53 79 76 56 85 57 59 91 62 44 97 67 47 103 72 50 109 77 53 77 58 56 83 63 59 89 68 44 95 73 47 101 78 50 107 59 53 75 64 56 81 69 59 87 74 44 93 79 47 99 60 50 105 65 53 111 70 56 79 75 59 85 56 44 91 61 47 97 66 50 103 71 53 109 76 56 77 57 59 83 62 44 89 67 47 95 72 50 101 77 53 107 58 56 75 63 59 81 68 44 87 73 47 93 78 50 99 59 53 105 64 56 111 69 59 79 74 44 85 79 47 91 60 50 97 65 53 103 70 56 109 75 59 77 56 44 83 61 47 89 66 50 95 71 53 101 76 56 107 57 59 75 62 44 81 67 47 87 72 50 93 77 53 99 58 56 105 63 59 111 68 44 79 73 47 85 78 50 91 59 53 97 64 56 103 69 59 109 74 44 77 79 47 83 60 50 89 65 53 95 70 56 101 75 59 107 56 44 75 61 47 81 66 50 87 71 53 93 76 56 99 57 59 105 62 44 111 67 47 79 72 50 85 77 53 91 58 56 97 63 59 103 68 44 109 73 47 77 78 50 83 59 53 89 64 56 95 69 59 101 74 44 107 79 47 75 60 50 81 65 53 87 70 56 93 75 59 99 56 44 105 61 47 111 66 50 79 71 53 85 76 56 91 57 59
82 72 46 88 77 49 94 58 52 100 63 55 106 68 58 74 73 43 80 78 46 86 59 49 92 64 52 98 69 55 104 74 58 110 79 43 78 60 46 84 65 49 90 70 52 96 75 55 102 56 58 108 61 43 76 66 46 82 71 49 88 76 52 94 57 55 100 62 58 106 67 43 74 72 46 80 77 49 86 58 52 92 63 55 98 68 58 104 73 43 110 78 46 78 59 49 84 64 52 90 69 55 96 74 58 102 79 43 108 60 46 76 65 49 82 70 52 88 75 55 94 56 58 100 61 43 106 66 46 74 71 49 80 76 52 86 57 55 92 62 58 98 67 43 104 72 46 110 77 49 78 58 52 84 63 55 90 68 58 96 73 43 102 78 46 108 59 49 76 64 52 82 69 55 88 74 58 94 79 43 100 60 46 106 65 49 74 70 52 80 75 55 86 56 58 92 61 43 98 66 46 104 71 49 110 76 52 78 57 55 84 62 58 90 67 43 96 72 46 102 77 49 108 58 52 76 63 55 82 68 58 88 73 43 94 78 46 100 59 49 106 64 52 74 69 55 80 74 58 86 79 43 92 60 46 98 65 49 104 70 52 110 75 55 78 56 58 84 61 43 90 66 46 96 71 49 102 76 52 108 57 55 76 62 58 82 67 43 88 72 46 94 77 49 100 58 52 106 63 55 74 68 58 80 73 43 86 78 46 92 59 49 98 64 52 104 69 55 110 74 58 78 79 43 84 60 46 90 65 49 96 70 52 102 75 55 108 56 58 76 61 43 82 66 46 88 71 49 94 76 52 100 57 55 106 62 58 74 67 43 80 72 46 86 77 49 92 58 52 98 63 55 104 68 58 110 73 43 78 78 46 84 59 49 90 64 52 96 69 55 102 74 58 108 79 43 76 60 46 82 65 49 88 70 52 94 75 55 100 56 58 106 61 43 74 66 46 80 71 49 86 76 52 92 57 55 98 62 58 104 67 43 110 72 46 78 77 49 84 58 52 90 63 55 96 68 58 102 73 43 108 78 46 76 59 49 82 64 52 88 69 55 94 74 58 100 79 43 106 60 46 74 65 49 80 70 52 86 75 55 92 56 58 98 61 43 104 66 46 110 71 49 78 76 52 84 57 55 90 62 58 96 67 43 102 72 46 108 77 49 76 58 52 82 63 55 88 68 58 94 73 43 100 78 46 106 59 49 74 64 52 80 69 55 86 74 58 92 79 43 98 60 46 104 65 49 110 70 52 78 75 55 84 56 58 90 61 43 96 66 46 102 71 49 108 76 52 76 57 55 82 62 58 88 67 43 94 72 46 100 77 49 106 58 52 74 63 55 80 68 58 86 73 43 92 78 46 98 59 49 104 64 52 110 69 55 78 74 58 84 79 43 90 60 46 96 65 49 102 70 52 108 75 55 76 56 58 82 61 43 88 66 46 94 71 49 100 76 52 106 57 55 74 62 58 80 67 43 86 72 46 92 77 49 98 58 52 104 63 55 110 68 58 78 73 43 84 78 46 90 59 49 96 64 52 102 69 55 108 74 58 76 79 43 82 60 46 88 65 49 94 70 52 100 75 55 106 56 58 74 61 43 80 66 46 86 71 49 92 76 52 98 57 55 104 62 58 110 67 43 78 72 46 84 77 49 90 58 52 96 63 55 102 68 58 108 73 43 76 78 46 82 59 49 88 64 52 94 69 55 100 74 58 106 79 43 74 60 46 80 65 49 86 70 52 92 75 55 98 56 58 104 61 43 110 66 46 78 71 49 84 76 52 90 57 55 96 62 58 102 67 43 108 72 46 76 77 49 82 58 52 88 63 55 94 68 58 100 73 43 106 78 46 74 59 49 80 64 52 86 69 55 92 74 58 98 79 43 104 60 46 110 65 49 78 70 52 84 75 55 90 56 58 96 61 43 102 66 46 108 71 49 76 76 52 82 57 55 88 62 58 94 67 43 100 72 46 106 77 49 74 58 52 80 63 55 86 68 58 92 73 43 98 78 46 104 59 49 110 64 52 78 69 55 84 74 58 90 79 43 96 60 46 102 65 49 108 70 52 76 75 55 82 56 58 88 61 43 94 66 46 100 71 49 106 76 52 74 57 55 80 62 58 86 67 43 92 72 46 98 77 49 104 58 52 110 63 55 78 68 58 84 73 43 90 78 46 96 59 49
87 74 54 93 79 57 99 60 42 105 65 45 111 70 48 79 75 51 85 56 54 91 61 57 97 66 42 103 71 45 109 76 48 77 57 51 83 62 54 89 67 57 95 72 42 101 77 45 107 58 48 75 63 51 81 68 54 87 73 57 93 78 42 99 59 45 105 64 48 111 69 51 79 74 54 85 79 57 91 60 42 97 65 45 103 70 48 109 75 51 77 56 54 83 61 57 89 66 42 95 71 45 101 76 48 107 57 51 75 62 54 81 67 57 87 72 42 93 77 45 99 58 48 105 63 51 111 68 54 79 73 57 85 78 42 91 59 45 97 64 48 103 69 51 109 74 54 77 79 57 83 60 42 89 65 45 95 70 48 101 75 51 107 56 54 75 61 57 81 66 42 87 71 45 93 76 48 99 57 51 105 62 54 111 67 57 79 72 42 85 77 45 91 58 48 97 63 51 103 68 54 109 73 57 77 78 42 83 59 45 89 64 48 95 69 51 101 74 54 107 79 57 75 60 42 81 65 45 87 70 48 93 75 51 99 56 54 105 61 57 111 66 42 79 71 45 85 76 48 91 57 51 97 62 54 103 67 57 109 72 42 77 77 45 83 58 48 89 63 51 95 68 54 101 73 57 107 78 42 75 59 45 81 64 48 87 69 51 93 74 54 99 79 57 105 60 42 111 65 45 79 70 48 85 75 51 91 56 54 97 61 57 103 66 42 109 71 45 77 76 48 83 57 51 89 62 54 95 67 57 101 72 42 107 77 45 75 58 48 81 63 51 87 68 54 93 73 57 99 78 42 105 59 45 111 64 48 79 69 51 85 74 54 91 79 57 97 60 42 103 65 45 109 70 48 77 75 51 83 56 54 89 61 57 95 66 42 101 71 45 107 76 48 75 57 51 81 62 54 87 67 57 93 72 42 99 77 45 105 58 48 111 63 51 79 68 54 85 73 57 91 78 42 97 59 45 103 64 48 109 69 51 77 74 54 83 79 57 89 60 42 95 65 45 101 70 48 107 75 51 75 56 54 81 61 57 87 66 42 93 71 45 99 76 48 105 57 51 111 62 54 79 67 57 85 72 42 91 77 45 97 58 48 103 63 51 109 68 54 77 73 57 83 78 42 89 59 45 95 64 48 101 69 51 107 74 54 75 79 57 81 60 42 87 65 45 93 70 48 99 75 51 105 56 54 111 61 57 79 66 42 85 71 45 91 76 48 97 57 51 103 62 54 109 67 57 77 72 42 83 77 45 89 58 48 95 63 51 101 68 54 107 73 57 75 78 42 81 59 45 87 64 48 93 69 51 99 74 54 105 79 57 111 60 42 79 65 45 85 70 48 91 75 51 97 56 54 103 61 57 109 66 42 77 71 45 83 76 48 89 57 51 95 62 54 101 67 57 107 72 42 75 77 45 81 58 48 87 63 51 93 68 54 99 73 57 105 78 42 111 59 45 79 64 48 85 69 51 91 74 54 97 79 57 103 60 42 109 65 45 77 70 48 83 75 51 89 56 54 95 61 57 101 66 42 107 71 45 75 76 48 81 57 51 87 62 54 93 67 57 99 72 42 105 77 45 111 58 48 79 63 51 85 68 54 91 73 57 97 78 42 103 59 45 109 64 48 77 69 51 83 74 54 89 79 57 95 60 42 101 65 45 107 70 48 75 75 51 81 56 54 87 61 57 93 66 42 99 71 45 105 76 48 111 57 51 79 62 54 85 67 57 91 72 42 97 77 45 103 58 48 109 63 51 77 68 54 83 73 57 89 78 42 95 59 45 101 64 48 107 69 51 75 74 54 81 79 57 87 60 42 93 65 45 99 70 48 105 75 51 111 56 54 79 61 57 85 66 42 91 71 45 97 76 48 103 57 51 109 62 54 77 67 57 83 72 42 89 77 45 95 58 48 101 63 51 107 68 54 75 73 57 81 78 42 87 59 45 93 64 48 99 69 51 105 74 54 111 79 57 79 60 42 85 65 45 91 70 48 97 75 51 103 56 54 109 61 57 77 66 42 83 71 45 89 76 48 95 57 51 101 62 54 107 67 57 75 72 42 81 77 45 87 58 48 93 63 51 99 68 54 105 73 57 111 78 42 79 59 45 85 64 48 91 69 51 97 74 54 103 79 57 109 60 42 77 65 45 83 70 48 89 75 51 95 56 54 101 61 57
92 76 44 98 57 47 104 62 50 110 67 53 78 72 56 84 77 59 90 58 44 96 63 47 102 68 50 108 73 53 76 78 56 82 59 59 88 64 44 94 69 47 100 74 50 106 79 53 74 60 56 80 65 59 86 70 44 92 75 47 98 56 50 104 61 53 110 66 56 78 71 59 84 76 44 90 57 47 96 62 50 102 67 53 108 72 56 76 77 59 82 58 44 88 63 47 94 68 50 100 73 53 106 78 56 74 59 59 80 64 44 86 69 47 92 74 50 98 79 53 104 60 56 110 65 59 78 70 44 84 75 47 90 56 50 96 61 53 102 66 56 108 71 59 76 76 44 82 57 47 88 62 50 94 67 53 100 72 56 106 77 59 74 58 44 80 63 47 86 68 50 92 73 53 98 78 56 104 59 59 110 64 44 78 69 47 84 74 50 90 79 53 96 60 56 102 65 59 108 70 44 76 75 47 82 56 50 88 61 53 94 66 56 100 71 59 106 76 44 74 57 47 80 62 50 86 67 53 92 72 56 98 77 59 104 58 44 110 63 47 78 68 50 84 73 53 90 78 56 96 59 59 102 64 44 108 69 47 76 74 50 82 79 53 88 60 56 94 65 59 100 70 44 106 75 47 74 56 50 80 61 53 86 66 56 92 71 59 98 76 44 104 57 47 110 62 50 78 67 53 84 72 56 90 77 59 96 58 44 102 63 47 108 68 50 76 73 53 82 78 56 88 59 59 94 64 44 100 69 47 106 74 50 74 79 53 80 60 56 86 65 59 92 70 44 98 75 47 104 56 50 110 61 53 78 66 56 84 71 59 90 76 44 96 57 47 102 62 50 108 67 53 76 72 56 82 77 59 88 58 44 94 63 47 100 68 50 106 73 53 74 78 56 80 59 59 86 64 44 92 69 47 98 74 50 104 79 53 110 60 56 78 65 59 84 70 44 90 75 47 96 56 50 102 61 53 108 66 56 76 71 59 82 76 44 88 57 47 94 62 50 100 67 53 106 72 56 74 77 59 80 58 44 86 63 47 92 68 50 98 73 53 104 78 56 110 59 59 78 64 44 84 69 47 90 74 50 96 79 53 102 60 56 108 65 59 76 70 44 82 75 47 88 56 50 94 61 53 100 66 56 106 71 59 74 76 44 80 57 47 86 62 50 92 67 53 98 72 56 104 77 59 110 58 44 78 63 47 84 68 50 90 73 53 96 78 56 102 59 59 108 64 44 76 69 47 82 74 50 88 79 53 94 60 56 100 65 59 106 70 44 74 75 47 80 56 50 86 61 53 92 66 56 98 71 59 104 76 44 110 57 47 78 62 50 84 67 53 90 72 56 96 77 59 102 58 44 108 63 47 76 68 50 82 73 53 88 78 56 94 59 59 100 64 44 106 69 47 74 74 50 80 79 53 86 60 56 92 65 59 98 70 44 104 75 47 110 56 50 78 61 53 84 66 56 90 71 59 96 76 44 102 57 47 108 62 50 76 67 53 82 72 56 88 77 59 94 58 44 100 63 47 106 68 50 74 73 53 80 78 56 86 59 59 92 64 44 98 69 47 104 74 50 110 79 53 78 60 56 84 65 59 90 70 44 96 75 47 102 56 50 108 61 53 76 66 56 82 71 59 88 76 44 94 57 47 100 62 50 106 67 53 74 72 56 80 77 59 86 58 44 92 63 47 98 68 50 104 73 53 110 78 56 78 59 59 84 64 44 90 69 47 96 74 50 102 79 53 108 60 56 76 65 59 82 70 44 88 75 47 94 56 50 100 61 53 106 66 56 74 71 59 80 76 44 86 57 47 92 62 50 98 67 53 104 72 56 110 77 59 78 58 44 84 63 47 90 68 50 96 73 53 102 78 56 108 59 59 76 64 44 82 69 47 88 74 50 94 79 53 100 60 56 106 65 59 74 70 44 80 75 47 86 56 50 92 61 53 98 66 56 104 71 59 110 76 44 78 57 47 84 62 50 90 67 53 96 72 56 102 77 59 108 58 44 76 63 47 82 68 50 88 73 53 94 78 56 100 59 59 106 64 44 74 69 47 80 74 50 86 79 53 92 60 56 98 65 59 104 70 44 110 75 47 78 56 50 84 61 53 90 66 56 96 71 59 102 76 44 108 57 47 76 62 50 82 67 53 88 72 56 94 77 59 100 58 44 106 63 47
97 78 52 103 59 55 109 64 58 77 69 43 83 74 46 89 79 49 95 60 52 101 65 55 107 70 58 75 75 43 81 56 46 87 61 49 93 66 52 99 71 55 105 76 58 111 57 43 79 62 46 85 67 49 91 72 52 97 77 55 103 58 58 109 63 43 77 68 46 83 73 49 89 78 52 95 59 55 101 64 58 107 69 43 75 74 46 81 79 49 87 60 52 93 65 55 99 70 58 105 75 43 111 56 46 79 61 49 85 66 52 91 71 55 97 76 58 103 57 43 109 62 46 77 67 49 83 72 52 89 77 55 95 58 58 101 63 43 107 68 46 75 73 49 81 78 52 87 59 55 93 64 58 99 69 43 105 74 46 111 79 49 79 60 52 85 65 55 91 70 58 97 75 43 103 56 46 109 61 49 77 66 52 83 71 55 89 76 58 95 57 43 101 62 46 107 67 49 75 72 52 81 77 55 87 58 58 93 63 43 99 68 46 105 73 49 111 78 52 79 59 55 85 64 58 91 69 43 97 74 46 103 79 49 109 60 52 77 65 55 83 70 58 89 75 43 95 56 46 101 61 49 107 66 52 75 71 55 81 76 58 87 57 43 93 62 46 99 67 49 105 72 52 111 77 55 79 58 58 85 63 43 91 68 46 97 73 49 103 78 52 109 59 55 77 64 58 83 69 43 89 74 46 95 79 49 101 60 52 107 65 55 75 70 58 81 75 43 87 56 46 93 61 49 99 66 52 105 71 55 111 76 58 79 57 43 85 62 46 91 67 49 97 72 52 103 77 55 109 58 58 77 63 43 83 68 46 89 73 49 95 78 52 101 59 55 107 64 58 75 69 43 81 74 46 87 79 49 93 60 52 99 65 55 105 70 58 111 75 43 79 56 46 85 61 49 91 66 52 97 71 55 103 76 58 109 57 43 77 62 46 83 67 49 89 72 52 95 77 55 101 58 58 107 63 43 75 68 46 81 73 49 87 78 52 93 59 55 99 64 58 105 69 43 111 74 46 79 79 49 85 60 52 91 65 55 97 70 58 103 75 43 109 56 46 77 61 49 83 66 52 89 71 55 95 76 58 101 57 43 107 62 46 75 67 49 81 72 52 87 77 55 93 58 58 99 63 43 105 68 46 111 73 49 79 78 52 85 59 55 91 64 58 97 69 43 103 74 46 109 79 49 77 60 52 83 65 55 89 70 58 95 75 43 101 56 46 107 61 49 75 66 52 81 71 55 87 76 58 93 57 43 99 62 46 105 67 49 111 72 52 79 77 55 85 58 58 91 63 43 97 68 46 103 73 49 109 78 52 77 59 55 83 64 58 89 69 43 95 74 46 101 79 49 107 60 52 75 65 55 81 70 58 87 75 43 93 56 46 99 61 49 105 66 52 111 71 55 79 76 58 85 57 43 91 62 46 97 67 49 103 72 52 109 77 55 77 58 58 83 63 43 89 68 46 95 73 49 101 78 52 107 59 55 75 64 58 81 69 43 87 74 46 93 79 49 99 60 52 105 65 55 111 70 58 79 75 43 85 56 46 91 61 49 97 66 52 103 71 55 109 76 58 77 57 43 83 62 46 89 67 49 95 72 52 101 77 55 107 58 58 75 63 43 81 68 46 87 73 49 93 78 52 99 59 55 105 64 58 111 69 43 79 74 46 85 79 49 91 60 52 97 65 55 103 70 58 109 75 43 77 56 46 83 61 49 89 66 52 95 71 55 101 76 58 107 57 43 75 62 46 81 67 49 87 72 52 93 77 55 99 58 58 105 63 43 111 68 46 79 73 49 85 78 52 91 59 55 97 64 58 103 69 43 109 74 46 77 79 49 83 60 52 89 65 55 95 70 58 101 75 43 107 56 46 75 61 49 81 66 52 87 71 55 93 76 58 99 57 43 105 62 46 111 67 49 79 72 52 85 77 55 91 58 58 97 63 43 103 68 46 109 73 49 77 78 52 83 59 55 89 64 58 95 69 43 101 74 46 107 79 49 75 60 52 81 65 55 87 70 58 93 75 43 99 56 46 105 61 49 111 66 52 79 71 55 85 76 58 91 57 43 97 62 46 103 67 49 109 72 52 77 77 55 83 58 58 89 63 43 95 68 46 101 73 49 107 78 52 75 59 55 81 64 58 87 69 43 93 74 46 99 79 49 105 60 52 111 65 55
102 56 42 108 61 45 76 66 48 82 71 51 88 76 54 94 57 57 100 62 42 106 67 45 74 72 48 80 77 51 86 58 54 92 63 57 98 68 42 104 73 45 110 78 48 78 59 51 84 64 54 90 69 57 96 74 42 102 79 45 108 60 48 76 65 51 82 70 54 88 75 57 94 56 42 100 61 45 106 66 48 74 71 51 80 76 54 86 57 57 92 62 42 98 67 45 104 72 48 110 77 51 78 58 54 84 63 57 90 68 42 96 73 45 102 78 48 108 59 51 76 64 54 82 69 57 88 74 42 94 79 45 100 60 48 106 65 51 74 70 54 80 75 57 86 56 42 92 61 45 98 66 48 104 71 51 110 76 54 78 57 57 84 62 42 90 67 45 96 72 48 102 77 51 108 58 54 76 63 57 82 68 42 88 73 45 94 78 48 100 59 51 106 64 54 74 69 57 80 74 42 86 79 45 92 60 48 98 65 51 104 70 54 110 75 57 78 56 42 84 61 45 90 66 48 96 71 51 102 76 54 108 57 57 76 62 42 82 67 45 88 72 48 94 77 51 100 58 54 106 63 57 74 68 42 80 73 45 86 78 48 92 59 51 98 64 54 104 69 57 110 74 42 78 79 45 84 60 48 90 65 51 96 70 54 102 75 57 108 56 42 76 61 45 82 66 48 88 71 51 94 76 54 100 57 57 106 62 42 74 67 45 80 72 48 86 77 51 92 58 54 98 63 57 104 68 42 110 73 45 78 78 48 84 59 51 90 64 54 96 69 57 102 74 42 108 79 45 76 60 48 82 65 51 88 70 54 94 75 57 100 56 42 106 61 45 74 66 48 80 71 51 86 76 54 92 57 57 98 62 42 104 67 45 110 72 48 78 77 51 84 58 54 90 63 57 96 68 42 102 73 45 108 78 48 76 59 51 82 64 54 88 69 57 94 74 42 100 79 45 106 60 48 74 65 51 80 70 54 86 75 57 92 56 42 98 61 45 104 66 48 110 71 51 78 76 54 84 57 57 90 62 42 96 67 45 102 72 48 108 77 51 76 58 54 82 63 57 88 68 42 94 73 45 100 78 48 106 59 51 74 64 54 80 69 57 86 74 42 92 79 45 98 60 48 104 65 51 110 70 54 78 75 57 84 56 42 90 61 45 96 66 48 102 71 51 108 76 54 76 57 57 82 62 42 88 67 45 94 72 48 100 77 51 106 58 54 74 63 57 80 68 42 86 73 45 92 78 48 98 59 51 104 64 54 110 69 57 78 74 42 84 79 45 90 60 48 96 65 51 102 70 54 108 75 57 76 56 42 82 61 45 88 66 48 94 71 51 100 76 54 106 57 57 74 62 42 80 67 45 86 72 48 92 77 51 98 58 54 104 63 57 110 68 42 78 73 45 84 78 48 90 59 51 96 64 54 102 69 57 108 74 42 76 79 45 82 60 48 88 65 51 94 70 54 100 75 57 106 56 42 74 61 45 80 66 48 86 71 51 92 76 54 98 57 57 104 62 42 110 67 45 78 72 48 84 77 51 90 58 54 96 63 57 102 68 42 108 73 45 76 78 48 82 59 51 88 64 54 94 69 57 100 74 42 106 79 45 74 60 48 80 65 51 86 70 54 92 75 57 98 56 42 104 61 45 110 66 48 78 71 51 84 76 54 90 57 57 96 62 42 102 67 45 108 72 48 76 77 51 82 58 54 88 63 57 94 68 42 100 73 45 106 78 48 74 59 51 80 64 54 86 69 57 92 74 42 98 79 45 104 60 48 110 65 51 78 70 54 84 75 57 90 56 42 96 61 45 102 66 48 108 71 51 76 76 54 82 57 57 88 62 42 94 67 45 100 72 48 106 77 51 74 58 54 80 63 57 86 68 42 92 73 45 98 78 48 104 59 51 110 64 54 78 69 57 84 74 42 90 79 45 96 60 48 102 65 51 108 70 54 76 75 57 82 56 42 88 61 45 94 66 48 100 71 51 106 76 54 74 57 57 80 62 42 86 67 45 92 72 48 98 77 51 104 58 54 110 63 57 78 68 42 84 73 45 90 78 48 96 59 51 102 64 54 108 69 57 76 74 42 82 79 45 88 60 48 94 65 51 100 70 54 106 75 57 74 56 42 80 61 45 86 66 48 92 71 51 98 76 54 104 57 57 110 62 42 78 67 45
107 58 50 75 63 53 81 68 56 87 73 59 93 78 44 99 59 47 105 64 50 111 69 53 79 74 56 85 79 59 91 60 44 97 65 47 103 70 50 109 75 53 77 56 56 83 61 59 89 66 44 95 71 47 101 76 50 107 57 53 75 62 56 81 67 59 87 72 44 93 77 47 99 58 50 105 63 53 111 68 56 79 73 59 85 78 44 91 59 47 97 64 50 103 69 53 109 74 56 77 79 59 83 60 44 89 65 47 95 70 50 101 75 53 107 56 56 75 61 59 81 66 44 87 71 47 93 76 50 99 57 53 105 62 56 111 67 59 79 72 44 85 77 47 91 58 50 97 63 53 103 68 56 109 73 59 77 78 44 83 59 47 89 64 50 95 69 53 101 74 56 107 79 59 75 60 44 81 65 47 87 70 50 93 75 53 99 56 56 105 61 59 111 66 44 79 71 47 85 76 50 91 57 53 97 62 56 103 67 59 109 72 44 77 77 47 83 58 50 89 63 53 95 68 56 101 73 59 107 78 44 75 59 47 81 64 50 87 69 53 93 74 56 99 79 59 105 60 44 111 65 47 79 70 50 85 75 53 91 56 56 97 61 59 103 66 44 109 71 47 77 76 50 83 57 53 89 62 56 95 67 59 101 72 44 107 77 47 75 58 50 81 63 53 87 68 56 93 73 59 99 78 44 105 59 47 111 64 50 79 69 53 85 74 56 91 79 59 97 60 44 103 65 47 109 70 50 77 75 53 83 56 56 89 61 59 95 66 44 101 71 47 107 76 50 75 57 53 81 62 56 87 67 59 93 72 44 99 77 47 105 58 50 111 63 53 79 68 56 85 73 59 91 78 44 97 59 47 103 64 50 109 69 53 77 74 56 83 79 59 89 60 44 95 65 47 101 70 50 107 75 53 75 56 56 81 61 59 87 66 44 93 71 47 99 76 50 105 57 53 111 62 56 79 67 59 85 72 44 91 77 47 97 58 50 103 63 53 109 68 56 77 73 59 83 78 44 89 59 47 95 64 50 101 69 53 107 74 56 75 79 59 81 60 44 87 65 47 93 70 50 99 75 53 105 56 56 111 61 59 79 66 44 85 71 47 91 76 50 97 57 53 103 62 56 109 67 59 77 72 44 83 77 47 89 58 50 95 63 53 101 68 56 107 73 59 75 78 44 81 59 47 87 64 50 93 69 53 99 74 56 105 79 59 111 60 44 79 65 47 85 70 50 91 75 53 97 56 56 103 61 59 109 66 44 77 71 47 83 76 50 89 57 53 95 62 56 101 67 59 107 72 44 75 77 47 81 58 50 87 63 53 93 68 56 99 73 59 105 78 44 111 59 47 79 64 50 85 69 53 91 74 56 97 79 59 103 60 44 109 65 47 77 70 50 83 75 53 89 56 56 95 61 59 101 66 44 107 71 47 75 76 50 81 57 53 87 62 56 93 67 59 99 72 44 105 77 47 111 58 50 79 63 53 85 68 56 91 73 59 97 78 44 103 59 47 109 64 50 77 69 53 83 74 56 89 79 59 95 60 44 101 65 47 107 70 50 75 75 53 81 56 56 87 61 59 93 66 44 99 71 47 105 76 50 111 57 53 79 62 56 85 67 59 91 72 44 97 77 47 103 58 50 109 63 53 77 68 56 83 73 59 89 78 44 95 59 47 101 64 50 107 69 53 75 74 56 81 79 59 87 60 44 93 65 47 99 70 50 105 75 53 111 56 56 79 61 59 85 66 44 91 71 47 97 76 50 103 57 53 109 62 56 77 67 59 83 72 44 89 77 47 95 58 50 101 63 53 107 68 56 75 73 59 81 78 44 87 59 47 93 64 50 99 69 53 105 74 56 111 79 59 79 60 44 85 65 47 91 70 50 97 75 53 103 56 56 109 61 59 77 66 44 83 71 47 89 76 50 95 57 53 101 62 56 107 67 59 75 72 44 81 77 47 87 58 50 93 63 53 99 68 56 105 73 59 111 78 44 79 59 47 85 64 50 91 69 53 97 74 56 103 79 59 109 60 44 77 65 47 83 70 50 89 75 53 95 56 56 101 61 59 107 66 44 75 71 47 81 76 50 87 57 53 93 62 56 99 67 59 105 72 44 111 77 47 79 58 50 85 63 53 91 68 56 97 73 59 103 78 44 109 59 47 77 64 50 83 69 53
74 60 58 80 65 43 86 70 46 92 75 49 98 56 52 104 61 55 110 66 58 78 71 43 84 76 46 90 57 49 96 62 52 102 67 55 108 72 58 76 77 43 82 58 46 88 63 49 94 68 52 100 73 55 106 78 58 74 59 43 80 64 46 86 69 49 92 74 52 98 79 55 104 60 58 110 65 43 78 70 46 84 75 49 90 56 52 96 61 55 102 66 58 108 71 43 76 76 46 82 57 49 88 62 52 94 67 55 100 72 58 106 77 43 74 58 46 80 63 49 86 68 52 92 73 55 98 78 58 104 59 43 110 64 46 78 69 49 84 74 52 90 79 55 96 60 58 102 65 43 108 70 46 76 75 49 82 56 52 88 61 55 94 66 58 100 71 43 106 76 46 74 57 49 80 62 52 86 67 55 92 72 58 98 77 43 104 58 46 110 63 49 78 68 52 84 73 55 90 78 58 96 59 43 102 64 46 108 69 49 76 74 52 82 79 55 88 60 58 94 65 43 100 70 46 106 75 49 74 56 52 80 61 55 86 66 58 92 71 43 98 76 46 104 57 49 110 62 52 78 67 55 84 72 58 90 77 43 96 58 46 102 63 49 108 68 52 76 73 55 82 78 58 88 59 43 94 64 46 100 69 49 106 74 52 74 79 55 80 60 58 86 65 43 92 70 46 98 75 49 104 56 52 110 61 55 78 66 58 84 71 43 90 76 46 96 57 49 102 62 52 108 67 55 76 72 58 82 77 43 88 58 46 94 63 49 100 68 52 106 73 55 74 78 58 80 59 43 86 64 46 92 69 49 98 74 52 104 79 55 110 60 58 78 65 43 84 70 46 90 75 49 96 56 52 102 61 55 108 66 58 76 71 43 82 76 46 88 57 49 94 62 52 100 67 55 106 72 58 74 77 43 80 58 46 86 63 49 92 68 52 98 73 55 104 78 58 110 59 43 78 64 46 84 69 49 90 74 52 96 79 55 102 60 58 108 65 43 76 70 46 82 75 49 88 56 52 94 61 55 100 66 58 106 71 43 74 76 46 80 57 49 86 62 52 92 67 55 98 72 58 104 77 43 110 58 46 78 63 49 84 68 52 90 73 55 96 78 58 102 59 43 108 64 46 76 69 49 82 74 52 88 79 55 94 60 58 100 65 43 106 70 46 74 75 49 80 56 52 86 61 55 92 66 58 98 71 43 104 76 46 110 57 49 78 62 52 84 67 55 90 72 58 96 77 43 102 58 46 108 63 49 76 68 52 82 73 55 88 78 58 94 59 43 100 64 46 106 69 49 74 74 52 80 79 55 86 60 58 92 65 43 98 70 46 104 75 49 110 56 52 78 61 55 84 66 58 90 71 43 96 76 46 102 57 49 108 62 52 76 67 55 82 72 58 88 77 43 94 58 46 100 63 49 106 68 52 74 73 55 80 78 58 86 59 43 92 64 46 98 69 49 104 74 52 110 79 55 78 60 58 84 65 43 90 70 46 96 75 49 102 56 52 108 61 55 76 66 58 82 71 43 88 76 46 94 57 49 100 62 52 106 67 55 74 72 58 80 77 43 86 58 46 92 63 49 98 68 52 104 73 55 110 78 58 78 59 43 84 64 46 90 69 49 96 74 52 102 79 55 108 60 58 76 65 43 82 70 46 88 75 49 94 56 52 100 61 55 106 66 58 74 71 43 80 76 46 86 57 49 92 62 52 98 67 55 104 72 58 110 77 43 78 58 46 84 63 49 90 68 52 96 73 55 102 78 58 108 59 43 76 64 46 82 69 49 88 74 52 94 79 55 100 60 58 106 65 43 74 70 46 80 75 49 86 56 52 92 61 55 98 66 58 104 71 43 110 76 46 78 57 49 84 62 52 90 67 55 96 72 58 102 77 43 108 58 46 76 63 49 82 68 52 88 73 55 94 78 58 100 59 43 106 64 46 74 69 49 80 74 52 86 79 55 92 60 58 98 65 43 104 70 46 110 75 49 78 56 52 84 61 55 90 66 58 96 71 43 102 76 46 108 57 49 76 62 52 82 67 55 88 72 58 94 77 43 100 58 46 106 63 49 74 68 52 80 73 55 86 78 58 92 59 43 98 64 46 104 69 49 110 74 52 78 79 55 84 60 58 90 65 43 96 70 46 102 75 49 108 56 52 76 61 55 82 66 58 88 71 43
79 62 48 85 67 51 91 72 54 97 77 57 103 58 42 109 63 45 77 68 48 83 73 51 89 78 54 95 59 57 101 64 42 107 69 45 75 74 48 81 79 51 87 60 54 93 65 57 99 70 42 105 75 45 111 56 48 79 61 51 85 66 54 91 71 57 97 76 42 103 57 45 109 62 48 77 67 51 83 72 54 89 77 57 95 58 42 101 63 45 107 68 48 75 73 51 81 78 54 87 59 57 93 64 42 99 69 45 105 74 48 111 79 51 79 60 54 85 65 57 91 70 42 97 75 45 103 56 48 109 61 51 77 66 54 83 71 57 89 76 42 95 57 45 101 62 48 107 67 51 75 72 54 81 77 57 87 58 42 93 63 45 99 68 48 105 73 51 111 78 54 79 59 57 85 64 42 91 69 45 97 74 48 103 79 51 109 60 54 77 65 57 83 70 42 89 75 45 95 56 48 101 61 51 107 66 54 75 71 57 81 76 42 87 57 45 93 62 48 99 67 51 105 72 54 111 77 57 79 58 42 85 63 45 91 68 48 97 73 51 103 78 54 109 59 57 77 64 42 83 69 45 89 74 48 95 79 51 101 60 54 107 65 57 75 70 42 81 75 45 87 56 48 93 61 51 99 66 54 105 71 57 111 76 42 79 57 45 85 62 48 91 67 51 97 72 54 103 77 57 109 58 42 77 63 45 83 68 48 89 73 51 95 78 54 101 59 57 107 64 42 75 69 45 81 74 48 87 79 51 93 60 54 99 65 57 105 70 42 111 75 45 79 56 48 85 61 51 91 66 54 97 71 57 103 76 42 109 57 45 77 62 48 83 67 51 89 72 54 95 77 57 101 58 42 107 63 45 75 68 48 81 73 51 87 78 54 93 59 57 99 64 42 105 69 45 111 74 48 79 79 51 85 60 54 91 65 57 97 70 42 103 75 45 109 56 48 77 61 51 83 66 54 89 71 57 95 76 42 101 57 45 107 62 48 75 67 51 81 72 54 87 77 57 93 58 42 99 63 45 105 68 48 111 73 51 79 78 54 85 59 57 91 64 42 97 69 45 103 74 48 109 79 51 77 60 54 83 65 57 89 70 42 95 75 45 101 56 48 107 61 51 75 66 54 81 71 57 87 76 42 93 57 45 99 62 48 105 67 51 111 72 54 79 77 57 85 58 42 91 63 45 97 68 48 103 73 51 109 78 54 77 59 57 83 64 42 89 69 45 95 74 48 101 79 51 107 60 54 75 65 57 81 70 42 87 75 45 93 56 48 99 61 51 105 66 54 111 71 57 79 76 42 85 57 45 91 62 48 97 67 51 103 72 54 109 77 57 77 58 42 83 63 45 89 68 48 95 73 51 101 78 54 107 59 57 75 64 42 81 69 45 87 74 48 93 79 51 99 60 54 105 65 57 111 70 42 79 75 45 85 56 48 91 61 51 97 66 54 103 71 57 109 76 42 77 57 45 83 62 48 89 67 51 95 72 54 101 77 57 107 58 42 75 63 45 81 68 48 87 73 51 93 78 54 99 59 57 105 64 42 111 69 45 79 74 48 85 79 51 91 60 54 97 65 57 103 70 42 109 75 45 77 56 48 83 61 51 89 66 54 95 71 57 101 76 42 107 57 45 75 62 48 81 67 51 87 72 54 93 77 57 99 58 42 105 63 45 111 68 48 79 73 51 85 78 54 91 59 57 97 64 42 103 69 45 109 74 48 77 79 51 83 60 54 89 65 57 95 70 42 101 75 45 107 56 48 75 61 51 81 66 54 87 71 57 93 76 42 99 57 45 105 62 48 111 67 51 79 72 54 85 77 57 91 58 42 97 63 45 103 68 48 109 73 51 77 78 54 83 59 57 89 64 42 95 69 45 101 74 48 107 79 51 75 60 54 81 65 57 87 70 42 93 75 45 99 56 48 105 61 51 111 66 54 79 71 57 85 76 42 91 57 45 97 62 48 103 67 51 109 72 54 77 77 57 83 58 42 89 63 45 95 68 48 101 73 51 107 78 54 75 59 57 81 64 42 87 69 45 93 74 48 99 79 51 105 60 54 111 65 57 79 70 42 85 75 45 91 56 48 97 61 51 103 66 54 109 71 57 77 76 42 83 57 45 89 62 48 95 67 51 101 72 54 107 77 57 75 58 42 81 63 45 87 68 48 93 73 51
84 64 56 90 69 59 96 74 44 102 79 47 108 60 50 76 65 53 82 70 56 88 75 59 94 56 44 100 61 47 106 66 50 74 71 53 80 76 56 86 57 59 92 62 44 98 67 47 104 72 50 110 77 53 78 58 56 84 63 59 90 68 44 96 73 47 102 78 50 108 59 53 76 64 56 82 69 59 88 74 44 94 79 47 100 60 50 106 65 53 74 70 56 80 75 59 86 56 44 92 61 47 98 66 50 104 71 53 110 76 56 78 57 59 84 62 44 90 67 47 96 72 50 102 77 53 108 58 56 76 63 59 82 68 44 88 73 47 94 78 50 100 59 53 106 64 56 74 69 59 80 74 44 86 79 47 92 60 50 98 65 53 104 70 56 110 75 59 78 56 44 84 61 47 90 66 50 96 71 53 102 76 56 108 57 59 76 62 44 82 67 47 88 72 50 94 77 53 100 58 56 106 63 59 74 68 44 80 73 47 86 78 50 92 59 53 98 64 56 104 69 59 110 74 44 78 79 47 84 60 50 90 65 53 96 70 56 102 75 59 108 56 44 76 61 47 82 66 50 88 71 53 94 76 56 100 57 59 106 62 44 74 67 47 80 72 50 86 77 53 92 58 56 98 63 59 104 68 44 110 73 47 78 78 50 84 59 53 90 64 56 96 69 59 102 74 44 108 79 47 76 60 50 82 65 53 88 70 56 94 75 59 100 56 44 106 61 47 74 66 50 80 71 53 86 76 56 92 57 59 98 62 44 104 67 47 110 72 50 78 77 53 84 58 56 90 63 59 96 68 44 102 73 47 108 78 50 76 59 53 82 64 56 88 69 59 94 74 44 100 79 47 106 60 50 74 65 53 80 70 56 86 75 59 92 56 44 98 61 47 104 66 50 110 71 53 78 76 56 84 57 59 90 62 44 96 67 47 102 72 50 108 77 53 76 58 56 82 63 59 88 68 44 94 73 47 100 78 50 106 59 53 74 64 56 80 69 59 86 74 44 92 79 47 98 60 50 104 65 53 110 70 56 78 75 59 84 56 44 90 61 47 96 66 50 102 71 53 108 76 56 76 57 59 82 62 44 88 67 47 94 72 50 100 77 53 106 58 56 74 63 59 80 68 44 86 73 47 92 78 50 98 59 53 104 64 56 110 69 59 78 74 44 84 79 47 90 60 50 96 65 53 102 70 56 108 75 59 76 56 44 82 61 47 88 66 50 94 71 53 100 76 56 106 57 59 74 62 44 80 67 47 86 72 50 92 77 53 98 58 56 104 63 59 110 68 44 78 73 47 84 78 50 90 59 53 96 64 56 102 69 59 108 74 44 76 79 47 82 60 50 88 65 53 94 70 56 100 75 59 106 56 44 74 61 47 80 66 50 86 71 53 92 76 56 98 57 59 104 62 44 110 67 47 78 72 50 84 77 53 90 58 56 96 63 59 102 68 44 108 73 47 76 78 50 82 59 53 88 64 56 94 69 59 100 74 44 106 79 47 74 60 50 80 65 53 86 70 56 92 75 59 98 56 44 104 61 47 110 66 50 78 71 53 84 76 56 90 57 59 96 62 44 102 67 47 108 72 50 76 77 53 82 58 56 88 63 59 94 68 44 100 73 47 106 78 50 74 59 53 80 64 56 86 69 59 92 74 44 98 79 47 104 60 50 110 65 53 78 70 56 84 75 59 90 56 44 96 61 47 102 66 50 108 71 53 76 76 56 82 57 59 88 62 44 94 67 47 100 72 50 106 77 53 74 58 56 80 63 59 86 68 44 92 73 47 98 78 50 104 59 53 110 64 56 78 69 59 84 74 44 90 79 47 96 60 50 102 65 53 108 70 56 76 75 59 82 56 44 88 61 47 94 66 50 100 71 53 106 76 56 74 57 59 80 62 44 86 67 47 92 72 50 98 77 53 104 58 56 110 63 59 78 68 44 84 73 47 90 78 50 96 59 53 102 64 56 108 69 59 76 74 44 82 79 47 88 60 50 94 65 53 100 70 56 106 75 59 74 56 44 80 61 47 86 66 50 92 71 53 98 76 56 104 57 59 110 62 44 78 67 47 84 72 50 90 77 53 96 58 56 102 63 59 108 68 44 76 73 47 82 78 50 88 59 53 94 64 56 100 69 59 106 74 44 74 79 47 80 60 50 86 65 53 92 70 56 98 75 59
89 66 46 95 71 49 101 76 52 107 57 55 75 62 58 81 67 43 87 72 46 93 77 49 99 58 52 105 63 55 111 68 58 79 73 43 85 78 46 91 59 49 97 64 52 103 69 55 109 74 58 77 79 43 83 60 46 89 65 49 95 70 52 101 75 55 107 56 58 75 61 43 81 66 46 87 71 49 93 76 52 99 57 55 105 62 58 111 67 43 79 72 46 85 77 49 91 58 52 97 63 55 103 68 58 109 73 43 77 78 46 83 59 49 89 64 52 95 69 55 101 74 58 107 79 43 75 60 46 81 65 49 87 70 52 93 75 55 99 56 58 105 61 43 111 66 46 79 71 49 85 76 52 91 57 55 97 62 58 103 67 43 109 72 46 77 77 49 83 58 52 89 63 55 95 68 58 101 73 43 107 78 46 75 59 49 81 64 52 87 69 55 93 74 58 99 79 43 105 60 46 111 65 49 79 70 52 85 75 55 91 56 58 97 61 43 103 66 46 109 71 49 77 76 52 83 57 55 89 62 58 95 67 43 101 72 46 107 77 49 75 58 52 81 63 55 87 68 58 93 73 43 99 78 46 105 59 49 111 64 52 79 69 55 85 74 58 91 79 43 97 60 46 103 65 49 109 70 52 77 75 55 83 56 58 89 61 43 95 66 46 101 71 49 107 76 52 75 57 55 81 62 58 87 67 43 93 72 46 99 77 49 105 58 52 111 63 55 79 68 58 85 73 43 91 78 46 97 59 49 103 64 52 109 69 55 77 74 58 83 79 43 89 60 46 95 65 49 101 70 52 107 75 55 75 56 58 81 61 43 87 66 46 93 71 49 99 76 52 105 57 55 111 62 58 79 67 43 85 72 46 91 77 49 97 58 52 103 63 55 109 68 58 77 73 43 83 78 46 89 59 49 95 64 52 101 69 55 107 74 58 75 79 43 81 60 46 87 65 49 93 70 52 99 75 55 105 56 58 111 61 43 79 66 46 85 71 49 91 76 52 97 57 55 103 62 58 109 67 43 77 72 46 83 77 49 89 58 52 95 63 55 101 68 58 107 73 43 75 78 46 81 59 49 87 64 52 93 69 55 99 74 58 105 79 43 111 60 46 79 65 49 85 70 52 91 75 55 97 56 58 103 61 43 109 66 46 77 71 49 83 76 52 89 57 55 95 62 58 101 67 43 107 72 46 75 77 49 81 58 52 87 63 55 93 68 58 99 73 43 105 78 46 111 59 49 79 64 52 85 69 55 91 74 58 97 79 43 103 60 46 109 65 49 77 70 52 83 75 55 89 56 58 95 61 43 101 66 46 107 71 49 75 76 52 81 57 55 87 62 58 93 67 43 99 72 46 105 77 49 111 58 52 79 63 55 85 68 58 91 73 43 97 78 46 103 59 49 109 64 52 77 69 55 83 74 58 89 79 43 95 60 46 101 65 49 107 70 52 75 75 55 81 56 58 87 61 43 93 66 46 99 71 49 105 76 52 111 57 55 79 62 58 85 67 43 91 72 46 97 77 49 103 58 52 109 63 55 77 68 58 83 73 43 89 78 46 95 59 49 101 64 52 107 69 55 75 74 58 81 79 43 87 60 46 93 65 49 99 70 52 105 75 55 111 56 58 79 61 43 85 66 46 91 71 49 97 76 52 103 57 55 109 62 58 77 67 43 83 72 46 89 77 49 95 58 52 101 63 55 107 68 58 75 73 43 81 78 46 87 59 49 93 64 52 99 69 55 105 74 58 111 79 43 79 60 46 85 65 49 91 70 52 97 75 55 103 56 58 109 61 43 77 66 46 83 71 49 89 76 52 95 57 55 101 62 58 107 67 43 75 72 46 81 77 49 87 58 52 93 63 55 99 68 58 105 73 43 111 78 46 79 59 49 85 64 52 91 69 55 97 74 58 103 79 43 109 60 46 77 65 49 83 70 52 89 75 55 95 56 58 101 61 43 107 66 46 75 71 49 81 76 52 87 57 55 93 62 58 99 67 43 105 72 46 111 77 49 79 58 52 85 63 55 91 68 58 97 73 43 103 78 46 109 59 49 77 64 52 83 69 55 89 74 58 95 79 43 101 60 46 107 65 49 75 70 52 81 75 55 87 56 58 93 61 43 99 66 46 105 71 49 111 76 52 79 57 55 85 62 58 91 67 43 97 72 46 103 77 49
94 68 54 100 73 57 106 78 42 74 59 45 80 64 48 86 69 51 92 74 54 98 79 57 104 60 42 110 65 45 78 70 48 84 75 51 90 56 54 96 61 57 102 66 42 108 71 45 76 76 48 82 57 51 88 62 54 94 67 57 100 72 42 106 77 45 74 58 48 80 63 51 86 68 54 92 73 57 98 78 42 104 59 45 110 64 48 78 69 51 84 74 54 90 79 57 96 60 42 102 65 45 108 70 48 76 75 51 82 56 54 88 61 57 94 66 42 100 71 45 106 76 48 74 57 51 80 62 54 86 67 57 92 72 42 98 77 45 104 58 48 110 63 51 78 68 54 84 73 57 90 78 42 96 59 45 102 64 48 108 69 51 76 74 54 82 79 57 88 60 42 94 65 45 100 70 48 106 75 51 74 56 54 80 61 57 86 66 42 92 71 45 98 76 48 104 57 51 110 62 54 78 67 57 84 72 42 90 77 45 96 58 48 102 63 51 108 68 54 76 73 57 82 78 42 88 59 45 94 64 48 100 69 51 106 74 54 74 79 57 80 60 42 86 65 45 92 70 48 98 75 51 104 56 54 110 61 57 78 66 42 84 71 45 90 76 48 96 57 51 102 62 54 108 67 57 76 72 42 82 77 45 88 58 48 94 63 51 100 68 54 106 73 57 74 78 42 80 59 45 86 64 48 92 69 51 98 74 54 104 79 57 110 60 42 78 65 45 84 70 48 90 75 51 96 56 54 102 61 57 108 66 42 76 71 45 82 76 48 88 57 51 94 62 54 100 67 57 106 72 42 74 77 45 80 58 48 86 63 51 92 68 54 98 73 57 104 78 42 110 59 45 78 64 48 84 69 51 90 74 54 96 79 57 102 60 42 108 65 45 76 70 48 82 75 51 88 56 54 94 61 57 100 66 42 106 71 45 74 76 48 80 57 51 86 62 54 92 67 57 98 72 42 104 77 45 110 58 48 78 63 51 84 68 54 90 73 57 96 78 42 102 59 45 108 64 48 76 69 51 82 74 54 88 79 57 94 60 42 100 65 45 106 70 48 74 75 51 80 56 54 86 61 57 92 66 42 98 71 45 104 76 48 110 57 51 78 62 54 84 67 57 90 72 42 96 77 45 102 58 48 108 63 51 76 68 54 82 73 57 88 78 42 94 59 45 100 64 48 106 69 51 74 74 54 80 79 57 86 60 42 92 65 45 98 70 48 104 75 51 110 56 54 78 61 57 84 66 42 90 71 45 96 76 48 102 57 51 108 62 54 76 67 57 82 72 42 88 77 45 94 58 48 100 63 51 106 68 54 74 73 57 80 78 42 86 59 45 92 64 48 98 69 51 104 74 54 110 79 57 78 60 42 84 65 45 90 70 48 96 75 51 102 56 54 108 61 57 76 66 42 82 71 45 88 76 48 94 57 51 100 62 54 106 67 57 74 72 42 80 77 45 86 58 48 92 63 51 98 68 54 104 73 57 110 78 42 78 59 45 84 64 48 90 69 51 96 74 54 102 79 57 108 60 42 76 65 45 82 70 48 88 75 51 94 56 54 100 61 57 106 66 42 74 71 45 80 76 48 86 57 51 92 62 54 98 67 57 104 72 42 110 77 45 78 58 48 84 63 51 90 68 54 96 73 57 102 78 42 108 59 45 76 64 48 82 69 51 88 74 54 94 79 57 100 60 42 106 65 45 74 70 48 80 75 51 86 56 54 92 61 57 98 66 42 104 71 45 110 76 48 78 57 51 84 62 54 90 67 57 96 72 42 102 77 45 108 58 48 76 63 51 82 68 54 88 73 57 94 78 42 100 59 45 106 64 48 74 69 51 80 74 54 86 79 57 92 60 42 98 65 45 104 70 48 110 75 51 78 56 54 84 61 57 90 66 42 96 71 45 102 76 48 108 57 51 76 62 54 82 67 57 88 72 42 94 77 45 100 58 48 106 63 51 74 68 54 80 73 57 86 78 42 92 59 45 98 64 48 104 69 51 110 74 54 78 79 57 84 60 42 90 65 45 96 70 48 102 75 51 108 56 54 76 61 57 82 66 42 88 71 45 94 76 48 100 57 51 106 62 54 74 67 57 80 72 42 86 77 45 92 58 48 98 63 51 104 68 54 110 73 57 78 78 42 84 59 45 90 64 48 96 69 51 102 74 54 108 79 57
99 70 44 105 75 47 111 56 50 79 61 53 85 66 56 91 71 59 97 76 44 103 57 47 109 62 50 77 67 53 83 72 56 89 77 59 95 58 44 101 63 47 107 68 50 75 73 53 81 78 56 87 59 59 93 64 44 99 69 47 105 74 50 111 79 53 79 60 56 85 65 59 91 70 44 97 75 47 103 56 50 109 61 53 77 66 56 83 71 59 89 76 44 95 57 47 101 62 50 107 67 53 75 72 56 81 77 59 87 58 44 93 63 47 99 68 50 105 73 53 111 78 56 79 59 59 85 64 44 91 69 47 97 74 50 103 79 53 109 60 56 77 65 59 83 70 44 89 75 47 95 56 50 101 61 53 107 66 56 75 71 59 81 76 44 87 57 47 93 62 50 99 67 53 105 72 56 111 77 59 79 58 44 85 63 47 91 68 50 97 73 53 103 78 56 109 59 59 77 64 44 83 69 47 89 74 50 95 79 53 101 60 56 107 65 59 75 70 44 81 75 47 87 56 50 93 61 53 99 66 56 105 71 59 111 76 44 79 57 47 85 62 50 91 67 53 97 72 56 103 77 59 109 58 44 77 63 47 83 68 50 89 73 53 95 78 56 101 59 59 107 64 44 75 69 47 81 74 50 87 79 53 93 60 56 99 65 59 105 70 44 111 75 47 79 56 50 85 61 53 91 66 56 97 71 59 103 76 44 109 57 47 77 62 50 83 67 53 89 72 56 95 77 59 101 58 44 107 63 47 75 68 50 81 73 53 87 78 56 93 59 59 99 64 44 105 69 47 111 74 50 79 79 53 85 60 56 91 65 59 97 70 44 103 75 47 109 56 50 77 61 53 83 66 56 89 71 59 95 76 44 101 57 47 107 62 50 75 67 53 81 72 56 87 77 59 93 58 44 99 63 47 105 68 50 111 73 53 79 78 56 85 59 59 91 64 44 97 69 47 103 74 50 109 79 53 77 60 56 83 65 59 89 70 44 95 75 47 101 56 50 107 61 53 75 66 56 81 71 59 87 76 44 93 57 47 99 62 50 105 67 53 111 72 56 79 77 59 85 58 44 91 63 47 97 68 50 103 73 53 109 78 56 77 59 59 83 64 44 89 69 47 95 74 50 101 79 53 107 60 56 75 65 59 81 70 44 87 75 47 93 56 50 99 61 53 105 66 56 111 71 59 79 76 44 85 57 47 91 62 50 97 67 53 103 72 56 109 77 59 77 58 44 83 63 47 89 68 50 95 73 53 101 78 56 107 59 59 75 64 44 81 69 47 87 74 50 93 79 53 99 60 56 105 65 59 111 70 44 79 75 47 85 56 50 91 61 53 97 66 56 103 71 59 109 76 44 77 57 47 83 62 50 89 67 53 95 72 56 101 77 59 107 58 44 75 63 47 81 68 50 87 73 53 93 78 56 99 59 59 105 64 44 111 69 47 79 74 50 85 79 53 91 60 56 97 65 59 103 70 44 109 75 47 77 56 50 83 61 53 89 66 56 95 71 59 101 76 44 107 57 47 75 62 50 81 67 53 87 72 56 93 77 59 99 58 44 105 63 47 111 68 50 79 73 53 85 78 56 91 59 59 97 64 44 103 69 47 109 74 50 77 79 53 83 60 56 89 65 59 95 70 44 101 75 47 107 56 50 75 61 53 81 66 56 87 71 59 93 76 44 99 57 47 105 62 50 111 67 53 79 72 56 85 77 59 91 58 44 97 63 47 103 68 50 109 73 53 77 78 56 83 59 59 89 64 44 95 69 47 101 74 50 107 79 53 75 60 56 81 65 59 87 70 44 93 75 47 99 56 50 105 61 53 111 66 56 79 71 59 85 76 44 91 57 47 97 62 50 103 67 53 109 72 56 77 77 59 83 58 44 89 63 47 95 68 50 101 73 53 107 78 56 75 59 59 81 64 44 87 69 47 93 74 50 99 79 53 105 60 56 111 65 59 79 70 44 85 75 47 91 56 50 97 61 53 103 66 56 109 71 59 77 76 44 83 57 47 89 62 50 95 67 53 101 72 56 107 77 59 75 58 44 81 63 47 87 68 50 93 73 53 99 78 56 105 59 59 111 64 44 79 69 47 85 74 50 91 79 53 97 60 56 103 65 59 109 70 44 77 75 47 83 56 50 89 61 53 95 66 56 101 71 59 107 76 44 75 57 47
104 72 52 110 77 55 78 58 58 84 63 43 90 68 46 96 73 49 102 78 52 108 59 55 76 64 58 82 69 43 88 74 46 94 79 49 100 60 52 106 65 55 74 70 58 80 75 43 86 56 46 92 61 49 98 66 52 104 71 55 110 76 58 78 57 43 84 62 46 90 67 49 96 72 52 102 77 55 108 58 58 76 63 43 82 68 46 88 73 49 94 78 52 100 59 55 106 64 58 74 69 43 80 74 46 86 79 49 92 60 52 98 65 55 104 70 58 110 75 43 78 56 46 84 61 49 90 66 52 96 71 55 102 76 58 108 57 43 76 62 46 82 67 49 88 72 52 94 77 55 100 58 58 106 63 43 74 68 46 80 73 49 86 78 52 92 59 55 98 64 58 104 69 43 110 74 46 78 79 49 84 60 52 90 65 55 96 70 58 102 75 43 108 56 46 76 61 49 82 66 52 88 71 55 94 76 58 100 57 43 106 62 46 74 67 49 80 72 52 86 77 55 92 58 58 98 63 43 104 68 46 110 73 49 78 78 52 84 59 55 90 64 58 96 69 43 102 74 46 108 79 49 76 60 52 82 65 55 88 70 58 94 75 43 100 56 46 106 61 49 74 66 52 80 71 55 86 76 58 92 57 43 98 62 46 104 67 49 110 72 52 78 77 55 84 58 58 90 63 43 96 68 46 102 73 49 108 78 52 76 59 55 82 64 58 88 69 43 94 74 46 100 79 49 106 60 52 74 65 55 80 70 58 86 75 43 92 56 46 98 61 49 104 66 52 110 71 55 78 76 58 84 57 43 90 62 46 96 67 49 102 72 52 108 77 55 76 58 58 82 63 43 88 68 46 94 73 49 100 78 52 106 59 55 74 64 58 80 69 43 86 74 46 92 79 49 98 60 52 104 65 55 110 70 58 78 75 43 84 56 46 90 61 49 96 66 52 102 71 55 108 76 58 76 57 43 82 62 46 88 67 49 94 72 52 100 77 55 106 58 58 74 63 43 80 68 46 86 73 49 92 78 52 98 59 55 104 64 58 110 69 43 78 74 46 84 79 49 90 60 52 96 65 55 102 70 58 108 75 43 76 56 46 82 61 49 88 66 52 94 71 55 100 76 58 106 57 43 74 62 46 80 67 49 86 72 52 92 77 55 98 58 58 104 63 43 110 68 46 78 73 49 84 78 52 90 59 55 96 64 58 102 69 43 108 74 46 76 79 49 82 60 52 88 65 55 94 70 58 100 75 43 106 56 46 74 61 49 80 66 52 86 71 55 92 76 58 98 57 43 104 62 46 110 67 49 78 72 52 84 77 55 90 58 58 96 63 43 102 68 46 108 73 49 76 78 52 82 59 55 88 64 58 94 69 43 100 74 46 106 79 49 74 60 52 80 65 55 86 70 58 92 75 43 98 56 46 104 61 49 110 66 52 78 71 55 84 76 58 90 57 43 96 62 46 102 67 49 108 72 52 76 77 55 82 58 58 88 63 43 94 68 46 100 73 49 106 78 52 74 59 55 80 64 58 86 69 43 92 74 46 98 79 49 104 60 52 110 65 55 78 70 58 84 75 43 90 56 46 96 61 49 102 66 52 108 71 55 76 76 58 82 57 43 88 62 46 94 67 49 100 72 52 106 77 55 74 58 58 80 63 43 86 68 46 92 73 49 98 78 52 104 59 55 110 64 58 78 69 43 84 74 46 90 79 49 96 60 52 102 65 55 108 70 58 76 75 43 82 56 46 88 61 49 94 66 52 100 71 55 106 76 58 74 57 43 80 62 46 86 67 49 92 72 52 98 77 55 104 58 58 110 63 43 78 68 46 84 73 49 90 78 52 96 59 55 102 64 58 108 69 43 76 74 46 82 79 49 88 60 52 94 65 55 100 70 58 106 75 43 74 56 46 80 61 49 86 66 52 92 71 55 98 76 58 104 57 43 110 62 46 78 67 49 84 72 52 90 77 55 96 58 58 102 63 43 108 68 46 76 73 49 82 78 52 88 59 55 94 64 58 100 69 43 106 74 46 74 79 49 80 60 52 86 65 55 92 70 58 98 75 43 104 56 46 110 61 49 78 66 52 84 71 55 90 76 58 96 57 43 102 62 46 108 67 49 76 72 52 82 77 55 88 58 58 94 63 43 100 68 46 106 73 49 74 78 52 80 59 55
109 74 42 77 79 45 83 60 48 89 65 51 95 70 54 101 75 57 107 56 42 75 61 45 81 66 48 87 71 51 93 76 54 99 57 57 105 62 42 111 67 45 79 72 48 85 77 51 91 58 54 97 63 57 103 68 42 109 73 45 77 78 48 83 59 51 89 64 54 95 69 57 101 74 42 107 79 45 75 60 48 81 65 51 87 70 54 93 75 57 99 56 42 105 61 45 111 66 48 79 71 51 85 76 54 91 57 57 97 62 42 103 67 45 109 72 48 77 77 51 83 58 54 89 63 57 95 68 42 101 73 45 107 78 48 75 59 51 81 64 54 87 69 57 93 74 42 99 79 45 105 60 48 111 65 51 79 70 54 85 75 57 91 56 42 97 61 45 103 66 48 109 71 51 77 76 54 83 57 57 89 62 42 95 67 45 101 72 48 107 77 51 75 58 54 81 63 57 87 68 42 93 73 45 99 78 48 105 59 51 111 64 54 79 69 57 85 74 42 91 79 45 97 60 48 103 65 51 109 70 54 77 75 57 83 56 42 89 61 45 95 66 48 101 71 51 107 76 54 75 57 57 81 62 42 87 67 45 93 72 48 99 77 51 105 58 54 111 63 57 79 68 42 85 73 45 91 78 48 97 59 51 103 64 54 109 69 57 77 74 42 83 79 45 89 60 48 95 65 51 101 70 54 107 75 57 75 56 42 81 61 45 87 66 48 93 71 51 99 76 54 105 57 57 111 62 42 79 67 45 85 72 48 91 77 51 97 58 54 103 63 57 109 68 42 77 73 45 83 78 48 89 59 51 95 64 54 101 69 57 107 74 42 75 79 45 81 60 48 87 65 51 93 70 54 99 75 57 105 56 42 111 61 45 79 66 48 85 71 51 91 76 54 97 57 57 103 62 42 109 67 45 77 72 48 83 77 51 89 58 54 95 63 57 101 68 42 107 73 45 75 78 48 81 59 51 87 64 54 93 69 57 99 74 42 105 79 45 111 60 48 79 65 51 85 70 54 91 75 57 97 56 42 103 61 45 109 66 48 77 71 51 83 76 54 89 57 57 95 62 42 101 67 45 107 72 48 75 77 51 81 58 54 87 63 57 93 68 42 99 73 45 105 78 48 111 59 51 79 64 54 85 69 57 91 74 42 97 79 45 103 60 48 109 65 51 77 70 54 83 75 57 89 56 42 95 61 45 101 66 48 107 71 51 75 76 54 81 57 57 87 62 42 93 67 45 99 72 48 105 77 51 111 58 54 79 63 57 85 68 42 91 73 45 97 78 48 103 59 51 109 64 54 77 69 57 83 74 42 89 79 45 95 60 48 101 65 51 107 70 54 75 75 57 81 56 42 87 61 45 93 66 48 99 71 51 105 76 54 111 57 57 79 62 42 85 67 45 91 72 48 97 77 51 103 58 54 109 63 57 77 68 42 83 73 45 89 78 48 95 59 51 101 64 54 107 69 57 75 74 42 81 79 45 87 60 48 93 65 51 99 70 54 105 75 57 111 56 42 79 61 45 85 66 48 91 71 51 97 76 54 103 57 57 109 62 42 77 67 45 83 72 48 89 77 51 95 58 54 101 63 57 107 68 42 75 73 45 81 78 48 87 59 51 93 64 54 99 69 57 105 74 42 111 79 45 79 60 48 85 65 51 91 70 54 97 75 57 103 56 42 109 61 45 77 66 48 83 71 51 89 76 54 95 57 57 101 62 42 107 67 45 75 72 48 81 77 51 87 58 54 93 63 57 99 68 42 105 73 45 111 78 48 79 59 51 85 64 54 91 69 57 97 74 42 103 79 45 109 60 48 77 65 51 83 70 54 89 75 57 95 56 42 101 61 45 107 66 48 75 71 51 81 76 54 87 57 57 93 62 42 99 67 45 105 72 48 111 77 51 79 58 54 85 63 57 91 68 42 97 73 45 103 78 48 109 59 51 77 64 54 83 69 57 89 74 42 95 79 45 101 60 48 107 65 51 75 70 54 81 75 57 87 56 42 93 61 45 99 66 48 105 71 51 111 76 54 79 57 57 85 62 42 91 67 45 97 72 48 103 77 51 109 58 54 77 63 57 83 68 42 89 73 45 95 78 48 101 59 51 107 64 54 75 69 57 81 74 42 87 79 45 93 60 48 99 65 51 105 70 54 111 75 57 79 56 42 85 61 45
76 76 50 82 57 53 88 62 56 94 67 59 100 72 44 106 77 47 74 58 50 80 63 53 86 68 56 92 73 59 98 78 44 104 59 47 110 64 50 78 69 53 84 74 56 90 79 59 96 60 44 102 65 47 108 70 50 76 75 53 82 56 56 88 61 59 94 66 44 100 71 47 106 76 50 74 57 53 80 62 56 86 67 59 92 72 44 98 77 47 104 58 50 110 63 53 78 68 56 84 73 59 90 78 44 96 59 47 102 64 50 108 69 53 76 74 56 82 79 59 88 60 44 94 65 47 100 70 50 106 75 53 74 56 56 80 61 59 86 66 44 92 71 47 98 76 50 104 57 53 110 62 56 78 67 59 84 72 44 90 77 47 96 58 50 102 63 53 108 68 56 76 73 59 82 78 44 88 59 47 94 64 50 100 69 53 106 74 56 74 79 59 80 60 44 86 65 47 92 70 50 98 75 53 104 56 56 110 61 59 78 66 44 84 71 47 90 76 50 96 57 53 102 62 56 108 67 59 76 72 44 82 77 47 88 58 50 94 63 53 100 68 56 106 73 59 74 78 44 80 59 47 86 64 50 92 69 53 98 74 56 104 79 59 110 60 44 78 65 47 84 70 50 90 75 53 96 56 56 102 61 59 108 66 44 76 71 47 82 76 50 88 57 53 94 62 56 100 67 59 106 72 44 74 77 47 80 58 50 86 63 53 92 68 56 98 73 59 104 78 44 110 59 47 78 64 50 84 69 53 90 74 56 96 79 59 102 60 44 108 65 47 76 70 50 82 75 53 88 56 56 94 61 59 100 66 44 106 71 47 74 76 50 80 57 53 86 62 56 92 67 59 98 72 44 104 77 47 110 58 50 78 63 53 84 68 56 90 73 59 96 78 44 102 59 47 108 64 50 76 69 53 82 74 56 88 79 59 94 60 44 100 65 47 106 70 50 74 75 53 80 56 56 86 61 59 92 66 44 98 71 47 104 76 50 110 57 53 78 62 56 84 67 59 90 72 44 96 77 47 102 58 50 108 63 53 76 68 56 82 73 59 88 78 44 94 59 47 100 64 50 106 69 53 74 74 56 80 79 59 86 60 44 92 65 47 98 70 50 104 75 53 110 56 56 78 61 59 84 66 44 90 71 47 96 76 50 102 57 53 108 62 56 76 67 59 82 72 44 88 77 47 94 58 50 100 63 53 106 68 56 74 73 59 80 78 44 86 59 47 92 64 50 98 69 53 104 74 56 110 79 59 78 60 44 84 65 47 90 70 50 96 75 53 102 56 56 108 61 59 76 66 44 82 71 47 88 76 50 94 57 53 100 62 56 106 67 59 74 72 44 80 77 47 86 58 50 92 63 53 98 68 56 104 73 59 110 78 44 78 59 47 84 64 50 90 69 53 96 74 56 102 79 59 108 60 44 76 65 47 82 70 50 88 75 53 94 56 56 100 61 59 106 66 44 74 71 47 80 76 50 86 57 53 92 62 56 98 67 59 104 72 44 110 77 47 78 58 50 84 63 53 90 68 56 96 73 59 102 78 44 108 59 47 76 64 50 82 69 53 88 74 56 94 79 59 100 60 44 106 65 47 74 70 50 80 75 53 86 56 56 92 61 59 98 66 44 104 71 47 110 76 50 78 57 53 84 62 56 90 67 59 96 72 44 102 77 47 108 58 50 76 63 53 82 68 56 88 73 59 94 78 44 100 59 47 106 64 50 74 69 53 80 74 56 86 79 59 92 60 44 98 65 47 104 70 50 110 75 53 78 56 56 84 61 59 90 66 44 96 71 47 102 76 50 108 57 53 76 62 56 82 67 59 88 72 44 94 77 47 100 58 50 106 63 53 74 68 56 80 73 59 86 78 44 92 59 47 98 64 50 104 69 53 110 74 56 78 79 59 84 60 44 90 65 47 96 70 50 102 75 53 108 56 56 76 61 59 82 66 44 88 71 47 94 76 50 100 57 53 106 62 56 74 67 59 80 72 44 86 77 47 92 58 50 98 63 53 104 68 56 110 73 59 78 78 44 84 59 47 90 64 50 96 69 53 102 74 56 108 79 59 76 60 44 82 65 47 88 70 50 94 75 53 100 56 56 106 61 59 74 66 44 80 71 47 86 76 50 92 57 53 98 62 56 104 67 59 110 72 44 78 77 47 84 58 50 90 63 53
81 78 58 87 59 43 93 64 46 99 69 49 105 74 52 111 79 55 79 60 58 85 65 43 91 70 46 97 75 49 103 56 52 109 61 55 77 66 58 83 71 43 89 76 46 95 57 49 101 62 52 107 67 55 75 72 58 81 77 43 87 58 46 93 63 49 99 68 52 105 73 55 111 78 58 79 59 43 85 64 46 91 69 49 97 74 52 103 79 55 109 60 58 77 65 43 83 70 46 89 75 49 95 56 52 101 61 55 107 66 58 75 71 43 81 76 46 87 57 49 93 62 52 99 67 55 105 72 58 111 77 43 79 58 46 85 63 49 91 68 52 97 73 55 103 78 58 109 59 43 77 64 46 83 69 49 89 74 52 95 79 55 101 60 58 107 65 43 75 70 46 81 75 49 87 56 52 93 61 55 99 66 58 105 71 43 111 76 46 79 57 49 85 62 52 91 67 55 97 72 58 103 77 43 109 58 46 77 63 49 83 68 52 89 73 55 95 78 58 101 59 43 107 64 46 75 69 49 81 74 52 87 79 55 93 60 58 99 65 43 105 70 46 111 75 49 79 56 52 85 61 55 91 66 58 97 71 43 103 76 46 109 57 49 77 62 52 83 67 55 89 72 58 95 77 43 101 58 46 107 63 49 75 68 52 81 73 55 87 78 58 93 59 43 99 64 46 105 69 49 111 74 52 79 79 55 85 60 58 91 65 43 97 70 46 103 75 49 109 56 52 77 61 55 83 66 58 89 71 43 95 76 46 101 57 49 107 62 52 75 67 55 81 72 58 87 77 43 93 58 46 99 63 49 105 68 52 111 73 55 79 78 58 85 59 43 91 64 46 97 69 49 103 74 52 109 79 55 77 60 58 83 65 43 89 70 46 95 75 49 101 56 52 107 61 55 75 66 58 81 71 43 87 76 46 93 57 49 99 62 52 105 67 55 111 72 58 79 77 43 85 58 46 91 63 49 97 68 52 103 73 55 109 78 58 77 59 43 83 64 46 89 69 49 95 74 52 101 79 55 107 60 58 75 65 43 81 70 46 87 75 49 93 56 52 99 61 55 105 66 58 111 71 43 79 76 46 85 57 49 91 62 52 97 67 55 103 72 58 109 77 43 77 58 46 83 63 49 89 68 52 95 73 55 101 78 58 107 59 43 75 64 46 81 69 49 87 74 52 93 79 55 99 60 58 105 65 43 111 70 46 79 75 49 85 56 52 91 61 55 97 66 58 103 71 43 109 76 46 77 57 49 83 62 52 89 67 55 95 72 58 101 77 43 107 58 46 75 63 49 81 68 52 87 73 55 93 78 58 99 59 43 105 64 46 111 69 49 79 74 52 85 79 55 91 60 58 97 65 43 103 70 46 109 75 49 77 56 52 83 61 55 89 66 58 95 71 43 101 76 46 107 57 49 75 62 52 81 67 55 87 72 58 93 77 43 99 58 46 105 63 49 111 68 52 79 73 55 85 78 58 91 59 43 97 64 46 103 69 49 109 74 52 77 79 55 83 60 58 89 65 43 95 70 46 101 75 49 107 56 52 75 61 55 81 66 58 87 71 43 93 76 46 99 57 49 105 62 52 111 67 55 79 72 58 85 77 43 91 58 46 97 63 49 103 68 52 109 73 55 77 78 58 83 59 43 89 64 46 95 69 49 101 74 52 107 79 55 75 60 58 81 65 43 87 70 46 93 75 49 99 56 52 105 61 55 111 66 58 79 71 43 85 76 46 91 57 49 97 62 52 103 67 55 109 72 58 77 77 43 83 58 46 89 63 49 95 68 52 101 73 55 107 78 58 75 59 43 81 64 46 87 69 49 93 74 52 99 79 55 105 60 58 111 65 43 79 70 46 85 75 49 91 56 52 97 61 55 103 66 58 109 71 43 77 76 46 83 57 49 89 62 52 95 67 55 101 72 58 107 77 43 75 58 46 81 63 49 87 68 52 93 73 55 99 78 58 105 59 43 111 64 46 79 69 49 85 74 52 91 79 55 97 60 58 103 65 43 109 70 46 77 75 49 83 56 52 89 61 55 95 66 58 101 71 43 107 76 46 75 57 49 81 62 52 87 67 55 93 72 58 99 77 43 105 58 46 111 63 49 79 68 52 85 73 55 91 78 58 97 59 43 103 64 46 109 69 49 77 74 52 83 79 55 89 60 58 95 65 43
86 56 48 92 61 51 98 66 54 104 71 57 110 76 42 78 57 45 84 62 48 90 67 51 96 72 54 102 77 57 108 58 42 76 63 45 82 68 48 88 73 51 94 78 54 100 59 57 106 64 42 74 69 45 80 74 48 86 79 51 92 60 54 98 65 57 104 70 42 110 75 45 78 56 48 84 61 51 90 66 54 96 71 57 102 76 42 108 57 45 76 62 48 82 67 51 88 72 54 94 77 57 100 58 42 106 63 45 74 68 48 80 73 51 86 78 54 92 59 57 98 64 42 104 69 45 110 74 48 78 79 51 84 60 54 90 65 57 96 70 42 102 75 45 108 56 48 76 61 51 82 66 54 88 71 57 94 76 42 100 57 45 106 62 48 74 67 51 80 72 54 86 77 57 92 58 42 98 63 45 104 68 48 110 73 51 78 78 54 84 59 57 90 64 42 96 69 45 102 74 48 108 79 51 76 60 54 82 65 57 88 70 42 94 75 45 100 56 48 106 61 51 74 66 54 80 71 57 86 76 42 92 57 45 98 62 48 104 67 51 110 72 54 78 77 57 84 58 42 90 63 45 96 68 48 102 73 51 108 78 54 76 59 57 82 64 42 88 69 45 94 74 48 100 79 51 106 60 54 74 65 57 80 70 42 86 75 45 92 56 48 98 61 51 104 66 54 110 71 57 78 76 42 84 57 45 90 62 48 96 67 51 102 72 54 108 77 57 76 58 42 82 63 45 88 68 48 94 73 51 100 78 54 106 59 57 74 64 42 80 69 45 86 74 48 92 79 51 98 60 54 104 65 57 110 70 42 78 75 45 84 56 48 90 61 51 96 66 54 102 71 57 108 76 42 76 57 45 82 62 48 88 67 51 94 72 54 100 77 57 106 58 42 74 63 45 80 68 48 86 73 51 92 78 54 98 59 57 104 64 42 110 69 45 78 74 48 84 79 51 90 60 54 96 65 57 102 70 42 108 75 45 76 56 48 82 61 51 88 66 54 94 71 57 100 76 42 106 57 45 74 62 48 80 67 51 86 72 54 92 77 57 98 58 42 104 63 45 110 68 48 78 73 51 84 78 54 90 59 57 96 64 42 102 69 45 108 74 48 76 79 51 82 60 54 88 65 57 94 70 42 100 75 45 106 56 48 74 61 51 80 66 54 86 71 57 92 76 42 98 57 45 104 62 48 110 67 51 78 72 54 84 77 57 90 58 42 96 63 45 102 68 48 108 73 51 76 78 54 82 59 57 88 64 42 94 69 45 100 74 48 106 79 51 74 60 54 80 65 57 86 70 42 92 75 45 98 56 48 104 61 51 110 66 54 78 71 57 84 76 42 90 57 45 96 62 48 102 67 51 108 72 54 76 77 57 82 58 42 88 63 45 94 68 48 100 73 51 106 78 54 74 59 57 80 64 42 86 69 45 92 74 48 98 79 51 104 60 54 110 65 57 78 70 42 84 75 45 90 56 48 96 61 51 102 66 54 108 71 57 76 76 42 82 57 45 88 62 48 94 67 51 100 72 54 106 77 57 74 58 42 80 63 45 86 68 48 92 73 51 98 78 54 104 59 57 110 64 42 78 69 45 84 74 48 90 79 51 96 60 54 102 65 57 108 70 42 76 75 45 82 56 48 88 61 51 94 66 54 100 71 57 106 76 42 74 57 45 80 62 48 86 67 51 92 72 54 98 77 57 104 58 42 110 63 45 78 68 48 84 73 51 90 78 54 96 59 57 102 64 42 108 69 45 76 74 48 82 79 51 88 60 54 94 65 57 100 70 42 106 75 45 74 56 48 80 61 51 86 66 54 92 71 57 98 76 42 104 57 45 110 62 48 78 67 51 84 72 54 90 77 57 96 58 42 102 63 45 108 68 48 76 73 51 82 78 54 88 59 57 94 64 42 100 69 45 106 74 48 74 79 51 80 60 54 86 65 57 92 70 42 98 75 45 104 56 48 110 61 51 78 66 54 84 71 57 90 76 42 96 57 45 102 62 48 108 67 51 76 72 54 82 77 57 88 58 42 94 63 45 100 68 48 106 73 51 74 78 54 80 59 57 86 64 42 92 69 45 98 74 48 104 79 51 110 60 54 78 65 57 84 70 42 90 75 45 96 56 48 102 61 51 108 66 54 76 71 57 82 76 42 88 57 45 94 62 48 100 67 51
91 58 56 97 63 59 103 68 44 109 73 47 77 78 50 83 59 53 89 64 56 95 69 59 101 74 44 107 79 47 75 60 50 81 65 53 87 70 56 93 75 59 99 56 44 105 61 47 111 66 50 79 71 53 85 76 56 91 57 59 97 62 44 103 67 47 109 72 50 77 77 53 83 58 56 89 63 59 95 68 44 101 73 47 107 78 50 75 59 53 81 64 56 87 69 59 93 74 44 99 79 47 105 60 50 111 65 53 79 70 56 85 75 59 91 56 44 97 61 47 103 66 50 109 71 53 77 76 56 83 57 59 89 62 44 95 67 47 101 72 50 107 77 53 75 58 56 81 63 59 87 68 44 93 73 47 99 78 50 105 59 53 111 64 56 79 69 59 85 74 44 91 79 47 97 60 50 103 65 53 109 70 56 77 75 59 83 56 44 89 61 47 95 66 50 101 71 53 107 76 56 75 57 59 81 62 44 87 67 47 93 72 50 99 77 53 105 58 56 111 63 59 79 68 44 85 73 47 91 78 50 97 59 53 103 64 56 109 69 59 77 74 44 83 79 47 89 60 50 95 65 53 101 70 56 107 75 59 75 56 44 81 61 47 87 66 50 93 71 53 99 76 56 105 57 59 111 62 44 79 67 47 85 72 50 91 77 53 97 58 56 103 63 59 109 68 44 77 73 47 83 78 50 89 59 53 95 64 56 101 69 59 107 74 44 75 79 47 81 60 50 87 65 53 93 70 56 99 75 59 105 56 44 111 61 47 79 66 50 85 71 53 91 76 56 97 57 59 103 62 44 109 67 47 77 72 50 83 77 53 89 58 56 95 63 59 101 68 44 107 73 47 75 78 50 81 59 53 87 64 56 93 69 59 99 74 44 105 79 47 111 60 50 79 65 53 85 70 56 91 75 59 97 56 44 103 61 47 109 66 50 77 71 53 83 76 56 89 57 59 95 62 44 101 67 47 107 72 50 75 77 53 81 58 56 87 63 59 93 68 44 99 73 47 105 78 50 111 59 53 79 64 56 85 69 59 91 74 44 97 79 47 103 60 50 109 65 53 77 70 56 83 75 59 89 56 44 95 61 47 101 66 50 107 71 53 75 76 56 81 57 59 87 62 44 93 67 47 99 72 50 105 77 53 111 58 56 79 63 59 85 68 44 91 73 47 97 78 50 103 59 53 109 64 56 77 69 59 83 74 44 89 79 47 95 60 50 101 65 53 107 70 56 75 75 59 81 56 44 87 61 47 93 66 50 99 71 53 105 76 56 111 57 59 79 62 44 85 67 47 91 72 50 97 77 53 103 58 56 109 63 59 77 68 44 83 73 47 89 78 50 95 59 53 101 64 56 107 69 59 75 74 44 81 79 47 87 60 50 93 65 53 99 70 56 105 75 59 111 56 44 79 61 47 85 66 50 91 71 53 97 76 56 103 57 59 109 62 44 77 67 47 83 72 50 89 77 53 95 58 56 101 63 59 107 68 44 75 73 47 81 78 50 87 59 53 93 64 56 99 69 59 105 74 44 111 79 47 79 60 50 85 65 53 91 70 56 97 75 59 103 56 44 109 61 47 77 66 50 83 71 53 89 76 56 95 57 59 101 62 44 107 67 47 75 72 50 81 77 53 87 58 56 93 63 59 99 68 44 105 73 47 111 78 50 79 59 53 85 64 56 91 69 59 97 74 44 103 79 47 109 60 50 77 65 53 83 70 56 89 75 59 95 56 44 101 61 47 107 66 50 75 71 53 81 76 56 87 57 59 93 62 44 99 67 47 105 72 50 111 77 53 79 58 56 85 63 59 91 68 44 97 73 47 103 78 50 109 59 53 77 64 56 83 69 59 89 74 44 95 79 47 101 60 50 107 65 53 75 70 56 81 75 59 87 56 44 93 61 47 99 66 50 105 71 53 111 76 56 79 57 59 85 62 44 91 67 47 97 72 50 103 77 53 109 58 56 77 63 59 83 68 44 89 73 47 95 78 50 101 59 53 107 64 56 75 69 59 81 74 44 87 79 47 93 60 50 99 65 53 105 70 56 111 75 59 79 56 44 85 61 47 91 66 50 97 71 53 103 76 56 109 57 59 77 62 44 83 67 47 89 72 50 95 77 53 101 58 56 107 63 59 75 68 44 81 73 47 87 78 50 93 59 53 99 64 56 105 69 59
96 60 46 102 65 49 108 70 52 76 75 55 82 56 58 88 61 43 94 66 46 100 71 49 106 76 52 74 57 55 80 62 58 86 67 43 92 72 46 98 77 49 104 58 52 110 63 55 78 68 58 84 73 43 90 78 46 96 59 49 102 64 52 108 69 55 76 74 58 82 79 43 88 60 46 94 65 49 100 70 52 106 75 55 74 56 58 80 61 43 86 66 46 92 71 49 98 76 52 104 57 55 110 62 58 78 67 43 84 72 46 90 77 49 96 58 52 102 63 55 108 68 58 76 73 43 82 78 46 88 59 49 94 64 52 100 69 55 106 74 58 74 79 43 80 60 46 86 65 49 92 70 52 98 75 55 104 56 58 110 61 43 78 66 46 84 71 49 90 76 52 96 57 55 102 62 58 108 67 43 76 72 46 82 77 49 88 58 52 94 63 55 100 68 58 106 73 43 74 78 46 80 59 49 86 64 52 92 69 55 98 74 58 104 79 43 110 60 46 78 65 49 84 70 52 90 75 55 96 56 58 102 61 43 108 66 46 76 71 49 82 76 52 88 57 55 94 62 58 100 67 43 106 72 46 74 77 49 80 58 52 86 63 55 92 68 58 98 73 43 104 78 46 110 59 49 78 64 52 84 69 55 90 74 58 96 79 43 102 60 46 108 65 49 76 70 52 82 75 55 88 56 58 94 61 43 100 66 46 106 71 49 74 76 52 80 57 55 86 62 58 92 67 43 98 72 46 104 77 49 110 58 52 78 63 55 84 68 58 90 73 43 96 78 46 102 59 49 108 64 52 76 69 55 82 74 58 88 79 43 94 60 46 100 65 49 106 70 52 74 75 55 80 56 58 86 61 43 92 66 46 98 71 49 104 76 52 110 57 55 78 62 58 84 67 43 90 72 46 96 77 49 102 58 52 108 63 55 76 68 58 82 73 43 88 78 46 94 59 49 100 64 52 106 69 55 74 74 58 80 79 43 86 60 46 92 65 49 98 70 52 104 75 55 110 56 58 78 61 43 84 66 46 90 71 49 96 76 52 102 57 55 108 62 58 76 67 43 82 72 46 88 77 49 94 58 52 100 63 55 106 68 58 74 73 43 80 78 46 86 59 49 92 64 52 98 69 55 104 74 58 110 79 43 78 60 46 84 65 49 90 70 52 96 75 55 102 56 58 108 61 43 76 66 46 82 71 49 88 76 52 94 57 55 100 62 58 106 67 43 74 72 46 80 77 49 86 58 52 92 63 55 98 68 58 104 73 43 110 78 46 78 59 49 84 64 52 90 69 55 96 74 58 102 79 43 108 60 46 76 65 49 82 70 52 88 75 55 94 56 58 100 61 43 106 66 46 74 71 49 80 76 52 86 57 55 92 62 58 98 67 43 104 72 46 110 77 49 78 58 52 84 63 55 90 68 58 96 73 43 102 78 46 108 59 49 76 64 52 82 69 55 88 74 58 94 79 43 100 60 46 106 65 49 74 70 52 80 75 55 86 56 58 92 61 43 98 66 46 104 71 49 110 76 52 78 57 55 84 62 58 90 67 43 96 72 46 102 77 49 108 58 52 76 63 55 82 68 58 88 73 43 94 78 46 100 59 49 106 64 52 74 69 55 80 74 58 86 79 43 92 60 46 98 65 49 104 70 52 110 75 55 78 56 58 84 61 43 90 66 46 96 71 49 102 76 52 108 57 55 76 62 58 82 67 43 88 72 46 94 77 49 100 58 52 106 63 55 74 68 58 80 73 43 86 78 46 92 59 49 98 64 52 104 69 55 110 74 58 78 79 43 84 60 46 90 65 49 96 70 52 102 75 55 108 56 58 76 61 43 82 66 46 88 71 49 94 76 52 100 57 55 106 62 58 74 67 43 80 72 46 86 77 49 92 58 52 98 63 55 104 68 58 110 73 43 78 78 46 84 59 49 90 64 52 96 69 55 102 74 58 108 79 43 76 60 46 82 65 49 88 70 52 94 75 55 100 56 58 106 61 43 74 66 46 80 71 49 86 76 52 92 57 55 98 62 58 104 67 43 110 72 46 78 77 49 84 58 52 90 63 55 96 68 58 102 73 43 108 78 46 76 59 49 82 64 52 88 69 55 94 74 58 100 79 43 106 60 46 74 65 49 80 70 52 86 75 55 92 56 58 98 61 43 104 66 46 110 71 49
101 62 54 107 67 57 75 72 42 81 77 45 87 58 48 93 63 51 99 68 54 105 73 57 111 78 42 79 59 45 85 64 48 91 69 51 97 74 54 103 79 57 109 60 42 77 65 45 83 70 48 89 75 51 95 56 54 101 61 57 107 66 42 75 71 45 81 76 48 87 57 51 93 62 54 99 67 57 105 72 42 111 77 45 79 58 48 85 63 51 91 68 54 97 73 57 103 78 42 109 59 45 77 64 48 83 69 51 89 74 54 95 79 57 101 60 42 107 65 45 75 70 48 81 75 51 87 56 54 93 61 57 99 66 42 105 71 45 111 76 48 79 57 51 85 62 54 91 67 57 97 72 42 103 77 45 109 58 48 77 63 51 83 68 54 89 73 57 95 78 42 101 59 45 107 64 48 75 69 51 81 74 54 87 79 57 93 60 42 99 65 45 105 70 48 111 75 51 79 56 54 85 61 57 91 66 42 97 71 45 103 76 48 109 57 51 77 62 54 83 67 57 89 72 42 95 77 45 101 58 48 107 63 51 75 68 54 81 73 57 87 78 42 93 59 45 99 64 48 105 69 51 111 74 54 79 79 57 85 60 42 91 65 45 97 70 48 103 75 51 109 56 54 77 61 57 83 66 42 89 71 45 95 76 48 101 57 51 107 62 54 75 67 57 81 72 42 87 77 45 93 58 48 99 63 51 105 68 54 111 73 57 79 78 42 85 59 45 91 64 48 97 69 51 103 74 54 109 79 57 77 60 42 83 65 45 89 70 48 95 75 51 101 56 54 107 61 57 75 66 42 81 71 45 87 76 48 93 57 51 99 62 54 105 67 57 111 72 42 79 77 45 85 58 48 91 63 51 97 68 54 103 73 57 109 78 42 77 59 45 83 64 48 89 69 51 95 74 54 101 79 57 107 60 42 75 65 45 81 70 48 87 75 51 93 56 54 99 61 57 105 66 42 111 71 45 79 76 48 85 57 51 91 62 54 97 67 57 103 72 42 109 77 45 77 58 48 83 63 51 89 68 54 95 73 57 101 78 42 107 59 45 75 64 48 81 69 51 87 74 54 93 79 57 99 60 42 105 65 45 111 70 48 79 75 51 85 56 54 91 61 57 97 66 42 103 71 45 109 76 48 77 57 51 83 62 54 89 67 57 95 72 42 101 77 45 107 58 48 75 63 51 81 68 54 87 73 57 93 78 42 99 59 45 105 64 48 111 69 51 79 74 54 85 79 57 91 60 42 97 65 45 103 70 48 109 75 51 77 56 54 83 61 57 89 66 42 95 71 45 101 76 48 107 57 51 75 62 54 81 67 57 87 72 42 93 77 45 99 58 48 105 63 51 111 68 54 79 73 57 85 78 42 91 59 45 97 64 48 103 69 51 109 74 54 77 79 57 83 60 42 89 65 45 95 70 48 101 75 51 107 56 54 75 61 57 81 66 42 87 71 45 93 76 48 99 57 51 105 62 54 111 67 57 79 72 42 85 77 45 91 58 48 97 63 51 103 68 54 109 73 57 77 78 42 83 59 45 89 64 48 95 69 51 101 74 54 107 79 57 75 60 42 81 65 45 87 70 48 93 75 51 99 56 54 105 61 57 111 66 42 79 71 45 85 76 48 91 57 51 97 62 54 103 67 57 109 72 42 77 77 45 83 58 48 89 63 51 95 68 54 101 73 57 107 78 42 75 59 45 81 64 48 87 69 51 93 74 54 99 79 57 105 60 42 111 65 45 79 70 48 85 75 51 91 56 54 97 61 57 103 66 42 109 71 45 77 76 48 83 57 51 89 62 54 95 67 57 101 72 42 107 77 45 75 58 48 81 63 51 87 68 54 93 73 57 99 78 42 105 59 45 111 64 48 79 69 51 85 74 54 91 79 57 97 60 42 103 65 45 109 70 48 77 75 51 83 56 54 89 61 57 95 66 42 101 71 45 107 76 48 75 57 51 81 62 54 87 67 57 93 72 42 99 77 45 105 58 48 111 63 51 79 68 54 85 73 57 91 78 42 97 59 45 103 64 48 109 69 51 77 74 54 83 79 57 89 60 42 95 65 45 101 70 48 107 75 51 75 56 54 81 61 57 87 66 42 93 71 45 99 76 48 105 57 51 111 62 54 79 67 57 85 72 42 91 77 45 97 58 48 103 63 51 109 68 54 77 73 57
106 64 44 74 69 47 80 74 50 86 79 53 92 60 56 98 65 59 104 70 44 110 75 47 78 56 50 84 61 53 90 66 56 96 71 59 102 76 44 108 57 47 76 62 50 82 67 53 88 72 56 94 77 59 100 58 44 106 63 47 74 68 50 80 73 53 86 78 56 92 59 59 98 64 44 104 69 47 110 74 50 78 79 53 84 60 56 90 65 59 96 70 44 102 75 47 108 56 50 76 61 53 82 66 56 88 71 59 94 76 44 100 57 47 106 62 50 74 67 53 80 72 56 86 77 59 92 58 44 98 63 47 104 68 50 110 73 53 78 78 56 84 59 59 90 64 44 96 69 47 102 74 50 108 79 53 76 60 56 82 65 59 88 70 44 94 75 47 100 56 50 106 61 53 74 66 56 80 71 59 86 76 44 92 57 47 98 62 50 104 67 53 110 72 56 78 77 59 84 58 44 90 63 47 96 68 50 102 73 53 108 78 56 76 59 59 82 64 44 88 69 47 94 74 50 100 79 53 106 60 56 74 65 59 80 70 44 86 75 47 92 56 50 98 61 53 104 66 56 110 71 59 78 76 44 84 57 47 90 62 50 96 67 53 102 72 56 108 77 59 76 58 44 82 63 47 88 68 50 94 73 53 100 78 56 106 59 59 74 64 44 80 69 47 86 74 50 92 79 53 98 60 56 104 65 59 110 70 44 78 75 47 84 56 50 90 61 53 96 66 56 102 71 59 108 76 44 76 57 47 82 62 50 88 67 53 94 72 56 100 77 59 106 58 44 74 63 47 80 68 50 86 73 53 92 78 56 98 59 59 104 64 44 110 69 47 78 74 50 84 79 53 90 60 56 96 65 59 102 70 44 108 75 47 76 56 50 82 61 53 88 66 56 94 71 59 100 76 44 106 57 47 74 62 50 80 67 53 86 72 56 92 77 59 98 58 44 104 63 47 110 68 50 78 73 53 84 78 56 90 59 59 96 64 44 102 69 47 108 74 50 76 79 53 82 60 56 88 65 59 94 70 44 100 75 47 106 56 50 74 61 53 80 66 56 86 71 59 92 76 44 98 57 47 104 62 50 110 67 53 78 72 56 84 77 59 90 58 44 96 63 47 102 68 50 108 73 53 76 78 56 82 59 59 88 64 44 94 69 47 100 74 50 106 79 53 74 60 56 80 65 59 86 70 44 92 75 47 98 56 50 104 61 53 110 66 56 78 71 59 84 76 44 90 57 47 96 62 50 102 67 53 108 72 56 76 77 59 82 58 44 88 63 47 94 68 50 100 73 53 106 78 56 74 59 59 80 64 44 86 69 47 92 74 50 98 79 53 104 60 56 110 65 59 78 70 44 84 75 47 90 56 50 96 61 53 102 66 56 108 71 59 76 76 44 82 57 47 88 62 50 94 67 53 100 72 56 106 77 59 74 58 44 80 63 47 86 68 50 92 73 53 98 78 56 104 59 59 110 64 44 78 69 47 84 74 50 90 79 53 96 60 56 102 65 59 108 70 44 76 75 47 82 56 50 88 61 53 94 66 56 100 71 59 106 76 44 74 57 47 80 62 50 86 67 53 92 72 56 98 77 59 104 58 44 110 63 47 78 68 50 84 73 53 90 78 56 96 59 59 102 64 44 108 69 47 76 74 50 82 79 53 88 60 56 94 65 59 100 70 44 106 75 47 74 56 50 80 61 53 86 66 56 92 71 59 98 76 44 104 57 47 110 62 50 78 67 53 84 72 56 90 77 59 96 58 44 102 63 47 108 68 50 76 73 53 82 78 56 88 59 59 94 64 44 100 69 47 106 74 50 74 79 53 80 60 56 86 65 59 92 70 44 98 75 47 104 56 50 110 61 53 78 66 56 84 71 59 90 76 44 96 57 47 102 62 50 108 67 53 76 72 56 82 77 59 88 58 44 94 63 47 100 68 50 106 73 53 74 78 56 80 59 59 86 64 44 92 69 47 98 74 50 104 79 53 110 60 56 78 65 59 84 70 44 90 75 47 96 56 50 102 61 53 108 66 56 76 71 59 82 76 44 88 57 47 94 62 50 100 67 53 106 72 56 74 77 59 80 58 44 86 63 47 92 68 50 98 73 53 104 78 56 110 59 59 78 64 44 84 69 47 90 74 50 96 79 53 102 60 56 108 65 59 76 70 44 82 75 47
111 66 52 79 71 55 85 76 58 91 57 43 97 62 46 103 67 49 109 72 52 77 77 55 83 58 58 89 63 43 95 68 46 101 73 49 107 78 52 75 59 55 81 64 58 87 69 43 93 74 46 99 79 49 105 60 52 111 65 55 79 70 58 85 75 43 91 56 46 97 61 49 103 66 52 109 71 55 77 76 58 83 57 43 89 62 46 95 67 49 101 72 52 107 77 55 75 58 58 81 63 43 87 68 46 93 73 49 99 78 52 105 59 55 111 64 58 79 69 43 85 74 46 91 79 49 97 60 52 103 65 55 109 70 58 77 75 43 83 56 46 89 61 49 95 66 52 101 71 55 107 76 58 75 57 43 81 62 46 87 67 49 93 72 52 99 77 55 105 58 58 111 63 43 79 68 46 85 73 49 91 78 52 97 59 55 103 64 58 109 69 43 77 74 46 83 79 49 89 60 52 95 65 55 101 70 58 107 75 43 75 56 46 81 61 49 87 66 52 93 71 55 99 76 58 105 57 43 111 62 46 79 67 49 85 72 52 91 77 55 97 58 58 103 63 43 109 68 46 77 73 49 83 78 52 89 59 55 95 64 58 101 69 43 107 74 46 75 79 49 81 60 52 87 65 55 93 70 58 99 75 43 105 56 46 111 61 49 79 66 52 85 71 55 91 76 58 97 57 43 103 62 46 109 67 49 77 72 52 83 77 55 89 58 58 95 63 43 101 68 46 107 73 49 75 78 52 81 59 55 87 64 58 93 69 43 99 74 46 105 79 49 111 60 52 79 65 55 85 70 58 91 75 43 97 56 46 103 61 49 109 66 52 77 71 55 83 76 58 89 57 43 95 62 46 101 67 49 107 72 52 75 77 55 81 58 58 87 63 43 93 68 46 99 73 49 105 78 52 111 59 55 79 64 58 85 69 43 91 74 46 97 79 49 103 60 52 109 65 55 77 70 58 83 75 43 89 56 46 95 61 49 101 66 52 107 71 55 75 76 58 81 57 43 87 62 46 93 67 49 99 72 52 105 77 55 111 58 58 79 63 43 85 68 46 91 73 49 97 78 52 103 59 55 109 64 58 77 69 43 83 74 46 89 79 49 95 60 52 101 65 55 107 70 58 75 75 43 81 56 46 87 61 49 93 66 52 99 71 55 105 76 58 111 57 43 79 62 46 85 67 49 91 72 52 97 77 55 103 58 58 109 63 43 77 68 46 83 73 49 89 78 52 95 59 55 101 64 58 107 69 43 75 74 46 81 79 49 87 60 52 93 65 55 99 70 58 105 75 43 111 56 46 79 61 49 85 66 52 91 71 55 97 76 58 103 57 43 109 62 46 77 67 49 83 72 52 89 77 55 95 58 58 101 63 43 107 68 46 75 73 49 81 78 52 87 59 55 93 64 58 99 69 43 105 74 46 111 79 49 79 60 52 85 65 55 91 70 58 97 75 43 103 56 46 109 61 49 77 66 52 83 71 55 89 76 58 95 57 43 101 62 46 107 67 49 75 72 52 81 77 55 87 58 58 93 63 43 99 68 46 105 73 49 111 78 52 79 59 55 85 64 58 91 69 43 97 74 46 103 79 49 109 60 52 77 65 55 83 70 58 89 75 43 95 56 46 101 61 49 107 66 52 75 71 55 81 76 58 87 57 43 93 62 46 99 67 49 105 72 52 111 77 55 79 58 58 85 63 43 91 68 46 97 73 49 103 78 52 109 59 55 77 64 58 83 69 43 89 74 46 95 79 49 101 60 52 107 65 55 75 70 58 81 75 43 87 56 46 93 61 49 99 66 52 105 71 55 111 76 58 79 57 43 85 62 46 91 67 49 97 72 52 103 77 55 109 58 58 77 63 43 83 68 46 89 73 49 95 78 52 101 59 55 107 64 58 75 69 43 81 74 46 87 79 49 93 60 52 99 65 55 105 70 58 111 75 43 79 56 46 85 61 49 91 66 52 97 71 55 103 76 58 109 57 43 77 62 46 83 67 49 89 72 52 95 77 55 101 58 58 107 63 43 75 68 46 81 73 49 87 78 52 93 59 55 99 64 58 105 69 43 111 74 46 79 79 49 85 60 52 91 65 55 97 70 58 103 75 43 109 56 46 77 61 49 83 66 52 89 71 55 95 76 58 101 57 43 107 62 46 75 67 49 81 72 52 87 77 55
78 68 42 84 73 45 90 78 48 96 59 51 102 64 54 108 69 57 76 74 42 82 79 45 88 60 48 94 65 51 100 70 54 106 75 57 74 56 42 80 61 45 86 66 48 92 71 51 98 76 54 104 57 57 110 62 42 78 67 45 84 72 48 90 77 51 96 58 54 102 63 57 108 68 42 76 73 45 82 78 48 88 59 51 94 64 54 100 69 57 106 74 42 74 79 45 80 60 48 86 65 51 92 70 54 98 75 57 104 56 42 110 61 45 78 66 48 84 71 51 90 76 54 96 57 57 102 62 42 108 67 45 76 72 48 82 77 51 88 58 54 94 63 57 100 68 42 106 73 45 74 78 48 80 59 51 86 64 54 92 69 57 98 74 42 104 79 45 110 60 48 78 65 51 84 70 54 90 75 57 96 56 42 102 61 45 108 66 48 76 71 51 82 76 54 88 57 57 94 62 42 100 67 45 106 72 48 74 77 51 80 58 54 86 63 57 92 68 42 98 73 45 104 78 48 110 59 51 78 64 54 84 69 57 90 74 42 96 79 45 102 60 48 108 65 51 76 70 54 82 75 57 88 56 42 94 61 45 100 66 48 106 71 51 74 76 54 80 57 57 86 62 42 92 67 45 98 72 48 104 77 51 110 58 54 78 63 57 84 68 42 90 73 45 96 78 48 102 59 51 108 64 54 76 69 57 82 74 42 88 79 45 94 60 48 100 65 51 106 70 54 74 75 57 80 56 42 86 61 45 92 66 48 98 71 51 104 76 54 110 57 57 78 62 42 84 67 45 90 72 48 96 77 51 102 58 54 108 63 57 76 68 42 82 73 45 88 78 48 94 59 51 100 64 54 106 69 57 74 74 42 80 79 45 86 60 48 92 65 51 98 70 54 104 75 57 110 56 42 78 61 45 84 66 48 90 71 51 96 76 54 102 57 57 108 62 42 76 67 45 82 72 48 88 77 51 94 58 54 100 63 57 106 68 42 74 73 45 80 78 48 86 59 51 92 64 54 98 69 57 104 74 42 110 79 45 78 60 48 84 65 51 90 70 54 96 75 57 102 56 42 108 61 45 76 66 48 82 71 51 88 76 54 94 57 57 100 62 42 106 67 45 74 72 48 80 77 51 86 58 54 92 63 57 98 68 42 104 73 45 110 78 48 78 59 51 84 64 54 90 69 57 96 74 42 102 79 45 108 60 48 76 65 51 82 70 54 88 75 57 94 56 42 100 61 45 106 66 48 74 71 51 80 76 54 86 57 57 92 62 42 98 67 45 104 72 48 110 77 51 78 58 54 84 63 57 90 68 42 96 73 45 102 78 48 108 59 51 76 64 54 82 69 57 88 74 42 94 79 45 100 60 48 106 65 51 74 70 54 80 75 57 86 56 42 92 61 45 98 66 48 104 71 51 110 76 54 78 57 57 84 62 42 90 67 45 96 72 48 102 77 51 108 58 54 76 63 57 82 68 42 88 73 45 94 78 48 100 59 51 106 64 54 74 69 57 80 74 42 86 79 45 92 60 48 98 65 51 104 70 54 110 75 57 78 56 42 84 61 45 90 66 48 96 71 51 102 76 54 108 57 57 76 62 42 82 67 45 88 72 48 94 77 51 100 58 54 106 63 57 74 68 42 80 73 45 86 78 48 92 59 51 98 64 54 104 69 57 110 74 42 78 79 45 84 60 48 90 65 51 96 70 54 102 75 57 108 56 42 76 61 45 82 66 48 88 71 51 94 76 54 100 57 57 106 62 42 74 67 45 80 72 48 86 77 51 92 58 54 98 63 57 104 68 42 110 73 45 78 78 48 84 59 51 90 64 54 96 69 57 102 74 42 108 79 45 76 60 48 82 65 51 88 70 54 94 75 57 100 56 42 106 61 45 74 66 48 80 71 51 86 76 54 92 57 57 98 62 42 104 67 45 110 72 48 78 77 51 84 58 54 90 63 57 96 68 42 102 73 45 108 78 48 76 59 51 82 64 54 88 69 57 94 74 42 100 79 45 106 60 48 74 65 51 80 70 54 86 75 57 92 56 42 98 61 45 104 66 48 110 71 51 78 76 54 84 57 57 90 62 42 96 67 45 102 72 48 108 77 51 76 58 54 82 63 57 88 68 42 94 73 45 100 78 48 106 59 51 74 64 54 80 69 57 86 74 42 92 79 45
83 70 50 89 75 53 95 56 56 101 61 59 107 66 44 75 71 47 81 76 50 87 57 53 93 62 56 99 67 59 105 72 44 111 77 47 79 58 50 85 63 53 91 68 56 97 73 59 103 78 44 109 59 47 77 64 50 83 69 53 89 74 56 95 79 59 101 60 44 107 65 47 75 70 50 81 75 53 87 56 56 93 61 59 99 66 44 105 71 47 111 76 50 79 57 53 85 62 56 91 67 59 97 72 44 103 77 47 109 58 50 77 63 53 83 68 56 89 73 59 95 78 44 101 59 47 107 64 50 75 69 53 81 74 56 87 79 59 93 60 44 99 65 47 105 70 50 111 75 53 79 56 56 85 61 59 91 66 44 97 71 47 103 76 50 109 57 53 77 62 56 83 67 59 89 72 44 95 77 47 101 58 50 107 63 53 75 68 56 81 73 59 87 78 44 93 59 47 99 64 50 105 69 53 111 74 56 79 79 59 85 60 44 91 65 47 97 70 50 103 75 53 109 56 56 77 61 59 83 66 44 89 71 47 95 76 50 101 57 53 107 62 56 75 67 59 81 72 44 87 77 47 93 58 50 99 63 53 105 68 56 111 73 59 79 78 44 85 59 47 91 64 50 97 69 53 103 74 56 109 79 59 77 60 44 83 65 47 89 70 50 95 75 53 101 56 56 107 61 59 75 66 44 81 71 47 87 76 50 93 57 53 99 62 56 105 67 59 111 72 44 79 77 47 85 58 50 91 63 53 97 68 56 103 73 59 109 78 44 77 59 47 83 64 50 89 69 53 95 74 56 101 79 59 107 60 44 75 65 47 81 70 50 87 75 53 93 56 56 99 61 59 105 66 44 111 71 47 79 76 50 85 57 53 91 62 56 97 67 59 103 72 44 109 77 47 77 58 50 83 63 53 89 68 56 95 73 59 101 78 44 107 59 47 75 64 50 81 69 53 87 74 56 93 79 59 99 60 44 105 65 47 111 70 50 79 75 53 85 56 56 91 61 59 97 66 44 103 71 47 109 76 50 77 57 53 83 62 56 89 67 59 95 72 44 101 77 47 107 58 50 75 63 53 81 68 56 87 73 59 93 78 44 99 59 47 105 64 50 111 69 53 79 74 56 85 79 59 91 60 44 97 65 47 103 70 50 109 75 53 77 56 56 83 61 59 89 66 44 95 71 47 101 76 50 107 57 53 75 62 56 81 67 59 87 72 44 93 77 47 99 58 50 105 63 53 111 68 56 79 73 59 85 78 44 91 59 47 97 64 50 103 69 53 109 74 56 77 79 59 83 60 44 89 65 47 95 70 50 101 75 53 107 56 56 75 61 59 81 66 44 87 71 47 93 76 50 99 57 53 105 62 56 111 67 59 79 72 44 85 77 47 91 58 50 97 63 53 103 68 56 109 73 59 77 78 44 83 59 47 89 64 50 95 69 53 101 74 56 107 79 59 75 60 44 81 65 47 87 70 50 93 75 53 99 56 56 105 61 59 111 66 44 79 71 47 85 76 50 91 57 53 97 62 56 103 67 59 109 72 44 77 77 47 83 58 50 89 63 53 95 68 56 101 73 59 107 78 44 75 59 47 81 64 50 87 69 53 93 74 56 99 79 59 105 60 44 111 65 47 79 70 50 85 75 53 91 56 56 97 61 59 103 66 44 109 71 47 77 76 50 83 57 53 89 62 56 95 67 59 101 72 44 107 77 47 75 58 50 81 63 53 87 68 56 93 73 59 99 78 44 105 59 47 111 64 50 79 69 53 85 74 56 91 79 59 97 60 44 103 65 47 109 70 50 77 75 53 83 56 56 89 61 59 95 66 44 101 71 47 107 76 50 75 57 53 81 62 56 87 67 59 93 72 44 99 77 47 105 58 50 111 63 53 79 68 56 85 73 59 91 78 44 97 59 47 103 64 50 109 69 53 77 74 56 83 79 59 89 60 44 95 65 47 101 70 50 107 75 53 75 56 56 81 61 59 87 66 44 93 71 47 99 76 50 105 57 53 111 62 56 79 67 59 85 72 44 91 77 47 97 58 50 103 63 53 109 68 56 77 73 59 83 78 44 89 59 47 95 64 50 101 69 53 107 74 56 75 79 59 81 60 44 87 65 47 93 70 50 99 75 53 105 56 56 111 61 59 79 66 44 85 71 47 91 76 50 97 57 53
88 72 58 94 77 43 100 58 46 106 63 49 74 68 52 80 73 55 86 78 58 92 59 43 98 64 46 104 69 49 110 74 52 78 79 55 84 60 58 90 65 43 96 70 46 102 75 49 108 56 52 76 61 55 82 66 58 88 71 43 94 76 46 100 57 49 106 62 52 74 67 55 80 72 58 86 77 43 92 58 46 98 63 49 104 68 52 110 73 55 78 78 58 84 59 43 90 64 46 96 69 49 102 74 52 108 79 55 76 60 58 82 65 43 88 70 46 94 75 49 100 56 52 106 61 55 74 66 58 80 71 43 86 76 46 92 57 49 98 62 52 104 67 55 110 72 58 78 77 43 84 58 46 90 63 49 96 68 52 102 73 55 108 78 58 76 59 43 82 64 46 88 69 49 94 74 52 100 79 55 106 60 58 74 65 43 80 70 46 86 75 49 92 56 52 98 61 55 104 66 58 110 71 43 78 76 46 84 57 49 90 62 52 96 67 55 102 72 58 108 77 43 76 58 46 82 63 49 88 68 52 94 73 55 100 78 58 106 59 43 74 64 46 80 69 49 86 74 52 92 79 55 98 60 58 104 65 43 110 70 46 78 75 49 84 56 52 90 61 55 96 66 58 102 71 43 108 76 46 76 57 49 82 62 52 88 67 55 94 72 58 100 77 43 106 58 46 74 63 49 80 68 52 86 73 55 92 78 58 98 59 43 104 64 46 110 69 49 78 74 52 84 79 55 90 60 58 96 65 43 102 70 46 108 75 49 76 56 52 82 61 55 88 66 58 94 71 43 100 76 46 106 57 49 74 62 52 80 67 55 86 72 58 92 77 43 98 58 46 104 63 49 110 68 52 78 73 55 84 78 58 90 59 43 96 64 46 102 69 49 108 74 52 76 79 55 82 60 58 88 65 43 94 70 46 100 75 49 106 56 52 74 61 55 80 66 58 86 71 43 92 76 46 98 57 49 104 62 52 110 67 55 78 72 58 84 77 43 90 58 46 96 63 49 102 68 52 108 73 55 76 78 58 82 59 43 88 64 46 94 69 49 100 74 52 106 79 55 74 60 58 80 65 43 86 70 46 92 75 49 98 56 52 104 61 55 110 66 58 78 71 43 84 76 46 90 57 49 96 62 52 102 67 55 108 72 58 76 77 43 82 58 46 88 63 49 94 68 52 100 73 55 106 78 58 74 59 43 80 64 46 86 69 49 92 74 52 98 79 55 104 60 58 110 65 43 78 70 46 84 75 49 90 56 52 96 61 55 102 66 58 108 71 43 76 76 46 82 57 49 88 62 52 94 67 55 100 72 58 106 77 43 74 58 46 80 63 49 86 68 52 92 73 55 98 78 58 104 59 43 110 64 46 78 69 49 84 74 52 90 79 55 96 60 58 102 65 43 108 70 46 76 75 49 82 56 52 88 61 55 94 66 58 100 71 43 106 76 46 74 57 49 80 62 52 86 67 55 92 72 58 98 77 43 104 58 46 110 63 49 78 68 52 84 73 55 90 78 58 96 59 43 102 64 46 108 69 49 76 74 52 82 79 55 88 60 58 94 65 43 100 70 46 106 75 49 74 56 52 80 61 55 86 66 58 92 71 43 98 76 46 104 57 49 110 62 52 78 67 55 84 72 58 90 77 43 96 58 46 102 63 49 108 68 52 76 73 55 82 78 58 88 59 43 94 64 46 100 69 49 106 74 52 74 79 55 80 60 58 86 65 43 92 70 46 98 75 49 104 56 52 110 61 55 78 66 58 84 71 43 90 76 46 96 57 49 102 62 52 108 67 55 76 72 58 82 77 43 88 58 46 94 63 49 100 68 52 106 73 55 74 78 58 80 59 43 86 64 46 92 69 49 98 74 52 104 79 55 110 60 58 78 65 43 84 70 46 90 75 49 96 56 52 102 61 55 108 66 58 76 71 43 82 76 46 88 57 49 94 62 52 100 67 55 106 72 58 74 77 43 80 58 46 86 63 49 92 68 52 98 73 55 104 78 58 110 59 43 78 64 46 84 69 49 90 74 52 96 79 55 102 60 58 108 65 43 76 70 46 82 75 49 88 56 52 94 61 55 100 66 58 106 71 43 74 76 46 80 57 49 86 62 52 92 67 55 98 72 58 104 77 43 110 58 46 78 63 49 84 68 52 90 73 55 96 78 58 102 59 43
93 74 48 99 79 51 105 60 54 111 65 57 79 70 42 85 75 45 91 56 48 97 61 51 103 66 54 109 71 57 77 76 42 83 57 45 89 62 48 95 67 51 101 72 54 107 77 57 75 58 42 81 63 45 87 68 48 93 73 51 99 78 54 105 59 57 111 64 42 79 69 45 85 74 48 91 79 51 97 60 54 103 65 57 109 70 42 77 75 45 83 56 48 89 61 51 95 66 54 101 71 57 107 76 42 75 57 45 81 62 48 87 67 51 93 72 54 99 77 57 105 58 42 111 63 45 79 68 48 85 73 51 91 78 54 97 59 57 103 64 42 109 69 45 77 74 48 83 79 51 89 60 54 95 65 57 101 70 42 107 75 45 75 56 48 81 61 51 87 66 54 93 71 57 99 76 42 105 57 45 111 62 48 79 67 51 85 72 54 91 77 57 97 58 42 103 63 45 109 68 48 77 73 51 83 78 54 89 59 57 95 64 42 101 69 45 107 74 48 75 79 51 81 60 54 87 65 57 93 70 42 99 75 45 105 56 48 111 61 51 79 66 54 85 71 57 91 76 42 97 57 45 103 62 48 109 67 51 77 72 54 83 77 57 89 58 42 95 63 45 101 68 48 107 73 51 75 78 54 81 59 57 87 64 42 93 69 45 99 74 48 105 79 51 111 60 54 79 65 57 85 70 42 91 75 45 97 56 48 103 61 51 109 66 54 77 71 57 83 76 42 89 57 45 95 62 48 101 67 51 107 72 54 75 77 57 81 58 42 87 63 45 93 68 48 99 73 51 105 78 54 111 59 57 79 64 42 85 69 45 91 74 48 97 79 51 103 60 54 109 65 57 77 70 42 83 75 45 89 56 48 95 61 51 101 66 54 107 71 57 75 76 42 81 57 45 87 62 48 93 67 51 99 72 54 105 77 57 111 58 42 79 63 45 85 68 48 91 73 51 97 78 54 103 59 57 109 64 42 77 69 45 83 74 48 89 79 51 95 60 54 101 65 57 107 70 42 75 75 45 81 56 48 87 61 51 93 66 54 99 71 57 105 76 42 111 57 45 79 62 48 85 67 51 91 72 54 97 77 57 103 58 42 109 63 45 77 68 48 83 73 51 89 78 54 95 59 57 101 64 42 107 69 45 75 74 48 81 79 51 87 60 54 93 65 57 99 70 42 105 75 45 111 56 48 79 61 51 85 66 54 91 71 57 97 76 42 103 57 45 109 62 48 77 67 51 83 72 54 89 77 57 95 58 42 101 63 45 107 68 48 75 73 51 81 78 54 87 59 57 93 64 42 99 69 45 105 74 48 111 79 51 79 60 54 85 65 57 91 70 42 97 75 45 103 56 48 109 61 51 77 66 54 83 71 57 89 76 42 95 57 45 101 62 48 107 67 51 75 72 54 81 77 57 87 58 42 93 63 45 99 68 48 105 73 51 111 78 54 79 59 57 85 64 42 91 69 45 97 74 48 103 79 51 109 60 54 77 65 57 83 70 42 89 75 45 95 56 48 101 61 51 107 66 54 75 71 57 81 76 42 87 57 45 93 62 48 99 67 51 105 72 54 111 77 57 79 58 42 85 63 45 91 68 48 97 73 51 103 78 54 109 59 57 77 64 42 83 69 45 89 74 48 95 79 51 101 60 54 107 65 57 75 70 42 81 75 45 87 56 48 93 61 51 99 66 54 105 71 57 111 76 42 79 57 45 85 62 48 91 67 51 97 72 54 103 77 57 109 58 42 77 63 45 83 68 48 89 73 51 95 78 54 101 59 57 107 64 42 75 69 45 81 74 48 87 79 51 93 60 54 99 65 57 105 70 42 111 75 45 79 56 48 85 61 51 91 66 54 97 71 57 103 76 42 109 57 45 77 62 48 83 67 51 89 72 54 95 77 57 101 58 42 107 63 45 75 68 48 81 73 51 87 78 54 93 59 57 99 64 42 105 69 45 111 74 48 79 79 51 85 60 54 91 65 57 97 70 42 103 75 45 109 56 48 77 61 51 83 66 54 89 71 57 95 76 42 101 57 45 107 62 48 75 67 51 81 72 54 87 77 57 93 58 42 99 63 45 105 68 48 111 73 51 79 78 54 85 59 57 91 64 42 97 69 45 103 74 48 109 79 51 77 60 54 83 65 57 89 70 42 95 75 45 101 56 48 107 61 51
98 76 56 104 57 59 110 62 44 78 67 47 84 72 50 90 77 53 96 58 56 102 63 59 108 68 44 76 73 47 82 78 50 88 59 53 94 64 56 100 69 59 106 74 44 74 79 47 80 60 50 86 65 53 92 70 56 98 75 59 104 56 44 110 61 47 78 66 50 84 71 53 90 76 56 96 57 59 102 62 44 108 67 47 76 72 50 82 77 53 88 58 56 94 63 59 100 68 44 106 73 47 74 78 50 80 59 53 86 64 56 92 69 59 98 74 44 104 79 47 110 60 50 78 65 53 84 70 56 90 75 59 96 56 44 102 61 47 108 66 50 76 71 53 82 76 56 88 57 59 94 62 44 100 67 47 106 72 50 74 77 53 80 58 56 86 63 59 92 68 44 98 73 47 104 78 50 110 59 53 78 64 56 84 69 59 90 74 44 96 79 47 102 60 50 108 65 53 76 70 56 82 75 59 88 56 44 94 61 47 100 66 50 106 71 53 74 76 56 80 57 59 86 62 44 92 67 47 98 72 50 104 77 53 110 58 56 78 63 59 84 68 44 90 73 47 96 78 50 102 59 53 108 64 56 76 69 59 82 74 44 88 79 47 94 60 50 100 65 53 106 70 56 74 75 59 80 56 44 86 61 47 92 66 50 98 71 53 104 76 56 110 57 59 78 62 44 84 67 47 90 72 50 96 77 53 102 58 56 108 63 59 76 68 44 82 73 47 88 78 50 94 59 53 100 64 56 106 69 59 74 74 44 80 79 47 86 60 50 92 65 53 98 70 56 104 75 59 110 56 44 78 61 47 84 66 50 90 71 53 96 76 56 102 57 59 108 62 44 76 67 47 82 72 50 88 77 53 94 58 56 100 63 59 106 68 44 74 73 47 80 78 50 86 59 53 92 64 56 98 69 59 104 74 44 110 79 47 78 60 50 84 65 53 90 70 56 96 75 59 102 56 44 108 61 47 76 66 50 82 71 53 88 76 56 94 57 59 100 62 44 106 67 47 74 72 50 80 77 53 86 58 56 92 63 59 98 68 44 104 73 47 110 78 50 78 59 53 84 64 56 90 69 59 96 74 44 102 79 47 108 60 50 76 65 53 82 70 56 88 75 59 94 56 44 100 61 47 106 66 50 74 71 53 80 76 56 86 57 59 92 62 44 98 67 47 104 72 50 110 77 53 78 58 56 84 63 59 90 68 44 96 73 47 102 78 50 108 59 53 76 64 56 82 69 59 88 74 44 94 79 47 100 60 50 106 65 53 74 70 56 80 75 59 86 56 44 92 61 47 98 66 50 104 71 53 110 76 56 78 57 59 84 62 44 90 67 47 96 72 50 102 77 53 108 58 56 76 63 59 82 68 44 88 73 47 94 78 50 100 59 53 106 64 56 74 69 59 80 74 44 86 79 47 92 60 50 98 65 53 104 70 56 110 75 59 78 56 44 84 61 47 90 66 50 96 71 53 102 76 56 108 57 59 76 62 44 82 67 47 88 72 50 94 77 53 100 58 56 106 63 59 74 68 44 80 73 47 86 78 50 92 59 53 98 64 56 104 69 59 110 74 44 78 79 47 84 60 50 90 65 53 96 70 56 102 75 59 108 56 44 76 61 47 82 66 50 88 71 53 94 76 56 100 57 59 106 62 44 74 67 47 80 72 50 86 77 53 92 58 56 98 63 59 104 68 44 110 73 47 78 78 50 84 59 53 90 64 56 96 69 59 102 74 44 108 79 47 76 60 50 82 65 53 88 70 56 94 75 59 100 56 44 106 61 47 74 66 50 80 71 53 86 76 56 92 57 59 98 62 44 104 67 47 110 72 50 78 77 53 84 58 56 90 63 59 96 68 44 102 73 47 108 78 50 76 59 53 82 64 56 88 69 59 94 74 44 100 79 47 106 60 50 74 65 53 80 70 56 86 75 59 92 56 44 98 61 47 104 66 50 110 71 53 78 76 56 84 57 59 90 62 44 96 67 47 102 72 50 108 77 53 76 58 56 82 63 59 88 68 44 94 73 47 100 78 50 106 59 53 74 64 56 80 69 59 86 74 44 92 79 47 98 60 50 104 65 53 110 70 56 78 75 59 84 56 44 90 61 47 96 66 50 102 71 53 108 76 56 76 57 59 82 62 44 88 67 47 94 72 50 100 77 53 106 58 56 74 63 59
103 78 46 109 59 49 77 64 52 83 69 55 89 74 58 95 79 43 101 60 46 107 65 49 75 70 52 81 75 55 87 56 58 93 61 43 99 66 46 105 71 49 111 76 52 79 57 55 85 62 58 91 67 43 97 72 46 103 77 49 109 58 52 77 63 55 83 68 58 89 73 43 95 78 46 101 59 49 107 64 52 75 69 55 81 74 58 87 79 43 93 60 46 99 65 49 105 70 52 111 75 55 79 56 58 85 61 43 91 66 46 97 71 49 103 76 52 109 57 55 77 62 58 83 67 43 89 72 46 95 77 49 101 58 52 107 63 55 75 68 58 81 73 43 87 78 46 93 59 49 99 64 52 105 69 55 111 74 58 79 79 43 85 60 46 91 65 49 97 70 52 103 75 55 109 56 58 77 61 43 83 66 46 89 71 49 95 76 52 101 57 55 107 62 58 75 67 43 81 72 46 87 77 49 93 58 52 99 63 55 105 68 58 111 73 43 79 78 46 85 59 49 91 64 52 97 69 55 103 74 58 109 79 43 77 60 46 83 65 49 89 70 52 95 75 55 101 56 58 107 61 43 75 66 46 81 71 49 87 76 52 93 57 55 99 62 58 105 67 43 111 72 46 79 77 49 85 58 52 91 63 55 97 68 58 103 73 43 109 78 46 77 59 49 83 64 52 89 69 55 95 74 58 101 79 43 107 60 46 75 65 49 81 70 52 87 75 55 93 56 58 99 61 43 105 66 46 111 71 49 79 76 52 85 57 55 91 62 58 97 67 43 103 72 46 109 77 49 77 58 52 83 63 55 89 68 58 95 73 43 101 78 46 107 59 49 75 64 52 81 69 55 87 74 58 93 79 43 99 60 46 105 65 49 111 70 52 79 75 55 85 56 58 91 61 43 97 66 46 103 71 49 109 76 52 77 57 55 83 62 58 89 67 43 95 72 46 101 77 49 107 58 52 75 63 55 81 68 58 87 73 43 93 78 46 99 59 49 105 64 52 111 69 55 79 74 58 85 79 43 91 60 46 97 65 49 103 70 52 109 75 55 77 56 58 83 61 43 89 66 46 95 71 49 101 76 52 107 57 55 75 62 58 81 67 43 87 72 46 93 77 49 99 58 52 105 63 55 111 68 58 79 73 43 85 78 46 91 59 49 97 64 52 103 69 55 109 74 58 77 79 43 83 60 46 89 65 49 95 70 52 101 75 55 107 56 58 75 61 43 81 66 46 87 71 49 93 76 52 99 57 55 105 62 58 111 67 43 79 72 46 85 77 49 91 58 52 97 63 55 103 68 58 109 73 43 77 78 46 83 59 49 89 64 52 95 69 55 101 74 58 107 79 43 75 60 46 81 65 49 87 70 52 93 75 55 99 56 58 105 61 43 111 66 46 79 71 49 85 76 52 91 57 55 97 62 58 103 67 43 109 72 46 77 77 49 83 58 52 89 63 55 95 68 58 101 73 43 107 78 46 75 59 49 81 64 52 87 69 55 93 74 58 99 79 43 105 60 46 111 65 49 79 70 52 85 75 55 91 56 58 97 61 43 103 66 46 109 71 49 77 76 52 83 57 55 89 62 58 95 67 43 101 72 46 107 77 49 75 58 52 81 63 55 87 68 58 93 73 43 99 78 46 105 59 49 111 64 52 79 69 55 85 74 58 91 79 43 97 60 46 103 65 49 109 70 52 77 75 55 83 56 58 89 61 43 95 66 46 101 71 49 107 76 52 75 57 55 81 62 58 87 67 43 93 72 46 99 77 49 105 58 52 111 63 55 79 68 58 85 73 43 91 78 46 97 59 49 103 64 52 109 69 55 77 74 58 83 79 43 89 60 46 95 65 49 101 70 52 107 75 55 75 56 58 81 61 43 87 66 46 93 71 49 99 76 52 105 57 55 111 62 58 79 67 43 85 72 46 91 77 49 97 58 52 103 63 55 109 68 58 77 73 43 83 78 46 89 59 49 95 64 52 101 69 55 107 74 58 75 79 43 81 60 46 87 65 49 93 70 52 99 75 55 105 56 58 111 61 43 79 66 46 85 71 49 91 76 52 97 57 55 103 62 58 109 67 43 77 72 46 83 77 49 89 58 52 95 63 55 101 68 58 107 73 43 75 78 46 81 59 49 87 64 52 93 69 55 99 74 58 105 79 43 111 60 46 79 65 49
108 56 54 76 61 57 82 66 42 88 71 45 94 76 48 100 57 51 106 62 54 74 67 57 80 72 42 86 77 45 92 58 48 98 63 51 104 68 54 110 73 57 78 78 42 84 59 45 90 64 48 96 69 51 102 74 54 108 79 57 76 60 42 82 65 45 88 70 48 94 75 51 100 56 54 106 61 57 74 66 42 80 71 45 86 76 48 92 57 51 98 62 54 104 67 57 110 72 42 78 77 45 84 58 48 90 63 51 96 68 54 102 73 57 108 78 42 76 59 45 82 64 48 88 69 51 94 74 54 100 79 57 106 60 42 74 65 45 80 70 48 86 75 51 92 56 54 98 61 57 104 66 42 110 71 45 78 76 48 84 57 51 90 62 54 96 67 57 102 72 42 108 77 45 76 58 48 82 63 51 88 68 54 94 73 57 100 78 42 106 59 45 74 64 48 80 69 51 86 74 54 92 79 57 98 60 42 104 65 45 110 70 48 78 75 51 84 56 54 90 61 57 96 66 42 102 71 45 108 76 48 76 57 51 82 62 54 88 67 57 94 72 42 100 77 45 106 58 48 74 63 51 80 68 54 86 73 57 92 78 42 98 59 45 104 64 48 110 69 51 78 74 54 84 79 57 90 60 42 96 65 45 102 70 48 108 75 51 76 56 54 82 61 57 88 66 42 94 71 45 100 76 48 106 57 51 74 62 54 80 67 57 86 72 42 92 77 45 98 58 48 104 63 51 110 68 54 78 73 57 84 78 42 90 59 45 96 64 48 102 69 51 108 74 54 76 79 57 82 60 42 88 65 45 94 70 48 100 75 51 106 56 54 74 61 57 80 66 42 86 71 45 92 76 48 98 57 51 104 62 54 110 67 57 78 72 42 84 77 45 90 58 48 96 63 51 102 68 54 108 73 57 76 78 42 82 59 45 88 64 48 94 69 51 100 74 54 106 79 57 74 60 42 80 65 45 86 70 48 92 75 51 98 56 54 104 61 57 110 66 42 78 71 45 84 76 48 90 57 51 96 62 54 102 67 57 108 72 42 76 77 45 82 58 48 88 63 51 94 68 54 100 73 57 106 78 42 74 59 45 80 64 48 86 69 51 92 74 54 98 79 57 104 60 42 110 65 45 78 70 48 84 75 51 90 56 54 96 61 57 102 66 42 108 71 45 76 76 48 82 57 51 88 62 54 94 67 57 100 72 42 106 77 45 74 58 48 80 63 51 86 68 54 92 73 57 98 78 42 104 59 45 110 64 48 78 69 51 84 74 54 90 79 57 96 60 42 102 65 45 108 70 48 76 75 51 82 56 54 88 61 57 94 66 42 100 71 45 106 76 48 74 57 51 80 62 54 86 67 57 92 72 42 98 77 45 104 58 48 110 63 51 78 68 54 84 73 57 90 78 42 96 59 45 102 64 48 108 69 51 76 74 54 82 79 57 88 60 42 94 65 45 100 70 48 106 75 51 74 56 54 80 61 57 86 66 42 92 71 45 98 76 48 104 57 51 110 62 54 78 67 57 84 72 42 90 77 45 96 58 48 102 63 51 108 68 54 76 73 57 82 78 42 88 59 45 94 64 48 100 69 51 106 74 54 74 79 57 80 60 42 86 65 45 92 70 48 98 75 51 104 56 54 110 61 57 78 66 42 84 71 45 90 76 48 96 57 51 102 62 54 108 67 57 76 72 42 82 77 45 88 58 48 94 63 51 100 68 54 106 73 57 74 78 42 80 59 45 86 64 48 92 69 51 98 74 54 104 79 57 110 60 42 78 65 45 84 70 48 90 75 51 96 56 54 102 61 57 108 66 42 76 71 45 82 76 48 88 57 51 94 62 54 100 67 57 106 72 42 74 77 45 80 58 48 86 63 51 92 68 54 98 73 57 104 78 42 110 59 45 78 64 48 84 69 51 90 74 54 96 79 57 102 60 42 108 65 45 76 70 48 82 75 51 88 56 54 94 61 57 100 66 42 106 71 45 74 76 48 80 57 51 86 62 54 92 67 57 98 72 42 104 77 45 110 58 48 78 63 51 84 68 54 90 73 57 96 78 42 102 59 45 108 64 48 76 69 51 82 74 54 88 79 57 94 60 42 100 65 45 106 70 48 74 75 51 80 56 54 86 61 57 92 66 42 98 71 45 104 76 48 110 57 51 78 62 54 84 67 57
75 58 44 81 63 47 87 68 50 93 73 53 99 78 56 105 59 59 111 64 44 79 69 47 85 74 50 91 79 53 97 60 56 103 65 59 109 70 44 77 75 47 83 56 50 89 61 53 95 66 56 101 71 59 107 76 44 75 57 47 81 62 50 87 67 53 93 72 56 99 77 59 105 58 44 111 63 47 79 68 50 85 73 53 91 78 56 97 59 59 103 64 44 109 69 47 77 74 50 83 79 53 89 60 56 95 65 59 101 70 44 107 75 47 75 56 50 81 61 53 87 66 56 93 71 59 99 76 44 105 57 47 111 62 50 79 67 53 85 72 56 91 77 59 97 58 44 103 63 47 109 68 50 77 73 53 83 78 56 89 59 59 95 64 44 101 69 47 107 74 50 75 79 53 81 60 56 87 65 59 93 70 44 99 75 47 105 56 50 111 61 53 79 66 56 85 71 59 91 76 44 97 57 47 103 62 50 109 67 53 77 72 56 83 77 59 89 58 44 95 63 47 101 68 50 107 73 53 75 78 56 81 59 59 87 64 44 93 69 47 99 74 50 105 79 53 111 60 56 79 65 59 85 70 44 91 75 47 97 56 50 103 61 53 109 66 56 77 71 59 83 76 44 89 57 47 95 62 50 101 67 53 107 72 56 75 77 59 81 58 44 87 63 47 93 68 50 99 73 53 105 78 56 111 59 59 79 64 44 85 69 47 91 74 50 97 79 53 103 60 56 109 65 59 77 70 44 83 75 47 89 56 50 95 61 53 101 66 56 107 71 59 75 76 44 81 57 47 87 62 50 93 67 53 99 72 56 105 77 59 111 58 44 79 63 47 85 68 50 91 73 53 97 78 56 103 59 59 109 64 44 77 69 47 83 74 50 89 79 53 95 60 56 101 65 59 107 70 44 75 75 47 81 56 50 87 61 53 93 66 56 99 71 59 105 76 44 111 57 47 79 62 50 85 67 53 91 72 56 97 77 59 103 58 44 109 63 47 77 68 50 83 73 53 89 78 56 95 59 59 101 64 44 107 69 47 75 74 50 81 79 53 87 60 56 93 65 59 99 70 44 105 75 47 111 56 50 79 61 53 85 66 56 91 71 59 97 76 44 103 57 47 109 62 50 77 67 53 83 72 56 89 77 59 95 58 44 101 63 47 107 68 50 75 73 53 81 78 56 87 59 59 93 64 44 99 69 47 105 74 50 111 79 53 79 60 56 85 65 59 91 70 44 97 75 47 103 56 50 109 61 53 77 66 56 83 71 59 89 76 44 95 57 47 101 62 50 107 67 53 75 72 56 81 77 59 87 58 44 93 63 47 99 68 50 105 73 53 111 78 56 79 59 59 85 64 44 91 69 47 97 74 50 103 79 53 109 60 56 77 65 59 83 70 44 89 75 47 95 56 50 101 61 53 107 66 56 75 71 59 81 76 44 87 57 47 93 62 50 99 67 53 105 72 56 111 77 59 79 58 44 85 63 47 91 68 50 97 73 53 103 78 56 109 59 59 77 64 44 83 69 47 89 74 50 95 79 53 101 60 56 107 65 59 75 70 44 81 75 47 87 56 50 93 61 53 99 66 56 105 71 59 111 76 44 79 57 47 85 62 50 91 67 53 97 72 56 103 77 59 109 58 44 77 63 47 83 68 50 89 73 53 95 78 56 101 59 59 107 64 44 75 69 47 81 74 50 87 79 53 93 60 56 99 65 59 105 70 44 111 75 47 79 56 50 85 61 53 91 66 56 97 71 59 103 76 44 109 57 47 77 62 50 83 67 53 89 72 56 95 77 59 101 58 44 107 63 47 75 68 50 81 73 53 87 78 56 93 59 59 99 64 44 105 69 47 111 74 50 79 79 53 85 60 56 91 65 59 97 70 44 103 75 47 109 56 50 77 61 53 83 66 56 89 71 59 95 76 44 101 57 47 107 62 50 75 67 53 81 72 56 87 77 59 93 58 44 99 63 47 105 68 50 111 73 53 79 78 56 85 59 59 91 64 44 97 69 47 103 74 50 109 79 53 77 60 56 83 65 59 89 70 44 95 75 47 101 56 50 107 61 53 75 66 56 81 71 59 87 76 44 93 57 47 99 62 50 105 67 53 111 72 56 79 77 59 85 58 44 91 63 47 97 68 50 103 73 53 109 78 56 77 59 59 83 64 44 89 69 47
80 60 52 86 65 55 92 70 58 98 75 43 104 56 46 110 61 49 78 66 52 84 71 55 90 76 58 96 57 43 102 62 46 108 67 49 76 72 52 82 77 55 88 58 58 94 63 43 100 68 46 106 73 49 74 78 52 80 59 55 86 64 58 92 69 43 98 74 46 104 79 49 110 60 52 78 65 55 84 70 58 90 75 43 96 56 46 102 61 49 108 66 52 76 71 55 82 76 58 88 57 43 94 62 46 100 67 49 106 72 52 74 77 55 80 58 58 86 63 43 92 68 46 98 73 49 104 78 52 110 59 55 78 64 58 84 69 43 90 74 46 96 79 49 102 60 52 108 65 55 76 70 58 82 75 43 88 56 46 94 61 49 100 66 52 106 71 55 74 76 58 80 57 43 86 62 46 92 67 49 98 72 52 104 77 55 110 58 58 78 63 43 84 68 46 90 73 49 96 78 52 102 59 55 108 64 58 76 69 43 82 74 46 88 79 49 94 60 52 100 65 55 106 70 58 74 75 43 80 56 46 86 61 49 92 66 52 98 71 55 104 76 58 110 57 43 78 62 46 84 67 49 90 72 52 96 77 55 102 58 58 108 63 43 76 68 46 82 73 49 88 78 52 94 59 55 100 64 58 106 69 43 74 74 46 80 79 49 86 60 52 92 65 55 98 70 58 104 75 43 110 56 46 78 61 49 84 66 52 90 71 55 96 76 58 102 57 43 108 62 46 76 67 49 82 72 52 88 77 55 94 58 58 100 63 43 106 68 46 74 73 49 80 78 52 86 59 55 92 64 58 98 69 43 104 74 46 110 79 49 78 60 52 84 65 55 90 70 58 96 75 43 102 56 46 108 61 49 76 66 52 82 71 55 88 76 58 94 57 43 100 62 46 106 67 49 74 72 52 80 77 55 86 58 58 92 63 43 98 68 46 104 73 49 110 78 52 78 59 55 84 64 58 90 69 43 96 74 46 102 79 49 108 60 52 76 65 55 82 70 58 88 75 43 94 56 46 100 61 49 106 66 52 74 71 55 80 76 58 86 57 43 92 62 46 98 67 49 104 72 52 110 77 55 78 58 58 84 63 43 90 68 46 96 73 49 102 78 52 108 59 55 76 64 58 82 69 43 88 74 46 94 79 49 100 60 52 106 65 55 74 70 58 80 75 43 86 56 46 92 61 49 98 66 52 104 71 55 110 76 58 78 57 43 84 62 46 90 67 49 96 72 52 102 77 55 108 58 58 76 63 43 82 68 46 88 73 49 94 78 52 100 59 55 106 64 58 74 69 43 80 74 46 86 79 49 92 60 52 98 65 55 104 70 58 110 75 43 78 56 46 84 61 49 90 66 52 96 71 55 102 76 58 108 57 43 76 62 46 82 67 49 88 72 52 94 77 55 100 58 58 106 63 43 74 68 46 80 73 49 86 78 52 92 59 55 98 64 58 104 69 43 110 74 46 78 79 49 84 60 52 90 65 55 96 70 58 102 75 43 108 56 46 76 61 49 82 66 52 88 71 55 94 76 58 100 57 43 106 62 46 74 67 49 80 72 52 86 77 55 92 58 58 98 63 43 104 68 46 110 73 49 78 78 52 84 59 55 90 64 58 96 69 43 102 74 46 108 79 49 76 60 52 82 65 55 88 70 58 94 75 43 100 56 46 106 61 49 74 66 52 80 71 55 86 76 58 92 57 43 98 62 46 104 67 49 110 72 52 78 77 55 84 58 58 90 63 43 96 68 46 102 73 49 108 78 52 76 59 55 82 64 58 88 69 43 94 74 46 100 79 49 106 60 52 74 65 55 80 70 58 86 75 43 92 56 46 98 61 49 104 66 52 110 71 55 78 76 58 84 57 43 90 62 46 96 67 49 102 72 52 108 77 55 76 58 58 82 63 43 88 68 46 94 73 49 100 78 52 106 59 55 74 64 58 80 69 43 86 74 46 92 79 49 98 60 52 104 65 55 110 70 58 78 75 43 84 56 46 90 61 49 96 66 52 102 71 55 108 76 58 76 57 43 82 62 46 88 67 49 94 72 52 100 77 55 106 58 58 74 63 43 80 68 46 86 73 49 92 78 52 98 59 55 104 64 58 110 69 43 78 74 46 84 79 49 90 60 52 96 65 55 102 70 58 108 75 43 76 56 46 82 61 49 88 66 52 94 71 55
85 62 42 91 67 45 97 72 48 103 77 51 109 58 54 77 63 57 83 68 42 89 73 45 95 78 48 101 59 51 107 64 54 75 69 57 81 74 42 87 79 45 93 60 48 99 65 51 105 70 54 111 75 57 79 56 42 85 61 45 91 66 48 97 71 51 103 76 54 109 57 57 77 62 42 83 67 45 89 72 48 95 77 51 101 58 54 107 63 57 75 68 42 81 73 45 87 78 48 93 59 51 99 64 54 105 69 57 111 74 42 79 79 45 85 60 48 91 65 51 97 70 54 103 75 57 109 56 42 77 61 45 83 66 48 89 71 51 95 76 54 101 57 57 107 62 42 75 67 45 81 72 48 87 77 51 93 58 54 99 63 57 105 68 42 111 73 45 79 78 48 85 59 51 91 64 54 97 69 57 103 74 42 109 79 45 77 60 48 83 65 51 89 70 54 95 75 57 101 56 42 107 61 45 75 66 48 81 71 51 87 76 54 93 57 57 99 62 42 105 67 45 111 72 48 79 77 51 85 58 54 91 63 57 97 68 42 103 73 45 109 78 48 77 59 51 83 64 54 89 69 57 95 74 42 101 79 45 107 60 48 75 65 51 81 70 54 87 75 57 93 56 42 99 61 45 105 66 48 111 71 51 79 76 54 85 57 57 91 62 42 97 67 45 103 72 48 109 77 51 77 58 54 83 63 57 89 68 42 95 73 45 101 78 48 107 59 51 75 64 54 81 69 57 87 74 42 93 79 45 99 60 48 105 65 51 111 70 54 79 75 57 85 56 42 91 61 45 97 66 48 103 71 51 109 76 54 77 57 57 83 62 42 89 67 45 95 72 48 101 77 51 107 58 54 75 63 57 81 68 42 87 73 45 93 78 48 99 59 51 105 64 54 111 69 57 79 74 42 85 79 45 91 60 48 97 65 51 103 70 54 109 75 57 77 56 42 83 61 45 89 66 48 95 71 51 101 76 54 107 57 57 75 62 42 81 67 45 87 72 48 93 77 51 99 58 54 105 63 57 111 68 42 79 73 45 85 78 48 91 59 51 97 64 54 103 69 57 109 74 42 77 79 45 83 60 48 89 65 51 95 70 54 101 75 57 107 56 42 75 61 45 81 66 48 87 71 51 93 76 54 99 57 57 105 62 42 111 67 45 79 72 48 85 77 51 91 58 54 97 63 57 103 68 42 109 73 45 77 78 48 83 59 51 89 64 54 95 69 57 101 74 42 107 79 45 75 60 48 81 65 51 87 70 54 93 75 57 99 56 42 105 61 45 111 66 48 79 71 51 85 76 54 91 57 57 97 62 42 103 67 45 109 72 48 77 77 51 83 58 54 89 63 57 95 68 42 101 73 45 107 78 48 75 59 51 81 64 54 87 69 57 93 74 42 99 79 45 105 60 48 111 65 51 79 70 54 85 75 57 91 56 42 97 61 45 103 66 48 109 71 51 77 76 54 83 57 57 89 62 42 95 67 45 101 72 48 107 77 51 75 58 54 81 63 57 87 68 42 93 73 45 99 78 48 105 59 51 111 64 54 79 69 57 85 74 42 91 79 45 97 60 48 103 65 51 109 70 54 77 75 57 83 56 42 89 61 45 95 66 48 101 71 51 107 76 54 75 57 57 81 62 42 87 67 45 93 72 48 99 77 51 105 58 54 111 63 57 79 68 42 85 73 45 91 78 48 97 59 51 103 64 54 109 69 57 77 74 42 83 79 45 89 60 48 95 65 51 101 70 54 107 75 57 75 56 42 81 61 45 87 66 48 93 71 51 99 76 54 105 57 57 111 62 42 79 67 45 85 72 48 91 77 51 97 58 54 103 63 57 109 68 42 77 73 45 83 78 48 89 59 51 95 64 54 101 69 57 107 74 42 75 79 45 81 60 48 87 65 51 93 70 54 99 75 57 105 56 42 111 61 45 79 66 48 85 71 51 91 76 54 97 57 57 103 62 42 109 67 45 77 72 48 83 77 51 89 58 54 95 63 57 101 68 42 107 73 45 75 78 48 81 59 51 87 64 54 93 69 57 99 74 42 105 79 45 111 60 48 79 65 51 85 70 54 91 75 57 97 56 42 103 61 45 109 66 48 77 71 51 83 76 54 89 57 57 95 62 42 101 67 45 107 72 48 75 77 51 81 58 54 87 63 57 93 68 42 99 73 45
90 64 50 96 69 53 102 74 56 108 79 59 76 60 44 82 65 47 88 70 50 94 75 53 100 56 56 106 61 59 74 66 44 80 71 47 86 76 50 92 57 53 98 62 56 104 67 59 110 72 44 78 77 47 84 58 50 90 63 53 96 68 56 102 73 59 108 78 44 76 59 47 82 64 50 88 69 53 94 74 56 100 79 59 106 60 44 74 65 47 80 70 50 86 75 53 92 56 56 98 61 59 104 66 44 110 71 47 78 76 50 84 57 53 90 62 56 96 67 59 102 72 44 108 77 47 76 58 50 82 63 53 88 68 56 94 73 59 100 78 44 106 59 47 74 64 50 80 69 53 86 74 56 92 79 59 98 60 44 104 65 47 110 70 50 78 75 53 84 56 56 90 61 59 96 66 44 102 71 47 108 76 50 76 57 53 82 62 56 88 67 59 94 72 44 100 77 47 106 58 50 74 63 53 80 68 56 86 73 59 92 78 44 98 59 47 104 64 50 110 69 53 78 74 56 84 79 59 90 60 44 96 65 47 102 70 50 108 75 53 76 56 56 82 61 59 88 66 44 94 71 47 100 76 50 106 57 53 74 62 56 80 67 59 86 72 44 92 77 47 98 58 50 104 63 53 110 68 56 78 73 59 84 78 44 90 59 47 96 64 50 102 69 53 108 74 56 76 79 59 82 60 44 88 65 47 94 70 50 100 75 53 106 56 56 74 61 59 80 66 44 86 71 47 92 76 50 98 57 53 104 62 56 110 67 59 78 72 44 84 77 47 90 58 50 96 63 53 102 68 56 108 73 59 76 78 44 82 59 47 88 64 50 94 69 53 100 74 56 106 79 59 74 60 44 80 65 47 86 70 50 92 75 53 98 56 56 104 61 59 110 66 44 78 71 47 84 76 50 90 57 53 96 62 56 102 67 59 108 72 44 76 77 47 82 58 50 88 63 53 94 68 56 100 73 59 106 78 44 74 59 47 80 64 50 86 69 53 92 74 56 98 79 59 104 60 44 110 65 47 78 70 50 84 75 53 90 56 56 96 61 59 102 66 44 108 71 47 76 76 50 82 57 53 88 62 56 94 67 59 100 72 44 106 77 47 74 58 50 80 63 53 86 68 56 92 73 59 98 78 44 104 59 47 110 64 50 78 69 53 84 74 56 90 79 59 96 60 44 102 65 47 108 70 50 76 75 53 82 56 56 88 61 59 94 66 44 100 71 47 106 76 50 74 57 53 80 62 56 86 67 59 92 72 44 98 77 47 104 58 50 110 63 53 78 68 56 84 73 59 90 78 44 96 59 47 102 64 50 108 69 53 76 74 56 82 79 59 88 60 44 94 65 47 100 70 50 106 75 53 74 56 56 80 61 59 86 66 44 92 71 47 98 76 50 104 57 53 110 62 56 78 67 59 84 72 44 90 77 47 96 58 50 102 63 53 108 68 56 76 73 59 82 78 44 88 59 47 94 64 50 100 69 53 106 74 56 74 79 59 80 60 44 86 65 47 92 70 50 98 75 53 104 56 56 110 61 59 78 66 44 84 71 47 90 76 50 96 57 53 102 62 56 108 67 59 76 72 44 82 77 47 88 58 50 94 63 53 100 68 56 106 73 59 74 78 44 80 59 47 86 64 50 92 69 53 98 74 56 104 79 59 110 60 44 78 65 47 84 70 50 90 75 53 96 56 56 102 61 59 108 66 44 76 71 47 82 76 50 88 57 53 94 62 56 100 67 59 106 72 44 74 77 47 80 58 50 86 63 53 92 68 56 98 73 59 104 78 44 110 59 47 78 64 50 84 69 53 90 74 56 96 79 59 102 60 44 108 65 47 76 70 50 82 75 53 88 56 56 94 61 59 100 66 44 106 71 47 74 76 50 80 57 53 86 62 56 92 67 59 98 72 44 104 77 47 110 58 50 78 63 53 84 68 56 90 73 59 96 78 44 102 59 47 108 64 50 76 69 53 82 74 56 88 79 59 94 60 44 100 65 47 106 70 50 74 75 53 80 56 56 86 61 59 92 66 44 98 71 47 104 76 50 110 57 53 78 62 56 84 67 59 90 72 44 96 77 47 102 58 50 108 63 53 76 68 56 82 73 59 88 78 44 94 59 47 100 64 50 106 69 53 74 74 56 80 79 59 86 60 44 92 65 47 98 70 50 104 75 53
95 66 58 101 71 43 107 76 46 75 57 49 81 62 52 87 67 55 93 72 58 99 77 43 105 58 46 111 63 49 79 68 52 85 73 55 91 78 58 97 59 43 103 64 46 109 69 49 77 74 52 83 79 55 89 60 58 95 65 43 101 70 46 107 75 49 75 56 52 81 61 55 87 66 58 93 71 43 99 76 46 105 57 49 111 62 52 79 67 55 85 72 58 91 77 43 97 58 46 103 63 49 109 68 52 77 73 55 83 78 58 89 59 43 95 64 46 101 69 49 107 74 52 75 79 55 81 60 58 87 65 43 93 70 46 99 75 49 105 56 52 111 61 55 79 66 58 85 71 43 91 76 46 97 57 49 103 62 52 109 67 55 77 72 58 83 77 43 89 58 46 95 63 49 101 68 52 107 73 55 75 78 58 81 59 43 87 64 46 93 69 49 99 74 52 105 79 55 111 60 58 79 65 43 85 70 46 91 75 49 97 56 52 103 61 55 109 66 58 77 71 43 83 76 46 89 57 49 95 62 52 101 67 55 107 72 58 75 77 43 81 58 46 87 63 49 93 68 52 99 73 55 105 78 58 111 59 43 79 64 46 85 69 49 91 74 52 97 79 55 103 60 58 109 65 43 77 70 46 83 75 49 89 56 52 95 61 55 101 66 58 107 71 43 75 76 46 81 57 49 87 62 52 93 67 55 99 72 58 105 77 43 111 58 46 79 63 49 85 68 52 91 73 55 97 78 58 103 59 43 109 64 46 77 69 49 83 74 52 89 79 55 95 60 58 101 65 43 107 70 46 75 75 49 81 56 52 87 61 55 93 66 58 99 71 43 105 76 46 111 57 49 79 62 52 85 67 55 91 72 58 97 77 43 103 58 46 109 63 49 77 68 52 83 73 55 89 78 58 95 59 43 101 64 46 107 69 49 75 74 52 81 79 55 87 60 58 93 65 43 99 70 46 105 75 49 111 56 52 79 61 55 85 66 58 91 71 43 97 76 46 103 57 49 109 62 52 77 67 55 83 72 58 89 77 43 95 58 46 101 63 49 107 68 52 75 73 55 81 78 58 87 59 43 93 64 46 99 69 49 105 74 52 111 79 55 79 60 58 85 65 43 91 70 46 97 75 49 103 56 52 109 61 55 77 66 58 83 71 43 89 76 46 95 57 49 101 62 52 107 67 55 75 72 58 81 77 43 87 58 46 93 63 49 99 68 52 105 73 55 111 78 58 79 59 43 85 64 46 91 69 49 97 74 52 103 79 55 109 60 58 77 65 43 83 70 46 89 75 49 95 56 52 101 61 55 107 66 58 75 71 43 81 76 46 87 57 49 93 62 52 99 67 55 105 72 58 111 77 43 79 58 46 85 63 49 91 68 52 97 73 55 103 78 58 109 59 43 77 64 46 83 69 49 89 74 52 95 79 55 101 60 58 107 65 43 75 70 46 81 75 49 87 56 52 93 61 55 99 66 58 105 71 43 111 76 46 79 57 49 85 62 52 91 67 55 97 72 58 103 77 43 109 58 46 77 63 49 83 68 52 89 73 55 95 78 58 101 59 43 107 64 46 75 69 49 81 74 52 87 79 55 93 60 58 99 65 43 105 70 46 111 75 49 79 56 52 85 61 55 91 66 58 97 71 43 103 76 46 109 57 49 77 62 52 83 67 55 89 72 58 95 77 43 101 58 46 107 63 49 75 68 52 81 73 55 87 78 58 93 59 43 99 64 46 105 69 49 111 74 52 79 79 55 85 60 58 91 65 43 97 70 46 103 75 49 109 56 52 77 61 55 83 66 58 89 71 43 95 76 46 101 57 49 107 62 52 75 67 55 81 72 58 87 77 43 93 58 46 99 63 49 105 68 52 111 73 55 79 78 58 85 59 43 91 64 46 97 69 49 103 74 52 109 79 55 77 60 58 83 65 43 89 70 46 95 75 49 101 56 52 107 61 55 75 66 58 81 71 43 87 76 46 93 57 49 99 62 52 105 67 55 111 72 58 79 77 43 85 58 46 91 63 49 97 68 52 103 73 55 109 78 58 77 59 43 83 64 46 89 69 49 95 74 52 101 79 55 107 60 58 75 65 43 81 70 46 87 75 49 93 56 52 99 61 55 105 66 58 111 71 43 79 76 46 85 57 49 91 62 52 97 67 55 103 72 58 109 77 43
100 68 48 106 73 51 74 78 54 80 59 57 86 64 42 92 69 45 98 74 48 104 79 51 110 60 54 78 65 57 84 70 42 90 75 45 96 56 48 102 61 51 108 66 54 76 71 57 82 76 42 88 57 45 94 62 48 100 67 51 106 72 54 74 77 57 80 58 42 86 63 45 92 68 48 98 73 51 104 78 54 110 59 57 78 64 42 84 69 45 90 74 48 96 79 51 102 60 54 108 65 57 76 70 42 82 75 45 88 56 48 94 61 51 100 66 54 106 71 57 74 76 42 80 57 45 86 62 48 92 67 51 98 72 54 104 77 57 110 58 42 78 63 45 84 68 48 90 73 51 96 78 54 102 59 57 108 64 42 76 69 45 82 74 48 88 79 51 94 60 54 100 65 57 106 70 42 74 75 45 80 56 48 86 61 51 92 66 54 98 71 57 104 76 42 110 57 45 78 62 48 84 67 51 90 72 54 96 77 57 102 58 42 108 63 45 76 68 48 82 73 51 88 78 54 94 59 57 100 64 42 106 69 45 74 74 48 80 79 51 86 60 54 92 65 57 98 70 42 104 75 45 110 56 48 78 61 51 84 66 54 90 71 57 96 76 42 102 57 45 108 62 48 76 67 51 82 72 54 88 77 57 94 58 42 100 63 45 106 68 48 74 73 51 80 78 54 86 59 57 92 64 42 98 69 45 104 74 48 110 79 51 78 60 54 84 65 57 90 70 42 96 75 45 102 56 48 108 61 51 76 66 54 82 71 57 88 76 42 94 57 45 100 62 48 106 67 51 74 72 54 80 77 57 86 58 42 92 63 45 98 68 48 104 73 51 110 78 54 78 59 57 84 64 42 90 69 45 96 74 48 102 79 51 108 60 54 76 65 57 82 70 42 88 75 45 94 56 48 100 61 51 106 66 54 74 71 57 80 76 42 86 57 45 92 62 48 98 67 51 104 72 54 110 77 57 78 58 42 84 63 45 90 68 48 96 73 51 102 78 54 108 59 57 76 64 42 82 69 45 88 74 48 94 79 51 100 60 54 106 65 57 74 70 42 80 75 45 86 56 48 92 61 51 98 66 54 104 71 57 110 76 42 78 57 45 84 62 48 90 67 51 96 72 54 102 77 57 108 58 42 76 63 45 82 68 48 88 73 51 94 78 54 100 59 57 106 64 42 74 69 45 80 74 48 86 79 51 92 60 54 98 65 57 104 70 42 110 75 45 78 56 48 84 61 51 90 66 54 96 71 57 102 76 42 108 57 45 76 62 48 82 67 51 88 72 54 94 77 57 100 58 42 106 63 45 74 68 48 80 73 51 86 78 54 92 59 57 98 64 42 104 69 45 110 74 48 78 79 51 84 60 54 90 65 57 96 70 42 102 75 45 108 56 48 76 61 51 82 66 54 88 71 57 94 76 42 100 57 45 106 62 48 74 67 51 80 72 54 86 77 57 92 58 42 98 63 45 104 68 48 110 73 51 78 78 54 84 59 57 90 64 42 96 69 45 102 74 48 108 79 51 76 60 54 82 65 57 88 70 42 94 75 45 100 56 48 106 61 51 74 66 54 80 71 57 86 76 42 92 57 45 98 62 48 104 67 51 110 72 54 78 77 57 84 58 42 90 63 45 96 68 48 102 73 51 108 78 54 76 59 57 82 64 42 88 69 45 94 74 48 100 79 51 106 60 54 74 65 57 80 70 42 86 75 45 92 56 48 98 61 51 104 66 54 110 71 57 78 76 42 84 57 45 90 62 48 96 67 51 102 72 54 108 77 57 76 58 42 82 63 45 88 68 48 94 73 51 100 78 54 106 59 57 74 64 42 80 69 45 86 74 48 92 79 51 98 60 54 104 65 57 110 70 42 78 75 45 84 56 48 90 61 51 96 66 54 102 71 57 108 76 42 76 57 45 82 62 48 88 67 51 94 72 54 100 77 57 106 58 42 74 63 45 80 68 48 86 73 51 92 78 54 98 59 57 104 64 42 110 69 45 78 74 48 84 79 51 90 60 54 96 65 57 102 70 42 108 75 45 76 56 48 82 61 51 88 66 54 94 71 57 100 76 42 106 57 45 74 62 48 80 67 51 86 72 54 92 77 57 98 58 42 104 63 45 110 68 48 78 73 51 84 78 54 90 59 57 96 64 42 102 69 45 108 74 48 76 79 51
105 70 56 111 75 59 79 56 44 85 61 47 91 66 50 97 71 53 103 76 56 109 57 59 77 62 44 83 67 47 89 72 50 95 77 53 101 58 56 107 63 59 75 68 44 81 73 47 87 78 50 93 59 53 99 64 56 105 69 59 111 74 44 79 79 47 85 60 50 91 65 53 97 70 56 103 75 59 109 56 44 77 61 47 83 66 50 89 71 53 95 76 56 101 57 59 107 62 44 75 67 47 81 72 50 87 77 53 93 58 56 99 63 59 105 68 44 111 73 47 79 78 50 85 59 53 91 64 56 97 69 59 103 74 44 109 79 47 77 60 50 83 65 53 89 70 56 95 75 59 101 56 44 107 61 47 75 66 50 81 71 53 87 76 56 93 57 59 99 62 44 105 67 47 111 72 50 79 77 53 85 58 56 91 63 59 97 68 44 103 73 47 109 78 50 77 59 53 83 64 56 89 69 59 95 74 44 101 79 47 107 60 50 75 65 53 81 70 56 87 75 59 93 56 44 99 61 47 105 66 50 111 71 53 79 76 56 85 57 59 91 62 44 97 67 47 103 72 50 109 77 53 77 58 56 83 63 59 89 68 44 95 73 47 101 78 50 107 59 53 75 64 56 81 69 59 87 74 44 93 79 47 99 60 50 105 65 53 111 70 56 79 75 59 85 56 44 91 61 47 97 66 50 103 71 53 109 76 56 77 57 59 83 62 44 89 67 47 95 72 50 101 77 53 107 58 56 75 63 59 81 68 44 87 73 47 93 78 50 99 59 53 105 64 56 111 69 59 79 74 44 85 79 47 91 60 50 97 65 53 103 70 56 109 75 59 77 56 44 83 61 47 89 66 50 95 71 53 101 76 56 107 57 59 75 62 44 81 67 47 87 72 50 93 77 53 99 58 56 105 63 59 111 68 44 79 73 47 85 78 50 91 59 53 97 64 56 103 69 59 109 74 44 77 79 47 83 60 50 89 65 53 95 70 56 101 75 59 107 56 44 75 61 47 81 66 50 87 71 53 93 76 56 99 57 59 105 62 44 111 67 47 79 72 50 85 77 53 91 58 56 97 63 59 103 68 44 109 73 47 77 78 50 83 59 53 89 64 56 95 69 59 101 74 44 107 79 47 75 60 50 81 65 53 87 70 56 93 75 59 99 56 44 105 61 47 111 66 50 79 71 53 85 76 56 91 57 59 97 62 44 103 67 47 109 72 50 77 77 53 83 58 56 89 63 59 95 68 44 101 73 47 107 78 50 75 59 53 81 64 56 87 69 59 93 74 44 99 79 47 105 60 50 111 65 53 79 70 56 85 75 59 91 56 44 97 61 47 103 66 50 109 71 53 77 76 56 83 57 59 89 62 44 95 67 47 101 72 50 107 77 53 75 58 56 81 63 59 87 68 44 93 73 47 99 78 50 105 59 53 111 64 56 79 69 59 85 74 44 91 79 47 97 60 50 103 65 53 109 70 56 77 75 59 83 56 44 89 61 47 95 66 50 101 71 53 107 76 56 75 57 59 81 62 44 87 67 47 93 72 50 99 77 53 105 58 56 111 63 59 79 68 44 85 73 47 91 78 50 97 59 53 103 64 56 109 69 59 77 74 44 83 79 47 89 60 50 95 65 53 101 70 56 107 75 59 75 56 44 81 61 47 87 66 50 93 71 53 99 76 56 105 57 59 111 62 44 79 67 47 85 72 50 91 77 53 97 58 56 103 63 59 109 68 44 77 73 47 83 78 50 89 59 53 95 64 56 101 69 59 107 74 44 75 79 47 81 60 50 87 65 53 93 70 56 99 75 59 105 56 44 111 61 47 79 66 50 85 71 53 91 76 56 97 57 59 103 62 44 109 67 47 77 72 50 83 77 53 89 58 56 95 63 59 101 68 44 107 73 47 75 78 50 81 59 53 87 64 56 93 69 59 99 74 44 105 79 47 111 60 50 79 65 53 85 70 56 91 75 59 97 56 44 103 61 47 109 66 50 77 71 53 83 76 56 89 57 59 95 62 44 101 67 47 107 72 50 75 77 53 81 58 56 87 63 59 93 68 44 99 73 47 105 78 50 111 59 53 79 64 56 85 69 59 91 74 44 97 79 47 103 60 50 109 65 53 77 70 56 83 75 59 89 56 44 95 61 47 101 66 50 107 71 53 75 76 56 81 57 59
110 72 46 78 77 49 84 58 52 90 63 55 96 68 58 102 73 43 108 78 46 76 59 49 82 64 52 88 69 55 94 74 58 100 79 43 106 60 46 74 65 49 80 70 52 86 75 55 92 56 58 98 61 43 104 66 46 110 71 49 78 76 52 84 57 55 90 62 58 96 67 43 102 72 46 108 77 49 76 58 52 82 63 55 88 68 58 94 73 43 100 78 46 106 59 49 74 64 52 80 69 55 86 74 58 92 79 43 98 60 46 104 65 49 110 70 52 78 75 55 84 56 58 90 61 43 96 66 46 102 71 49 108 76 52 76 57 55 82 62 58 88 67 43 94 72 46 100 77 49 106 58 52 74 63 55 80 68 58 86 73 43 92 78 46 98 59 49 104 64 52 110 69 55 78 74 58 84 79 43 90 60 46 96 65 49 102 70 52 108 75 55 76 56 58 82 61 43 88 66 46 94 71 49 100 76 52 106 57 55 74 62 58 80 67 43 86 72 46 92 77 49 98 58 52 104 63 55 110 68 58 78 73 43 84 78 46 90 59 49 96 64 52 102 69 55 108 74 58 76 79 43 82 60 46 88 65 49 94 70 52 100 75 55 106 56 58 74 61 43 80 66 46 86 71 49 92 76 52 98 57 55 104 62 58 110 67 43 78 72 46 84 77 49 90 58 52 96 63 55 102 68 58 108 73 43 76 78 46 82 59 49 88 64 52 94 69 55 100 74 58 106 79 43 74 60 46 80 65 49 86 70 52 92 75 55 98 56 58 104 61 43 110 66 46 78 71 49 84 76 52 90 57 55 96 62 58 102 67 43 108 72 46 76 77 49 82 58 52 88 63 55 94 68 58 100 73 43 106 78 46 74 59 49 80 64 52 86 69 55 92 74 58 98 79 43 104 60 46 110 65 49 78 70 52 84 75 55 90 56 58 96 61 43 102 66 46 108 71 49 76 76 52 82 57 55 88 62 58 94 67 43 100 72 46 106 77 49 74 58 52 80 63 55 86 68 58 92 73 43 98 78 46 104 59 49 110 64 52 78 69 55 84 74 58 90 79 43 96 60 46 102 65 49 108 70 52 76 75 55 82 56 58 88 61 43 94 66 46 100 71 49 106 76 52 74 57 55 80 62 58 86 67 43 92 72 46 98 77 49 104 58 52 110 63 55 78 68 58 84 73 43 90 78 46 96 59 49 102 64 52 108 69 55 76 74 58 82 79 43 88 60 46 94 65 49 100 70 52 106 75 55 74 56 58 80 61 43 86 66 46 92 71 49 98 76 52 104 57 55 110 62 58 78 67 43 84 72 46 90 77 49 96 58 52 102 63 55 108 68 58 76 73 43 82 78 46 88 59 49 94 64 52 100 69 55 106 74 58 74 79 43 80 60 46 86 65 49 92 70 52 98 75 55 104 56 58 110 61 43 78 66 46 84 71 49 90 76 52 96 57 55 102 62 58 108 67 43 76 72 46 82 77 49 88 58 52 94 63 55 100 68 58 106 73 43 74 78 46 80 59 49 86 64 52 92 69 55 98 74 58 104 79 43 110 60 46 78 65 49 84 70 52 90 75 55 96 56 58 102 61 43 108 66 46 76 71 49 82 76 52 88 57 55 94 62 58 100 67 43 106 72 46 74 77 49 80 58 52 86 63 55 92 68 58 98 73 43 104 78 46 110 59 49 78 64 52 84 69 55 90 74 58 96 79 43 102 60 46 108 65 49 76 70 52 82 75 55 88 56 58 94 61 43 100 66 46 106 71 49 74 76 52 80 57 55 86 62 58 92 67 43 98 72 46 104 77 49 110 58 52 78 63 55 84 68 58 90 73 43 96 78 46 102 59 49 108 64 52 76 69 55 82 74 58 88 79 43 94 60 46 100 65 49 106 70 52 74 75 55 80 56 58 86 61 43 92 66 46 98 71 49 104 76 52 110 57 55 78 62 58 84 67 43 90 72 46 96 77 49 102 58 52 108 63 55 76 68 58 82 73 43 88 78 46 94 59 49 100 64 52 106 69 55 74 74 58 80 79 43 86 60 46 92 65 49 98 70 52 104 75 55 110 56 58 78 61 43 84 66 46 90 71 49 96 76 52 102 57 55 108 62 58 76 67 43 82 72 46 88 77 49 94 58 52 100 63 55 106 68 58 74 73 43 80 78 46 86 59 49
77 74 54 83 79 57 89 60 42 95 65 45 101 70 48 107 75 51 75 56 54 81 61 57 87 66 42 93 71 45 99 76 48 105 57 51 111 62 54 79 67 57 85 72 42 91 77 45 97 58 48 103 63 51 109 68 54 77 73 57 83 78 42 89 59 45 95 64 48 101 69 51 107 74 54 75 79 57 81 60 42 87 65 45 93 70 48 99 75 51 105 56 54 111 61 57 79 66 42 85 71 45 91 76 48 97 57 51 103 62 54 109 67 57 77 72 42 83 77 45 89 58 48 95 63 51 101 68 54 107 73 57 75 78 42 81 59 45 87 64 48 93 69 51 99 74 54 105 79 57 111 60 42 79 65 45 85 70 48 91 75 51 97 56 54 103 61 57 109 66 42 77 71 45 83 76 48 89 57 51 95 62 54 101 67 57 107 72 42 75 77 45 81 58 48 87 63 51 93 68 54 99 73 57 105 78 42 111 59 45 79 64 48 85 69 51 91 74 54 97 79 57 103 60 42 109 65 45 77 70 48 83 75 51 89 56 54 95 61 57 101 66 42 107 71 45 75 76 48 81 57 51 87 62 54 93 67 57 99 72 42 105 77 45 111 58 48 79 63 51 85 68 54 91 73 57 97 78 42 103 59 45 109 64 48 77 69 51 83 74 54 89 79 57 95 60 42 101 65 45 107 70 48 75 75 51 81 56 54 87 61 57 93 66 42 99 71 45 105 76 48 111 57 51 79 62 54 85 67 57 91 72 42 97 77 45 103 58 48 109 63 51 77 68 54 83 73 57 89 78 42 95 59 45 101 64 48 107 69 51 75 74 54 81 79 57 87 60 42 93 65 45 99 70 48 105 75 51 111 56 54 79 61 57 85 66 42 91 71 45 97 76 48 103 57 51 109 62 54 77 67 57 83 72 42 89 77 45 95 58 48 101 63 51 107 68 54 75 73 57 81 78 42 87 59 45 93 64 48 99 69 51 105 74 54 111 79 57 79 60 42 85 65 45 91 70 48 97 75 51 103 56 54 109 61 57 77 66 42 83 71 45 89 76 48 95 57 51 101 62 54 107 67 57 75 72 42 81 77 45 87 58 48 93 63 51 99 68 54 105 73 57 111 78 42 79 59 45 85 64 48 91 69 51 97 74 54 103 79 57 109 60 42 77 65 45 83 70 48 89 75 51 95 56 54 101 61 57 107 66 42 75 71 45 81 76 48 87 57 51 93 62 54 99 67 57 105 72 42 111 77 45 79 58 48 85 63 51 91 68 54 97 73 57 103 78 42 109 59 45 77 64 48 83 69 51 89 74 54 95 79 57 101 60 42 107 65 45 75 70 48 81 75 51 87 56 54 93 61 57 99 66 42 105 71 45 111 76 48 79 57 51 85 62 54 91 67 57 97 72 42 103 77 45 109 58 48 77 63 51 83 68 54 89 73 57 95 78 42 101 59 45 107 64 48 75 69 51 81 74 54 87 79 57 93 60 42 99 65 45 105 70 48 111 75 51 79 56 54 85 61 57 91 66 42 97 71 45 103 76 48 109 57 51 77 62 54 83 67 57 89 72 42 95 77 45 101 58 48 107 63 51 75 68 54 81 73 57 87 78 42 93 59 45 99 64 48 105 69 51 111 74 54 79 79 57 85 60 42 91 65 45 97 70 48 103 75 51 109 56 54 77 61 57 83 66 42 89 71 45 95 76 48 101 57 51 107 62 54 75 67 57 81 72 42 87 77 45 93 58 48 99 63 51 105 68 54 111 73 57 79 78 42 85 59 45 91 64 48 97 69 51 103 74 54 109 79 57 77 60 42 83 65 45 89 70 48 95 75 51 101 56 54 107 61 57 75 66 42 81 71 45 87 76 48 93 57 51 99 62 54 105 67 57 111 72 42 79 77 45 85 58 48 91 63 51 97 68 54 103 73 57 109 78 42 77 59 45 83 64 48 89 69 51 95 74 54 101 79 57 107 60 42 75 65 45 81 70 48 87 75 51 93 56 54 99 61 57 105 66 42 111 71 45 79 76 48 85 57 51 91 62 54 97 67 57 103 72 42 109 77 45 77 58 48 83 63 51 89 68 54 95 73 57 101 78 42 107 59 45 75 64 48 81 69 51 87 74 54 93 79 57 99 60 42 105 65 45 111 70 48 79 75 51 85 56 54 91 61 57
82 76 44 88 57 47 94 62 50 100 67 53 106 72 56 74 77 59 80 58 44 86 63 47 92 68 50 98 73 53 104 78 56 110 59 59 78 64 44 84 69 47 90 74 50 96 79 53 102 60 56 108 65 59 76 70 44 82 75 47 88 56 50 94 61 53 100 66 56 106 71 59 74 76 44 80 57 47 86 62 50 92 67 53 98 72 56 104 77 59 110 58 44 78 63 47 84 68 50 90 73 53 96 78 56 102 59 59 108 64 44 76 69 47 82 74 50 88 79 53 94 60 56 100 65 59 106 70 44 74 75 47 80 56 50 86 61 53 92 66 56 98 71 59 104 76 44 110 57 47 78 62 50 84 67 53 90 72 56 96 77 59 102 58 44 108 63 47 76 68 50 82 73 53 88 78 56 94 59 59 100 64 44 106 69 47 74 74 50 80 79 53 86 60 56 92 65 59 98 70 44 104 75 47 110 56 50 78 61 53 84 66 56 90 71 59 96 76 44 102 57 47 108 62 50 76 67 53 82 72 56 88 77 59 94 58 44 100 63 47 106 68 50 74 73 53 80 78 56 86 59 59 92 64 44 98 69 47 104 74 50 110 79 53 78 60 56 84 65 59 90 70 44 96 75 47 102 56 50 108 61 53 76 66 56 82 71 59 88 76 44 94 57 47 100 62 50 106 67 53 74 72 56 80 77 59 86 58 44 92 63 47 98 68 50 104 73 53 110 78 56 78 59 59 84 64 44 90 69 47 96 74 50 102 79 53 108 60 56 76 65 59 82 70 44 88 75 47 94 56 50 100 61 53 106 66 56 74 71 59 80 76 44 86 57 47 92 62 50 98 67 53 104 72 56 110 77 59 78 58 44 84 63 47 90 68 50 96 73 53 102 78 56 108 59 59 76 64 44 82 69 47 88 74 50 94 79 53 100 60 56 106 65 59 74 70 44 80 75 47 86 56 50 92 61 53 98 66 56 104 71 59 110 76 44 78 57 47 84 62 50 90 67 53 96 72 56 102 77 59 108 58 44 76 63 47 82 68 50 88 73 53 94 78 56 100 59 59 106 64 44 74 69 47 80 74 50 86 79 53 92 60 56 98 65 59 104 70 44 110 75 47 78 56 50 84 61 53 90 66 56 96 71 59 102 76 44 108 57 47 76 62 50 82 67 53 88 72 56 94 77 59 100 58 44 106 63 47 74 68 50 80 73 53 86 78 56 92 59 59 98 64 44 104 69 47 110 74 50 78 79 53 84 60 56 90 65 59 96 70 44 102 75 47 108 56 50 76 61 53 82 66 56 88 71 59 94 76 44 100 57 47 106 62 50 74 67 53 80 72 56 86 77 59 92 58 44 98 63 47 104 68 50 110 73 53 78 78 56 84 59 59 90 64 44 96 69 47 102 74 50 108 79 53 76 60 56 82 65 59 88 70 44 94 75 47 100 56 50 106 61 53 74 66 56 80 71 59 86 76 44 92 57 47 98 62 50 104 67 53 110 72 56 78 77 59 84 58 44 90 63 47 96 68 50 102 73 53 108 78 56 76 59 59 82 64 44 88 69 47 94 74 50 100 79 53 106 60 56 74 65 59 80 70 44 86 75 47 92 56 50 98 61 53 104 66 56 110 71 59 78 76 44 84 57 47 90 62 50 96 67 53 102 72 56 108 77 59 76 58 44 82 63 47 88 68 50 94 73 53 100 78 56 106 59 59 74 64 44 80 69 47 86 74 50 92 79 53 98 60 56 104 65 59 110 70 44 78 75 47 84 56 50 90 61 53 96 66 56 102 71 59 108 76 44 76 57 47 82 62 50 88 67 53 94 72 56 100 77 59 106 58 44 74 63 47 80 68 50 86 73 53 92 78 56 98 59 59 104 64 44 110 69 47 78 74 50 84 79 53 90 60 56 96 65 59 102 70 44 108 75 47 76 56 50 82 61 53 88 66 56 94 71 59 100 76 44 106 57 47 74 62 50 80 67 53 86 72 56 92 77 59 98 58 44 104 63 47 110 68 50 78 73 53 84 78 56 90 59 59 96 64 44 102 69 47 108 74 50 76 79 53 82 60 56 88 65 59 94 70 44 100 75 47 106 56 50 74 61 53 80 66 56 86 71 59 92 76 44 98 57 47 104 62 50 110 67 53 78 72 56 84 77 59 90 58 44 96 63 47
87 78 52 93 59 55 99 64 58 105 69 43 111 74 46 79 79 49 85 60 52 91 65 55 97 70 58 103 75 43 109 56 46 77 61 49 83 66 52 89 71 55 95 76 58 101 57 43 107 62 46 75 67 49 81 72 52 87 77 55 93 58 58 99 63 43 105 68 46 111 73 49 79 78 52 85 59 55 91 64 58 97 69 43 103 74 46 109 79 49 77 60 52 83 65 55 89 70 58 95 75 43 101 56 46 107 61 49 75 66 52 81 71 55 87 76 58 93 57 43 99 62 46 105 67 49 111 72 52 79 77 55 85 58 58 91 63 43 97 68 46 103 73 49 109 78 52 77 59 55 83 64 58 89 69 43 95 74 46 101 79 49 107 60 52 75 65 55 81 70 58 87 75 43 93 56 46 99 61 49 105 66 52 111 71 55 79 76 58 85 57 43 91 62 46 97 67 49 103 72 52 109 77 55 77 58 58 83 63 43 89 68 46 95 73 49 101 78 52 107 59 55 75 64 58 81 69 43 87 74 46 93 79 49 99 60 52 105 65 55 111 70 58 79 75 43 85 56 46 91 61 49 97 66 52 103 71 55 109 76 58 77 57 43 83 62 46 89 67 49 95 72 52 101 77 55 107 58 58 75 63 43 81 68 46 87 73 49 93 78 52 99 59 55 105 64 58 111 69 43 79 74 46 85 79 49 91 60 52 97 65 55 103 70 58 109 75 43 77 56 46 83 61 49 89 66 52 95 71 55 101 76 58 107 57 43 75 62 46 81 67 49 87 72 52 93 77 55 99 58 58 105 63 43 111 68 46 79 73 49 85 78 52 91 59 55 97 64 58 103 69 43 109 74 46 77 79 49 83 60 52 89 65 55 95 70 58 101 75 43 107 56 46 75 61 49 81 66 52 87 71 55 93 76 58 99 57 43 105 62 46 111 67 49 79 72 52 85 77 55 91 58 58 97 63 43 103 68 46 109 73 49 77 78 52 83 59 55 89 64 58 95 69 43 101 74 46 107 79 49 75 60 52 81 65 55 87 70 58 93 75 43 99 56 46 105 61 49 111 66 52 79 71 55 85 76 58 91 57 43 97 62 46 103 67 49 109 72 52 77 77 55 83 58 58 89 63 43 95 68 46 101 73 49 107 78 52 75 59 55 81 64 58 87 69 43 93 74 46 99 79 49 105 60 52 111 65 55 79 70 58 85 75 43 91 56 46 97 61 49 103 66 52 109 71 55 77 76 58 83 57 43 89 62 46 95 67 49 101 72 52 107 77 55 75 58 58 81 63 43 87 68 46 93 73 49 99 78 52 105 59 55 111 64 58 79 69 43 85 74 46 91 79 49 97 60 52 103 65 55 109 70 58 77 75 43 83 56 46 89 61 49 95 66 52 101 71 55 107 76 58 75 57 43 81 62 46 87 67 49 93 72 52 99 77 55 105 58 58 111 63 43 79 68 46 85 73 49 91 78 52 97 59 55 103 64 58 109 69 43 77 74 46 83 79 49 89 60 52 95 65 55 101 70 58 107 75 43 75 56 46 81 61 49 87 66 52 93 71 55 99 76 58 105 57 43 111 62 46 79 67 49 85 72 52 91 77 55 97 58 58 103 63 43 109 68 46 77 73 49 83 78 52 89 59 55 95 64 58 101 69 43 107 74 46 75 79 49 81 60 52 87 65 55 93 70 58 99 75 43 105 56 46 111 61 49 79 66 52 85 71 55 91 76 58 97 57 43 103 62 46 109 67 49 77 72 52 83 77 55 89 58 58 95 63 43 101 68 46 107 73 49 75 78 52 81 59 55 87 64 58 93 69 43 99 74 46 105 79 49 111 60 52 79 65 55 85 70 58 91 75 43 97 56 46 103 61 49 109 66 52 77 71 55 83 76 58 89 57 43 95 62 46 101 67 49 107 72 52 75 77 55 81 58 58 87 63 43 93 68 46 99 73 49 105 78 52 111 59 55 79 64 58 85 69 43 91 74 46 97 79 49 103 60 52 109 65 55 77 70 58 83 75 43 89 56 46 95 61 49 101 66 52 107 71 55 75 76 58 81 57 43 87 62 46 93 67 49 99 72 52 105 77 55 111 58 58 79 63 43 85 68 46 91 73 49 97 78 52 103 59 55 109 64 58 77 69 43 83 74 46 89 79 49 95 60 52 101 65 55
92 56 42 98 61 45 104 66 48 110 71 51 78 76 54 84 57 57 90 62 42 96 67 45 102 72 48 108 77 51 76 58 54 82 63 57 88 68 42 94 73 45 100 78 48 106 59 51 74 64 54 80 69 57 86 74 42 92 79 45 98 60 48 104 65 51 110 70 54 78 75 57 84 56 42 90 61 45 96 66 48 102 71 51 108 76 54 76 57 57 82 62 42 88 67 45 94 72 48 100 77 51 106 58 54 74 63 57 80 68 42 86 73 45 92 78 48 98 59 51 104 64 54 110 69 57 78 74 42 84 79 45 90 60 48 96 65 51 102 70 54 108 75 57 76 56 42 82 61 45 88 66 48 94 71 51 100 76 54 106 57 57 74 62 42 80 67 45 86 72 48 92 77 51 98 58 54 104 63 57 110 68 42 78 73 45 84 78 48 90 59 51 96 64 54 102 69 57 108 74 42 76 79 45 82 60 48 88 65 51 94 70 54 100 75 57 106 56 42 74 61 45 80 66 48 86 71 51 92 76 54 98 57 57 104 62 42 110 67 45 78 72 48 84 77 51 90 58 54 96 63 57 102 68 42 108 73 45 76 78 48 82 59 51 88 64 54 94 69 57 100 74 42 106 79 45 74 60 48 80 65 51 86 70 54 92 75 57 98 56 42 104 61 45 110 66 48 78 71 51 84 76 54 90 57 57 96 62 42 102 67 45 108 72 48 76 77 51 82 58 54 88 63 57 94 68 42 100 73 45 106 78 48 74 59 51 80 64 54 86 69 57 92 74 42 98 79 45 104 60 48 110 65 51 78 70 54 84 75 57 90 56 42 96 61 45 102 66 48 108 71 51 76 76 54 82 57 57 88 62 42 94 67 45 100 72 48 106 77 51 74 58 54 80 63 57 86 68 42 92 73 45 98 78 48 104 59 51 110 64 54 78 69 57 84 74 42 90 79 45 96 60 48 102 65 51 108 70 54 76 75 57 82 56 42 88 61 45 94 66 48 100 71 51 106 76 54 74 57 57 80 62 42 86 67 45 92 72 48 98 77 51 104 58 54 110 63 57 78 68 42 84 73 45 90 78 48 96 59 51 102 64 54 108 69 57 76 74 42 82 79 45 88 60 48 94 65 51 100 70 54 106 75 57 74 56 42 80 61 45 86 66 48 92 71 51 98 76 54 104 57 57 110 62 42 78 67 45 84 72 48 90 77 51 96 58 54 102 63 57 108 68 42 76 73 45 82 78 48 88 59 51 94 64 54 100 69 57 106 74 42 74 79 45 80 60 48 86 65 51 92 70 54 98 75 57 104 56 42 110 61 45 78 66 48 84 71 51 90 76 54 96 57 57 102 62 42 108 67 45 76 72 48 82 77 51 88 58 54 94 63 57 100 68 42 106 73 45 74 78 48 80 59 51 86 64 54 92 69 57 98 74 42 104 79 45 110 60 48 78 65 51 84 70 54 90 75 57 96 56 42 102 61 45 108 66 48 76 71 51 82 76 54 88 57 57 94 62 42 100 67 45 106 72 48 74 77 51 80 58 54 86 63 57 92 68 42 98 73 45 104 78 48 110 59 51 78 64 54 84 69 57 90 74 42 96 79 45 102 60 48 108 65 51 76 70 54 82 75 57 88 56 42 94 61 45 100 66 48 106 71 51 74 76 54 80 57 57 86 62 42 92 67 45 98 72 48 104 77 51 110 58 54 78 63 57 84 68 42 90 73 45 96 78 48 102 59 51 108 64 54 76 69 57 82 74 42 88 79 45 94 60 48 100 65 51 106 70 54 74 75 57 80 56 42 86 61 45 92 66 48 98 71 51 104 76 54 110 57 57 78 62 42 84 67 45 90 72 48 96 77 51 102 58 54 108 63 57 76 68 42 82 73 45 88 78 48 94 59 51 100 64 54 106 69 57 74 74 42 80 79 45 86 60 48 92 65 51 98 70 54 104 75 57 110 56 42 78 61 45 84 66 48 90 71 51 96 76 54 102 57 57 108 62 42 76 67 45 82 72 48 88 77 51 94 58 54 100 63 57 106 68 42 74 73 45 80 78 48 86 59 51 92 64 54 98 69 57 104 74 42 110 79 45 78 60 48 84 65 51 90 70 54 96 75 57 102 56 42 108 61 45 76 66 48 82 71 51 88 76 54 94 57 57 100 62 42 106 67 45
97 58 50 103 63 53 109 68 56 77 73 59 83 78 44 89 59 47 95 64 50 101 69 53 107 74 56 75 79 59 81 60 44 87 65 47 93 70 50 99 75 53 105 56 56 111 61 59 79 66 44 85 71 47 91 76 50 97 57 53 103 62 56 109 67 59 77 72 44 83 77 47 89 58 50 95 63 53 101 68 56 107 73 59 75 78 44 81 59 47 87 64 50 93 69 53 99 74 56 105 79 59 111 60 44 79 65 47 85 70 50 91 75 53 97 56 56 103 61 59 109 66 44 77 71 47 83 76 50 89 57 53 95 62 56 101 67 59 107 72 44 75 77 47 81 58 50 87 63 53 93 68 56 99 73 59 105 78 44 111 59 47 79 64 50 85 69 53 91 74 56 97 79 59 103 60 44 109 65 47 77 70 50 83 75 53 89 56 56 95 61 59 101 66 44 107 71 47 75 76 50 81 57 53 87 62 56 93 67 59 99 72 44 105 77 47 111 58 50 79 63 53 85 68 56 91 73 59 97 78 44 103 59 47 109 64 50 77 69 53 83 74 56 89 79 59 95 60 44 101 65 47 107 70 50 75 75 53 81 56 56 87 61 59 93 66 44 99 71 47 105 76 50 111 57 53 79 62 56 85 67 59 91 72 44 97 77 47 103 58 50 109 63 53 77 68 56 83 73 59 89 78 44 95 59 47 101 64 50 107 69 53 75 74 56 81 79 59 87 60 44 93 65 47 99 70 50 105 75 53 111 56 56 79 61 59 85 66 44 91 71 47 97 76 50 103 57 53 109 62 56 77 67 59 83 72 44 89 77 47 95 58 50 101 63 53 107 68 56 75 73 59 81 78 44 87 59 47 93 64 50 99 69 53 105 74 56 111 79 59 79 60 44 85 65 47 91 70 50 97 75 53 103 56 56 109 61 59 77 66 44 83 71 47 89 76 50 95 57 53 101 62 56 107 67 59 75 72 44 81 77 47 87 58 50 93 63 53 99 68 56 105 73 59 111 78 44 79 59 47 85 64 50 91 69 53 97 74 56 103 79 59 109 60 44 77 65 47 83 70 50 89 75 53 95 56 56 101 61 59 107 66 44 75 71 47 81 76 50 87 57 53 93 62 56 99 67 59 105 72 44 111 77 47 79 58 50 85 63 53 91 68 56 97 73 59 103 78 44 109 59 47 77 64 50 83 69 53 89 74 56 95 79 59 101 60 44 107 65 47 75 70 50 81 75 53 87 56 56 93 61 59 99 66 44 105 71 47 111 76 50 79 57 53 85 62 56 91 67 59 97 72 44 103 77 47 109 58 50 77 63 53 83 68 56 89 73 59 95 78 44 101 59 47 107 64 50 75 69 53 81 74 56 87 79 59 93 60 44 99 65 47 105 70 50 111 75 53 79 56 56 85 61 59 91 66 44 97 71 47 103 76 50 109 57 53 77 62 56 83 67 59 89 72 44 95 77 47 101 58 50 107 63 53 75 68 56 81 73 59 87 78 44 93 59 47 99 64 50 105 69 53 111 74 56 79 79 59 85 60 44 91 65 47 97 70 50 103 75 53 109 56 56 77 61 59 83 66 44 89 71 47 95 76 50 101 57 53 107 62 56 75 67 59 81 72 44 87 77 47 93 58 50 99 63 53 105 68 56 111 73 59 79 78 44 85 59 47 91 64 50 97 69 53 103 74 56 109 79 59 77 60 44 83 65 47 89 70 50 95 75 53 101 56 56 107 61 59 75 66 44 81 71 47 87 76 50 93 57 53 99 62 56 105 67 59 111 72 44 79 77 47 85 58 50 91 63 53 97 68 56 103 73 59 109 78 44 77 59 47 83 64 50 89 69 53 95 74 56 101 79 59 107 60 44 75 65 47 81 70 50 87 75 53 93 56 56 99 61 59 105 66 44 111 71 47 79 76 50 85 57 53 91 62 56 97 67 59 103 72 44 109 77 47 77 58 50 83 63 53 89 68 56 95 73 59 101 78 44 107 59 47 75 64 50 81 69 53 87 74 56 93 79 59 99 60 44 105 65 47 111 70 50 79 75 53 85 56 56 91 61 59 97 66 44 103 71 47 109 76 50 77 57 53 83 62 56 89 67 59 95 72 44 101 77 47 107 58 50 75 63 53 81 68 56 87 73 59 93 78 44 99 59 47 105 64 50 111 69 53
102 60 58 108 65 43 76 70 46 82 75 49 88 56 52 94 61 55 100 66 58 106 71 43 74 76 46 80 57 49 86 62 52 92 67 55 98 72 58 104 77 43 110 58 46 78 63 49 84 68 52 90 73 55 96 78 58 102 59 43 108 64 46 76 69 49 82 74 52 88 79 55 94 60 58 100 65 43 106 70 46 74 75 49 80 56 52 86 61 55 92 66 58 98 71 43 104 76 46 110 57 49 78 62 52 84 67 55 90 72 58 96 77 43 102 58 46 108 63 49 76 68 52 82 73 55 88 78 58 94 59 43 100 64 46 106 69 49 74 74 52 80 79 55 86 60 58 92 65 43 98 70 46 104 75 49 110 56 52 78 61 55 84 66 58 90 71 43 96 76 46 102 57 49 108 62 52 76 67 55 82 72 58 88 77 43 94 58 46 100 63 49 106 68 52 74 73 55 80 78 58 86 59 43 92 64 46 98 69 49 104 74 52 110 79 55 78 60 58 84 65 43 90 70 46 96 75 49 102 56 52 108 61 55 76 66 58 82 71 43 88 76 46 94 57 49 100 62 52 106 67 55 74 72 58 80 77 43 86 58 46 92 63 49 98 68 52 104 73 55 110 78 58 78 59 43 84 64 46 90 69 49 96 74 52 102 79 55 108 60 58 76 65 43 82 70 46 88 75 49 94 56 52 100 61 55 106 66 58 74 71 43 80 76 46 86 57 49 92 62 52 98 67 55 104 72 58 110 77 43 78 58 46 84 63 49 90 68 52 96 73 55 102 78 58 108 59 43 76 64 46 82 69 49 88 74 52 94 79 55 100 60 58 106 65 43 74 70 46 80 75 49 86 56 52 92 61 55 98 66 58 104 71 43 110 76 46 78 57 49 84 62 52 90 67 55 96 72 58 102 77 43 108 58 46 76 63 49 82 68 52 88 73 55 94 78 58 100 59 43 106 64 46 74 69 49 80 74 52 86 79 55 92 60 58 98 65 43 104 70 46 110 75 49 78 56 52 84 61 55 90 66 58 96 71 43 102 76 46 108 57 49 76 62 52 82 67 55 88 72 58 94 77 43 100 58 46 106 63 49 74 68 52 80 73 55 86 78 58 92 59 43 98 64 46 104 69 49 110 74 52 78 79 55 84 60 58 90 65 43 96 70 46 102 75 49 108 56 52 76 61 55 82 66 58 88 71 43 94 76 46 100 57 49 106 62 52 74 67 55 80 72 58 86 77 43 92 58 46 98 63 49 104 68 52 110 73 55 78 78 58 84 59 43 90 64 46 96 69 49 102 74 52 108 79 55 76 60 58 82 65 43 88 70 46 94 75 49 100 56 52 106 61 55 74 66 58 80 71 43 86 76 46 92 57 49 98 62 52 104 67 55 110 72 58 78 77 43 84 58 46 90 63 49 96 68 52 102 73 55 108 78 58 76 59 43 82 64 46 88 69 49 94 74 52 100 79 55 106 60 58 74 65 43 80 70 46 86 75 49 92 56 52 98 61 55 104 66 58 110 71 43 78 76 46 84 57 49 90 62 52 96 67 55 102 72 58 108 77 43 76 58 46 82 63 49 88 68 52 94 73 55 100 78 58 106 59 43 74 64 46 80 69 49 86 74 52 92 79 55 98 60 58 104 65 43 110 70 46 78 75 49 84 56 52 90 61 55 96 66 58 102 71 43 108 76 46 76 57 49 82 62 52 88 67 55 94 72 58 100 77 43 106 58 46 74 63 49 80 68 52 86 73 55 92 78 58 98 59 43 104 64 46 110 69 49 78 74 52 84 79 55 90 60 58 96 65 43 102 70 46 108 75 49 76 56 52 82 61 55 88 66 58 94 71 43 100 76 46 106 57 49 74 62 52 80 67 55 86 72 58 92 77 43 98 58 46 104 63 49 110 68 52 78 73 55 84 78 58 90 59 43 96 64 46 102 69 49 108 74 52 76 79 55 82 60 58 88 65 43 94 70 46 100 75 49 106 56 52 74 61 55 80 66 58 86 71 43 92 76 46 98 57 49 104 62 52 110 67 55 78 72 58 84 77 43 90 58 46 96 63 49 102 68 52 108 73 55 76 78 58 82 59 43 88 64 46 94 69 49 100 74 52 106 79 55 74 60 58 80 65 43 86 70 46 92 75 49 98 56 52 104 61 55 110 66 58 78 71 43
107 62 48 75 67 51 81 72 54 87 77 57 93 58 42 99 63 45 105 68 48 111 73 51 79 78 54 85 59 57 91 64 42 97 69 45 103 74 48 109 79 51 77 60 54 83 65 57 89 70 42 95 75 45 101 56 48 107 61 51 75 66 54 81 71 57 87 76 42 93 57 45 99 62 48 105 67 51 111 72 54 79 77 57 85 58 42 91 63 45 97 68 48 103 73 51 109 78 54 77 59 57 83 64 42 89 69 45 95 74 48 101 79 51 107 60 54 75 65 57 81 70 42 87 75 45 93 56 48 99 61 51 105 66 54 111 71 57 79 76 42 85 57 45 91 62 48 97 67 51 103 72 54 109 77 57 77 58 42 83 63 45 89 68 48 95 73 51 101 78 54 107 59 57 75 64 42 81 69 45 87 74 48 93 79 51 99 60 54 105 65 57 111 70 42 79 75 45 85 56 48 91 61 51 97 66 54 103 71 57 109 76 42 77 57 45 83 62 48 89 67 51 95 72 54 101 77 57 107 58 42 75 63 45 81 68 48 87 73 51 93 78 54 99 59 57 105 64 42 111 69 45 79 74 48 85 79 51 91 60 54 97 65 57 103 70 42 109 75 45 77 56 48 83 61 51 89 66 54 95 71 57 101 76 42 107 57 45 75 62 48 81 67 51 87 72 54 93 77 57 99 58 42 105 63 45 111 68 48 79 73 51 85 78 54 91 59 57 97 64 42 103 69 45 109 74 48 77 79 51 83 60 54 89 65 57 95 70 42 101 75 45 107 56 48 75 61 51 81 66 54 87 71 57 93 76 42 99 57 45 105 62 48 111 67 51 79 72 54 85 77 57 91 58 42 97 63 45 103 68 48 109 73 51 77 78 54 83 59 57 89 64 42 95 69 45 101 74 48 107 79 51 75 60 54 81 65 57 87 70 42 93 75 45 99 56 48 105 61 51 111 66 54 79 71 57 85 76 42 91 57 45 97 62 48 103 67 51 109 72 54 77 77 57 83 58 42 89 63 45 95 68 48 101 73 51 107 78 54 75 59 57 81 64 42 87 69 45 93 74 48 99 79 51 105 60 54 111 65 57 79 70 42 85 75 45 91 56 48 97 61 51 103 66 54 109 71 57 77 76 42 83 57 45 89 62 48 95 67 51 101 72 54 107 77 57 75 58 42 81 63 45 87 68 48 93 73 51 99 78 54 105 59 57 111 64 42 79 69 45 85 74 48 91 79 51 97 60 54 103 65 57 109 70 42 77 75 45 83 56 48 89 61 51 95 66 54 101 71 57 107 76 42 75 57 45 81 62 48 87 67 51 93 72 54 99 77 57 105 58 42 111 63 45 79 68 48 85 73 51 91 78 54 97 59 57 103 64 42 109 69 45 77 74 48 83 79 51 89 60 54 95 65 57 101 70 42 107 75 45 75 56 48 81 61 51 87 66 54 93 71 57 99 76 42 105 57 45 111 62 48 79 67 51 85 72 54 91 77 57 97 58 42 103 63 45 109 68 48 77 73 51 83 78 54 89 59 57 95 64 42 101 69 45 107 74 48 75 79 51 81 60 54 87 65 57 93 70 42 99 75 45 105 56 48 111 61 51 79 66 54 85 71 57 91 76 42 97 57 45 103 62 48 109 67 51 77 72 54 83 77 57 89 58 42 95 63 45 101 68 48 107 73 51 75 78 54 81 59 57 87 64 42 93 69 45 99 74 48 105 79 51 111 60 54 79 65 57 85 70 42 91 75 45 97 56 48 103 61 51 109 66 54 77 71 57 83 76 42 89 57 45 95 62 48 101 67 51 107 72 54 75 77 57 81 58 42 87 63 45 93 68 48 99 73 51 105 78 54 111 59 57 79 64 42 85 69 45 91 74 48 97 79 51 103 60 54 109 65 57 77 70 42 83 75 45 89 56 48 95 61 51 101 66 54 107 71 57 75 76 42 81 57 45 87 62 48 93 67 51 99 72 54 105 77 57 111 58 42 79 63 45 85 68 48 91 73 51 97 78 54 103 59 57 109 64 42 77 69 45 83 74 48 89 79 51 95 60 54 101 65 57 107 70 42 75 75 45 81 56 48 87 61 51 93 66 54 99 71 57 105 76 42 111 57 45 79 62 48 85 67 51 91 72 54 97 77 57 103 58 42 109 63 45 77 68 48 83 73 51
74 64 56 80 69 59 86 74 44 92 79 47 98 60 50 104 65 53 110 70 56 78 75 59 84 56 44 90 61 47 96 66 50 102 71 53 108 76 56 76 57 59 82 62 44 88 67 47 94 72 50 100 77 53 106 58 56 74 63 59 80 68 44 86 73 47 92 78 50 98 59 53 104 64 56 110 69 59 78 74 44 84 79 47 90 60 50 96 65 53 102 70 56 108 75 59 76 56 44 82 61 47 88 66 50 94 71 53 100 76 56 106 57 59 74 62 44 80 67 47 86 72 50 92 77 53 98 58 56 104 63 59 110 68 44 78 73 47 84 78 50 90 59 53 96 64 56 102 69 59 108 74 44 76 79 47 82 60 50 88 65 53 94 70 56 100 75 59 106 56 44 74 61 47 80 66 50 86 71 53 92 76 56 98 57 59 104 62 44 110 67 47 78 72 50 84 77 53 90 58 56 96 63 59 102 68 44 108 73 47 76 78 50 82 59 53 88 64 56 94 69 59 100 74 44 106 79 47 74 60 50 80 65 53 86 70 56 92 75 59 98 56 44 104 61 47 110 66 50 78 71 53 84 76 56 90 57 59 96 62 44 102 67 47 108 72 50 76 77 53 82 58 56 88 63 59 94 68 44 100 73 47 106 78 50 74 59 53 80 64 56 86 69 59 92 74 44 98 79 47 104 60 50 110 65 53 78 70 56 84 75 59 90 56 44 96 61 47 102 66 50 108 71 53 76 76 56 82 57 59 88 62 44 94 67 47 100 72 50 106 77 53 74 58 56 80 63 59 86 68 44 92 73 47 98 78 50 104 59 53 110 64 56 78 69 59 84 74 44 90 79 47 96 60 50 102 65 53 108 70 56 76 75 59 82 56 44 88 61 47 94 66 50 100 71 53 106 76 56 74 57 59 80 62 44 86 67 47 92 72 50 98 77 53 104 58 56 110 63 59 78 68 44 84 73 47 90 78 50 96 59 53 102 64 56 108 69 59 76 74 44 82 79 47 88 60 50 94 65 53 100 70 56 106 75 59 74 56 44 80 61 47 86 66 50 92 71 53 98 76 56 104 57 59 110 62 44 78 67 47 84 72 50 90 77 53 96 58 56 102 63 59 108 68 44 76 73 47 82 78 50 88 59 53 94 64 56 100 69 59 106 74 44 74 79 47 80 60 50 86 65 53 92 70 56 98 75 59 104 56 44 110 61 47 78 66 50 84 71 53 90 76 56 96 57 59 102 62 44 108 67 47 76 72 50 82 77 53 88 58 56 94 63 59 100 68 44 106 73 47 74 78 50 80 59 53 86 64 56 92 69 59 98 74 44 104 79 47 110 60 50 78 65 53 84 70 56 90 75 59 96 56 44 102 61 47 108 66 50 76 71 53 82 76 56 88 57 59 94 62 44 100 67 47 106 72 50 74 77 53 80 58 56 86 63 59 92 68 44 98 73 47 104 78 50 110 59 53 78 64 56 84 69 59 90 74 44 96 79 47 102 60 50 108 65 53 76 70 56 82 75 59 88 56 44 94 61 47 100 66 50 106 71 53 74 76 56 80 57 59 86 62 44 92 67 47 98 72 50 104 77 53 110 58 56 78 63 59 84 68 44 90 73 47 96 78 50 102 59 53 108 64 56 76 69 59 82 74 44 88 79 47 94 60 50 100 65 53 106 70 56 74 75 59 80 56 44 86 61 47 92 66 50 98 71 53 104 76 56 110 57 59 78 62 44 84 67 47 90 72 50 96 77 53 102 58 56 108 63 59 76 68 44 82 73 47 88 78 50 94 59 53 100 64 56 106 69 59 74 74 44 80 79 47 86 60 50 92 65 53 98 70 56 104 75 59 110 56 44 78 61 47 84 66 50 90 71 53 96 76 56 102 57 59 108 62 44 76 67 47 82 72 50 88 77 53 94 58 56 100 63 59 106 68 44 74 73 47 80 78 50 86 59 53 92 64 56 98 69 59 104 74 44 110 79 47 78 60 50 84 65 53 90 70 56 96 75 59 102 56 44 108 61 47 76 66 50 82 71 53 88 76 56 94 57 59 100 62 44 106 67 47 74 72 50 80 77 53 86 58 56 92 63 59 98 68 44 104 73 47 110 78 50 78 59 53 84 64 56 90 69 59 96 74 44 102 79 47 108 60 50 76 65 53 82 70 56 88 75 59
79 66 46 85 71 49 91 76 52 97 57 55 103 62 58 109 67 43 77 72 46 83 77 49 89 58 52 95 63 55 101 68 58 107 73 43 75 78 46 81 59 49 87 64 52 93 69 55 99 74 58 105 79 43 111 60 46 79 65 49 85 70 52 91 75 55 97 56 58 103 61 43 109 66 46 77 71 49 83 76 52 89 57 55 95 62 58 101 67 43 107 72 46 75 77 49 81 58 52 87 63 55 93 68 58 99 73 43 105 78 46 111 59 49 79 64 52 85 69 55 91 74 58 97 79 43 103 60 46 109 65 49 77 70 52 83 75 55 89 56 58 95 61 43 101 66 46 107 71 49 75 76 52 81 57 55 87 62 58 93 67 43 99 72 46 105 77 49 111 58 52 79 63 55 85 68 58 91 73 43 97 78 46 103 59 49 109 64 52 77 69 55 83 74 58 89 79 43 95 60 46 101 65 49 107 70 52 75 75 55 81 56 58 87 61 43 93 66 46 99 71 49 105 76 52 111 57 55 79 62 58 85 67 43 91 72 46 97 77 49 103 58 52 109 63 55 77 68 58 83 73 43 89 78 46 95 59 49 101 64 52 107 69 55 75 74 58 81 79 43 87 60 46 93 65 49 99 70 52 105 75 55 111 56 58 79 61 43 85 66 46 91 71 49 97 76 52 103 57 55 109 62 58 77 67 43 83 72 46 89 77 49 95 58 52 101 63 55 107 68 58 75 73 43 81 78 46 87 59 49 93 64 52 99 69 55 105 74 58 111 79 43 79 60 46 85 65 49 91 70 52 97 75 55 103 56 58 109 61 43 77 66 46 83 71 49 89 76 52 95 57 55 101 62 58 107 67 43 75 72 46 81 77 49 87 58 52 93 63 55 99 68 58 105 73 43 111 78 46 79 59 49 85 64 52 91 69 55 97 74 58 103 79 43 109 60 46 77 65 49 83 70 52 89 75 55 95 56 58 101 61 43 107 66 46 75 71 49 81 76 52 87 57 55 93 62 58 99 67 43 105 72 46 111 77 49 79 58 52 85 63 55 91 68 58 97 73 43 103 78 46 109 59 49 77 64 52 83 69 55 89 74 58 95 79 43 101 60 46 107 65 49 75 70 52 81 75 55 87 56 58 93 61 43 99 66 46 105 71 49 111 76 52 79 57 55 85 62 58 91 67 43 97 72 46 103 77 49 109 58 52 77 63 55 83 68 58 89 73 43 95 78 46 101 59 49 107 64 52 75 69 55 81 74 58 87 79 43 93 60 46 99 65 49 105 70 52 111 75 55 79 56 58 85 61 43 91 66 46 97 71 49 103 76 52 109 57 55 77 62 58 83 67 43 89 72 46 95 77 49 101 58 52 107 63 55 75 68 58 81 73 43 87 78 46 93 59 49 99 64 52 105 69 55 111 74 58 79 79 43 85 60 46 91 65 49 97 70 52 103 75 55 109 56 58 77 61 43 83 66 46 89 71 49 95 76 52 101 57 55 107 62 58 75 67 43 81 72 46 87 77 49 93 58 52 99 63 55 105 68 58 111 73 43 79 78 46 85 59 49 91 64 52 97 69 55 103 74 58 109 79 43 77 60 46 83 65 49 89 70 52 95 75 55 101 56 58 107 61 43 75 66 46 81 71 49 87 76 52 93 57 55 99 62 58 105 67 43 111 72 46 79 77 49 85 58 52 91 63 55 97 68 58 103 73 43 109 78 46 77 59 49 83 64 52 89 69 55 95 74 58 101 79 43 107 60 46 75 65 49 81 70 52 87 75 55 93 56 58 99 61 43 105 66 46 111 71 49 79 76 52 85 57 55 91 62 58 97 67 43 103 72 46 109 77 49 77 58 52 83 63 55 89 68 58 95 73 43 101 78 46 107 59 49 75 64 52 81 69 55 87 74 58 93 79 43 99 60 46 105 65 49 111 70 52 79 75 55 85 56 58 91 61 43 97 66 46 103 71 49 109 76 52 77 57 55 83 62 58 89 67 43 95 72 46 101 77 49 107 58 52 75 63 55 81 68 58 87 73 43 93 78 46 99 59 49 105 64 52 111 69 55 79 74 58 85 79 43 91 60 46 97 65 49 103 70 52 109 75 55 77 56 58 83 61 43 89 66 46 95 71 49 101 76 52 107 57 55 75 62 58 81 67 43 87 72 46 93 77 49
84 68 54 90 73 57 96 78 42 102 59 45 108 64 48 76 69 51 82 74 54 88 79 57 94 60 42 100 65 45 106 70 48 74 75 51 80 56 54 86 61 57 92 66 42 98 71 45 104 76 48 110 57 51 78 62 54 84 67 57 90 72 42 96 77 45 102 58 48 108 63 51 76 68 54 82 73 57 88 78 42 94 59 45 100 64 48 106 69 51 74 74 54 80 79 57 86 60 42 92 65 45 98 70 48 104 75 51 110 56 54 78 61 57 84 66 42 90 71 45 96 76 48 102 57 51 108 62 54 76 67 57 82 72 42 88 77 45 94 58 48 100 63 51 106 68 54 74 73 57 80 78 42 86 59 45 92 64 48 98 69 51 104 74 54 110 79 57 78 60 42 84 65 45 90 70 48 96 75 51 102 56 54 108 61 57 76 66 42 82 71 45 88 76 48 94 57 51 100 62 54 106 67 57 74 72 42 80 77 45 86 58 48 92 63 51 98 68 54 104 73 57 110 78 42 78 59 45 84 64 48 90 69 51 96 74 54 102 79 57 108 60 42 76 65 45 82 70 48 88 75 51 94 56 54 100 61 57 106 66 42 74 71 45 80 76 48 86 57 51 92 62 54 98 67 57 104 72 42 110 77 45 78 58 48 84 63 51 90 68 54 96 73 57 102 78 42 108 59 45 76 64 48 82 69 51 88 74 54 94 79 57 100 60 42 106 65 45 74 70 48 80 75 51 86 56 54 92 61 57 98 66 42 104 71 45 110 76 48 78 57 51 84 62 54 90 67 57 96 72 42 102 77 45 108 58 48 76 63 51 82 68 54 88 73 57 94 78 42 100 59 45 106 64 48 74 69 51 80 74 54 86 79 57 92 60 42 98 65 45 104 70 48 110 75 51 78 56 54 84 61 57 90 66 42 96 71 45 102 76 48 108 57 51 76 62 54 82 67 57 88 72 42 94 77 45 100 58 48 106 63 51 74 68 54 80 73 57 86 78 42 92 59 45 98 64 48 104 69 51 110 74 54 78 79 57 84 60 42 90 65 45 96 70 48 102 75 51 108 56 54 76 61 57 82 66 42 88 71 45 94 76 48 100 57 51 106 62 54 74 67 57 80 72 42 86 77 45 92 58 48 98 63 51 104 68 54 110 73 57 78 78 42 84 59 45 90 64 48 96 69 51 102 74 54 108 79 57 76 60 42 82 65 45 88 70 48 94 75 51 100 56 54 106 61 57 74 66 42 80 71 45 86 76 48 92 57 51 98 62 54 104 67 57 110 72 42 78 77 45 84 58 48 90 63 51 96 68 54 102 73 57 108 78 42 76 59 45 82 64 48 88 69 51 94 74 54 100 79 57 106 60 42 74 65 45 80 70 48 86 75 51 92 56 54 98 61 57 104 66 42 110 71 45 78 76 48 84 57 51 90 62 54 96 67 57 102 72 42 108 77 45 76 58 48 82 63 51 88 68 54 94 73 57 100 78 42 106 59 45 74 64 48 80 69 51 86 74 54 92 79 57 98 60 42 104 65 45 110 70 48 78 75 51 84 56 54 90 61 57 96 66 42 102 71 45 108 76 48 76 57 51 82 62 54 88 67 57 94 72 42 100 77 45 106 58 48 74 63 51 80 68 54 86 73 57 92 78 42 98 59 45 104 64 48 110 69 51 78 74 54 84 79 57 90 60 42 96 65 45 102 70 48 108 75 51 76 56 54 82 61 57 88 66 42 94 71 45 100 76 48 106 57 51 74 62 54 80 67 57 86 72 42 92 77 45 98 58 48 104 63 51 110 68 54 78 73 57 84 78 42 90 59 45 96 64 48 102 69 51 108 74 54 76 79 57 82 60 42 88 65 45 94 70 48 100 75 51 106 56 54 74 61 57 80 66 42 86 71 45 92 76 48 98 57 51 104 62 54 110 67 57 78 72 42 84 77 45 90 58 48 96 63 51 102 68 54 108 73 57 76 78 42 82 59 45 88 64 48 94 69 51 100 74 54 106 79 57 74 60 42 80 65 45 86 70 48 92 75 51 98 56 54 104 61 57 110 66 42 78 71 45 84 76 48 90 57 51 96 62 54 102 67 57 108 72 42 76 77 45 82 58 48 88 63 51 94 68 54 100 73 57 106 78 42 74 59 45 80 64 48 86 69 51 92 74 54 98 79 57
89 70 44 95 75 47 101 56 50 107 61 53 75 66 56 81 71 59 87 76 44 93 57 47 99 62 50 105 67 53 111 72 56 79 77 59 85 58 44 91 63 47 97 68 50 103 73 53 109 78 56 77 59 59 83 64 44 89 69 47 95 74 50 101 79 53 107 60 56 75 65 59 81 70 44 87 75 47 93 56 50 99 61 53 105 66 56 111 71 59 79 76 44 85 57 47 91 62 50 97 67 53 103 72 56 109 77 59 77 58 44 83 63 47 89 68 50 95 73 53 101 78 56 107 59 59 75 64 44 81 69 47 87 74 50 93 79 53 99 60 56 105 65 59 111 70 44 79 75 47 85 56 50 91 61 53 97 66 56 103 71 59 109 76 44 77 57 47 83 62 50 89 67 53 95 72 56 101 77 59 107 58 44 75 63 47 81 68 50 87 73 53 93 78 56 99 59 59 105 64 44 111 69 47 79 74 50 85 79 53 91 60 56 97 65 59 103 70 44 109 75 47 77 56 50 83 61 53 89 66 56 95 71 59 101 76 44 107 57 47 75 62 50 81 67 53 87 72 56 93 77 59 99 58 44 105 63 47 111 68 50 79 73 53 85 78 56 91 59 59 97 64 44 103 69 47 109 74 50 77 79 53 83 60 56 89 65 59 95 70 44 101 75 47 107 56 50 75 61 53 81 66 56 87 71 59 93 76 44 99 57 47 105 62 50 111 67 53 79 72 56 85 77 59 91 58 44 97 63 47 103 68 50 109 73 53 77 78 56 83 59 59 89 64 44 95 69 47 101 74 50 107 79 53 75 60 56 81 65 59 87 70 44 93 75 47 99 56 50 105 61 53 111 66 56 79 71 59 85 76 44 91 57 47 97 62 50 103 67 53 109 72 56 77 77 59 83 58 44 89 63 47 95 68 50 101 73 53 107 78 56 75 59 59 81 64 44 87 69 47 93 74 50 99 79 53 105 60 56 111 65 59 79 70 44 85 75 47 91 56 50 97 61 53 103 66 56 109 71 59 77 76 44 83 57 47 89 62 50 95 67 53 101 72 56 107 77 59 75 58 44 81 63 47 87 68 50 93 73 53 99 78 56 105 59 59 111 64 44 79 69 47 85 74 50 91 79 53 97 60 56 103 65 59 109 70 44 77 75 47 83 56 50 89 61 53 95 66 56 101 71 59 107 76 44 75 57 47 81 62 50 87 67 53 93 72 56 99 77 59 105 58 44 111 63 47 79 68 50 85 73 53 91 78 56 97 59 59 103 64 44 109 69 47 77 74 50 83 79 53 89 60 56 95 65 59 101 70 44 107 75 47 75 56 50 81 61 53 87 66 56 93 71 59 99 76 44 105 57 47 111 62 50 79 67 53 85 72 56 91 77 59 97 58 44 103 63 47 109 68 50 77 73 53 83 78 56 89 59 59 95 64 44 101 69 47 107 74 50 75 79 53 81 60 56 87 65 59 93 70 44 99 75 47 105 56 50 111 61 53 79 66 56 85 71 59 91 76 44 97 57 47 103 62 50 109 67 53 77 72 56 83 77 59 89 58 44 95 63 47 101 68 50 107 73 53 75 78 56 81 59 59 87 64 44 93 69 47 99 74 50 105 79 53 111 60 56 79 65 59 85 70 44 91 75 47 97 56 50 103 61 53 109 66 56 77 71 59 83 76 44 89 57 47 95 62 50 101 67 53 107 72 56 75 77 59 81 58 44 87 63 47 93 68 50 99 73 53 105 78 56 111 59 59 79 64 44 85 69 47 91 74 50 97 79 53 103 60 56 109 65 59 77 70 44 83 75 47 89 56 50 95 61 53 101 66 56 107 71 59 75 76 44 81 57 47 87 62 50 93 67 53 99 72 56 105 77 59 111 58 44 79 63 47 85 68 50 91 73 53 97 78 56 103 59 59 109 64 44 77 69 47 83 74 50 89 79 53 95 60 56 101 65 59 107 70 44 75 75 47 81 56 50 87 61 53 93 66 56 99 71 59 105 76 44 111 57 47 79 62 50 85 67 53 91 72 56 97 77 59 103 58 44 109 63 47 77 68 50 83 73 53 89 78 56 95 59 59 101 64 44 107 69 47 75 74 50 81 79 53 87 60 56 93 65 59 99 70 44 105 75 47 111 56 50 79 61 53 85 66 56 91 71 59 97 76 44 103 57 47
94 72 52 100 77 55 106 58 58 74 63 43 80 68 46 86 73 49 92 78 52 98 59 55 104 64 58 110 69 43 78 74 46 84 79 49 90 60 52 96 65 55 102 70 58 108 75 43 76 56 46 82 61 49 88 66 52 94 71 55 100 76 58 106 57 43 74 62 46 80 67 49 86 72 52 92 77 55 98 58 58 104 63 43 110 68 46 78 73 49 84 78 52 90 59 55 96 64 58 102 69 43 108 74 46 76 79 49 82 60 52 88 65 55 94 70 58 100 75 43 106 56 46 74 61 49 80 66 52 86 71 55 92 76 58 98 57 43 104 62 46 110 67 49 78 72 52 84 77 55 90 58 58 96 63 43 102 68 46 108 73 49 76 78 52 82 59 55 88 64 58 94 69 43 100 74 46 106 79 49 74 60 52 80 65 55 86 70 58 92 75 43 98 56 46 104 61 49 110 66 52 78 71 55 84 76 58 90 57 43 96 62 46 102 67 49 108 72 52 76 77 55 82 58 58 88 63 43 94 68 46 100 73 49 106 78 52 74 59 55 80 64 58 86 69 43 92 74 46 98 79 49 104 60 52 110 65 55 78 70 58 84 75 43 90 56 46 96 61 49 102 66 52 108 71 55 76 76 58 82 57 43 88 62 46 94 67 49 100 72 52 106 77 55 74 58 58 80 63 43 86 68 46 92 73 49 98 78 52 104 59 55 110 64 58 78 69 43 84 74 46 90 79 49 96 60 52 102 65 55 108 70 58 76 75 43 82 56 46 88 61 49 94 66 52 100 71 55 106 76 58 74 57 43 80 62 46 86 67 49 92 72 52 98 77 55 104 58 58 110 63 43 78 68 46 84 73 49 90 78 52 96 59 55 102 64 58 108 69 43 76 74 46 82 79 49 88 60 52 94 65 55 100 70 58 106 75 43 74 56 46 80 61 49 86 66 52 92 71 55 98 76 58 104 57 43 110 62 46 78 67 49 84 72 52 90 77 55 96 58 58 102 63 43 108 68 46 76 73 49 82 78 52 88 59 55 94 64 58 100 69 43 106 74 46 74 79 49 80 60 52 86 65 55 92 70 58 98 75 43 104 56 46 110 61 49 78 66 52 84 71 55 90 76 58 96 57 43 102 62 46 108 67 49 76 72 52 82 77 55 88 58 58 94 63 43 100 68 46 106 73 49 74 78 52 80 59 55 86 64 58 92 69 43 98 74 46 104 79 49 110 60 52 78 65 55 84 70 58 90 75 43 96 56 46 102 61 49 108 66 52 76 71 55 82 76 58 88 57 43 94 62 46 100 67 49 106 72 52 74 77 55 80 58 58 86 63 43 92 68 46 98 73 49 104 78 52 110 59 55 78 64 58 84 69 43 90 74 46 96 79 49 102 60 52 108 65 55 76 70 58 82 75 43 88 56 46 94 61 49 100 66 52 106 71 55 74 76 58 80 57 43 86 62 46 92 67 49 98 72 52 104 77 55 110 58 58 78 63 43 84 68 46 90 73 49 96 78 52 102 59 55 108 64 58 76 69 43 82 74 46 88 79 49 94 60 52 100 65 55 106 70 58 74 75 43 80 56 46 86 61 49 92 66 52 98 71 55 104 76 58 110 57 43 78 62 46 84 67 49 90 72 52 96 77 55 102 58 58 108 63 43 76 68 46 82 73 49 88 78 52 94 59 55 100 64 58 106 69 43 74 74 46 80 79 49 86 60 52 92 65 55 98 70 58 104 75 43 110 56 46 78 61 49 84 66 52 90 71 55 96 76 58 102 57 43 108 62 46 76 67 49 82 72 52 88 77 55 94 58 58 100 63 43 106 68 46 74 73 49 80 78 52 86 59 55 92 64 58 98 69 43 104 74 46 110 79 49 78 60 52 84 65 55 90 70 58 96 75 43 102 56 46 108 61 49 76 66 52 82 71 55 88 76 58 94 57 43 100 62 46 106 67 49 74 72 52 80 77 55 86 58 58 92 63 43 98 68 46 104 73 49 110 78 52 78 59 55 84 64 58 90 69 43 96 74 46 102 79 49 108 60 52 76 65 55 82 70 58 88 75 43 94 56 46 100 61 49 106 66 52 74 71 55 80 76 58 86 57 43 92 62 46 98 67 49 104 72 52 110 77 55 78 58 58 84 63 43 90 68 46 96 73 49 102 78 52 108 59 55
99 74 42 105 79 45 111 60 48 79 65 51 85 70 54 91 75 57 97 56 42 103 61 45 109 66 48 77 71 51 83 76 54 89 57 57 95 62 42 101 67 45 107 72 48 75 77 51 81 58 54 87 63 57 93 68 42 99 73 45 105 78 48 111 59 51 79 64 54 85 69 57 91 74 42 97 79 45 103 60 48 109 65 51 77 70 54 83 75 57 89 56 42 95 61 45 101 66 48 107 71 51 75 76 54 81 57 57 87 62 42 93 67 45 99 72 48 105 77 51 111 58 54 79 63 57 85 68 42 91 73 45 97 78 48 103 59 51 109 64 54 77 69 57 83 74 42 89 79 45 95 60 48 101 65 51 107 70 54 75 75 57 81 56 42 87 61 45 93 66 48 99 71 51 105 76 54 111 57 57 79 62 42 85 67 45 91 72 48 97 77 51 103 58 54 109 63 57 77 68 42 83 73 45 89 78 48 95 59 51 101 64 54 107 69 57 75 74 42 81 79 45 87 60 48 93 65 51 99 70 54 105 75 57 111 56 42 79 61 45 85 66 48 91 71 51 97 76 54 103 57 57 109 62 42 77 67 45 83 72 48 89 77 51 95 58 54 101 63 57 107 68 42 75 73 45 81 78 48 87 59 51 93 64 54 99 69 57 105 74 42 111 79 45 79 60 48 85 65 51 91 70 54 97 75 57 103 56 42 109 61 45 77 66 48 83 71 51 89 76 54 95 57 57 101 62 42 107 67 45 75 72 48 81 77 51 87 58 54 93 63 57 99 68 42 105 73 45 111 78 48 79 59 51 85 64 54 91 69 57 97 74 42 103 79 45 109 60 48 77 65 51 83 70 54 89 75 57 95 56 42 101 61 45 107 66 48 75 71 51 81 76 54 87 57 57 93 62 42 99 67 45 105 72 48 111 77 51 79 58 54 85 63 57 91 68 42 97 73 45 103 78 48 109 59 51 77 64 54 83 69 57 89 74 42 95 79 45 101 60 48 107 65 51 75 70 54 81 75 57 87 56 42 93 61 45 99 66 48 105 71 51 111 76 54 79 57 57 85 62 42 91 67 45 97 72 48 103 77 51 109 58 54 77 63 57 83 68 42 89 73 45 95 78 48 101 59 51 107 64 54 75 69 57 81 74 42 87 79 45 93 60 48 99 65 51 105 70 54 111 75 57 79 56 42 85 61 45 91 66 48 97 71 51 103 76 54 109 57 57 77 62 42 83 67 45 89 72 48 95 77 51 101 58 54 107 63 57 75 68 42 81 73 45 87 78 48 93 59 51 99 64 54 105 69 57 111 74 42 79 79 45 85 60 48 91 65 51 97 70 54 103 75 57 109 56 42 77 61 45 83 66 48 89 71 51 95 76 54 101 57 57 107 62 42 75 67 45 81 72 48 87 77 51 93 58 54 99 63 57 105 68 42 111 73 45 79 78 48 85 59 51 91 64 54 97 69 57 103 74 42 109 79 45 77 60 48 83 65 51 89 70 54 95 75 57 101 56 42 107 61 45 75 66 48 81 71 51 87 76 54 93 57 57 99 62 42 105 67 45 111 72 48 79 77 51 85 58 54 91 63 57 97 68 42 103 73 45 109 78 48 77 59 51 83 64 54 89 69 57 95 74 42 101 79 45 107 60 48 75 65 51 81 70 54 87 75 57 93 56 42 99 61 45 105 66 48 111 71 51 79 76 54 85 57 57 91 62 42 97 67 45 103 72 48 109 77 51 77 58 54 83 63 57 89 68 42 95 73 45 101 78 48 107 59 51 75 64 54 81 69 57 87 74 42 93 79 45 99 60 48 105 65 51 111 70 54 79 75 57 85 56 42 91 61 45 97 66 48 103 71 51 109 76 54 77 57 57 83 62 42 89 67 45 95 72 48 101 77 51 107 58 54 75 63 57 81 68 42 87 73 45 93 78 48 99 59 51 105 64 54 111 69 57 79 74 42 85 79 45 91 60 48 97 65 51 103 70 54 109 75 57 77 56 42 83 61 45 89 66 48 95 71 51 101 76 54 107 57 57 75 62 42 81 67 45 87 72 48 93 77 51 99 58 54 105 63 57 111 68 42 79 73 45 85 78 48 91 59 51 97 64 54 103 69 57 109 74 42 77 79 45 83 60 48 89 65 51 95 70 54 101 75 57 107 56 42 75 61 45
104 76 50 110 57 53 78 62 56 84 67 59 90 72 44 96 77 47 102 58 50 108 63 53 76 68 56 82 73 59 88 78 44 94 59 47 100 64 50 106 69 53 74 74 56 80 79 59 86 60 44 92 65 47 98 70 50 104 75 53 110 56 56 78 61 59 84 66 44 90 71 47 96 76 50 102 57 53 108 62 56 76 67 59 82 72 44 88 77 47 94 58 50 100 63 53 106 68 56 74 73 59 80 78 44 86 59 47 92 64 50 98 69 53 104 74 56 110 79 59 78 60 44 84 65 47 90 70 50 96 75 53 102 56 56 108 61 59 76 66 44 82 71 47 88 76 50 94 57 53 100 62 56 106 67 59 74 72 44 80 77 47 86 58 50 92 63 53 98 68 56 104 73 59 110 78 44 78 59 47 84 64 50 90 69 53 96 74 56 102 79 59 108 60 44 76 65 47 82 70 50 88 75 53 94 56 56 100 61 59 106 66 44 74 71 47 80 76 50 86 57 53 92 62 56 98 67 59 104 72 44 110 77 47 78 58 50 84 63 53 90 68 56 96 73 59 102 78 44 108 59 47 76 64 50 82 69 53 88 74 56 94 79 59 100 60 44 106 65 47 74 70 50 80 75 53 86 56 56 92 61 59 98 66 44 104 71 47 110 76 50 78 57 53 84 62 56 90 67 59 96 72 44 102 77 47 108 58 50 76 63 53 82 68 56 88 73 59 94 78 44 100 59 47 106 64 50 74 69 53 80 74 56 86 79 59 92 60 44 98 65 47 104 70 50 110 75 53 78 56 56 84 61 59 90 66 44 96 71 47 102 76 50 108 57 53 76 62 56 82 67 59 88 72 44 94 77 47 100 58 50 106 63 53 74 68 56 80 73 59 86 78 44 92 59 47 98 64 50 104 69 53 110 74 56 78 79 59 84 60 44 90 65 47 96 70 50 102 75 53 108 56 56 76 61 59 82 66 44 88 71 47 94 76 50 100 57 53 106 62 56 74 67 59 80 72 44 86 77 47 92 58 50 98 63 53 104 68 56 110 73 59 78 78 44 84 59 47 90 64 50 96 69 53 102 74 56 108 79 59 76 60 44 82 65 47 88 70 50 94 75 53 100 56 56 106 61 59 74 66 44 80 71 47 86 76 50 92 57 53 98 62 56 104 67 59 110 72 44 78 77 47 84 58 50 90 63 53 96 68 56 102 73 59 108 78 44 76 59 47 82 64 50 88 69 53 94 74 56 100 79 59 106 60 44 74 65 47 80 70 50 86 75 53 92 56 56 98 61 59 104 66 44 110 71 47 78 76 50 84 57 53 90 62 56 96 67 59 102 72 44 108 77 47 76 58 50 82 63 53 88 68 56 94 73 59 100 78 44 106 59 47 74 64 50 80 69 53 86 74 56 92 79 59 98 60 44 104 65 47 110 70 50 78 75 53 84 56 56 90 61 59 96 66 44 102 71 47 108 76 50 76 57 53 82 62 56 88 67 59 94 72 44 100 77 47 106 58 50 74 63 53 80 68 56 86 73 59 92 78 44 98 59 47 104 64 50 110 69 53 78 74 56 84 79 59 90 60 44 96 65 47 102 70 50 108 75 53 76 56 56 82 61 59 88 66 44 94 71 47 100 76 50 106 57 53 74 62 56 80 67 59 86 72 44 92 77 47 98 58 50 104 63 53 110 68 56 78 73 59 84 78 44 90 59 47 96 64 50 102 69 53 108 74 56 76 79 59 82 60 44 88 65 47 94 70 50 100 75 53 106 56 56 74 61 59 80 66 44 86 71 47 92 76 50 98 57 53 104 62 56 110 67 59 78 72 44 84 77 47 90 58 50 96 63 53 102 68 56 108 73 59 76 78 44 82 59 47 88 64 50 94 69 53 100 74 56 106 79 59 74 60 44 80 65 47 86 70 50 92 75 53 98 56 56 104 61 59 110 66 44 78 71 47 84 76 50 90 57 53 96 62 56 102 67 59 108 72 44 76 77 47 82 58 50 88 63 53 94 68 56 100 73 59 106 78 44 74 59 47 80 64 50 86 69 53 92 74 56 98 79 59 104 60 44 110 65 47 78 70 50 84 75 53 90 56 56 96 61 59 102 66 44 108 71 47 76 76 50 82 57 53 88 62 56 94 67 59 100 72 44 106 77 47 74 58 50 80 63 53
109 78 58 77 59 43 83 64 46 89 69 49 95 74 52 101 79 55 107 60 58 75 65 43 81 70 46 87 75 49 93 56 52 99 61 55 105 66 58 111 71 43 79 76 46 85 57 49 91 62 52 97 67 55 103 72 58 109 77 43 77 58 46 83 63 49 89 68 52 95 73 55 101 78 58 107 59 43 75 64 46 81 69 49 87 74 52 93 79 55 99 60 58 105 65 43 111 70 46 79 75 49 85 56 52 91 61 55 97 66 58 103 71 43 109 76 46 77 57 49 83 62 52 89 67 55 95 72 58 101 77 43 107 58 46 75 63 49 81 68 52 87 73 55 93 78 58 99 59 43 105 64 46 111 69 49 79 74 52 85 79 55 91 60 58 97 65 43 103 70 46 109 75 49 77 56 52 83 61 55 89 66 58 95 71 43 101 76 46 107 57 49 75 62 52 81 67 55 87 72 58 93 77 43 99 58 46 105 63 49 111 68 52 79 73 55 85 78 58 91 59 43 97 64 46 103 69 49 109 74 52 77 79 55 83 60 58 89 65 43 95 70 46 101 75 49 107 56 52 75 61 55 81 66 58 87 71 43 93 76 46 99 57 49 105 62 52 111 67 55 79 72 58 85 77 43 91 58 46 97 63 49 103 68 52 109 73 55 77 78 58 83 59 43 89 64 46 95 69 49 101 74 52 107 79 55 75 60 58 81 65 43 87 70 46 93 75 49 99 56 52 105 61 55 111 66 58 79 71 43 85 76 46 91 57 49 97 62 52 103 67 55 109 72 58 77 77 43 83 58 46 89 63 49 95 68 52 101 73 55 107 78 58 75 59 43 81 64 46 87 69 49 93 74 52 99 79 55 105 60 58 111 65 43 79 70 46 85 75 49 91 56 52 97 61 55 103 66 58 109 71 43 77 76 46 83 57 49 89 62 52 95 67 55 101 72 58 107 77 43 75 58 46 81 63 49 87 68 52 93 73 55 99 78 58 105 59 43 111 64 46 79 69 49 85 74 52 91 79 55 97 60 58 103 65 43 109 70 46 77 75 49 83 56 52 89 61 55 95 66 58 101 71 43 107 76 46 75 57 49 81 62 52 87 67 55 93 72 58 99 77 43 105 58 46 111 63 49 79 68 52 85 73 55 91 78 58 97 59 43 103 64 46 109 69 49 77 74 52 83 79 55 89 60 58 95 65 43 101 70 46 107 75 49 75 56 52 81 61 55 87 66 58 93 71 43 99 76 46 105 57 49 111 62 52 79 67 55 85 72 58 91 77 43 97 58 46 103 63 49 109 68 52 77 73 55 83 78 58 89 59 43 95 64 46 101 69 49 107 74 52 75 79 55 81 60 58 87 65 43 93 70 46 99 75 49 105 56 52 111 61 55 79 66 58 85 71 43 91 76 46 97 57 49 103 62 52 109 67 55 77 72 58 83 77 43 89 58 46 95 63 49 101 68 52 107 73 55 75 78 58 81 59 43 87 64 46 93 69 49 99 74 52 105 79 55 111 60 58 79 65 43 85 70 46 91 75 49 97 56 52 103 61 55 109 66 58 77 71 43 83 76 46 89 57 49 95 62 52 101 67 55 107 72 58 75 77 43 81 58 46 87 63 49 93 68 52 99 73 55 105 78 58 111 59 43 79 64 46 85 69 49 91 74 52 97 79 55 103 60 58 109 65 43 77 70 46 83 75 49 89 56 52 95 61 55 101 66 58 107 71 43 75 76 46 81 57 49 87 62 52 93 67 55 99 72 58 105 77 43 111 58 46 79 63 49 85 68 52 91 73 55 97 78 58 103 59 43 109 64 46 77 69 49 83 74 52 89 79 55 95 60 58 101 65 43 107 70 46 75 75 49 81 56 52 87 61 55 93 66 58 99 71 43 105 76 46 111 57 49 79 62 52 85 67 55 91 72 58 97 77 43 103 58 46 109 63 49 77 68 52 83 73 55 89 78 58 95 59 43 101 64 46 107 69 49 75 74 52 81 79 55 87 60 58 93 65 43 99 70 46 105 75 49 111 56 52 79 61 55 85 66 58 91 71 43 97 76 46 103 57 49 109 62 52 77 67 55 83 72 58 89 77 43 95 58 46 101 63 49 107 68 52 75 73 55 81 78 58 87 59 43 93 64 46 99 69 49 105 74 52 111 79 55 79 60 58 85 65 43
76 56 48 82 61 51 88 66 54 94 71 57 100 76 42 106 57 45 74 62 48 80 67 51 86 72 54 92 77 57 98 58 42 104 63 45 110 68 48 78 73 51 84 78 54 90 59 57 96 64 42 102 69 45 108 74 48 76 79 51 82 60 54 88 65 57 94 70 42 100 75 45 106 56 48 74 61 51 80 66 54 86 71 57 92 76 42 98 57 45 104 62 48 110 67 51 78 72 54 84 77 57 90 58 42 96 63 45 102 68 48 108 73 51 76 78 54 82 59 57 88 64 42 94 69 45 100 74 48 106 79 51 74 60 54 80 65 57 86 70 42 92 75 45 98 56 48 104 61 51 110 66 54 78 71 57 84 76 42 90 57 45 96 62 48 102 67 51 108 72 54 76 77 57 82 58 42 88 63 45 94 68 48 100 73 51 106 78 54 74 59 57 80 64 42 86 69 45 92 74 48 98 79 51 104 60 54 110 65 57 78 70 42 84 75 45 90 56 48 96 61 51 102 66 54 108 71 57 76 76 42 82 57 45 88 62 48 94 67 51 100 72 54 106 77 57 74 58 42 80 63 45 86 68 48 92 73 51 98 78 54 104 59 57 110 64 42 78 69 45 84 74 48 90 79 51 96 60 54 102 65 57 108 70 42 76 75 45 82 56 48 88 61 51 94 66 54 100 71 57 106 76 42 74 57 45 80 62 48 86 67 51 92 72 54 98 77 57 104 58 42 110 63 45 78 68 48 84 73 51 90 78 54 96 59 57 102 64 42 108 69 45 76 74 48 82 79 51 88 60 54 94 65 57 100 70 42 106 75 45 74 56 48 80 61 51 86 66 54 92 71 57 98 76 42 104 57 45 110 62 48 78 67 51 84 72 54 90 77 57 96 58 42 102 63 45 108 68 48 76 73 51 82 78 54 88 59 57 94 64 42 100 69 45 106 74 48 74 79 51 80 60 54 86 65 57 92 70 42 98 75 45 104 56 48 110 61 51 78 66 54 84 71 57 90 76 42 96 57 45 102 62 48 108 67 51 76 72 54 82 77 57 88 58 42 94 63 45 100 68 48 106 73 51 74 78 54 80 59 57 86 64 42 92 69 45 98 74 48 104 79 51 110 60 54 78 65 57 84 70 42 90 75 45 96 56 48 102 61 51 108 66 54 76 71 57 82 76 42 88 57 45 94 62 48 100 67 51 106 72 54 74 77 57 80 58 42 86 63 45 92 68 48 98 73 51 104 78 54 110 59 57 78 64 42 84 69 45 90 74 48 96 79 51 102 60 54 108 65 57 76 70 42 82 75 45 88 56 48 94 61 51 100 66 54 106 71 57 74 76 42 80 57 45 86 62 48 92 67 51 98 72 54 104 77 57 110 58 42 78 63 45 84 68 48 90 73 51 96 78 54 102 59 57 108 64 42 76 69 45 82 74 48 88 79 51 94 60 54 100 65 57 106 70 42 74 75 45 80 56 48 86 61 51 92 66 54 98 71 57 104 76 42 110 57 45 78 62 48 84 67 51 90 72 54 96 77 57 102 58 42 108 63 45 76 68 48 82 73 51 88 78 54 94 59 57 100 64 42 106 69 45 74 74 48 80 79 51 86 60 54 92 65 57 98 70 42 104 75 45 110 56 48 78 61 51 84 66 54 90 71 57 96 76 42 102 57 45 108 62 48 76 67 51 82 72 54 88 77 57 94 58 42 100 63 45 106 68 48 74 73 51 80 78 54 86 59 57 92 64 42 98 69 45 104 74 48 110 79 51 78 60 54 84 65 57 90 70 42 96 75 45 102 56 48 108 61 51 76 66 54 82 71 57 88 76 42 94 57 45 100 62 48 106 67 51 74 72 54 80 77 57 86 58 42 92 63 45 98 68 48 104 73 51 110 78 54 78 59 57 84 64 42 90 69 45 96 74 48 102 79 51 108 60 54 76 65 57 82 70 42 88 75 45 94 56 48 100 61 51 106 66 54 74 71 57 80 76 42 86 57 45 92 62 48 98 67 51 104 72 54 110 77 57 78 58 42 84 63 45 90 68 48 96 73 51 102 78 54 108 59 57 76 64 42 82 69 45 88 74 48 94 79 51 100 60 54 106 65 57 74 70 42 80 75 45 86 56 48 92 61 51 98 66 54 104 71 57 110 76 42 78 57 45 84 62 48 90 67 51
81 58 56 87 63 59 93 68 44 99 73 47 105 78 50 111 59 53 79 64 56 85 69 59 91 74 44 97 79 47 103 60 50 109 65 53 77 70 56 83 75 59 89 56 44 95 61 47 101 66 50 107 71 53 75 76 56 81 57 59 87 62 44 93 67 47 99 72 50 105 77 53 111 58 56 79 63 59 85 68 44 91 73 47 97 78 50 103 59 53 109 64 56 77 69 59 83 74 44 89 79 47 95 60 50 101 65 53 107 70 56 75 75 59 81 56 44 87 61 47 93 66 50 99 71 53 105 76 56 111 57 59 79 62 44 85 67 47 91 72 50 97 77 53 103 58 56 109 63 59 77 68 44 83 73 47 89 78 50 95 59 53 101 64 56 107 69 59 75 74 44 81 79 47 87 60 50 93 65 53 99 70 56 105 75 59 111 56 44 79 61 47 85 66 50 91 71 53 97 76 56 103 57 59 109 62 44 77 67 47 83 72 50 89 77 53 95 58 56 101 63 59 107 68 44 75 73 47 81 78 50 87 59 53 93 64 56 99 69 59 105 74 44 111 79 47 79 60 50 85 65 53 91 70 56 97 75 59 103 56 44 109 61 47 77 66 50 83 71 53 89 76 56 95 57 59 101 62 44 107 67 47 75 72 50 81 77 53 87 58 56 93 63 59 99 68 44 105 73 47 111 78 50 79 59 53 85 64 56 91 69 59 97 74 44 103 79 47 109 60 50 77 65 53 83 70 56 89 75 59 95 56 44 101 61 47 107 66 50 75 71 53 81 76 56 87 57 59 93 62 44 99 67 47 105 72 50 111 77 53 79 58 56 85 63 59 91 68 44 97 73 47 103 78 50 109 59 53 77 64 56 83 69 59 89 74 44 95 79 47 101 60 50 107 65 53 75 70 56 81 75 59 87 56 44 93 61 47 99 66 50 105 71 53 111 76 56 79 57 59 85 62 44 91 67 47 97 72 50 103 77 53 109 58 56 77 63 59 83 68 44 89 73 47 95 78 50 101 59 53 107 64 56 75 69 59 81 74 44 87 79 47 93 60 50 99 65 53 105 70 56 111 75 59 79 56 44 85 61 47 91 66 50 97 71 53 103 76 56 109 57 59 77 62 44 83 67 47 89 72 50 95 77 53 101 58 56 107 63 59 75 68 44 81 73 47 87 78 50 93 59 53 99 64 56 105 69 59 111 74 44 79 79 47 85 60 50 91 65 53 97 70 56 103 75 59 109 56 44 77 61 47 83 66 50 89 71 53 95 76 56 101 57 59 107 62 44 75 67 47 81 72 50 87 77 53 93 58 56 99 63 59 105 68 44 111 73 47 79 78 50 85 59 53 91 64 56 97 69 59 103 74 44 109 79 47 77 60 50 83 65 53 89 70 56 95 75 59 101 56 44 107 61 47 75 66 50 81 71 53 87 76 56 93 57 59 99 62 44 105 67 47 111 72 50 79 77 53 85 58 56 91 63 59 97 68 44 103 73 47 109 78 50 77 59 53 83 64 56 89 69 59 95 74 44 101 79 47 107 60 50 75 65 53 81 70 56 87 75 59 93 56 44 99 61 47 105 66 50 111 71 53 79 76 56 85 57 59 91 62 44 97 67 47 103 72 50 109 77 53 77 58 56 83 63 59 89 68 44 95 73 47 101 78 50 107 59 53 75 64 56 81 69 59 87 74 44 93 79 47 99 60 50 105 65 53 111 70 56 79 75 59 85 56 44 91 61 47 97 66 50 103 71 53 109 76 56 77 57 59 83 62 44 89 67 47 95 72 50 101 77 53 107 58 56 75 63 59 81 68 44 87 73 47 93 78 50 99 59 53 105 64 56 111 69 59 79 74 44 85 79 47 91 60 50 97 65 53 103 70 56 109 75 59 77 56 44 83 61 47 89 66 50 95 71 53 101 76 56 107 57 59 75 62 44 81 67 47 87 72 50 93 77 53 99 58 56 105 63 59 111 68 44 79 73 47 85 78 50 91 59 53 97 64 56 103 69 59 109 74 44 77 79 47 83 60 50 89 65 53 95 70 56 101 75 59 107 56 44 75 61 47 81 66 50 87 71 53 93 76 56 99 57 59 105 62 44 111 67 47 79 72 50 85 77 53 91 58 56 97 63 59 103 68 44 109 73 47 77 78 50 83 59 53 89 64 56 95 69 59
86 60 46 92 65 49 98 70 52 104 75 55 110 56 58 78 61 43 84 66 46 90 71 49 96 76 52 102 57 55 108 62 58 76 67 43 82 72 46 88 77 49 94 58 52 100 63 55 106 68 58 74 73 43 80 78 46 86 59 49 92 64 52 98 69 55 104 74 58 110 79 43 78 60 46 84 65 49 90 70 52 96 75 55 102 56 58 108 61 43 76 66 46 82 71 49 88 76 52 94 57 55 100 62 58 106 67 43 74 72 46 80 77 49 86 58 52 92 63 55 98 68 58 104 73 43 110 78 46 78 59 49 84 64 52 90 69 55 96 74 58 102 79 43 108 60 46 76 65 49 82 70 52 88 75 55 94 56 58 100 61 43 106 66 46 74 71 49 80 76 52 86 57 55 92 62 58 98 67 43 104 72 46 110 77 49 78 58 52 84 63 55 90 68 58 96 73 43 102 78 46 108 59 49 76 64 52 82 69 55 88 74 58 94 79 43 100 60 46 106 65 49 74 70 52 80 75 55 86 56 58 92 61 43 98 66 46 104 71 49 110 76 52 78 57 55 84 62 58 90 67 43 96 72 46 102 77 49 108 58 52 76 63 55 82 68 58 88 73 43 94 78 46 100 59 49 106 64 52 74 69 55 80 74 58 86 79 43 92 60 46 98 65 49 104 70 52 110 75 55 78 56 58 84 61 43 90 66 46 96 71 49 102 76 52 108 57 55 76 62 58 82 67 43 88 72 46 94 77 49 100 58 52 106 63 55 74 68 58 80 73 43 86 78 46 92 59 49 98 64 52 104 69 55 110 74 58 78 79 43 84 60 46 90 65 49 96 70 52 102 75 55 108 56 58 76 61 43 82 66 46 88 71 49 94 76 52 100 57 55 106 62 58 74 67 43 80 72 46 86 77 49 92 58 52 98 63 55 104 68 58 110 73 43 78 78 46 84 59 49 90 64 52 96 69 55 102 74 58 108 79 43 76 60 46 82 65 49 88 70 52 94 75 55 100 56 58 106 61 43 74 66 46 80 71 49 86 76 52 92 57 55 98 62 58 104 67 43 110 72 46 78 77 49 84 58 52 90 63 55 96 68 58 102 73 43 108 78 46 76 59 49 82 64 52 88 69 55 94 74 58 100 79 43 106 60 46 74 65 49 80 70 52 86 75 55 92 56 58 98 61 43 104 66 46 110 71 49 78 76 52 84 57 55 90 62 58 96 67 43 102 72 46 108 77 49 76 58 52 82 63 55 88 68 58 94 73 43 100 78 46 106 59 49 74 64 52 80 69 55 86 74 58 92 79 43 98 60 46 104 65 49 110 70 52 78 75 55 84 56 58 90 61 43 96 66 46 102 71 49 108 76 52 76 57 55 82 62 58 88 67 43 94 72 46 100 77 49 106 58 52 74 63 55 80 68 58 86 73 43 92 78 46 98 59 49 104 64 52 110 69 55 78 74 58 84 79 43 90 60 46 96 65 49 102 70 52 108 75 55 76 56 58 82 61 43 88 66 46 94 71 49 100 76 52 106 57 55 74 62 58 80 67 43 86 72 46 92 77 49 98 58 52 104 63 55 110 68 58 78 73 43 84 78 46 90 59 49 96 64 52 102 69 55 108 74 58 76 79 43 82 60 46 88 65 49 94 70 52 100 75 55 106 56 58 74 61 43 80 66 46 86 71 49 92 76 52 98 57 55 104 62 58 110 67 43 78 72 46 84 77 49 90 58 52 96 63 55 102 68 58 108 73 43 76 78 46 82 59 49 88 64 52 94 69 55 100 74 58 106 79 43 74 60 46 80 65 49 86 70 52 92 75 55 98 56 58 104 61 43 110 66 46 78 71 49 84 76 52 90 57 55 96 62 58 102 67 43 108 72 46 76 77 49 82 58 52 88 63 55 94 68 58 100 73 43 106 78 46 74 59 49 80 64 52 86 69 55 92 74 58 98 79 43 104 60 46 110 65 49 78 70 52 84 75 55 90 56 58 96 61 43 102 66 46 108 71 49 76 76 52 82 57 55 88 62 58 94 67 43 100 72 46 106 77 49 74 58 52 80 63 55 86 68 58 92 73 43 98 78 46 104 59 49 110 64 52 78 69 55 84 74 58 90 79 43 96 60 46 102 65 49 108 70 52 76 75 55 82 56 58 88 61 43 94 66 46 100 71 49
91 62 54 97 67 57 103 72 42 109 77 45 77 58 48 83 63 51 89 68 54 95 73 57 101 78 42 107 59 45 75 64 48 81 69 51 87 74 54 93 79 57 99 60 42 105 65 45 111 70 48 79 75 51 85 56 54 91 61 57 97 66 42 103 71 45 109 76 48 77 57 51 83 62 54 89 67 57 95 72 42 101 77 45 107 58 48 75 63 51 81 68 54 87 73 57 93 78 42 99 59 45 105 64 48 111 69 51 79 74 54 85 79 57 91 60 42 97 65 45 103 70 48 109 75 51 77 56 54 83 61 57 89 66 42 95 71 45 101 76 48 107 57 51 75 62 54 81 67 57 87 72 42 93 77 45 99 58 48 105 63 51 111 68 54 79 73 57 85 78 42 91 59 45 97 64 48 103 69 51 109 74 54 77 79 57 83 60 42 89 65 45 95 70 48 101 75 51 107 56 54 75 61 57 81 66 42 87 71 45 93 76 48 99 57 51 105 62 54 111 67 57 79 72 42 85 77 45 91 58 48 97 63 51 103 68 54 109 73 57 77 78 42 83 59 45 89 64 48 95 69 51 101 74 54 107 79 57 75 60 42 81 65 45 87 70 48 93 75 51 99 56 54 105 61 57 111 66 42 79 71 45 85 76 48 91 57 51 97 62 54 103 67 57 109 72 42 77 77 45 83 58 48 89 63 51 95 68 54 101 73 57 107 78 42 75 59 45 81 64 48 87 69 51 93 74 54 99 79 57 105 60 42 111 65 45 79 70 48 85 75 51 91 56 54 97 61 57 103 66 42 109 71 45 77 76 48 83 57 51 89 62 54 95 67 57 101 72 42 107 77 45 75 58 48 81 63 51 87 68 54 93 73 57 99 78 42 105 59 45 111 64 48 79 69 51 85 74 54 91 79 57 97 60 42 103 65 45 109 70 48 77 75 51 83 56 54 89 61 57 95 66 42 101 71 45 107 76 48 75 57 51 81 62 54 87 67 57 93 72 42 99 77 45 105 58 48 111 63 51 79 68 54 85 73 57 91 78 42 97 59 45 103 64 48 109 69 51 77 74 54 83 79 57 89 60 42 95 65 45 101 70 48 107 75 51 75 56 54 81 61 57 87 66 42 93 71 45 99 76 48 105 57 51 111 62 54 79 67 57 85 72 42 91 77 45 97 58 48 103 63 51 109 68 54 77 73 57 83 78 42 89 59 45 95 64 48 101 69 51 107 74 54 75 79 57 81 60 42 87 65 45 93 70 48 99 75 51 105 56 54 111 61 57 79 66 42 85 71 45 91 76 48 97 57 51 103 62 54 109 67 57 77 72 42 83 77 45 89 58 48 95 63 51 101 68 54 107 73 57 75 78 42 81 59 45 87 64 48 93 69 51 99 74 54 105 79 57 111 60 42 79 65 45 85 70 48 91 75 51 97 56 54 103 61 57 109 66 42 77 71 45 83 76 48 89 57 51 95 62 54 101 67 57 107 72 42 75 77 45 81 58 48 87 63 51 93 68 54 99 73 57 105 78 42 111 59 45 79 64 48 85 69 51 91 74 54 97 79 57 103 60 42 109 65 45 77 70 48 83 75 51 89 56 54 95 61 57 101 66 42 107 71 45 75 76 48 81 57 51 87 62 54 93 67 57 99 72 42 105 77 45 111 58 48 79 63 51 85 68 54 91 73 57 97 78 42 103 59 45 109 64 48 77 69 51 83 74 54 89 79 57 95 60 42 101 65 45 107 70 48 75 75 51 81 56 54 87 61 57 93 66 42 99 71 45 105 76 48 111 57 51 79 62 54 85 67 57 91 72 42 97 77 45 103 58 48 109 63 51 77 68 54 83 73 57 89 78 42 95 59 45 101 64 48 107 69 51 75 74 54 81 79 57 87 60 42 93 65 45 99 70 48 105 75 51 111 56 54 79 61 57 85 66 42 91 71 45 97 76 48 103 57 51 109 62 54 77 67 57 83 72 42 89 77 45 95 58 48 101 63 51 107 68 54 75 73 57 81 78 42 87 59 45 93 64 48 99 69 51 105 74 54 111 79 57 79 60 42 85 65 45 91 70 48 97 75 51 103 56 54 109 61 57 77 66 42 83 71 45 89 76 48 95 57 51 101 62 54 107 67 57 75 72 42 81 77 45 87 58 48 93 63 51 99 68 54 105 73 57
96 64 44 102 69 47 108 74 50 76 79 53 82 60 56 88 65 59 94 70 44 100 75 47 106 56 50 74 61 53 80 66 56 86 71 59 92 76 44 98 57 47 104 62 50 110 67 53 78 72 56 84 77 59 90 58 44 96 63 47 102 68 50 108 73 53 76 78 56 82 59 59 88 64 44 94 69 47 100 74 50 106 79 53 74 60 56 80 65 59 86 70 44 92 75 47 98 56 50 104 61 53 110 66 56 78 71 59 84 76 44 90 57 47 96 62 50 102 67 53 108 72 56 76 77 59 82 58 44 88 63 47 94 68 50 100 73 53 106 78 56 74 59 59 80 64 44 86 69 47 92 74 50 98 79 53 104 60 56 110 65 59 78 70 44 84 75 47 90 56 50 96 61 53 102 66 56 108 71 59 76 76 44 82 57 47 88 62 50 94 67 53 100 72 56 106 77 59 74 58 44 80 63 47 86 68 50 92 73 53 98 78 56 104 59 59 110 64 44 78 69 47 84 74 50 90 79 53 96 60 56 102 65 59 108 70 44 76 75 47 82 56 50 88 61 53 94 66 56 100 71 59 106 76 44 74 57 47 80 62 50 86 67 53 92 72 56 98 77 59 104 58 44 110 63 47 78 68 50 84 73 53 90 78 56 96 59 59 102 64 44 108 69 47 76 74 50 82 79 53 88 60 56 94 65 59 100 70 44 106 75 47 74 56 50 80 61 53 86 66 56 92 71 59 98 76 44 104 57 47 110 62 50 78 67 53 84 72 56 90 77 59 96 58 44 102 63 47 108 68 50 76 73 53 82 78 56 88 59 59 94 64 44 100 69 47 106 74 50 74 79 53 80 60 56 86 65 59 92 70 44 98 75 47 104 56 50 110 61 53 78 66 56 84 71 59 90 76 44 96 57 47 102 62 50 108 67 53 76 72 56 82 77 59 88 58 44 94 63 47 100 68 50 106 73 53 74 78 56 80 59 59 86 64 44 92 69 47 98 74 50 104 79 53 110 60 56 78 65 59 84 70 44 90 75 47 96 56 50 102 61 53 108 66 56 76 71 59 82 76 44 88 57 47 94 62 50 100 67 53 106 72 56 74 77 59 80 58 44 86 63 47 92 68 50 98 73 53 104 78 56 110 59 59 78 64 44 84 69 47 90 74 50 96 79 53 102 60 56 108 65 59 76 70 44 82 75 47 88 56 50 94 61 53 100 66 56 106 71 59 74 76 44 80 57 47 86 62 50 92 67 53 98 72 56 104 77 59 110 58 44 78 63 47 84 68 50 90 73 53 96 78 56 102 59 59 108 64 44 76 69 47 82 74 50 88 79 53 94 60 56 100 65 59 106 70 44 74 75 47 80 56 50 86 61 53 92 66 56 98 71 59 104 76 44 110 57 47 78 62 50 84 67 53 90 72 56 96 77 59 102 58 44 108 63 47 76 68 50 82 73 53 88 78 56 94 59 59 100 64 44 106 69 47 74 74 50 80 79 53 86 60 56 92 65 59 98 70 44 104 75 47 110 56 50 78 61 53 84 66 56 90 71 59 96 76 44 102 57 47 108 62 50 76 67 53 82 72 56 88 77 59 94 58 44 100 63 47 106 68 50 74 73 53 80 78 56 86 59 59 92 64 44 98 69 47 104 74 50 110 79 53 78 60 56 84 65 59 90 70 44 96 75 47 102 56 50 108 61 53 76 66 56 82 71 59 88 76 44 94 57 47 100 62 50 106 67 53 74 72 56 80 77 59 86 58 44 92 63 47 98 68 50 104 73 53 110 78 56 78 59 59 84 64 44 90 69 47 96 74 50 102 79 53 108 60 56 76 65 59 82 70 44 88 75 47 94 56 50 100 61 53 106 66 56 74 71 59 80 76 44 86 57 47 92 62 50 98 67 53 104 72 56 110 77 59 78 58 44 84 63 47 90 68 50 96 73 53 102 78 56 108 59 59 76 64 44 82 69 47 88 74 50 94 79 53 100 60 56 106 65 59 74 70 44 80 75 47 86 56 50 92 61 53 98 66 56 104 71 59 110 76 44 78 57 47 84 62 50 90 67 53 96 72 56 102 77 59 108 58 44 76 63 47 82 68 50 88 73 53 94 78 56 100 59 59 106 64 44 74 69 47 80 74 50 86 79 53 92 60 56 98 65 59 104 70 44 110 75 47
101 66 52 107 71 55 75 76 58 81 57 43 87 62 46 93 67 49 99 72 52 105 77 55 111 58 58 79 63 43 85 68 46 91 73 49 97 78 52 103 59 55 109 64 58 77 69 43 83 74 46 89 79 49 95 60 52 101 65 55 107 70 58 75 75 43 81 56 46 87 61 49 93 66 52 99 71 55 105 76 58 111 57 43 79 62 46 85 67 49 91 72 52 97 77 55 103 58 58 109 63 43 77 68 46 83 73 49 89 78 52 95 59 55 101 64 58 107 69 43 75 74 46 81 79 49 87 60 52 93 65 55 99 70 58 105 75 43 111 56 46 79 61 49 85 66 52 91 71 55 97 76 58 103 57 43 109 62 46 77 67 49 83 72 52 89 77 55 95 58 58 101 63 43 107 68 46 75 73 49 81 78 52 87 59 55 93 64 58 99 69 43 105 74 46 111 79 49 79 60 52 85 65 55 91 70 58 97 75 43 103 56 46 109 61 49 77 66 52 83 71 55 89 76 58 95 57 43 101 62 46 107 67 49 75 72 52 81 77 55 87 58 58 93 63 43 99 68 46 105 73 49 111 78 52 79 59 55 85 64 58 91 69 43 97 74 46 103 79 49 109 60 52 77 65 55 83 70 58 89 75 43 95 56 46 101 61 49 107 66 52 75 71 55 81 76 58 87 57 43 93 62 46 99 67 49 105 72 52 111 77 55 79 58 58 85 63 43 91 68 46 97 73 49 103 78 52 109 59 55 77 64 58 83 69 43 89 74 46 95 79 49 101 60 52 107 65 55 75 70 58 81 75 43 87 56 46 93 61 49 99 66 52 105 71 55 111 76 58 79 57 43 85 62 46 91 67 49 97 72 52 103 77 55 109 58 58 77 63 43 83 68 46 89 73 49 95 78 52 101 59 55 107 64 58 75 69 43 81 74 46 87 79 49 93 60 52 99 65 55 105 70 58 111 75 43 79 56 46 85 61 49 91 66 52 97 71 55 103 76 58 109 57 43 77 62 46 83 67 49 89 72 52 95 77 55 101 58 58 107 63 43 75 68 46 81 73 49 87 78 52 93 59 55 99 64 58 105 69 43 111 74 46 79 79 49 85 60 52 91 65 55 97 70 58 103 75 43 109 56 46 77 61 49 83 66 52 89 71 55 95 76 58 101 57 43 107 62 46 75 67 49 81 72 52 87 77 55 93 58 58 99 63 43 105 68 46 111 73 49 79 78 52 85 59 55 91 64 58 97 69 43 103 74 46 109 79 49 77 60 52 83 65 55 89 70 58 95 75 43 101 56 46 107 61 49 75 66 52 81 71 55 87 76 58 93 57 43 99 62 46 105 67 49 111 72 52 79 77 55 85 58 58 91 63 43 97 68 46 103 73 49 109 78 52 77 59 55 83 64 58 89 69 43 95 74 46 101 79 49 107 60 52 75 65 55 81 70 58 87 75 43 93 56 46 99 61 49 105 66 52 111 71 55 79 76 58 85 57 43 91 62 46 97 67 49 103 72 52 109 77 55 77 58 58 83 63 43 89 68 46 95 73 49 101 78 52 107 59 55 75 64 58 81 69 43 87 74 46 93 79 49 99 60 52 105 65 55 111 70 58 79 75 43 85 56 46 91 61 49 97 66 52 103 71 55 109 76 58 77 57 43 83 62 46 89 67 49 95 72 52 101 77 55 107 58 58 75 63 43 81 68 46 87 73 49 93 78 52 99 59 55 105 64 58 111 69 43 79 74 46 85 79 49 91 60 52 97 65 55 103 70 58 109 75 43 77 56 46 83 61 49 89 66 52 95 71 55 101 76 58 107 57 43 75 62 46 81 67 49 87 72 52 93 77 55 99 58 58 105 63 43 111 68 46 79 73 49 85 78 52 91 59 55 97 64 58 103 69 43 109 74 46 77 79 49 83 60 52 89 65 55 95 70 58 101 75 43 107 56 46 75 61 49 81 66 52 87 71 55 93 76 58 99 57 43 105 62 46 111 67 49 79 72 52 85 77 55 91 58 58 97 63 43 103 68 46 109 73 49 77 78 52 83 59 55 89 64 58 95 69 43 101 74 46 107 79 49 75 60 52 81 65 55 87 70 58 93 75 43 99 56 46 105 61 49 111 66 52 79 71 55 85 76 58 91 57 43 97 62 46 103 67 49 109 72 52 77 77 55
106 68 42 74 73 45 80 78 48 86 59 51 92 64 54 98 69 57 104 74 42 110 79 45 78 60 48 84 65 51 90 70 54 96 75 57 102 56 42 108 61 45 76 66 48 82 71 51 88 76 54 94 57 57 100 62 42 106 67 45 74 72 48 80 77 51 86 58 54 92 63 57 98 68 42 104 73 45 110 78 48 78 59 51 84 64 54 90 69 57 96 74 42 102 79 45 108 60 48 76 65 51 82 70 54 88 75 57 94 56 42 100 61 45 106 66 48 74 71 51 80 76 54 86 57 57 92 62 42 98 67 45 104 72 48 110 77 51 78 58 54 84 63 57 90 68 42 96 73 45 102 78 48 108 59 51 76 64 54 82 69 57 88 74 42 94 79 45 100 60 48 106 65 51 74 70 54 80 75 57 86 56 42 92 61 45 98 66 48 104 71 51 110 76 54 78 57 57 84 62 42 90 67 45 96 72 48 102 77 51 108 58 54 76 63 57 82 68 42 88 73 45 94 78 48 100 59 51 106 64 54 74 69 57 80 74 42 86 79 45 92 60 48 98 65 51 104 70 54 110 75 57 78 56 42 84 61 45 90 66 48 96 71 51 102 76 54 108 57 57 76 62 42 82 67 45 88 72 48 94 77 51 100 58 54 106 63 57 74 68 42 80 73 45 86 78 48 92 59 51 98 64 54 104 69 57 110 74 42 78 79 45 84 60 48 90 65 51 96 70 54 102 75 57 108 56 42 76 61 45 82 66 48 88 71 51 94 76 54 100 57 57 106 62 42 74 67 45 80 72 48 86 77 51 92 58 54 98 63 57 104 68 42 110 73 45 78 78 48 84 59 51 90 64 54 96 69 57 102 74 42 108 79 45 76 60 48 82 65 51 88 70 54 94 75 57 100 56 42 106 61 45 74 66 48 80 71 51 86 76 54 92 57 57 98 62 42 104 67 45 110 72 48 78 77 51 84 58 54 90 63 57 96 68 42 102 73 45 108 78 48 76 59 51 82 64 54 88 69 57 94 74 42 100 79 45 106 60 48 74 65 51 80 70 54 86 75 57 92 56 42 98 61 45 104 66 48 110 71 51 78 76 54 84 57 57 90 62 42 96 67 45 102 72 48 108 77 51 76 58 54 82 63 57 88 68 42 94 73 45 100 78 48 106 59 51 74 64 54 80 69 57 86 74 42 92 79 45 98 60 48 104 65 51 110 70 54 78 75 57 84 56 42 90 61 45 96 66 48 102 71 51 108 76 54 76 57 57 82 62 42 88 67 45 94 72 48 100 77 51 106 58 54 74 63 57 80 68 42 86 73 45 92 78 48 98 59 51 104 64 54 110 69 57 78 74 42 84 79 45 90 60 48 96 65 51 102 70 54 108 75 57 76 56 42 82 61 45 88 66 48 94 71 51 100 76 54 106 57 57 74 62 42 80 67 45 86 72 48 92 77 51 98 58 54 104 63 57 110 68 42 78 73 45 84 78 48 90 59 51 96 64 54 102 69 57 108 74 42 76 79 45 82 60 48 88 65 51 94 70 54 100 75 57 106 56 42 74 61 45 80 66 48 86 71 51 92 76 54 98 57 57 104 62 42 110 67 45 78 72 48 84 77 51 90 58 54 96 63 57 102 68 42 108 73 45 76 78 48 82 59 51 88 64 54 94 69 57 100 74 42 106 79 45 74 60 48 80 65 51 86 70 54 92 75 57 98 56 42 104 61 45 110 66 48 78 71 51 84 76 54 90 57 57 96 62 42 102 67 45 108 72 48 76 77 51 82 58 54 88 63 57 94 68 42 100 73 45 106 78 48 74 59 51 80 64 54 86 69 57 92 74 42 98 79 45 104 60 48 110 65 51 78 70 54 84 75 57 90 56 42 96 61 45 102 66 48 108 71 51 76 76 54 82 57 57 88 62 42 94 67 45 100 72 48 106 77 51 74 58 54 80 63 57 86 68 42 92 73 45 98 78 48 104 59 51 110 64 54 78 69 57 84 74 42 90 79 45 96 60 48 102 65 51 108 70 54 76 75 57 82 56 42 88 61 45 94 66 48 100 71 51 106 76 54 74 57 57 80 62 42 86 67 45 92 72 48 98 77 51 104 58 54 110 63 57 78 68 42 84 73 45 90 78 48 96 59 51 102 64 54 108 69 57 76 74 42 82 79 45
111 70 50 79 75 53 85 56 56 91 61 59 97 66 44 103 71 47 109 76 50 77 57 53 83 62 56 89 67 59 95 72 44 101 77 47 107 58 50 75 63 53 81 68 56 87 73 59 93 78 44 99 59 47 105 64 50 111 69 53 79 74 56 85 79 59 91 60 44 97 65 47 103 70 50 109 75 53 77 56 56 83 61 59 89 66 44 95 71 47 101 76 50 107 57 53 75 62 56 81 67 59 87 72 44 93 77 47 99 58 50 105 63 53 111 68 56 79 73 59 85 78 44 91 59 47 97 64 50 103 69 53 109 74 56 77 79 59 83 60 44 89 65 47 95 70 50 101 75 53 107 56 56 75 61 59 81 66 44 87 71 47 93 76 50 99 57 53 105 62 56 111 67 59 79 72 44 85 77 47 91 58 50 97 63 53 103 68 56 109 73 59 77 78 44 83 59 47 89 64 50 95 69 53 101 74 56 107 79 59 75 60 44 81 65 47 87 70 50 93 75 53 99 56 56 105 61 59 111 66 44 79 71 47 85 76 50 91 57 53 97 62 56 103 67 59 109 72 44 77 77 47 83 58 50 89 63 53 95 68 56 101 73 59 107 78 44 75 59 47 81 64 50 87 69 53 93 74 56 99 79 59 105 60 44 111 65 47 79 70 50 85 75 53 91 56 56 97 61 59 103 66 44 109 71 47 77 76 50 83 57 53 89 62 56 95 67 59 101 72 44 107 77 47 75 58 50 81 63 53 87 68 56 93 73 59 99 78 44 105 59 47 111 64 50 79 69 53 85 74 56 91 79 59 97 60 44 103 65 47 109 70 50 77 75 53 83 56 56 89 61 59 95 66 44 101 71 47 107 76 50 75 57 53 81 62 56 87 67 59 93 72 44 99 77 47 105 58 50 111 63 53 79 68 56 85 73 59 91 78 44 97 59 47 103 64 50 109 69 53 77 74 56 83 79 59 89 60 44 95 65 47 101 70 50 107 75 53 75 56 56 81 61 59 87 66 44 93 71 47 99 76 50 105 57 53 111 62 56 79 67 59 85 72 44 91 77 47 97 58 50 103 63 53 109 68 56 77 73 59 83 78 44 89 59 47 95 64 50 101 69 53 107 74 56 75 79 59 81 60 44 87 65 47 93 70 50 99 75 53 105 56 56 111 61 59 79 66 44 85 71 47 91 76 50 97 57 53 103 62 56 109 67 59 77 72 44 83 77 47 89 58 50 95 63 53 101 68 56 107 73 59 75 78 44 81 59 47 87 64 50 93 69 53 99 74 56 105 79 59 111 60 44 79 65 47 85 70 50 91 75 53 97 56 56 103 61 59 109 66 44 77 71 47 83 76 50 89 57 53 95 62 56 101 67 59 107 72 44 75 77 47 81 58 50 87 63 53 93 68 56 99 73 59 105 78 44 111 59 47 79 64 50 85 69 53 91 74 56 97 79 59 103 60 44 109 65 47 77 70 50 83 75 53 89 56 56 95 61 59 101 66 44 107 71 47 75 76 50 81 57 53 87 62 56 93 67 59 99 72 44 105 77 47 111 58 50 79 63 53 85 68 56 91 73 59 97 78 44 103 59 47 109 64 50 77 69 53 83 74 56 89 79 59 95 60 44 101 65 47 107 70 50 75 75 53 81 56 56 87 61 59 93 66 44 99 71 47 105 76 50 111 57 53 79 62 56 85 67 59 91 72 44 97 77 47 103 58 50 109 63 53 77 68 56 83 73 59 89 78 44 95 59 47 101 64 50 107 69 53 75 74 56 81 79 59 87 60 44 93 65 47 99 70 50 105 75 53 111 56 56 79 61 59 85 66 44 91 71 47 97 76 50 103 57 53 109 62 56 77 67 59 83 72 44 89 77 47 95 58 50 101 63 53 107 68 56 75 73 59 81 78 44 87 59 47 93 64 50 99 69 53 105 74 56 111 79 59 79 60 44 85 65 47 91 70 50 97 75 53 103 56 56 109 61 59 77 66 44 83 71 47 89 76 50 95 57 53 101 62 56 107 67 59 75 72 44 81 77 47 87 58 50 93 63 53 99 68 56 105 73 59 111 78 44 79 59 47 85 64 50 91 69 53 97 74 56 103 79 59 109 60 44 77 65 47 83 70 50 89 75 53 95 56 56 101 61 59 107 66 44 75 71 47 81 76 50 87 57 53
78 72 58 84 77 43 90 58 46 96 63 49 102 68 52 108 73 55 76 78 58 82 59 43 88 64 46 94 69 49 100 74 52 106 79 55 74 60 58 80 65 43 86 70 46 92 75 49 98 56 52 104 61 55 110 66 58 78 71 43 84 76 46 90 57 49 96 62 52 102 67 55 108 72 58 76 77 43 82 58 46 88 63 49 94 68 52 100 73 55 106 78 58 74 59 43 80 64 46 86 69 49 92 74 52 98 79 55 104 60 58 110 65 43 78 70 46 84 75 49 90 56 52 96 61 55 102 66 58 108 71 43 76 76 46 82 57 49 88 62 52 94 67 55 100 72 58 106 77 43 74 58 46 80 63 49 86 68 52 92 73 55 98 78 58 104 59 43 110 64 46 78 69 49 84 74 52 90 79 55 96 60 58 102 65 43 108 70 46 76 75 49 82 56 52 88 61 55 94 66 58 100 71 43 106 76 46 74 57 49 80 62 52 86 67 55 92 72 58 98 77 43 104 58 46 110 63 49 78 68 52 84 73 55 90 78 58 96 59 43 102 64 46 108 69 49 76 74 52 82 79 55 88 60 58 94 65 43 100 70 46 106 75 49 74 56 52 80 61 55 86 66 58 92 71 43 98 76 46 104 57 49 110 62 52 78 67 55 84 72 58 90 77 43 96 58 46 102 63 49 108 68 52 76 73 55 82 78 58 88 59 43 94 64 46 100 69 49 106 74 52 74 79 55 80 60 58 86 65 43 92 70 46 98 75 49 104 56 52 110 61 55 78 66 58 84 71 43 90 76 46 96 57 49 102 62 52 108 67 55 76 72 58 82 77 43 88 58 46 94 63 49 100 68 52 106 73 55 74 78 58 80 59 43 86 64 46 92 69 49 98 74 52 104 79 55 110 60 58 78 65 43 84 70 46 90 75 49 96 56 52 102 61 55 108 66 58 76 71 43 82 76 46 88 57 49 94 62 52 100 67 55 106 72 58 74 77 43 80 58 46 86 63 49 92 68 52 98 73 55 104 78 58 110 59 43 78 64 46 84 69 49 90 74 52 96 79 55 102 60 58 108 65 43 76 70 46 82 75 49 88 56 52 94 61 55 100 66 58 106 71 43 74 76 46 80 57 49 86 62 52 92 67 55 98 72 58 104 77 43 110 58 46 78 63 49 84 68 52 90 73 55 96 78 58 102 59 43 108 64 46 76 69 49 82 74 52 88 79 55 94 60 58 100 65 43 106 70 46 74 75 49 80 56 52 86 61 55 92 66 58 98 71 43 104 76 46 110 57 49 78 62 52 84 67 55 90 72 58 96 77 43 102 58 46 108 63 49 76 68 52 82 73 55 88 78 58 94 59 43 100 64 46 106 69 49 74 74 52 80 79 55 86 60 58 92 65 43 98 70 46 104 75 49 110 56 52 78 61 55 84 66 58 90 71 43 96 76 46 102 57 49 108 62 52 76 67 55 82 72 58 88 77 43 94 58 46 100 63 49 106 68 52 74 73 55 80 78 58 86 59 43 92 64 46 98 69 49 104 74 52 110 79 55 78 60 58 84 65 43 90 70 46 96 75 49 102 56 52 108 61 55 76 66 58 82 71 43 88 76 46 94 57 49 100 62 52 106 67 55 74 72 58 80 77 43 86 58 46 92 63 49 98 68 52 104 73 55 110 78 58 78 59 43 84 64 46 90 69 49 96 74 52 102 79 55 108 60 58 76 65 43 82 70 46 88 75 49 94 56 52 100 61 55 106 66 58 74 71 43 80 76 46 86 57 49 92 62 52 98 67 55 104 72 58 110 77 43 78 58 46 84 63 49 90 68 52 96 73 55 102 78 58 108 59 43 76 64 46 82 69 49 88 74 52 94 79 55 100 60 58 106 65 43 74 70 46 80 75 49 86 56 52 92 61 55 98 66 58 104 71 43 110 76 46 78 57 49 84 62 52 90 67 55 96 72 58 102 77 43 108 58 46 76 63 49 82 68 52 88 73 55 94 78 58 100 59 43 106 64 46 74 69 49 80 74 52 86 79 55 92 60 58 98 65 43 104 70 46 110 75 49 78 56 52 84 61 55 90 66 58 96 71 43 102 76 46 108 57 49 76 62 52 82 67 55 88 72 58 94 77 43 100 58 46 106 63 49 74 68 52 80 73 55 86 78 58 92 59 43
83 74 48 89 79 51 95 60 54 101 65 57 107 70 42 75 75 45 81 56 48 87 61 51 93 66 54 99 71 57 105 76 42 111 57 45 79 62 48 85 67 51 91 72 54 97 77 57 103 58 42 109 63 45 77 68 48 83 73 51 89 78 54 95 59 57 101 64 42 107 69 45 75 74 48 81 79 51 87 60 54 93 65 57 99 70 42 105 75 45 111 56 48 79 61 51 85 66 54 91 71 57 97 76 42 103 57 45 109 62 48 77 67 51 83 72 54 89 77 57 95 58 42 101 63 45 107 68 48 75 73 51 81 78 54 87 59 57 93 64 42 99 69 45 105 74 48 111 79 51 79 60 54 85 65 57 91 70 42 97 75 45 103 56 48 109 61 51 77 66 54 83 71 57 89 76 42 95 57 45 101 62 48 107 67 51 75 72 54 81 77 57 87 58 42 93 63 45 99 68 48 105 73 51 111 78 54 79 59 57 85 64 42 91 69 45 97 74 48 103 79 51 109 60 54 77 65 57 83 70 42 89 75 45 95 56 48 101 61 51 107 66 54 75 71 57 81 76 42 87 57 45 93 62 48 99 67 51 105 72 54 111 77 57 79 58 42 85 63 45 91 68 48 97 73 51 103 78 54 109 59 57 77 64 42 83 69 45 89 74 48 95 79 51 101 60 54 107 65 57 75 70 42 81 75 45 87 56 48 93 61 51 99 66 54 105 71 57 111 76 42 79 57 45 85 62 48 91 67 51 97 72 54 103 77 57 109 58 42 77 63 45 83 68 48 89 73 51 95 78 54 101 59 57 107 64 42 75 69 45 81 74 48 87 79 51 93 60 54 99 65 57 105 70 42 111 75 45 79 56 48 85 61 51 91 66 54 97 71 57 103 76 42 109 57 45 77 62 48 83 67 51 89 72 54 95 77 57 101 58 42 107 63 45 75 68 48 81 73 51 87 78 54 93 59 57 99 64 42 105 69 45 111 74 48 79 79 51 85 60 54 91 65 57 97 70 42 103 75 45 109 56 48 77 61 51 83 66 54 89 71 57 95 76 42 101 57 45 107 62 48 75 67 51 81 72 54 87 77 57 93 58 42 99 63 45 105 68 48 111 73 51 79 78 54 85 59 57 91 64 42 97 69 45 103 74 48 109 79 51 77 60 54 83 65 57 89 70 42 95 75 45 101 56 48 107 61 51 75 66 54 81 71 57 87 76 42 93 57 45 99 62 48 105 67 51 111 72 54 79 77 57 85 58 42 91 63 45 97 68 48 103 73 51 109 78 54 77 59 57 83 64 42 89 69 45 95 74 48 101 79 51 107 60 54 75 65 57 81 70 42 87 75 45 93 56 48 99 61 51 105 66 54 111 71 57 79 76 42 85 57 45 91 62 48 97 67 51 103 72 54 109 77 57 77 58 42 83 63 45 89 68 48 95 73 51 101 78 54 107 59 57 75 64 42 81 69 45 87 74 48 93 79 51 99 60 54 105 65 57 111 70 42 79 75 45 85 56 48 91 61 51 97 66 54 103 71 57 109 76 42 77 57 45 83 62 48 89 67 51 95 72 54 101 77 57 107 58 42 75 63 45 81 68 48 87 73 51 93 78 54 99 59 57 105 64 42 111 69 45 79 74 48 85 79 51 91 60 54 97 65 57 103 70 42 109 75 45 77 56 48 83 61 51 89 66 54 95 71 57 101 76 42 107 57 45 75 62 48 81 67 51 87 72 54 93 77 57 99 58 42 105 63 45 111 68 48 79 73 51 85 78 54 91 59 57 97 64 42 103 69 45 109 74 48 77 79 51 83 60 54 89 65 57 95 70 42 101 75 45 107 56 48 75 61 51 81 66 54 87 71 57 93 76 42 99 57 45 105 62 48 111 67 51 79 72 54 85 77 57 91 58 42 97 63 45 103 68 48 109 73 51 77 78 54 83 59 57 89 64 42 95 69 45 101 74 48 107 79 51 75 60 54 81 65 57 87 70 42 93 75 45 99 56 48 105 61 51 111 66 54 79 71 57 85 76 42 91 57 45 97 62 48 103 67 51 109 72 54 77 77 57 83 58 42 89 63 45 95 68 48 101 73 51 107 78 54 75 59 57 81 64 42 87 69 45 93 74 48 99 79 51 105 60 54 111 65 57 79 70 42 85 75 45 91 56 48 97 61 51
88 76 56 94 57 59 100 62 44 106 67 47 74 72 50 80 77 53 86 58 56 92 63 59 98 68 44 104 73 47 110 78 50 78 59 53 84 64 56 90 69 59 96 74 44 102 79 47 108 60 50 76 65 53 82 70 56 88 75 59 94 56 44 100 61 47 106 66 50 74 71 53 80 76 56 86 57 59 92 62 44 98 67 47 104 72 50 110 77 53 78 58 56 84 63 59 90 68 44 96 73 47 102 78 50 108 59 53 76 64 56 82 69 59 88 74 44 94 79 47 100 60 50 106 65 53 74 70 56 80 75 59 86 56 44 92 61 47 98 66 50 104 71 53 110 76 56 78 57 59 84 62 44 90 67 47 96 72 50 102 77 53 108 58 56 76 63 59 82 68 44 88 73 47 94 78 50 100 59 53 106 64 56 74 69 59 80 74 44 86 79 47 92 60 50 98 65 53 104 70 56 110 75 59 78 56 44 84 61 47 90 66 50 96 71 53 102 76 56 108 57 59 76 62 44 82 67 47 88 72 50 94 77 53 100 58 56 106 63 59 74 68 44 80 73 47 86 78 50 92 59 53 98 64 56 104 69 59 110 74 44 78 79 47 84 60 50 90 65 53 96 70 56 102 75 59 108 56 44 76 61 47 82 66 50 88 71 53 94 76 56 100 57 59 106 62 44 74 67 47 80 72 50 86 77 53 92 58 56 98 63 59 104 68 44 110 73 47 78 78 50 84 59 53 90 64 56 96 69 59 102 74 44 108 79 47 76 60 50 82 65 53 88 70 56 94 75 59 100 56 44 106 61 47 74 66 50 80 71 53 86 76 56 92 57 59 98 62 44 104 67 47 110 72 50 78 77 53 84 58 56 90 63 59 96 68 44 102 73 47 108 78 50 76 59 53 82 64 56 88 69 59 94 74 44 100 79 47 106 60 50 74 65 53 80 70 56 86 75 59 92 56 44 98 61 47 104 66 50 110 71 53 78 76 56 84 57 59 90 62 44 96 67 47 102 72 50 108 77 53 76 58 56 82 63 59 88 68 44 94 73 47 100 78 50 106 59 53 74 64 56 80 69 59 86 74 44 92 79 47 98 60 50 104 65 53 110 70 56 78 75 59 84 56 44 90 61 47 96 66 50 102 71 53 108 76 56 76 57 59 82 62 44 88 67 47 94 72 50 100 77 53 106 58 56 74 63 59 80 68 44 86 73 47 92 78 50 98 59 53 104 64 56 110 69 59 78 74 44 84 79 47 90 60 50 96 65 53 102 70 56 108 75 59 76 56 44 82 61 47 88 66 50 94 71 53 100 76 56 106 57 59 74 62 44 80 67 47 86 72 50 92 77 53 98 58 56 104 63 59 110 68 44 78 73 47 84 78 50 90 59 53 96 64 56 102 69 59 108 74 44 76 79 47 82 60 50 88 65 53 94 70 56 100 75 59 106 56 44 74 61 47 80 66 50 86 71 53 92 76 56 98 57 59 104 62 44 110 67 47 78 72 50 84 77 53 90 58 56 96 63 59 102 68 44 108 73 47 76 78 50 82 59 53 88 64 56 94 69 59 100 74 44 106 79 47 74 60 50 80 65 53 86 70 56 92 75 59 98 56 44 104 61 47 110 66 50 78 71 53 84 76 56 90 57 59 96 62 44 102 67 47 108 72 50 76 77 53 82 58 56 88 63 59 94 68 44 100 73 47 106 78 50 74 59 53 80 64 56 86 69 59 92 74 44 98 79 47 104 60 50 110 65 53 78 70 56 84 75 59 90 56 44 96 61 47 102 66 50 108 71 53 76 76 56 82 57 59 88 62 44 94 67 47 100 72 50 106 77 53 74 58 56 80 63 59 86 68 44 92 73 47 98 78 50 104 59 53 110 64 56 78 69 59 84 74 44 90 79 47 96 60 50 102 65 53 108 70 56 76 75 59 82 56 44 88 61 47 94 66 50 100 71 53 106 76 56 74 57 59 80 62 44 86 67 47 92 72 50 98 77 53 104 58 56 110 63 59 78 68 44 84 73 47 90 78 50 96 59 53 102 64 56 108 69 59 76 74 44 82 79 47 88 60 50 94 65 53 100 70 56 106 75 59 74 56 44 80 61 47 86 66 50 92 71 53 98 76 56 104 57 59 110 62 44 78 67 47 84 72 50 90 77 53 96 58 56 102 63 59
93 78 46 99 59 49 105 64 52 111 69 55 79 74 58 85 79 43 91 60 46 97 65 49 103 70 52 109 75 55 77 56 58 83 61 43 89 66 46 95 71 49 101 76 52 107 57 55 75 62 58 81 67 43 87 72 46 93 77 49 99 58 52 105 63 55 111 68 58 79 73 43 85 78 46 91 59 49 97 64 52 103 69 55 109 74 58 77 79 43 83 60 46 89 65 49 95 70 52 101 75 55 107 56 58 75 61 43 81 66 46 87 71 49 93 76 52 99 57 55 105 62 58 111 67 43 79 72 46 85 77 49 91 58 52 97 63 55 103 68 58 109 73 43 77 78 46 83 59 49 89 64 52 95 69 55 101 74 58 107 79 43 75 60 46 81 65 49 87 70 52 93 75 55 99 56 58 105 61 43 111 66 46 79 71 49 85 76 52 91 57 55 97 62 58 103 67 43 109 72 46 77 77 49 83 58 52 89 63 55 95 68 58 101 73 43 107 78 46 75 59 49 81 64 52 87 69 55 93 74 58 99 79 43 105 60 46 111 65 49 79 70 52 85 75 55 91 56 58 97 61 43 103 66 46 109 71 49 77 76 52 83 57 55 89 62 58 95 67 43 101 72 46 107 77 49 75 58 52 81 63 55 87 68 58 93 73 43 99 78 46 105 59 49 111 64 52 79 69 55 85 74 58 91 79 43 97 60 46 103 65 49 109 70 52 77 75 55 83 56 58 89 61 43 95 66 46 101 71 49 107 76 52 75 57 55 81 62 58 87 67 43 93 72 46 99 77 49 105 58 52 111 63 55 79 68 58 85 73 43 91 78 46 97 59 49 103 64 52 109 69 55 77 74 58 83 79 43 89 60 46 95 65 49 101 70 52 107 75 55 75 56 58 81 61 43 87 66 46 93 71 49 99 76 52 105 57 55 111 62 58 79 67 43 85 72 46 91 77 49 97 58 52 103 63 55 109 68 58 77 73 43 83 78 46 89 59 49 95 64 52 101 69 55 107 74 58 75 79 43 81 60 46 87 65 49 93 70 52 99 75 55 105 56 58 111 61 43 79 66 46 85 71 49 91 76 52 97 57 55 103 62 58 109 67 43 77 72 46 83 77 49 89 58 52 95 63 55 101 68 58 107 73 43 75 78 46 81 59 49 87 64 52 93 69 55 99 74 58 105 79 43 111 60 46 79 65 49 85 70 52 91 75 55 97 56 58 103 61 43 109 66 46 77 71 49 83 76 52 89 57 55 95 62 58 101 67 43 107 72 46 75 77 49 81 58 52 87 63 55 93 68 58 99 73 43 105 78 46 111 59 49 79 64 52 85 69 55 91 74 58 97 79 43 103 60 46 109 65 49 77 70 52 83 75 55 89 56 58 95 61 43 101 66 46 107 71 49 75 76 52 81 57 55 87 62 58 93 67 43 99 72 46 105 77 49 111 58 52 79 63 55 85 68 58 91 73 43 97 78 46 103 59 49 109 64 52 77 69 55 83 74 58 89 79 43 95 60 46 101 65 49 107 70 52 75 75 55 81 56 58 87 61 43 93 66 46 99 71 49 105 76 52 111 57 55 79 62 58 85 67 43 91 72 46 97 77 49 103 58 52 109 63 55 77 68 58 83 73 43 89 78 46 95 59 49 101 64 52 107 69 55 75 74 58 81 79 43 87 60 46 93 65 49 99 70 52 105 75 55 111 56 58 79 61 43 85 66 46 91 71 49 97 76 52 103 57 55 109 62 58 77 67 43 83 72 46 89 77 49 95 58 52 101 63 55 107 68 58 75 73 43 81 78 46 87 59 49 93 64 52 99 69 55 105 74 58 111 79 43 79 60 46 85 65 49 91 70 52 97 75 55 103 56 58 109 61 43 77 66 46 83 71 49 89 76 52 95 57 55 101 62 58 107 67 43 75 72 46 81 77 49 87 58 52 93 63 55 99 68 58 105 73 43 111 78 46 79 59 49 85 64 52 91 69 55 97 74 58 103 79 43 109 60 46 77 65 49 83 70 52 89 75 55 95 56 58 101 61 43 107 66 46 75 71 49 81 76 52 87 57 55 93 62 58 99 67 43 105 72 46 111 77 49 79 58 52 85 63 55 91 68 58 97 73 43 103 78 46 109 59 49 77 64 52 83 69 55 89 74 58 95 79 43 101 60 46 107 65 49
98 56 54 104 61 57 110 66 42 78 71 45 84 76 48 90 57 51 96 62 54 102 67 57 108 72 42 76 77 45 82 58 48 88 63 51 94 68 54 100 73 57 106 78 42 74 59 45 80 64 48 86 69 51 92 74 54 98 79 57 104 60 42 110 65 45 78 70 48 84 75 51 90 56 54 96 61 57 102 66 42 108 71 45 76 76 48 82 57 51 88 62 54 94 67 57 100 72 42 106 77 45 74 58 48 80 63 51 86 68 54 92 73 57 98 78 42 104 59 45 110 64 48 78 69 51 84 74 54 90 79 57 96 60 42 102 65 45 108 70 48 76 75 51 82 56 54 88 61 57 94 66 42 100 71 45 106 76 48 74 57 51 80 62 54 86 67 57 92 72 42 98 77 45 104 58 48 110 63 51 78 68 54 84 73 57 90 78 42 96 59 45 102 64 48 108 69 51 76 74 54 82 79 57 88 60 42 94 65 45 100 70 48 106 75 51 74 56 54 80 61 57 86 66 42 92 71 45 98 76 48 104 57 51 110 62 54 78 67 57 84 72 42 90 77 45 96 58 48 102 63 51 108 68 54 76 73 57 82 78 42 88 59 45 94 64 48 100 69 51 106 74 54 74 79 57 80 60 42 86 65 45 92 70 48 98 75 51 104 56 54 110 61 57 78 66 42 84 71 45 90 76 48 96 57 51 102 62 54 108 67 57 76 72 42 82 77 45 88 58 48 94 63 51 100 68 54 106 73 57 74 78 42 80 59 45 86 64 48 92 69 51 98 74 54 104 79 57 110 60 42 78 65 45 84 70 48 90 75 51 96 56 54 102 61 57 108 66 42 76 71 45 82 76 48 88 57 51 94 62 54 100 67 57 106 72 42 74 77 45 80 58 48 86 63 51 92 68 54 98 73 57 104 78 42 110 59 45 78 64 48 84 69 51 90 74 54 96 79 57 102 60 42 108 65 45 76 70 48 82 75 51 88 56 54 94 61 57 100 66 42 106 71 45 74 76 48 80 57 51 86 62 54 92 67 57 98 72 42 104 77 45 110 58 48 78 63 51 84 68 54 90 73 57 96 78 42 102 59 45 108 64 48 76 69 51 82 74 54 88 79 57 94 60 42 100 65 45 106 70 48 74 75 51 80 56 54 86 61 57 92 66 42 98 71 45 104 76 48 110 57 51 78 62 54 84 67 57 90 72 42 96 77 45 102 58 48 108 63 51 76 68 54 82 73 57 88 78 42 94 59 45 100 64 48 106 69 51 74 74 54 80 79 57 86 60 42 92 65 45 98 70 48 104 75 51 110 56 54 78 61 57 84 66 42 90 71 45 96 76 48 102 57 51 108 62 54 76 67 57 82 72 42 88 77 45 94 58 48 100 63 51 106 68 54 74 73 57 80 78 42 86 59 45 92 64 48 98 69 51 104 74 54 110 79 57 78 60 42 84 65 45 90 70 48 96 75 51 102 56 54 108 61 57 76 66 42 82 71 45 88 76 48 94 57 51 100 62 54 106 67 57 74 72 42 80 77 45 86 58 48 92 63 51 98 68 54 104 73 57 110 78 42 78 59 45 84 64 48 90 69 51 96 74 54 102 79 57 108 60 42 76 65 45 82 70 48 88 75 51 94 56 54 100 61 57 106 66 42 74 71 45 80 76 48 86 57 51 92 62 54 98 67 57 104 72 42 110 77 45 78 58 48 84 63 51 90 68 54 96 73 57 102 78 42 108 59 45 76 64 48 82 69 51 88 74 54 94 79 57 100 60 42 106 65 45 74 70 48 80 75 51 86 56 54 92 61 57 98 66 42 104 71 45 110 76 48 78 57 51 84 62 54 90 67 57 96 72 42 102 77 45 108 58 48 76 63 51 82 68 54 88 73 57 94 78 42 100 59 45 106 64 48 74 69 51 80 74 54 86 79 57 92 60 42 98 65 45 104 70 48 110 75 51 78 56 54 84 61 57 90 66 42 96 71 45 102 76 48 108 57 51 76 62 54 82 67 57 88 72 42 94 77 45 100 58 48 106 63 51 74 68 54 80 73 57 86 78 42 92 59 45 98 64 48 104 69 51 110 74 54 78 79 57 84 60 42 90 65 45 96 70 48 102 75 51 108 56 54 76 61 57 82 66 42 88 71 45 94 76 48 100 57 51 106 62 54 74 67 57
103 58 44 109 63 47 77 68 50 83 73 53 89 78 56 95 59 59 101 64 44 107 69 47 75 74 50 81 79 53 87 60 56 93 65 59 99 70 44 105 75 47 111 56 50 79 61 53 85 66 56 91 71 59 97 76 44 103 57 47 109 62 50 77 67 53 83 72 56 89 77 59 95 58 44 101 63 47 107 68 50 75 73 53 81 78 56 87 59 59 93 64 44 99 69 47 105 74 50 111 79 53 79 60 56 85 65 59 91 70 44 97 75 47 103 56 50 109 61 53 77 66 56 83 71 59 89 76 44 95 57 47 101 62 50 107 67 53 75 72 56 81 77 59 87 58 44 93 63 47 99 68 50 105 73 53 111 78 56 79 59 59 85 64 44 91 69 47 97 74 50 103 79 53 109 60 56 77 65 59 83 70 44 89 75 47 95 56 50 101 61 53 107 66 56 75 71 59 81 76 44 87 57 47 93 62 50 99 67 53 105 72 56 111 77 59 79 58 44 85 63 47 91 68 50 97 73 53 103 78 56 109 59 59 77 64 44 83 69 47 89 74 50 95 79 53 101 60 56 107 65 59 75 70 44 81 75 47 87 56 50 93 61 53 99 66 56 105 71 59 111 76 44 79 57 47 85 62 50 91 67 53 97 72 56 103 77 59 109 58 44 77 63 47 83 68 50 89 73 53 95 78 56 101 59 59 107 64 44 75 69 47 81 74 50 87 79 53 93 60 56 99 65 59 105 70 44 111 75 47 79 56 50 85 61 53 91 66 56 97 71 59 103 76 44 109 57 47 77 62 50 83 67 53 89 72 56 95 77 59 101 58 44 107 63 47 75 68 50 81 73 53 87 78 56 93 59 59 99 64 44 105 69 47 111 74 50 79 79 53 85 60 56 91 65 59 97 70 44 103 75 47 109 56 50 77 61 53 83 66 56 89 71 59 95 76 44 101 57 47 107 62 50 75 67 53 81 72 56 87 77 59 93 58 44 99 63 47 105 68 50 111 73 53 79 78 56 85 59 59 91 64 44 97 69 47 103 74 50 109 79 53 77 60 56 83 65 59 89 70 44 95 75 47 101 56 50 107 61 53 75 66 56 81 71 59 87 76 44 93 57 47 99 62 50 105 67 53 111 72 56 79 77 59 85 58 44 91 63 47 97 68 50 103 73 53 109 78 56 77 59 59 83 64 44 89 69 47 95 74 50 101 79 53 107 60 56 75 65 59 81 70 44 87 75 47 93 56 50 99 61 53 105 66 56 111 71 59 79 76 44 85 57 47 91 62 50 97 67 53 103 72 56 109 77 59 77 58 44 83 63 47 89 68 50 95 73 53 101 78 56 107 59 59 75 64 44 81 69 47 87 74 50 93 79 53 99 60 56 105 65 59 111 70 44 79 75 47 85 56 50 91 61 53 97 66 56 103 71 59 109 76 44 77 57 47 83 62 50 89 67 53 95 72 56 101 77 59 107 58 44 75 63 47 81 68 50 87 73 53 93 78 56 99 59 59 105 64 44 111 69 47 79 74 50 85 79 53 91 60 56 97 65 59 103 70 44 109 75 47 77 56 50 83 61 53 89 66 56 95 71 59 101 76 44 107 57 47 75 62 50 81 67 53 87 72 56 93 77 59 99 58 44 105 63 47 111 68 50 79 73 53 85 78 56 91 59 59 97 64 44 103 69 47 109 74 50 77 79 53 83 60 56 89 65 59 95 70 44 101 75 47 107 56 50 75 61 53 81 66 56 87 71 59 93 76 44 99 57 47 105 62 50 111 67 53 79 72 56 85 77 59 91 58 44 97 63 47 103 68 50 109 73 53 77 78 56 83 59 59 89 64 44 95 69 47 101 74 50 107 79 53 75 60 56 81 65 59 87 70 44 93 75 47 99 56 50 105 61 53 111 66 56 79 71 59 85 76 44 91 57 47 97 62 50 103 67 53 109 72 56 77 77 59 83 58 44 89 63 47 95 68 50 101 73 53 107 78 56 75 59 59 81 64 44 87 69 47 93 74 50 99 79 53 105 60 56 111 65 59 79 70 44 85 75 47 91 56 50 97 61 53 103 66 56 109 71 59 77 76 44 83 57 47 89 62 50 95 67 53 101 72 56 107 77 59 75 58 44 81 63 47 87 68 50 93 73 53 99 78 56 105 59 59 111 64 44 79 69 47
108 60 52 76 65 55 82 70 58 88 75 43 94 56 46 100 61 49 106 66 52 74 71 55 80 76 58 86 57 43 92 62 46 98 67 49 104 72 52 110 77 55 78 58 58 84 63 43 90 68 46 96 73 49 102 78 52 108 59 55 76 64 58 82 69 43 88 74 46 94 79 49 100 60 52 106 65 55 74 70 58 80 75 43 86 56 46 92 61 49 98 66 52 104 71 55 110 76 58 78 57 43 84 62 46 90 67 49 96 72 52 102 77 55 108 58 58 76 63 43 82 68 46 88 73 49 94 78 52 100 59 55 106 64 58 74 69 43 80 74 46 86 79 49 92 60 52 98 65 55 104 70 58 110 75 43 78 56 46 84 61 49 90 66 52 96 71 55 102 76 58 108 57 43 76 62 46 82 67 49 88 72 52 94 77 55 100 58 58 106 63 43 74 68 46 80 73 49 86 78 52 92 59 55 98 64 58 104 69 43 110 74 46 78 79 49 84 60 52 90 65 55 96 70 58 102 75 43 108 56 46 76 61 49 82 66 52 88 71 55 94 76 58 100 57 43 106 62 46 74 67 49 80 72 52 86 77 55 92 58 58 98 63 43 104 68 46 110 73 49 78 78 52 84 59 55 90 64 58 96 69 43 102 74 46 108 79 49 76 60 52 82 65 55 88 70 58 94 75 43 100 56 46 106 61 49 74 66 52 80 71 55 86 76 58 92 57 43 98 62 46 104 67 49 110 72 52 78 77 55 84 58 58 90 63 43 96 68 46 102 73 49 108 78 52 76 59 55 82 64 58 88 69 43 94 74 46 100 79 49 106 60 52 74 65 55 80 70 58 86 75 43 92 56 46 98 61 49 104 66 52 110 71 55 78 76 58 84 57 43 90 62 46 96 67 49 102 72 52 108 77 55 76 58 58 82 63 43 88 68 46 94 73 49 100 78 52 106 59 55 74 64 58 80 69 43 86 74 46 92 79 49 98 60 52 104 65 55 110 70 58 78 75 43 84 56 46 90 61 49 96 66 52 102 71 55 108 76 58 76 57 43 82 62 46 88 67 49 94 72 52 100 77 55 106 58 58 74 63 43 80 68 46 86 73 49 92 78 52 98 59 55 104 64 58 110 69 43 78 74 46 84 79 49 90 60 52 96 65 55 102 70 58 108 75 43 76 56 46 82 61 49 88 66 52 94 71 55 100 76 58 106 57 43 74 62 46 80 67 49 86 72 52 92 77 55 98 58 58 104 63 43 110 68 46 78 73 49 84 78 52 90 59 55 96 64 58 102 69 43 108 74 46 76 79 49 82 60 52 88 65 55 94 70 58 100 75 43 106 56 46 74 61 49 80 66 52 86 71 55 92 76 58 98 57 43 104 62 46 110 67 49 78 72 52 84 77 55 90 58 58 96 63 43 102 68 46 108 73 49 76 78 52 82 59 55 88 64 58 94 69 43 100 74 46 106 79 49 74 60 52 80 65 55 86 70 58 92 75 43 98 56 46 104 61 49 110 66 52 78 71 55 84 76 58 90 57 43 96 62 46 102 67 49 108 72 52 76 77 55 82 58 58 88 63 43 94 68 46 100 73 49 106 78 52 74 59 55 80 64 58 86 69 43 92 74 46 98 79 49 104 60 52 110 65 55 78 70 58 84 75 43 90 56 46 96 61 49 102 66 52 108 71 55 76 76 58 82 57 43 88 62 46 94 67 49 100 72 52 106 77 55 74 58 58 80 63 43 86 68 46 92 73 49 98 78 52 104 59 55 110 64 58 78 69 43 84 74 46 90 79 49 96 60 52 102 65 55 108 70 58 76 75 43 82 56 46 88 61 49 94 66 52 100 71 55 106 76 58 74 57 43 80 62 46 86 67 49 92 72 52 98 77 55 104 58 58 110 63 43 78 68 46 84 73 49 90 78 52 96 59 55 102 64 58 108 69 43 76 74 46 82 79 49 88 60 52 94 65 55 100 70 58 106 75 43 74 56 46 80 61 49 86 66 52 92 71 55 98 76 58 104 57 43 110 62 46 78 67 49 84 72 52 90 77 55 96 58 58 102 63 43 108 68 46 76 73 49 82 78 52 88 59 55 94 64 58 100 69 43 106 74 46 74 79 49 80 60 52 86 65 55 92 70 58 98 75 43 104 56 46 110 61 49 78 66 52 84 71 55
75 62 42 81 67 45 87 72 48 93 77 51 99 58 54 105 63 57 111 68 42 79 73 45 85 78 48 91 59 51 97 64 54 103 69 57 109 74 42 77 79 45 83 60 48 89 65 51 95 70 54 101 75 57 107 56 42 75 61 45 81 66 48 87 71 51 93 76 54 99 57 57 105 62 42 111 67 45 79 72 48 85 77 51 91 58 54 97 63 57 103 68 42 109 73 45 77 78 48 83 59 51 89 64 54 95 69 57 101 74 42 107 79 45 75 60 48 81 65 51 87 70 54 93 75 57 99 56 42 105 61 45 111 66 48 79 71 51 85 76 54 91 57 57 97 62 42 103 67 45 109 72 48 77 77 51 83 58 54 89 63 57 95 68 42 101 73 45 107 78 48 75 59 51 81 64 54 87 69 57 93 74 42 99 79 45 105 60 48 111 65 51 79 70 54 85 75 57 91 56 42 97 61 45 103 66 48 109 71 51 77 76 54 83 57 57 89 62 42 95 67 45 101 72 48 107 77 51 75 58 54 81 63 57 87 68 42 93 73 45 99 78 48 105 59 51 111 64 54 79 69 57 85 74 42 91 79 45 97 60 48 103 65 51 109 70 54 77 75 57 83 56 42 89 61 45 95 66 48 101 71 51 107 76 54 75 57 57 81 62 42 87 67 45 93 72 48 99 77 51 105 58 54 111 63 57 79 68 42 85 73 45 91 78 48 97 59 51 103 64 54 109 69 57 77 74 42 83 79 45 89 60 48 95 65 51 101 70 54 107 75 57 75 56 42 81 61 45 87 66 48 93 71 51 99 76 54 105 57 57 111 62 42 79 67 45 85 72 48 91 77 51 97 58 54 103 63 57 109 68 42 77 73 45 83 78 48 89 59 51 95 64 54 101 69 57 107 74 42 75 79 45 81 60 48 87 65 51 93 70 54 99 75 57 105 56 42 111 61 45 79 66 48 85 71 51 91 76 54 97 57 57 103 62 42 109 67 45 77 72 48 83 77 51 89 58 54 95 63 57 101 68 42 107 73 45 75 78 48 81 59 51 87 64 54 93 69 57 99 74 42 105 79 45 111 60 48 79 65 51 85 70 54 91 75 57 97 56 42 103 61 45 109 66 48 77 71 51 83 76 54 89 57 57 95 62 42 101 67 45 107 72 48 75 77 51 81 58 54 87 63 57 93 68 42 99 73 45 105 78 48 111 59 51 79 64 54 85 69 57 91 74 42 97 79 45 103 60 48 109 65 51 77 70 54 83 75 57 89 56 42 95 61 45 101 66 48 107 71 51 75 76 54 81 57 57 87 62 42 93 67 45 99 72 48 105 77 51 111 58 54 79 63 57 85 68 42 91 73 45 97 78 48 103 59 51 109 64 54 77 69 57 83 74 42 89 79 45 95 60 48 101 65 51 107 70 54 75 75 57 81 56 42 87 61 45 93 66 48 99 71 51 105 76 54 111 57 57 79 62 42 85 67 45 91 72 48 97 77 51 103 58 54 109 63 57 77 68 42 83 73 45 89 78 48 95 59 51 101 64 54 107 69 57 75 74 42 81 79 45 87 60 48 93 65 51 99 70 54 105 75 57 111 56 42 79 61 45 85 66 48 91 71 51 97 76 54 103 57 57 109 62 42 77 67 45 83 72 48 89 77 51 95 58 54 101 63 57 107 68 42 75 73 45 81 78 48 87 59 51 93 64 54 99 69 57 105 74 42 111 79 45 79 60 48 85 65 51 91 70 54 97 75 57 103 56 42 109 61 45 77 66 48 83 71 51 89 76 54 95 57 57 101 62 42 107 67 45 75 72 48 81 77 51 87 58 54 93 63 57 99 68 42 105 73 45 111 78 48 79 59 51 85 64 54 91 69 57 97 74 42 103 79 45 109 60 48 77 65 51 83 70 54 89 75 57 95 56 42 101 61 45 107 66 48 75 71 51 81 76 54 87 57 57 93 62 42 99 67 45 105 72 48 111 77 51 79 58 54 85 63 57 91 68 42 97 73 45 103 78 48 109 59 51 77 64 54 83 69 57 89 74 42 95 79 45 101 60 48 107 65 51 75 70 54 81 75 57 87 56 42 93 61 45 99 66 48 105 71 51 111 76 54 79 57 57 85 62 42 91 67 45 97 72 48 103 77 51 109 58 54 77 63 57 83 68 42 89 73 45
80 64 50 86 69 53 92 74 56 98 79 59 104 60 44 110 65 47 78 70 50 84 75 53 90 56 56 96 61 59 102 66 44 108 71 47 76 76 50 82 57 53 88 62 56 94 67 59 100 72 44 106 77 47 74 58 50 80 63 53 86 68 56 92 73 59 98 78 44 104 59 47 110 64 50 78 69 53 84 74 56 90 79 59 96 60 44 102 65 47 108 70 50 76 75 53 82 56 56 88 61 59 94 66 44 100 71 47 106 76 50 74 57 53 80 62 56 86 67 59 92 72 44 98 77 47 104 58 50 110 63 53 78 68 56 84 73 59 90 78 44 96 59 47 102 64 50 108 69 53 76 74 56 82 79 59 88 60 44 94 65 47 100 70 50 106 75 53 74 56 56 80 61 59 86 66 44 92 71 47 98 76 50 104 57 53 110 62 56 78 67 59 84 72 44 90 77 47 96 58 50 102 63 53 108 68 56 76 73 59 82 78 44 88 59 47 94 64 50 100 69 53 106 74 56 74 79 59 80 60 44 86 65 47 92 70 50 98 75 53 104 56 56 110 61 59 78 66 44 84 71 47 90 76 50 96 57 53 102 62 56 108 67 59 76 72 44 82 77 47 88 58 50 94 63 53 100 68 56 106 73 59 74 78 44 80 59 47 86 64 50 92 69 53 98 74 56 104 79 59 110 60 44 78 65 47 84 70 50 90 75 53 96 56 56 102 61 59 108 66 44 76 71 47 82 76 50 88 57 53 94 62 56 100 67 59 106 72 44 74 77 47 80 58 50 86 63 53 92 68 56 98 73 59 104 78 44 110 59 47 78 64 50 84 69 53 90 74 56 96 79 59 102 60 44 108 65 47 76 70 50 82 75 53 88 56 56 94 61 59 100 66 44 106 71 47 74 76 50 80 57 53 86 62 56 92 67 59 98 72 44 104 77 47 110 58 50 78 63 53 84 68 56 90 73 59 96 78 44 102 59 47 108 64 50 76 69 53 82 74 56 88 79 59 94 60 44 100 65 47 106 70 50 74 75 53 80 56 56 86 61 59 92 66 44 98 71 47 104 76 50 110 57 53 78 62 56 84 67 59 90 72 44 96 77 47 102 58 50 108 63 53 76 68 56 82 73 59 88 78 44 94 59 47 100 64 50 106 69 53 74 74 56 80 79 59 86 60 44 92 65 47 98 70 50 104 75 53 110 56 56 78 61 59 84 66 44 90 71 47 96 76 50 102 57 53 108 62 56 76 67 59 82 72 44 88 77 47 94 58 50 100 63 53 106 68 56 74 73 59 80 78 44 86 59 47 92 64 50 98 69 53 104 74 56 110 79 59 78 60 44 84 65 47 90 70 50 96 75 53 102 56 56 108 61 59 76 66 44 82 71 47 88 76 50 94 57 53 100 62 56 106 67 59 74 72 44 80 77 47 86 58 50 92 63 53 98 68 56 104 73 59 110 78 44 78 59 47 84 64 50 90 69 53 96 74 56 102 79 59 108 60 44 76 65 47 82 70 50 88 75 53 94 56 56 100 61 59 106 66 44 74 71 47 80 76 50 86 57 53 92 62 56 98 67 59 104 72 44 110 77 47 78 58 50 84 63 53 90 68 56 96 73 59 102 78 44 108 59 47 76 64 50 82 69 53 88 74 56 94 79 59 100 60 44 106 65 47 74 70 50 80 75 53 86 56 56 92 61 59 98 66 44 104 71 47 110 76 50 78 57 53 84 62 56 90 67 59 96 72 44 102 77 47 108 58 50 76 63 53 82 68 56 88 73 59 94 78 44 100 59 47 106 64 50 74 69 53 80 74 56 86 79 59 92 60 44 98 65 47 104 70 50 110 75 53 78 56 56 84 61 59 90 66 44 96 71 47 102 76 50 108 57 53 76 62 56 82 67 59 88 72 44 94 77 47 100 58 50 106 63 53 74 68 56 80 73 59 86 78 44 92 59 47 98 64 50 104 69 53 110 74 56 78 79 59 84 60 44 90 65 47 96 70 50 102 75 53 108 56 56 76 61 59 82 66 44 88 71 47 94 76 50 100 57 53 106 62 56 74 67 59 80 72 44 86 77 47 92 58 50 98 63 53 104 68 56 110 73 59 78 78 44 84 59 47 90 64 50 96 69 53 102 74 56 108 79 59 76 60 44 82 65 47 88 70 50 94 75 53
85 66 58 91 71 43 97 76 46 103 57 49 109 62 52 77 67 55 83 72 58 89 77 43 95 58 46 101 63 49 107 68 52 75 73 55 81 78 58 87 59 43 93 64 46 99 69 49 105 74 52 111 79 55 79 60 58 85 65 43 91 70 46 97 75 49 103 56 52 109 61 55 77 66 58 83 71 43 89 76 46 95 57 49 101 62 52 107 67 55 75 72 58 81 77 43 87 58 46 93 63 49 99 68 52 105 73 55 111 78 58 79 59 43 85 64 46 91 69 49 97 74 52 103 79 55 109 60 58 77 65 43 83 70 46 89 75 49 95 56 52 101 61 55 107 66 58 75 71 43 81 76 46 87 57 49 93 62 52 99 67 55 105 72 58 111 77 43 79 58 46 85 63 49 91 68 52 97 73 55 103 78 58 109 59 43 77 64 46 83 69 49 89 74 52 95 79 55 101 60 58 107 65 43 75 70 46 81 75 49 87 56 52 93 61 55 99 66 58 105 71 43 111 76 46 79 57 49 85 62 52 91 67 55 97 72 58 103 77 43 109 58 46 77 63 49 83 68 52 89 73 55 95 78 58 101 59 43 107 64 46 75 69 49 81 74 52 87 79 55 93 60 58 99 65 43 105 70 46 111 75 49 79 56 52 85 61 55 91 66 58 97 71 43 103 76 46 109 57 49 77 62 52 83 67 55 89 72 58 95 77 43 101 58 46 107 63 49 75 68 52 81 73 55 87 78 58 93 59 43 99 64 46 105 69 49 111 74 52 79 79 55 85 60 58 91 65 43 97 70 46 103 75 49 109 56 52 77 61 55 83 66 58 89 71 43 95 76 46 101 57 49 107 62 52 75 67 55 81 72 58 87 77 43 93 58 46 99 63 49 105 68 52 111 73 55 79 78 58 85 59 43 91 64 46 97 69 49 103 74 52 109 79 55 77 60 58 83 65 43 89 70 46 95 75 49 101 56 52 107 61 55 75 66 58 81 71 43 87 76 46 93 57 49 99 62 52 105 67 55 111 72 58 79 77 43 85 58 46 91 63 49 97 68 52 103 73 55 109 78 58 77 59 43 83 64 46 89 69 49 95 74 52 101 79 55 107 60 58 75 65 43 81 70 46 87 75 49 93 56 52 99 61 55 105 66 58 111 71 43 79 76 46 85 57 49 91 62 52 97 67 55 103 72 58 109 77 43 77 58 46 83 63 49 89 68 52 95 73 55 101 78 58 107 59 43 75 64 46 81 69 49 87 74 52 93 79 55 99 60 58 105 65 43 111 70 46 79 75 49 85 56 52 91 61 55 97 66 58 103 71 43 109 76 46 77 57 49 83 62 52 89 67 55 95 72 58 101 77 43 107 58 46 75 63 49 81 68 52 87 73 55 93 78 58 99 59 43 105 64 46 111 69 49 79 74 52 85 79 55 91 60 58 97 65 43 103 70 46 109 75 49 77 56 52 83 61 55 89 66 58 95 71 43 101 76 46 107 57 49 75 62 52 81 67 55 87 72 58 93 77 43 99 58 46 105 63 49 111 68 52 79 73 55 85 78 58 91 59 43 97 64 46 103 69 49 109 74 52 77 79 55 83 60 58 89 65 43 95 70 46 101 75 49 107 56 52 75 61 55 81 66 58 87 71 43 93 76 46 99 57 49 105 62 52 111 67 55 79 72 58 85 77 43 91 58 46 97 63 49 103 68 52 109 73 55 77 78 58 83 59 43 89 64 46 95 69 49 101 74 52 107 79 55 75 60 58 81 65 43 87 70 46 93 75 49 99 56 52 105 61 55 111 66 58 79 71 43 85 76 46 91 57 49 97 62 52 103 67 55 109 72 58 77 77 43 83 58 46 89 63 49 95 68 52 101 73 55 107 78 58 75 59 43 81 64 46 87 69 49 93 74 52 99 79 55 105 60 58 111 65 43 79 70 46 85 75 49 91 56 52 97 61 55 103 66 58 109 71 43 77 76 46 83 57 49 89 62 52 95 67 55 101 72 58 107 77 43 75 58 46 81 63 49 87 68 52 93 73 55 99 78 58 105 59 43 111 64 46 79 69 49 85 74 52 91 79 55 97 60 58 103 65 43 109 70 46 77 75 49 83 56 52 89 61 55 95 66 58 101 71 43 107 76 46 75 57 49 81 62 52 87 67 55 93 72 58 99 77 43
90 68 48 96 73 51 102 78 54 108 59 57 76 64 42 82 69 45 88 74 48 94 79 51 100 60 54 106 65 57 74 70 42 80 75 45 86 56 48 92 61 51 98 66 54 104 71 57 110 76 42 78 57 45 84 62 48 90 67 51 96 72 54 102 77 57 108 58 42 76 63 45 82 68 48 88 73 51 94 78 54 100 59 57 106 64 42 74 69 45 80 74 48 86 79 51 92 60 54 98 65 57 104 70 42 110 75 45 78 56 48 84 61 51 90 66 54 96 71 57 102 76 42 108 57 45 76 62 48 82 67 51 88 72 54 94 77 57 100 58 42 106 63 45 74 68 48 80 73 51 86 78 54 92 59 57 98 64 42 104 69 45 110 74 48 78 79 51 84 60 54 90 65 57 96 70 42 102 75 45 108 56 48 76 61 51 82 66 54 88 71 57 94 76 42 100 57 45 106 62 48 74 67 51 80 72 54 86 77 57 92 58 42 98 63 45 104 68 48 110 73 51 78 78 54 84 59 57 90 64 42 96 69 45 102 74 48 108 79 51 76 60 54 82 65 57 88 70 42 94 75 45 100 56 48 106 61 51 74 66 54 80 71 57 86 76 42 92 57 45 98 62 48 104 67 51 110 72 54 78 77 57 84 58 42 90 63 45 96 68 48 102 73 51 108 78 54 76 59 57 82 64 42 88 69 45 94 74 48 100 79 51 106 60 54 74 65 57 80 70 42 86 75 45 92 56 48 98 61 51 104 66 54 110 71 57 78 76 42 84 57 45 90 62 48 96 67 51 102 72 54 108 77 57 76 58 42 82 63 45 88 68 48 94 73 51 100 78 54 106 59 57 74 64 42 80 69 45 86 74 48 92 79 51 98 60 54 104 65 57 110 70 42 78 75 45 84 56 48 90 61 51 96 66 54 102 71 57 108 76 42 76 57 45 82 62 48 88 67 51 94 72 54 100 77 57 106 58 42 74 63 45 80 68 48 86 73 51 92 78 54 98 59 57 104 64 42 110 69 45 78 74 48 84 79 51 90 60 54 96 65 57 102 70 42 108 75 45 76 56 48 82 61 51 88 66 54 94 71 57 100 76 42 106 57 45 74 62 48 80 67 51 86 72 54 92 77 57 98 58 42 104 63 45 110 68 48 78 73 51 84 78 54 90 59 57 96 64 42 102 69 45 108 74 48 76 79 51 82 60 54 88 65 57 94 70 42 100 75 45 106 56 48 74 61 51 80 66 54 86 71 57 92 76 42 98 57 45 104 62 48 110 67 51 78 72 54 84 77 57 90 58 42 96 63 45 102 68 48 108 73 51 76 78 54 82 59 57 88 64 42 94 69 45 100 74 48 106 79 51 74 60 54 80 65 57 86 70 42 92 75 45 98 56 48 104 61 51 110 66 54 78 71 57 84 76 42 90 57 45 96 62 48 102 67 51 108 72 54 76 77 57 82 58 42 88 63 45 94 68 48 100 73 51 106 78 54 74 59 57 80 64 42 86 69 45 92 74 48 98 79 51 104 60 54 110 65 57 78 70 42 84 75 45 90 56 48 96 61 51 102 66 54 108 71 57 76 76 42 82 57 45 88 62 48 94 67 51 100 72 54 106 77 57 74 58 42 80 63 45 86 68 48 92 73 51 98 78 54 104 59 57 110 64 42 78 69 45 84 74 48 90 79 51 96 60 54 102 65 57 108 70 42 76 75 45 82 56 48 88 61 51 94 66 54 100 71 57 106 76 42 74 57 45 80 62 48 86 67 51 92 72 54 98 77 57 104 58 42 110 63 45 78 68 48 84 73 51 90 78 54 96 59 57 102 64 42 108 69 45 76 74 48 82 79 51 88 60 54 94 65 57 100 70 42 106 75 45 74 56 48 80 61 51 86 66 54 92 71 57 98 76 42 104 57 45 110 62 48 78 67 51 84 72 54 90 77 57 96 58 42 102 63 45 108 68 48 76 73 51 82 78 54 88 59 57 94 64 42 100 69 45 106 74 48 74 79 51 80 60 54 86 65 57 92 70 42 98 75 45 104 56 48 110 61 51 78 66 54 84 71 57 90 76 42 96 57 45 102 62 48 108 67 51 76 72 54 82 77 57 88 58 42 94 63 45 100 68 48 106 73 51 74 78 54 80 59 57 86 64 42 92 69 45 98 74 48 104 79 51
95 70 56 101 75 59 107 56 44 75 61 47 81 66 50 87 71 53 93 76 56 99 57 59 105 62 44 111 67 47 79 72 50 85 77 53 91 58 56 97 63 59 103 68 44 109 73 47 77 78 50 83 59 53 89 64 56 95 69 59 101 74 44 107 79 47 75 60 50 81 65 53 87 70 56 93 75 59 99 56 44 105 61 47 111 66 50 79 71 53 85 76 56 91 57 59 97 62 44 103 67 47 109 72 50 77 77 53 83 58 56 89 63 59 95 68 44 101 73 47 107 78 50 75 59 53 81 64 56 87 69 59 93 74 44 99 79 47 105 60 50 111 65 53 79 70 56 85 75 59 91 56 44 97 61 47 103 66 50 109 71 53 77 76 56 83 57 59 89 62 44 95 67 47 101 72 50 107 77 53 75 58 56 81 63 59 87 68 44 93 73 47 99 78 50 105 59 53 111 64 56 79 69 59 85 74 44 91 79 47 97 60 50 103 65 53 109 70 56 77 75 59 83 56 44 89 61 47 95 66 50 101 71 53 107 76 56 75 57 59 81 62 44 87 67 47 93 72 50 99 77 53 105 58 56 111 63 59 79 68 44 85 73 47 91 78 50 97 59 53 103 64 56 109 69 59 77 74 44 83 79 47 89 60 50 95 65 53 101 70 56 107 75 59 75 56 44 81 61 47 87 66 50 93 71 53 99 76 56 105 57 59 111 62 44 79 67 47 85 72 50 91 77 53 97 58 56 103 63 59 109 68 44 77 73 47 83 78 50 89 59 53 95 64 56 101 69 59 107 74 44 75 79 47 81 60 50 87 65 53 93 70 56 99 75 59 105 56 44 111 61 47 79 66 50 85 71 53 91 76 56 97 57 59 103 62 44 109 67 47 77 72 50 83 77 53 89 58 56 95 63 59 101 68 44 107 73 47 75 78 50 81 59 53 87 64 56 93 69 59 99 74 44 105 79 47 111 60 50 79 65 53 85 70 56 91 75 59 97 56 44 103 61 47 109 66 50 77 71 53 83 76 56 89 57 59 95 62 44 101 67 47 107 72 50 75 77 53 81 58 56 87 63 59 93 68 44 99 73 47 105 78 50 111 59 53 79 64 56 85 69 59 91 74 44 97 79 47 103 60 50 109 65 53 77 70 56 83 75 59 89 56 44 95 61 47 101 66 50 107 71 53 75 76 56 81 57 59 87 62 44 93 67 47 99 72 50 105 77 53 111 58 56 79 63 59 85 68 44 91 73 47 97 78 50 103 59 53 109 64 56 77 69 59 83 74 44 89 79 47 95 60 50 101 65 53 107 70 56 75 75 59 81 56 44 87 61 47 93 66 50 99 71 53 105 76 56 111 57 59 79 62 44 85 67 47 91 72 50 97 77 53 103 58 56 109 63 59 77 68 44 83 73 47 89 78 50 95 59 53 101 64 56 107 69 59 75 74 44 81 79 47 87 60 50 93 65 53 99 70 56 105 75 59 111 56 44 79 61 47 85 66 50 91 71 53 97 76 56 103 57 59 109 62 44 77 67 47 83 72 50 89 77 53 95 58 56 101 63 59 107 68 44 75 73 47 81 78 50 87 59 53 93 64 56 99 69 59 105 74 44 111 79 47 79 60 50 85 65 53 91 70 56 97 75 59 103 56 44 109 61 47 77 66 50 83 71 53 89 76 56 95 57 59 101 62 44 107 67 47 75 72 50 81 77 53 87 58 56 93 63 59 99 68 44 105 73 47 111 78 50 79 59 53 85 64 56 91 69 59 97 74 44 103 79 47 109 60 50 77 65 53 83 70 56 89 75 59 95 56 44 101 61 47 107 66 50 75 71 53 81 76 56 87 57 59 93 62 44 99 67 47 105 72 50 111 77 53 79 58 56 85 63 59 91 68 44 97 73 47 103 78 50 109 59 53 77 64 56 83 69 59 89 74 44 95 79 47 101 60 50 107 65 53 75 70 56 81 75 59 87 56 44 93 61 47 99 66 50 105 71 53 111 76 56 79 57 59 85 62 44 91 67 47 97 72 50 103 77 53 109 58 56 77 63 59 83 68 44 89 73 47 95 78 50 101 59 53 107 64 56 75 69 59 81 74 44 87 79 47 93 60 50 99 65 53 105 70 56 111 75 59 79 56 44 85 61 47 91 66 50 97 71 53 103 76 56 109 57 59
100 72 46 106 77 49 74 58 52 80 63 55 86 68 58 92 73 43 98 78 46 104 59 49 110 64 52 78 69 55 84 74 58 90 79 43 96 60 46 102 65 49 108 70 52 76 75 55 82 56 58 88 61 43 94 66 46 100 71 49 106 76 52 74 57 55 80 62 58 86 67 43 92 72 46 98 77 49 104 58 52 110 63 55 78 68 58 84 73 43 90 78 46 96 59 49 102 64 52 108 69 55 76 74 58 82 79 43 88 60 46 94 65 49 100 70 52 106 75 55 74 56 58 80 61 43 86 66 46 92 71 49 98 76 52 104 57 55 110 62 58 78 67 43 84 72 46 90 77 49 96 58 52 102 63 55 108 68 58 76 73 43 82 78 46 88 59 49 94 64 52 100 69 55 106 74 58 74 79 43 80 60 46 86 65 49 92 70 52 98 75 55 104 56 58 110 61 43 78 66 46 84 71 49 90 76 52 96 57 55 102 62 58 108 67 43 76 72 46 82 77 49 88 58 52 94 63 55 100 68 58 106 73 43 74 78 46 80 59 49 86 64 52 92 69 55 98 74 58 104 79 43 110 60 46 78 65 49 84 70 52 90 75 55 96 56 58 102 61 43 108 66 46 76 71 49 82 76 52 88 57 55 94 62 58 100 67 43 106 72 46 74 77 49 80 58 52 86 63 55 92 68 58 98 73 43 104 78 46 110 59 49 78 64 52 84 69 55 90 74 58 96 79 43 102 60 46 108 65 49 76 70 52 82 75 55 88 56 58 94 61 43 100 66 46 106 71 49 74 76 52 80 57 55 86 62 58 92 67 43 98 72 46 104 77 49 110 58 52 78 63 55 84 68 58 90 73 43 96 78 46 102 59 49 108 64 52 76 69 55 82 74 58 88 79 43 94 60 46 100 65 49 106 70 52 74 75 55 80 56 58 86 61 43 92 66 46 98 71 49 104 76 52 110 57 55 78 62 58 84 67 43 90 72 46 96 77 49 102 58 52 108 63 55 76 68 58 82 73 43 88 78 46 94 59 49 100 64 52 106 69 55 74 74 58 80 79 43 86 60 46 92 65 49 98 70 52 104 75 55 110 56 58 78 61 43 84 66 46 90 71 49 96 76 52 102 57 55 108 62 58 76 67 43 82 72 46 88 77 49 94 58 52 100 63 55 106 68 58 74 73 43 80 78 46 86 59 49 92 64 52 98 69 55 104 74 58 110 79 43 78 60 46 84 65 49 90 70 52 96 75 55 102 56 58 108 61 43 76 66 46 82 71 49 88 76 52 94 57 55 100 62 58 106 67 43 74 72 46 80 77 49 86 58 52 92 63 55 98 68 58 104 73 43 110 78 46 78 59 49 84 64 52 90 69 55 96 74 58 102 79 43 108 60 46 76 65 49 82 70 52 88 75 55 94 56 58 100 61 43 106 66 46 74 71 49 80 76 52 86 57 55 92 62 58 98 67 43 104 72 46 110 77 49 78 58 52 84 63 55 90 68 58 96 73 43 102 78 46 108 59 49 76 64 52 82 69 55 88 74 58 94 79 43 100 60 46 106 65 49 74 70 52 80 75 55 86 56 58 92 61 43 98 66 46 104 71 49 110 76 52 78 57 55 84 62 58 90 67 43 96 72 46 102 77 49 108 58 52 76 63 55 82 68 58 88 73 43 94 78 46 100 59 49 106 64 52 74 69 55 80 74 58 86 79 43 92 60 46 98 65 49 104 70 52 110 75 55 78 56 58 84 61 43 90 66 46 96 71 49 102 76 52 108 57 55 76 62 58 82 67 43 88 72 46 94 77 49 100 58 52 106 63 55 74 68 58 80 73 43 86 78 46 92 59 49 98 64 52 104 69 55 110 74 58 78 79 43 84 60 46 90 65 49 96 70 52 102 75 55 108 56 58 76 61 43 82 66 46 88 71 49 94 76 52 100 57 55 106 62 58 74 67 43 80 72 46 86 77 49 92 58 52 98 63 55 104 68 58 110 73 43 78 78 46 84 59 49 90 64 52 96 69 55 102 74 58 108 79 43 76 60 46 82 65 49 88 70 52 94 75 55 100 56 58 106 61 43 74 66 46 80 71 49 86 76 52 92 57 55 98 62 58 104 67 43 110 72 46 78 77 49 84 58 52 90 63 55 96 68 58 102 73 43 108 78 46 76 59 49
105 74 54 111 79 57 79 60 42 85 65 45 91 70 48 97 75 51 103 56 54 109 61 57 77 66 42 83 71 45 89 76 48 95 57 51 101 62 54 107 67 57 75 72 42 81 77 45 87 58 48 93 63 51 99 68 54 105 73 57 111 78 42 79 59 45 85 64 48 91 69 51 97 74 54 103 79 57 109 60 42 77 65 45 83 70 48 89 75 51 95 56 54 101 61 57 107 66 42 75 71 45 81 76 48 87 57 51 93 62 54 99 67 57 105 72 42 111 77 45 79 58 48 85 63 51 91 68 54 97 73 57 103 78 42 109 59 45 77 64 48 83 69 51 89 74 54 95 79 57 101 60 42 107 65 45 75 70 48 81 75 51 87 56 54 93 61 57 99 66 42 105 71 45 111 76 48 79 57 51 85 62 54 91 67 57 97 72 42 103 77 45 109 58 48 77 63 51 83 68 54 89 73 57 95 78 42 101 59 45 107 64 48 75 69 51 81 74 54 87 79 57 93 60 42 99 65 45 105 70 48 111 75 51 79 56 54 85 61 57 91 66 42 97 71 45 103 76 48 109 57 51 77 62 54 83 67 57 89 72 42 95 77 45 101 58 48 107 63 51 75 68 54 81 73 57 87 78 42 93 59 45 99 64 48 105 69 51 111 74 54 79 79 57 85 60 42 91 65 45 97 70 48 103 75 51 109 56 54 77 61 57 83 66 42 89 71 45 95 76 48 101 57 51 107 62 54 75 67 57 81 72 42 87 77 45 93 58 48 99 63 51 105 68 54 111 73 57 79 78 42 85 59 45 91 64 48 97 69 51 103 74 54 109 79 57 77 60 42 83 65 45 89 70 48 95 75 51 101 56 54 107 61 57 75 66 42 81 71 45 87 76 48 93 57 51 99 62 54 105 67 57 111 72 42 79 77 45 85 58 48 91 63 51 97 68 54 103 73 57 109 78 42 77 59 45 83 64 48 89 69 51 95 74 54 101 79 57 107 60 42 75 65 45 81 70 48 87 75 51 93 56 54 99 61 57 105 66 42 111 71 45 79 76 48 85 57 51 91 62 54 97 67 57 103 72 42 109 77 45 77 58 48 83 63 51 89 68 54 95 73 57 101 78 42 107 59 45 75 64 48 81 69 51 87 74 54 93 79 57 99 60 42 105 65 45 111 70 48 79 75 51 85 56 54 91 61 57 97 66 42 103 71 45 109 76 48 77 57 51 83 62 54 89 67 57 95 72 42 101 77 45 107 58 48 75 63 51 81 68 54 87 73 57 93 78 42 99 59 45 105 64 48 111 69 51 79 74 54 85 79 57 91 60 42 97 65 45 103 70 48 109 75 51 77 56 54 83 61 57 89 66 42 95 71 45 101 76 48 107 57 51 75 62 54 81 67 57 87 72 42 93 77 45 99 58 48 105 63 51 111 68 54 79 73 57 85 78 42 91 59 45 97 64 48 103 69 51 109 74 54 77 79 57 83 60 42 89 65 45 95 70 48 101 75 51 107 56 54 75 61 57 81 66 42 87 71 45 93 76 48 99 57 51 105 62 54 111 67 57 79 72 42 85 77 45 91 58 48 97 63 51 103 68 54 109 73 57 77 78 42 83 59 45 89 64 48 95 69 51 101 74 54 107 79 57 75 60 42 81 65 45 87 70 48 93 75 51 99 56 54 105 61 57 111 66 42 79 71 45 85 76 48 91 57 51 97 62 54 103 67 57 109 72 42 77 77 45 83 58 48 89 63 51 95 68 54 101 73 57 107 78 42 75 59 45 81 64 48 87 69 51 93 74 54 99 79 57 105 60 42 111 65 45 79 70 48 85 75 51 91 56 54 97 61 57 103 66 42 109 71 45 77 76 48 83 57 51 89 62 54 95 67 57 101 72 42 107 77 45 75 58 48 81 63 51 87 68 54 93 73 57 99 78 42 105 59 45 111 64 48 79 69 51 85 74 54 91 79 57 97 60 42 103 65 45 109 70 48 77 75 51 83 56 54 89 61 57 95 66 42 101 71 45 107 76 48 75 57 51 81 62 54 87 67 57 93 72 42 99 77 45 105 58 48 111 63 51 79 68 54 85 73 57 91 78 42 97 59 45 103 64 48 109 69 51 77 74 54 83 79 57 89 60 42 95 65 45 101 70 48 107 75 51 75 56 54 81 61 57
110 76 44 78 57 47 84 62 50 90 67 53 96 72 56 102 77 59 108 58 44 76 63 47 82 68 50 88 73 53 94 78 56 100 59 59 106 64 44 74 69 47 80 74 50 86 79 53 92 60 56 98 65 59 104 70 44 110 75 47 78 56 50 84 61 53 90 66 56 96 71 59 102 76 44 108 57 47 76 62 50 82 67 53 88 72 56 94 77 59 100 58 44 106 63 47 74 68 50 80 73 53 86 78 56 92 59 59 98 64 44 104 69 47 110 74 50 78 79 53 84 60 56 90 65 59 96 70 44 102 75 47 108 56 50 76 61 53 82 66 56 88 71 59 94 76 44 100 57 47 106 62 50 74 67 53 80 72 56 86 77 59 92 58 44 98 63 47 104 68 50 110 73 53 78 78 56 84 59 59 90 64 44 96 69 47 102 74 50 108 79 53 76 60 56 82 65 59 88 70 44 94 75 47 100 56 50 106 61 53 74 66 56 80 71 59 86 76 44 92 57 47 98 62 50 104 67 53 110 72 56 78 77 59 84 58 44 90 63 47 96 68 50 102 73 53 108 78 56 76 59 59 82 64 44 88 69 47 94 74 50 100 79 53 106 60 56 74 65 59 80 70 44 86 75 47 92 56 50 98 61 53 104 66 56 110 71 59 78 76 44 84 57 47 90 62 50 96 67 53 102 72 56 108 77 59 76 58 44 82 63 47 88 68 50 94 73 53 100 78 56 106 59 59 74 64 44 80 69 47 86 74 50 92 79 53 98 60 56 104 65 59 110 70 44 78 75 47 84 56 50 90 61 53 96 66 56 102 71 59 108 76 44 76 57 47 82 62 50 88 67 53 94 72 56 100 77 59 106 58 44 74 63 47 80 68 50 86 73 53 92 78 56 98 59 59 104 64 44 110 69 47 78 74 50 84 79 53 90 60 56 96 65 59 102 70 44 108 75 47 76 56 50 82 61 53 88 66 56 94 71 59 100 76 44 106 57 47 74 62 50 80 67 53 86 72 56 92 77 59 98 58 44 104 63 47 110 68 50 78 73 53 84 78 56 90 59 59 96 64 44 102 69 47 108 74 50 76 79 53 82 60 56 88 65 59 94 70 44 100 75 47 106 56 50 74 61 53 80 66 56 86 71 59 92 76 44 98 57 47 104 62 50 110 67 53 78 72 56 84 77 59 90 58 44 96 63 47 102 68 50 108 73 53 76 78 56 82 59 59 88 64 44 94 69 47 100 74 50 106 79 53 74 60 56 80 65 59 86 70 44 92 75 47 98 56 50 104 61 53 110 66 56 78 71 59 84 76 44 90 57 47 96 62 50 102 67 53 108 72 56 76 77 59 82 58 44 88 63 47 94 68 50 100 73 53 106 78 56 74 59 59 80 64 44 86 69 47 92 74 50 98 79 53 104 60 56 110 65 59 78 70 44 84 75 47 90 56 50 96 61 53 102 66 56 108 71 59 76 76 44 82 57 47 88 62 50 94 67 53 100 72 56 106 77 59 74 58 44 80 63 47 86 68 50 92 73 53 98 78 56 104 59 59 110 64 44 78 69 47 84 74 50 90 79 53 96 60 56 102 65 59 108 70 44 76 75 47 82 56 50 88 61 53 94 66 56 100 71 59 106 76 44 74 57 47 80 62 50 86 67 53 92 72 56 98 77 59 104 58 44 110 63 47 78 68 50 84 73 53 90 78 56 96 59 59 102 64 44 108 69 47 76 74 50 82 79 53 88 60 56 94 65 59 100 70 44 106 75 47 74 56 50 80 61 53 86 66 56 92 71 59 98 76 44 104 57 47 110 62 50 78 67 53 84 72 56 90 77 59 96 58 44 102 63 47 108 68 50 76 73 53 82 78 56 88 59 59 94 64 44 100 69 47 106 74 50 74 79 53 80 60 56 86 65 59 92 70 44 98 75 47 104 56 50 110 61 53 78 66 56 84 71 59 90 76 44 96 57 47 102 62 50 108 67 53 76 72 56 82 77 59 88 58 44 94 63 47 100 68 50 106 73 53 74 78 56 80 59 59 86 64 44 92 69 47 98 74 50 104 79 53 110 60 56 78 65 59 84 70 44 90 75 47 96 56 50 102 61 53 108 66 56 76 71 59 82 76 44 88 57 47 94 62 50 100 67 53 106 72 56 74 77 59 80 58 44 86 63 47
77 78 52 83 59 55 89 64 58 95 69 43 101 74 46 107 79 49 75 60 52 81 65 55 87 70 58 93 75 43 99 56 46 105 61 49 111 66 52 79 71 55 85 76 58 91 57 43 97 62 46 103 67 49 109 72 52 77 77 55 83 58 58 89 63 43 95 68 46 101 73 49 107 78 52 75 59 55 81 64 58 87 69 43 93 74 46 99 79 49 105 60 52 111 65 55 79 70 58 85 75 43 91 56 46 97 61 49 103 66 52 109 71 55 77 76 58 83 57 43 89 62 46 95 67 49 101 72 52 107 77 55 75 58 58 81 63 43 87 68 46 93 73 49 99 78 52 105 59 55 111 64 58 79 69 43 85 74 46 91 79 49 97 60 52 103 65 55 109 70 58 77 75 43 83 56 46 89 61 49 95 66 52 101 71 55 107 76 58 75 57 43 81 62 46 87 67 49 93 72 52 99 77 55 105 58 58 111 63 43 79 68 46 85 73 49 91 78 52 97 59 55 103 64 58 109 69 43 77 74 46 83 79 49 89 60 52 95 65 55 101 70 58 107 75 43 75 56 46 81 61 49 87 66 52 93 71 55 99 76 58 105 57 43 111 62 46 79 67 49 85 72 52 91 77 55 97 58 58 103 63 43 109 68 46 77 73 49 83 78 52 89 59 55 95 64 58 101 69 43 107 74 46 75 79 49 81 60 52 87 65 55 93 70 58 99 75 43 105 56 46 111 61 49 79 66 52 85 71 55 91 76 58 97 57 43 103 62 46 109 67 49 77 72 52 83 77 55 89 58 58 95 63 43 101 68 46 107 73 49 75 78 52 81 59 55 87 64 58 93 69 43 99 74 46 105 79 49 111 60 52 79 65 55 85 70 58 91 75 43 97 56 46 103 61 49 109 66 52 77 71 55 83 76 58 89 57 43 95 62 46 101 67 49 107 72 52 75 77 55 81 58 58 87 63 43 93 68 46 99 73 49 105 78 52 111 59 55 79 64 58 85 69 43 91 74 46 97 79 49 103 60 52 109 65 55 77 70 58 83 75 43 89 56 46 95 61 49 101 66 52 107 71 55 75 76 58 81 57 43 87 62 46 93 67 49 99 72 52 105 77 55 111 58 58 79 63 43 85 68 46 91 73 49 97 78 52 103 59 55 109 64 58 77 69 43 83 74 46 89 79 49 95 60 52 101 65 55 107 70 58 75 75 43 81 56 46 87 61 49 93 66 52 99 71 55 105 76 58 111 57 43 79 62 46 85 67 49 91 72 52 97 77 55 103 58 58 109 63 43 77 68 46 83 73 49 89 78 52 95 59 55 101 64 58 107 69 43 75 74 46 81 79 49 87 60 52 93 65 55 99 70 58 105 75 43 111 56 46 79 61 49 85 66 52 91 71 55 97 76 58 103 57 43 109 62 46 77 67 49 83 72 52 89 77 55 95 58 58 101 63 43 107 68 46 75 73 49 81 78 52 87 59 55 93 64 58 99 69 43 105 74 46 111 79 49 79 60 52 85 65 55 91 70 58 97 75 43 103 56 46 109 61 49 77 66 52 83 71 55 89 76 58 95 57 43 101 62 46 107 67 49 75 72 52 81 77 55 87 58 58 93 63 43 99 68 46 105 73 49 111 78 52 79 59 55 85 64 58 91 69 43 97 74 46 103 79 49 109 60 52 77 65 55 83 70 58 89 75 43 95 56 46 101 61 49 107 66 52 75 71 55 81 76 58 87 57 43 93 62 46 99 67 49 105 72 52 111 77 55 79 58 58 85 63 43 91 68 46 97 73 49 103 78 52 109 59 55 77 64 58 83 69 43 89 74 46 95 79 49 101 60 52 107 65 55 75 70 58 81 75 43 87 56 46 93 61 49 99 66 52 105 71 55 111 76 58 79 57 43 85 62 46 91 67 49 97 72 52 103 77 55 109 58 58 77 63 43 83 68 46 89 73 49 95 78 52 101 59 55 107 64 58 75 69 43 81 74 46 87 79 49 93 60 52 99 65 55 105 70 58 111 75 43 79 56 46 85 61 49 91 66 52 97 71 55 103 76 58 109 57 43 77 62 46 83 67 49 89 72 52 95 77 55 101 58 58 107 63 43 75 68 46 81 73 49 87 78 52 93 59 55 99 64 58 105 69 43 111 74 46 79 79 49 85 60 52 91 65 55
82 56 42 88 61 45 94 66 48 100 71 51 106 76 54 74 57 57 80 62 42 86 67 45 92 72 48 98 77 51 104 58 54 110 63 57 78 68 42 84 73 45 90 78 48 96 59 51 102 64 54 108 69 57 76 74 42 82 79 45 88 60 48 94 65 51 100 70 54 106 75 57 74 56 42 80 61 45 86 66 48 92 71 51 98 76 54 104 57 57 110 62 42 78 67 45 84 72 48 90 77 51 96 58 54 102 63 57 108 68 42 76 73 45 82 78 48 88 59 51 94 64 54 100 69 57 106 74 42 74 79 45 80 60 48 86 65 51 92 70 54 98 75 57 104 56 42 110 61 45 78 66 48 84 71 51 90 76 54 96 57 57 102 62 42 108 67 45 76 72 48 82 77 51 88 58 54 94 63 57 100 68 42 106 73 45 74 78 48 80 59 51 86 64 54 92 69 57 98 74 42 104 79 45 110 60 48 78 65 51 84 70 54 90 75 57 96 56 42 102 61 45 108 66 48 76 71 51 82 76 54 88 57 57 94 62 42 100 67 45 106 72 48 74 77 51 80 58 54 86 63 57 92 68 42 98 73 45 104 78 48 110 59 51 78 64 54 84 69 57 90 74 42 96 79 45 102 60 48 108 65 51 76 70 54 82 75 57 88 56 42 94 61 45 100 66 48 106 71 51 74 76 54 80 57 57 86 62 42 92 67 45 98 72 48 104 77 51 110 58 54 78 63 57 84 68 42 90 73 45 96 78 48 102 59 51 108 64 54 76 69 57 82 74 42 88 79 45 94 60 48 100 65 51 106 70 54 74 75 57 80 56 42 86 61 45 92 66 48 98 71 51 104 76 54 110 57 57 78 62 42 84 67 45 90 72 48 96 77 51 102 58 54 108 63 57 76 68 42 82 73 45 88 78 48 94 59 51 100 64 54 106 69 57 74 74 42 80 79 45 86 60 48 92 65 51 98 70 54 104 75 57 110 56 42 78 61 45 84 66 48 90 71 51 96 76 54 102 57 57 108 62 42 76 67 45 82 72 48 88 77 51 94 58 54 100 63 57 106 68 42 74 73 45 80 78 48 86 59 51 92 64 54 98 69 57 104 74 42 110 79 45 78 60 48 84 65 51 90 70 54 96 75 57 102 56 42 108 61 45 76 66 48 82 71 51 88 76 54 94 57 57 100 62 42 106 67 45 74 72 48 80 77 51 86 58 54 92 63 57 98 68 42 104 73 45 110 78 48 78 59 51 84 64 54 90 69 57 96 74 42 102 79 45 108 60 48 76 65 51 82 70 54 88 75 57 94 56 42 100 61 45 106 66 48 74 71 51 80 76 54 86 57 57 92 62 42 98 67 45 104 72 48 110 77 51 78 58 54 84 63 57 90 68 42 96 73 45 102 78 48 108 59 51 76 64 54 82 69 57 88 74 42 94 79 45 100 60 48 106 65 51 74 70 54 80 75 57 86 56 42 92 61 45 98 66 48 104 71 51 110 76 54 78 57 57 84 62 42 90 67 45 96 72 48 102 77 51 108 58 54 76 63 57 82 68 42 88 73 45 94 78 48 100 59 51 106 64 54 74 69 57 80 74 42 86 79 45 92 60 48 98 65 51 104 70 54 110 75 57 78 56 42 84 61 45 90 66 48 96 71 51 102 76 54 108 57 57 76 62 42 82 67 45 88 72 48 94 77 51 100 58 54 106 63 57 74 68 42 80 73 45 86 78 48 92 59 51 98 64 54 104 69 57 110 74 42 78 79 45 84 60 48 90 65 51 96 70 54 102 75 57 108 56 42 76 61 45 82 66 48 88 71 51 94 76 54 100 57 57 106 62 42 74 67 45 80 72 48 86 77 51 92 58 54 98 63 57 104 68 42 110 73 45 78 78 48 84 59 51 90 64 54 96 69 57 102 74 42 108 79 45 76 60 48 82 65 51 88 70 54 94 75 57 100 56 42 106 61 45 74 66 48 80 71 51 86 76 54 92 57 57 98 62 42 104 67 45 110 72 48 78 77 51 84 58 54 90 63 57 96 68 42 102 73 45 108 78 48 76 59 51 82 64 54 88 69 57 94 74 42 100 79 45 106 60 48 74 65 51 80 70 54 86 75 57 92 56 42 98 61 45 104 66 48 110 71 51 78 76 54 84 57 57 90 62 42 96 67 45
87 58 50 93 63 53 99 68 56 105 73 59 111 78 44 79 59 47 85 64 50 91 69 53 97 74 56 103 79 59 109 60 44 77 65 47 83 70 50 89 75 53 95 56 56 101 61 59 107 66 44 75 71 47 81 76 50 87 57 53 93 62 56 99 67 59 105 72 44 111 77 47 79 58 50 85 63 53 91 68 56 97 73 59 103 78 44 109 59 47 77 64 50 83 69 53 89 74 56 95 79 59 101 60 44 107 65 47 75 70 50 81 75 53 87 56 56 93 61 59 99 66 44 105 71 47 111 76 50 79 57 53 85 62 56 91 67 59 97 72 44 103 77 47 109 58 50 77 63 53 83 68 56 89 73 59 95 78 44 101 59 47 107 64 50 75 69 53 81 74 56 87 79 59 93 60 44 99 65 47 105 70 50 111 75 53 79 56 56 85 61 59 91 66 44 97 71 47 103 76 50 109 57 53 77 62 56 83 67 59 89 72 44 95 77 47 101 58 50 107 63 53 75 68 56 81 73 59 87 78 44 93 59 47 99 64 50 105 69 53 111 74 56 79 79 59 85 60 44 91 65 47 97 70 50 103 75 53 109 56 56 77 61 59 83 66 44 89 71 47 95 76 50 101 57 53 107 62 56 75 67 59 81 72 44 87 77 47 93 58 50 99 63 53 105 68 56 111 73 59 79 78 44 85 59 47 91 64 50 97 69 53 103 74 56 109 79 59 77 60 44 83 65 47 89 70 50 95 75 53 101 56 56 107 61 59 75 66 44 81 71 47 87 76 50 93 57 53 99 62 56 105 67 59 111 72 44 79 77 47 85 58 50 91 63 53 97 68 56 103 73 59 109 78 44 77 59 47 83 64 50 89 69 53 95 74 56 101 79 59 107 60 44 75 65 47 81 70 50 87 75 53 93 56 56 99 61 59 105 66 44 111 71 47 79 76 50 85 57 53 91 62 56 97 67 59 103 72 44 109 77 47 77 58 50 83 63 53 89 68 56 95 73 59 101 78 44 107 59 47 75 64 50 81 69 53 87 74 56 93 79 59 99 60 44 105 65 47 111 70 50 79 75 53 85 56 56 91 61 59 97 66 44 103 71 47 109 76 50 77 57 53 83 62 56 89 67 59 95 72 44 101 77 47 107 58 50 75 63 53 81 68 56 87 73 59 93 78 44 99 59 47 105 64 50 111 69 53 79 74 56 85 79 59 91 60 44 97 65 47 103 70 50 109 75 53 77 56 56 83 61 59 89 66 44 95 71 47 101 76 50 107 57 53 75 62 56 81 67 59 87 72 44 93 77 47 99 58 50 105 63 53 111 68 56 79 73 59 85 78 44 91 59 47 97 64 50 103 69 53 109 74 56 77 79 59 83 60 44 89 65 47 95 70 50 101 75 53 107 56 56 75 61 59 81 66 44 87 71 47 93 76 50 99 57 53 105 62 56 111 67 59 79 72 44 85 77 47 91 58 50 97 63 53 103 68 56 109 73 59 77 78 44 83 59 47 89 64 50 95 69 53 101 74 56 107 79 59 75 60 44 81 65 47 87 70 50 93 75 53 99 56 56 105 61 59 111 66 44 79 71 47 85 76 50 91 57 53 97 62 56 103 67 59 109 72 44 77 77 47 83 58 50 89 63 53 95 68 56 101 73 59 107 78 44 75 59 47 81 64 50 87 69 53 93 74 56 99 79 59 105 60 44 111 65 47 79 70 50 85 75 53 91 56 56 97 61 59 103 66 44 109 71 47 77 76 50 83 57 53 89 62 56 95 67 59 101 72 44 107 77 47 75 58 50 81 63 53 87 68 56 93 73 59 99 78 44 105 59 47 111 64 50 79 69 53 85 74 56 91 79 59 97 60 44 103 65 47 109 70 50 77 75 53 83 56 56 89 61 59 95 66 44 101 71 47 107 76 50 75 57 53 81 62 56 87 67 59 93 72 44 99 77 47 105 58 50 111 63 53 79 68 56 85 73 59 91 78 44 97 59 47 103 64 50 109 69 53 77 74 56 83 79 59 89 60 44 95 65 47 101 70 50 107 75 53 75 56 56 81 61 59 87 66 44 93 71 47 99 76 50 105 57 53 111 62 56 79 67 59 85 72 44 91 77 47 97 58 50 103 63 53 109 68 56 77 73 59 83 78 44 89 59 47 95 64 50 101 69 53
92 60 58 98 65 43 104 70 46 110 75 49 78 56 52 84 61 55 90 66 58 96 71 43 102 76 46 108 57 49 76 62 52 82 67 55 88 72 58 94 77 43 100 58 46 106 63 49 74 68 52 80 73 55 86 78 58 92 59 43 98 64 46 104 69 49 110 74 52 78 79 55 84 60 58 90 65 43 96 70 46 102 75 49 108 56 52 76 61 55 82 66 58 88 71 43 94 76 46 100 57 49 106 62 52 74 67 55 80 72 58 86 77 43 92 58 46 98 63 49 104 68 52 110 73 55 78 78 58 84 59 43 90 64 46 96 69 49 102 74 52 108 79 55 76 60 58 82 65 43 88 70 46 94 75 49 100 56 52 106 61 55 74 66 58 80 71 43 86 76 46 92 57 49 98 62 52 104 67 55 110 72 58 78 77 43 84 58 46 90 63 49 96 68 52 102 73 55 108 78 58 76 59 43 82 64 46 88 69 49 94 74 52 100 79 55 106 60 58 74 65 43 80 70 46 86 75 49 92 56 52 98 61 55 104 66 58 110 71 43 78 76 46 84 57 49 90 62 52 96 67 55 102 72 58 108 77 43 76 58 46 82 63 49 88 68 52 94 73 55 100 78 58 106 59 43 74 64 46 80 69 49 86 74 52 92 79 55 98 60 58 104 65 43 110 70 46 78 75 49 84 56 52 90 61 55 96 66 58 102 71 43 108 76 46 76 57 49 82 62 52 88 67 55 94 72 58 100 77 43 106 58 46 74 63 49 80 68 52 86 73 55 92 78 58 98 59 43 104 64 46 110 69 49 78 74 52 84 79 55 90 60 58 96 65 43 102 70 46 108 75 49 76 56 52 82 61 55 88 66 58 94 71 43 100 76 46 106 57 49 74 62 52 80 67 55 86 72 58 92 77 43 98 58 46 104 63 49 110 68 52 78 73 55 84 78 58 90 59 43 96 64 46 102 69 49 108 74 52 76 79 55 82 60 58 88 65 43 94 70 46 100 75 49 106 56 52 74 61 55 80 66 58 86 71 43 92 76 46 98 57 49 104 62 52 110 67 55 78 72 58 84 77 43 90 58 46 96 63 49 102 68 52 108 73 55 76 78 58 82 59 43 88 64 46 94 69 49 100 74 52 106 79 55 74 60 58 80 65 43 86 70 46 92 75 49 98 56 52 104 61 55 110 66 58 78 71 43 84 76 46 90 57 49 96 62 52 102 67 55 108 72 58 76 77 43 82 58 46 88 63 49 94 68 52 100 73 55 106 78 58 74 59 43 80 64 46 86 69 49 92 74 52 98 79 55 104 60 58 110 65 43 78 70 46 84 75 49 90 56 52 96 61 55 102 66 58 108 71 43 76 76 46 82 57 49 88 62 52 94 67 55 100 72 58 106 77 43 74 58 46 80 63 49 86 68 52 92 73 55 98 78 58 104 59 43 110 64 46 78 69 49 84 74 52 90 79 55 96 60 58 102 65 43 108 70 46 76 75 49 82 56 52 88 61 55 94 66 58 100 71 43 106 76 46 74 57 49 80 62 52 86 67 55 92 72 58 98 77 43 104 58 46 110 63 49 78 68 52 84 73 55 90 78 58 96 59 43 102 64 46 108 69 49 76 74 52 82 79 55 88 60 58 94 65 43 100 70 46 106 75 49 74 56 52 80 61 55 86 66 58 92 71 43 98 76 46 104 57 49 110 62 52 78 67 55 84 72 58 90 77 43 96 58 46 102 63 49 108 68 52 76 73 55 82 78 58 88 59 43 94 64 46 100 69 49 106 74 52 74 79 55 80 60 58 86 65 43 92 70 46 98 75 49 104 56 52 110 61 55 78 66 58 84 71 43 90 76 46 96 57 49 102 62 52 108 67 55 76 72 58 82 77 43 88 58 46 94 63 49 100 68 52 106 73 55 74 78 58 80 59 43 86 64 46 92 69 49 98 74 52 104 79 55 110 60 58 78 65 43 84 70 46 90 75 49 96 56 52 102 61 55 108 66 58 76 71 43 82 76 46 88 57 49 94 62 52 100 67 55 106 72 58 74 77 43 80 58 46 86 63 49 92 68 52 98 73 55 104 78 58 110 59 43 78 64 46 84 69 49 90 74 52 96 79 55 102 60 58 108 65 43 76 70 46 82 75 49 88 56 52 94 61 55 100 66 58 106 71 43
97 62 48 103 67 51 109 72 54 77 77 57 83 58 42 89 63 45 95 68 48 101 73 51 107 78 54 75 59 57 81 64 42 87 69 45 93 74 48 99 79 51 105 60 54 111 65 57 79 70 42 85 75 45 91 56 48 97 61 51 103 66 54 109 71 57 77 76 42 83 57 45 89 62 48 95 67 51 101 72 54 107 77 57 75 58 42 81 63 45 87 68 48 93 73 51 99 78 54 105 59 57 111 64 42 79 69 45 85 74 48 91 79 51 97 60 54 103 65 57 109 70 42 77 75 45 83 56 48 89 61 51 95 66 54 101 71 57 107 76 42 75 57 45 81 62 48 87 67 51 93 72 54 99 77 57 105 58 42 111 63 45 79 68 48 85 73 51 91 78 54 97 59 57 103 64 42 109 69 45 77 74 48 83 79 51 89 60 54 95 65 57 101 70 42 107 75 45 75 56 48 81 61 51 87 66 54 93 71 57 99 76 42 105 57 45 111 62 48 79 67 51 85 72 54 91 77 57 97 58 42 103 63 45 109 68 48 77 73 51 83 78 54 89 59 57 95 64 42 101 69 45 107 74 48 75 79 51 81 60 54 87 65 57 93 70 42 99 75 45 105 56 48 111 61 51 79 66 54 85 71 57 91 76 42 97 57 45 103 62 48 109 67 51 77 72 54 83 77 57 89 58 42 95 63 45 101 68 48 107 73 51 75 78 54 81 59 57 87 64 42 93 69 45 99 74 48 105 79 51 111 60 54 79 65 57 85 70 42 91 75 45 97 56 48 103 61 51 109 66 54 77 71 57 83 76 42 89 57 45 95 62 48 101 67 51 107 72 54 75 77 57 81 58 42 87 63 45 93 68 48 99 73 51 105 78 54 111 59 57 79 64 42 85 69 45 91 74 48 97 79 51 103 60 54 109 65 57 77 70 42 83 75 45 89 56 48 95 61 51 101 66 54 107 71 57 75 76 42 81 57 45 87 62 48 93 67 51 99 72 54 105 77 57 111 58 42 79 63 45 85 68 48 91 73 51 97 78 54 103 59 57 109 64 42 77 69 45 83 74 48 89 79 51 95 60 54 101 65 57 107 70 42 75 75 45 81 56 48 87 61 51 93 66 54 99 71 57 105 76 42 111 57 45 79 62 48 85 67 51 91 72 54 97 77 57 103 58 42 109 63 45 77 68 48 83 73 51 89 78 54 95 59 57 101 64 42 107 69 45 75 74 48 81 79 51 87 60 54 93 65 57 99 70 42 105 75 45 111 56 48 79 61 51 85 66 54 91 71 57 97 76 42 103 57 45 109 62 48 77 67 51 83 72 54 89 77 57 95 58 42 101 63 45 107 68 48 75 73 51 81 78 54 87 59 57 93 64 42 99 69 45 105 74 48 111 79 51 79 60 54 85 65 57 91 70 42 97 75 45 103 56 48 109 61 51 77 66 54 83 71 57 89 76 42 95 57 45 101 62 48 107 67 51 75 72 54 81 77 57 87 58 42 93 63 45 99 68 48 105 73 51 111 78 54 79 59 57 85 64 42 91 69 45 97 74 48 103 79 51 109 60 54 77 65 57 83 70 42 89 75 45 95 56 48 101 61 51 107 66 54 75 71 57 81 76 42 87 57 45 93 62 48 99 67 51 105 72 54 111 77 57 79 58 42 85 63 45 91 68 48 97 73 51 103 78 54 109 59 57 77 64 42 83 69 45 89 74 48 95 79 51 101 60 54 107 65 57 75 70 42 81 75 45 87 56 48 93 61 51 99 66 54 105 71 57 111 76 42 79 57 45 85 62 48 91 67 51 97 72 54 103 77 57 109 58 42 77 63 45 83 68 48 89 73 51 95 78 54 101 59 57 107 64 42 75 69 45 81 74 48 87 79 51 93 60 54 99 65 57 105 70 42 111 75 45 79 56 48 85 61 51 91 66 54 97 71 57 103 76 42 109 57 45 77 62 48 83 67 51 89 72 54 95 77 57 101 58 42 107 63 45 75 68 48 81 73 51 87 78 54 93 59 57 99 64 42 105 69 45 111 74 48 79 79 51 85 60 54 91 65 57 97 70 42 103 75 45 109 56 48 77 61 51 83 66 54 89 71 57 95 76 42 101 57 45 107 62 48 75 67 51 81 72 54 87 77 57 93 58 42 99 63 45 105 68 48 111 73 51
102 64 56 108 69 59 76 74 44 82 79 47 88 60 50 94 65 53 100 70 56 106 75 59 74 56 44 80 61 47 86 66 50 92 71 53 98 76 56 104 57 59 110 62 44 78 67 47 84 72 50 90 77 53 96 58 56 102 63 59 108 68 44 76 73 47 82 78 50 88 59 53 94 64 56 100 69 59 106 74 44 74 79 47 80 60 50 86 65 53 92 70 56 98 75 59 104 56 44 110 61 47 78 66 50 84 71 53 90 76 56 96 57 59 102 62 44 108 67 47 76 72 50 82 77 53 88 58 56 94 63 59 100 68 44 106 73 47 74 78 50 80 59 53 86 64 56 92 69 59 98 74 44 104 79 47 110 60 50 78 65 53 84 70 56 90 75 59 96 56 44 102 61 47 108 66 50 76 71 53 82 76 56 88 57 59 94 62 44 100 67 47 106 72 50 74 77 53 80 58 56 86 63 59 92 68 44 98 73 47 104 78 50 110 59 53 78 64 56 84 69 59 90 74 44 96 79 47 102 60 50 108 65 53 76 70 56 82 75 59 88 56 44 94 61 47 100 66 50 106 71 53 74 76 56 80 57 59 86 62 44 92 67 47 98 72 50 104 77 53 110 58 56 78 63 59 84 68 44 90 73 47 96 78 50 102 59 53 108 64 56 76 69 59 82 74 44 88 79 47 94 60 50 100 65 53 106 70 56 74 75 59 80 56 44 86 61 47 92 66 50 98 71 53 104 76 56 110 57 59 78 62 44 84 67 47 90 72 50 96 77 53 102 58 56 108 63 59 76 68 44 82 73 47 88 78 50 94 59 53 100 64 56 106 69 59 74 74 44 80 79 47 86 60 50 92 65 53 98 70 56 104 75 59 110 56 44 78 61 47 84 66 50 90 71 53 96 76 56 102 57 59 108 62 44 76 67 47 82 72 50 88 77 53 94 58 56 100 63 59 106 68 44 74 73 47 80 78 50 86 59 53 92 64 56 98 69 59 104 74 44 110 79 47 78 60 50 84 65 53 90 70 56 96 75 59 102 56 44 108 61 47 76 66 50 82 71 53 88 76 56 94 57 59 100 62 44 106 67 47 74 72 50 80 77 53 86 58 56 92 63 59 98 68 44 104 73 47 110 78 50 78 59 53 84 64 56 90 69 59 96 74 44 102 79 47 108 60 50 76 65 53 82 70 56 88 75 59 94 56 44 100 61 47 106 66 50 74 71 53 80 76 56 86 57 59 92 62 44 98 67 47 104 72 50 110 77 53 78 58 56 84 63 59 90 68 44 96 73 47 102 78 50 108 59 53 76 64 56 82 69 59 88 74 44 94 79 47 100 60 50 106 65 53 74 70 56 80 75 59 86 56 44 92 61 47 98 66 50 104 71 53 110 76 56 78 57 59 84 62 44 90 67 47 96 72 50 102 77 53 108 58 56 76 63 59 82 68 44 88 73 47 94 78 50 100 59 53 106 64 56 74 69 59 80 74 44 86 79 47 92 60 50 98 65 53 104 70 56 110 75 59 78 56 44 84 61 47 90 66 50 96 71 53 102 76 56 108 57 59 76 62 44 82 67 47 88 72 50 94 77 53 100 58 56 106 63 59 74 68 44 80 73 47 86 78 50 92 59 53 98 64 56 104 69 59 110 74 44 78 79 47 84 60 50 90 65 53 96 70 56 102 75 59 108 56 44 76 61 47 82 66 50 88 71 53 94 76 56 100 57 59 106 62 44 74 67 47 80 72 50 86 77 53 92 58 56 98 63 59 104 68 44 110 73 47 78 78 50 84 59 53 90 64 56 96 69 59 102 74 44 108 79 47 76 60 50 82 65 53 88 70 56 94 75 59 100 56 44 106 61 47 74 66 50 80 71 53 86 76 56 92 57 59 98 62 44 104 67 47 110 72 50 78 77 53 84 58 56 90 63 59 96 68 44 102 73 47 108 78 50 76 59 53 82 64 56 88 69 59 94 74 44 100 79 47 106 60 50 74 65 53 80 70 56 86 75 59 92 56 44 98 61 47 104 66 50 110 71 53 78 76 56 84 57 59 90 62 44 96 67 47 102 72 50 108 77 53 76 58 56 82 63 59 88 68 44 94 73 47 100 78 50 106 59 53 74 64 56 80 69 59 86 74 44 92 79 47 98 60 50 104 65 53 110 70 56 78 75 59
107 66 46 75 71 49 81 76 52 87 57 55 93 62 58 99 67 43 105 72 46 111 77 49 79 58 52 85 63 55 91 68 58 97 73 43 103 78 46 109 59 49 77 64 52 83 69 55 89 74 58 95 79 43 101 60 46 107 65 49 75 70 52 81 75 55 87 56 58 93 61 43 99 66 46 105 71 49 111 76 52 79 57 55 85 62 58 91 67 43 97 72 46 103 77 49 109 58 52 77 63 55 83 68 58 89 73 43 95 78 46 101 59 49 107 64 52 75 69 55 81 74 58 87 79 43 93 60 46 99 65 49 105 70 52 111 75 55 79 56 58 85 61 43 91 66 46 97 71 49 103 76 52 109 57 55 77 62 58 83 67 43 89 72 46 95 77 49 101 58 52 107 63 55 75 68 58 81 73 43 87 78 46 93 59 49 99 64 52 105 69 55 111 74 58 79 79 43 85 60 46 91 65 49 97 70 52 103 75 55 109 56 58 77 61 43 83 66 46 89 71 49 95 76 52 101 57 55 107 62 58 75 67 43 81 72 46 87 77 49 93 58 52 99 63 55 105 68 58 111 73 43 79 78 46 85 59 49 91 64 52 97 69 55 103 74 58 109 79 43 77 60 46 83 65 49 89 70 52 95 75 55 101 56 58 107 61 43 75 66 46 81 71 49 87 76 52 93 57 55 99 62 58 105 67 43 111 72 46 79 77 49 85 58 52 91 63 55 97 68 58 103 73 43 109 78 46 77 59 49 83 64 52 89 69 55 95 74 58 101 79 43 107 60 46 75 65 49 81 70 52 87 75 55 93 56 58 99 61 43 105 66 46 111 71 49 79 76 52 85 57 55 91 62 58 97 67 43 103 72 46 109 77 49 77 58 52 83 63 55 89 68 58 95 73 43 101 78 46 107 59 49 75 64 52 81 69 55 87 74 58 93 79 43 99 60 46 105 65 49 111 70 52 79 75 55 85 56 58 91 61 43 97 66 46 103 71 49 109 76 52 77 57 55 83 62 58 89 67 43 95 72 46 101 77 49 107 58 52 75 63 55 81 68 58 87 73 43 93 78 46 99 59 49 105 64 52 111 69 55 79 74 58 85 79 43 91 60 46 97 65 49 103 70 52 109 75 55 77 56 58 83 61 43 89 66 46 95 71 49 101 76 52 107 57 55 75 62 58 81 67 43 87 72 46 93 77 49 99 58 52 105 63 55 111 68 58 79 73 43 85 78 46 91 59 49 97 64 52 103 69 55 109 74 58 77 79 43 83 60 46 89 65 49 95 70 52 101 75 55 107 56 58 75 61 43 81 66 46 87 71 49 93 76 52 99 57 55 105 62 58 111 67 43 79 72 46 85 77 49 91 58 52 97 63 55 103 68 58 109 73 43 77 78 46 83 59 49 89 64 52 95 69 55 101 74 58 107 79 43 75 60 46 81 65 49 87 70 52 93 75 55 99 56 58 105 61 43 111 66 46 79 71 49 85 76 52 91 57 55 97 62 58 103 67 43 109 72 46 77 77 49 83 58 52 89 63 55 95 68 58 101 73 43 107 78 46 75 59 49 81 64 52 87 69 55 93 74 58 99 79 43 105 60 46 111 65 49 79 70 52 85 75 55 91 56 58 97 61 43 103 66 46 109 71 49 77 76 52 83 57 55 89 62 58 95 67 43 101 72 46 107 77 49 75 58 52 81 63 55 87 68 58 93 73 43 99 78 46 105 59 49 111 64 52 79 69 55 85 74 58 91 79 43 97 60 46 103 65 49 109 70 52 77 75 55 83 56 58 89 61 43 95 66 46 101 71 49 107 76 52 75 57 55 81 62 58 87 67 43 93 72 46 99 77 49 105 58 52 111 63 55 79 68 58 85 73 43 91 78 46 97 59 49 103 64 52 109 69 55 77 74 58 83 79 43 89 60 46 95 65 49 101 70 52 107 75 55 75 56 58 81 61 43 87 66 46 93 71 49 99 76 52 105 57 55 111 62 58 79 67 43 85 72 46 91 77 49 97 58 52 103 63 55 109 68 58 77 73 43 83 78 46 89 59 49 95 64 52 101 69 55 107 74 58 75 79 43 81 60 46 87 65 49 93 70 52 99 75 55 105 56 58 111 61 43 79 66 46 85 71 49 91 76 52 97 57 55 103 62 58 109 67 43 77 72 46 83 77 49
74 68 54 80 73 57 86 78 42 92 59 45 98 64 48 104 69 51 110 74 54 78 79 57 84 60 42 90 65 45 96 70 48 102 75 51 108 56 54 76 61 57 82 66 42 88 71 45 94 76 48 100 57 51 106 62 54 74 67 57 80 72 42 86 77 45 92 58 48 98 63 51 104 68 54 110 73 57 78 78 42 84 59 45 90 64 48 96 69 51 102 74 54 108 79 57 76 60 42 82 65 45 88 70 48 94 75 51 100 56 54 106 61 57 74 66 42 80 71 45 86 76 48 92 57 51 98 62 54 104 67 57 110 72 42 78 77 45 84 58 48 90 63 51 96 68 54 102 73 57 108 78 42 76 59 45 82 64 48 88 69 51 94 74 54 100 79 57 106 60 42 74 65 45 80 70 48 86 75 51 92 56 54 98 61 57 104 66 42 110 71 45 78 76 48 84 57 51 90 62 54 96 67 57 102 72 42 108 77 45 76 58 48 82 63 51 88 68 54 94 73 57 100 78 42 106 59 45 74 64 48 80 69 51 86 74 54 92 79 57 98 60 42 104 65 45 110 70 48 78 75 51 84 56 54 90 61 57 96 66 42 102 71 45 108 76 48 76 57 51 82 62 54 88 67 57 94 72 42 100 77 45 106 58 48 74 63 51 80 68 54 86 73 57 92 78 42 98 59 45 104 64 48 110 69 51 78 74 54 84 79 57 90 60 42 96 65 45 102 70 48 108 75 51 76 56 54 82 61 57 88 66 42 94 71 45 100 76 48 106 57 51 74 62 54 80 67 57 86 72 42 92 77 45 98 58 48 104 63 51 110 68 54 78 73 57 84 78 42 90 59 45 96 64 48 102 69 51 108 74 54 76 79 57 82 60 42 88 65 45 94 70 48 100 75 51 106 56 54 74 61 57 80 66 42 86 71 45 92 76 48 98 57 51 104 62 54 110 67 57 78 72 42 84 77 45 90 58 48 96 63 51 102 68 54 108 73 57 76 78 42 82 59 45 88 64 48 94 69 51 100 74 54 106 79 57 74 60 42 80 65 45 86 70 48 92 75 51 98 56 54 104 61 57 110 66 42 78 71 45 84 76 48 90 57 51 96 62 54 102 67 57 108 72 42 76 77 45 82 58 48 88 63 51 94 68 54 100 73 57 106 78 42 74 59 45 80 64 48 86 69 51 92 74 54 98 79 57 104 60 42 110 65 45 78 70 48 84 75 51 90 56 54 96 61 57 102 66 42 108 71 45 76 76 48 82 57 51 88 62 54 94 67 57 100 72 42 106 77 45 74 58 48 80 63 51 86 68 54 92 73 57 98 78 42 104 59 45 110 64 48 78 69 51 84 74 54 90 79 57 96 60 42 102 65 45 108 70 48 76 75 51 82 56 54 88 61 57 94 66 42 100 71 45 106 76 48 74 57 51 80 62 54 86 67 57 92 72 42 98 77 45 104 58 48 110 63 51 78 68 54 84 73 57 90 78 42 96 59 45 102 64 48 108 69 51 76 74 54 82 79 57 88 60 42 94 65 45 100 70 48 106 75 51 74 56 54 80 61 57 86 66 42 92 71 45 98 76 48 104 57 51 110 62 54 78 67 57 84 72 42 90 77 45 96 58 48 102 63 51 108 68 54 76 73 57 82 78 42 88 59 45 94 64 48 100 69 51 106 74 54 74 79 57 80 60 42 86 65 45 92 70 48 98 75 51 104 56 54 110 61 57 78 66 42 84 71 45 90 76 48 96 57 51 102 62 54 108 67 57 76 72 42 82 77 45 88 58 48 94 63 51 100 68 54 106 73 57 74 78 42 80 59 45 86 64 48 92 69 51 98 74 54 104 79 57 110 60 42 78 65 45 84 70 48 90 75 51 96 56 54 102 61 57 108 66 42 76 71 45 82 76 48 88 57 51 94 62 54 100 67 57 106 72 42 74 77 45 80 58 48 86 63 51 92 68 54 98 73 57 104 78 42 110 59 45 78 64 48 84 69 51 90 74 54 96 79 57 102 60 42 108 65 45 76 70 48 82 75 51 88 56 54 94 61 57 100 66 42 106 71 45 74 76 48 80 57 51 86 62 54 92 67 57 98 72 42 104 77 45 110 58 48 78 63 51 84 68 54 90 73 57 96 78 42 102 59 45 108 64 48 76 69 51 82 74 54 88 79 57
79 70 44 85 75 47 91 56 50 97 61 53 103 66 56 109 71 59 77 76 44 83 57 47 89 62 50 95 67 53 101 72 56 107 77 59 75 58 44 81 63 47 87 68 50 93 73 53 99 78 56 105 59 59 111 64 44 79 69 47 85 74 50 91 79 53 97 60 56 103 65 59 109 70 44 77 75 47 83 56 50 89 61 53 95 66 56 101 71 59 107 76 44 75 57 47 81 62 50 87 67 53 93 72 56 99 77 59 105 58 44 111 63 47 79 68 50 85 73 53 91 78 56 97 59 59 103 64 44 109 69 47 77 74 50 83 79 53 89 60 56 95 65 59 101 70 44 107 75 47 75 56 50 81 61 53 87 66 56 93 71 59 99 76 44 105 57 47 111 62 50 79 67 53 85 72 56 91 77 59 97 58 44 103 63 47 109 68 50 77 73 53 83 78 56 89 59 59 95 64 44 101 69 47 107 74 50 75 79 53 81 60 56 87 65 59 93 70 44 99 75 47 105 56 50 111 61 53 79 66 56 85 71 59 91 76 44 97 57 47 103 62 50 109 67 53 77 72 56 83 77 59 89 58 44 95 63 47 101 68 50 107 73 53 75 78 56 81 59 59 87 64 44 93 69 47 99 74 50 105 79 53 111 60 56 79 65 59 85 70 44 91 75 47 97 56 50 103 61 53 109 66 56 77 71 59 83 76 44 89 57 47 95 62 50 101 67 53 107 72 56 75 77 59 81 58 44 87 63 47 93 68 50 99 73 53 105 78 56 111 59 59 79 64 44 85 69 47 91 74 50 97 79 53 103 60 56 109 65 59 77 70 44 83 75 47 89 56 50 95 61 53 101 66 56 107 71 59 75 76 44 81 57 47 87 62 50 93 67 53 99 72 56 105 77 59 111 58 44 79 63 47 85 68 50 91 73 53 97 78 56 103 59 59 109 64 44 77 69 47 83 74 50 89 79 53 95 60 56 101 65 59 107 70 44 75 75 47 81 56 50 87 61 53 93 66 56 99 71 59 105 76 44 111 57 47 79 62 50 85 67 53 91 72 56 97 77 59 103 58 44 109 63 47 77 68 50 83 73 53 89 78 56 95 59 59 101 64 44 107 69 47 75 74 50 81 79 53 87 60 56 93 65 59 99 70 44 105 75 47 111 56 50 79 61 53 85 66 56 91 71 59 97 76 44 103 57 47 109 62 50 77 67 53 83 72 56 89 77 59 95 58 44 101 63 47 107 68 50 75 73 53 81 78 56 87 59 59 93 64 44 99 69 47 105 74 50 111 79 53 79 60 56 85 65 59 91 70 44 97 75 47 103 56 50 109 61 53 77 66 56 83 71 59 89 76 44 95 57 47 101 62 50 107 67 53 75 72 56 81 77 59 87 58 44 93 63 47 99 68 50 105 73 53 111 78 56 79 59 59 85 64 44 91 69 47 97 74 50 103 79 53 109 60 56 77 65 59 83 70 44 89 75 47 95 56 50 101 61 53 107 66 56 75 71 59 81 76 44 87 57 47 93 62 50 99 67 53 105 72 56 111 77 59 79 58 44 85 63 47 91 68 50 97 73 53 103 78 56 109 59 59 77 64 44 83 69 47 89 74 50 95 79 53 101 60 56 107 65 59 75 70 44 81 75 47 87 56 50 93 61 53 99 66 56 105 71 59 111 76 44 79 57 47 85 62 50 91 67 53 97 72 56 103 77 59 109 58 44 77 63 47 83 68 50 89 73 53 95 78 56 101 59 59 107 64 44 75 69 47 81 74 50 87 79 53 93 60 56 99 65 59 105 70 44 111 75 47 79 56 50 85 61 53 91 66 56 97 71 59 103 76 44 109 57 47 77 62 50 83 67 53 89 72 56 95 77 59 101 58 44 107 63 47 75 68 50 81 73 53 87 78 56 93 59 59 99 64 44 105 69 47 111 74 50 79 79 53 85 60 56 91 65 59 97 70 44 103 75 47 109 56 50 77 61 53 83 66 56 89 71 59 95 76 44 101 57 47 107 62 50 75 67 53 81 72 56 87 77 59 93 58 44 99 63 47 105 68 50 111 73 53 79 78 56 85 59 59 91 64 44 97 69 47 103 74 50 109 79 53 77 60 56 83 65 59 89 70 44 95 75 47 101 56 50 107 61 53 75 66 56 81 71 59 87 76 44 93 57 47
84 72 52 90 77 55 96 58 58 102 63 43 108 68 46 76 73 49 82 78 52 88 59 55 94 64 58 100 69 43 106 74 46 74 79 49 80 60 52 86 65 55 92 70 58 98 75 43 104 56 46 110 61 49 78 66 52 84 71 55 90 76 58 96 57 43 102 62 46 108 67 49 76 72 52 82 77 55 88 58 58 94 63 43 100 68 46 106 73 49 74 78 52 80 59 55 86 64 58 92 69 43 98 74 46 104 79 49 110 60 52 78 65 55 84 70 58 90 75 43 96 56 46 102 61 49 108 66 52 76 71 55 82 76 58 88 57 43 94 62 46 100 67 49 106 72 52 74 77 55 80 58 58 86 63 43 92 68 46 98 73 49 104 78 52 110 59 55 78 64 58 84 69 43 90 74 46 96 79 49 102 60 52 108 65 55 76 70 58 82 75 43 88 56 46 94 61 49 100 66 52 106 71 55 74 76 58 80 57 43 86 62 46 92 67 49 98 72 52 104 77 55 110 58 58 78 63 43 84 68 46 90 73 49 96 78 52 102 59 55 108 64 58 76 69 43 82 74 46 88 79 49 94 60 52 100 65 55 106 70 58 74 75 43 80 56 46 86 61 49 92 66 52 98 71 55 104 76 58 110 57 43 78 62 46 84 67 49 90 72 52 96 77 55 102 58 58 108 63 43 76 68 46 82 73 49 88 78 52 94 59 55 100 64 58 106 69 43 74 74 46 80 79 49 86 60 52 92 65 55 98 70 58 104 75 43 110 56 46 78 61 49 84 66 52 90 71 55 96 76 58 102 57 43 108 62 46 76 67 49 82 72 52 88 77 55 94 58 58 100 63 43 106 68 46 74 73 49 80 78 52 86 59 55 92 64 58 98 69 43 104 74 46 110 79 49 78 60 52 84 65 55 90 70 58 96 75 43 102 56 46 108 61 49 76 66 52 82 71 55 88 76 58 94 57 43 100 62 46 106 67 49 74 72 52 80 77 55 86 58 58 92 63 43 98 68 46 104 73 49 110 78 52 78 59 55 84 64 58 90 69 43 96 74 46 102 79 49 108 60 52 76 65 55 82 70 58 88 75 43 94 56 46 100 61 49 106 66 52 74 71 55 80 76 58 86 57 43 92 62 46 98 67 49 104 72 52 110 77 55 78 58 58 84 63 43 90 68 46 96 73 49 102 78 52 108 59 55 76 64 58 82 69 43 88 74 46 94 79 49 100 60 52 106 65 55 74 70 58 80 75 43 86 56 46 92 61 49 98 66 52 104 71 55 110 76 58 78 57 43 84 62 46 90 67 49 96 72 52 102 77 55 108 58 58 76 63 43 82 68 46 88 73 49 94 78 52 100 59 55 106 64 58 74 69 43 80 74 46 86 79 49 92 60 52 98 65 55 104 70 58 110 75 43 78 56 46 84 61 49 90 66 52 96 71 55 102 76 58 108 57 43 76 62 46 82 67 49 88 72 52 94 77 55 100 58 58 106 63 43 74 68 46 80 73 49 86 78 52 92 59 55 98 64 58 104 69 43 110 74 46 78 79 49 84 60 52 90 65 55 96 70 58 102 75 43 108 56 46 76 61 49 82 66 52 88 71 55 94 76 58 100 57 43 106 62 46 74 67 49 80 72 52 86 77 55 92 58 58 98 63 43 104 68 46 110 73 49 78 78 52 84 59 55 90 64 58 96 69 43 102 74 46 108 79 49 76 60 52 82 65 55 88 70 58 94 75 43 100 56 46 106 61 49 74 66 52 80 71 55 86 76 58 92 57 43 98 62 46 104 67 49 110 72 52 78 77 55 84 58 58 90 63 43 96 68 46 102 73 49 108 78 52 76 59 55 82 64 58 88 69 43 94 74 46 100 79 49 106 60 52 74 65 55 80 70 58 86 75 43 92 56 46 98 61 49 104 66 52 110 71 55 78 76 58 84 57 43 90 62 46 96 67 49 102 72 52 108 77 55 76 58 58 82 63 43 88 68 46 94 73 49 100 78 52 106 59 55 74 64 58 80 69 43 86 74 46 92 79 49 98 60 52 104 65 55 110 70 58 78 75 43 84 56 46 90 61 49 96 66 52 102 71 55 108 76 58 76 57 43 82 62 46 88 67 49 94 72 52 100 77 55 106 58 58 74 63 43 80 68 46 86 73 49 92 78 52 98 59 55
89 74 42 95 79 45 101 60 48 107 65 51 75 70 54 81 75 57 87 56 42 93 61 45 99 66 48 105 71 51 111 76 54 79 57 57 85 62 42 91 67 45 97 72 48 103 77 51 109 58 54 77 63 57 83 68 42 89 73 45 95 78 48 101 59 51 107 64 54 75 69 57 81 74 42 87 79 45 93 60 48 99 65 51 105 70 54 111 75 57 79 56 42 85 61 45 91 66 48 97 71 51 103 76 54 109 57 57 77 62 42 83 67 45 89 72 48 95 77 51 101 58 54 107 63 57 75 68 42 81 73 45 87 78 48 93 59 51 99 64 54 105 69 57 111 74 42 79 79 45 85 60 48 91 65 51 97 70 54 103 75 57 109 56 42 77 61 45 83 66 48 89 71 51 95 76 54 101 57 57 107 62 42 75 67 45 81 72 48 87 77 51 93 58 54 99 63 57 105 68 42 111 73 45 79 78 48 85 59 51 91 64 54 97 69 57 103 74 42 109 79 45 77 60 48 83 65 51 89 70 54 95 75 57 101 56 42 107 61 45 75 66 48 81 71 51 87 76 54 93 57 57 99 62 42 105 67 45 111 72 48 79 77 51 85 58 54 91 63 57 97 68 42 103 73 45 109 78 48 77 59 51 83 64 54 89 69 57 95 74 42 101 79 45 107 60 48 75 65 51 81 70 54 87 75 57 93 56 42 99 61 45 105 66 48 111 71 51 79 76 54 85 57 57 91 62 42 97 67 45 103 72 48 109 77 51 77 58 54 83 63 57 89 68 42 95 73 45 101 78 48 107 59 51 75 64 54 81 69 57 87 74 42 93 79 45 99 60 48 105 65 51 111 70 54 79 75 57 85 56 42 91 61 45 97 66 48 103 71 51 109 76 54 77 57 57 83 62 42 89 67 45 95 72 48 101 77 51 107 58 54 75 63 57 81 68 42 87 73 45 93 78 48 99 59 51 105 64 54 111 69 57 79 74 42 85 79 45 91 60 48 97 65 51 103 70 54 109 75 57 77 56 42 83 61 45 89 66 48 95 71 51 101 76 54 107 57 57 75 62 42 81 67 45 87 72 48 93 77 51 99 58 54 105 63 57 111 68 42 79 73 45 85 78 48 91 59 51 97 64 54 103 69 57 109 74 42 77 79 45 83 60 48 89 65 51 95 70 54 101 75 57 107 56 42 75 61 45 81 66 48 87 71 51 93 76 54 99 57 57 105 62 42 111 67 45 79 72 48 85 77 51 91 58 54 97 63 57 103 68 42 109 73 45 77 78 48 83 59 51 89 64 54 95 69 57 101 74 42 107 79 45 75 60 48 81 65 51 87 70 54 93 75 57 99 56 42 105 61 45 111 66 48 79 71 51 85 76 54 91 57 57 97 62 42 103 67 45 109 72 48 77 77 51 83 58 54 89 63 57 95 68 42 101 73 45 107 78 48 75 59 51 81 64 54 87 69 57 93 74 42 99 79 45 105 60 48 111 65 51 79 70 54 85 75 57 91 56 42 97 61 45 103 66 48 109 71 51 77 76 54 83 57 57 89 62 42 95 67 45 101 72 48 107 77 51 75 58 54 81 63 57 87 68 42 93 73 45 99 78 48 105 59 51 111 64 54 79 69 57 85 74 42 91 79 45 97 60 48 103 65 51 109 70 54 77 75 57 83 56 42 89 61 45 95 66 48 101 71 51 107 76 54 75 57 57 81 62 42 87 67 45 93 72 48 99 77 51 105 58 54 111 63 57 79 68 42 85 73 45 91 78 48 97 59 51 103 64 54 109 69 57 77 74 42 83 79 45 89 60 48 95 65 51 101 70 54 107 75 57 75 56 42 81 61 45 87 66 48 93 71 51 99 76 54 105 57 57 111 62 42 79 67 45 85 72 48 91 77 51 97 58 54 103 63 57 109 68 42 77 73 45 83 78 48 89 59 51 95 64 54 101 69 57 107 74 42 75 79 45 81 60 48 87 65 51 93 70 54 99 75 57 105 56 42 111 61 45 79 66 48 85 71 51 91 76 54 97 57 57 103 62 42 109 67 45 77 72 48 83 77 51 89 58 54 95 63 57 101 68 42 107 73 45 75 78 48 81 59 51 87 64 54 93 69 57 99 74 42 105 79 45 111 60 48 79 65 51 85 70 54 91 75 57 97 56 42 103 61 45
94 76 50 100 57 53 106 62 56 74 67 59 80 72 44 86 77 47 92 58 50 98 63 53 104 68 56 110 73 59 78 78 44 84 59 47 90 64 50 96 69 53 102 74 56 108 79 59 76 60 44 82 65 47 88 70 50 94 75 53 100 56 56 106 61 59 74 66 44 80 71 47 86 76 50 92 57 53 98 62 56 104 67 59 110 72 44 78 77 47 84 58 50 90 63 53 96 68 56 102 73 59 108 78 44 76 59 47 82 64 50 88 69 53 94 74 56 100 79 59 106 60 44 74 65 47 80 70 50 86 75 53 92 56 56 98 61 59 104 66 44 110 71 47 78 76 50 84 57 53 90 62 56 96 67 59 102 72 44 108 77 47 76 58 50 82 63 53 88 68 56 94 73 59 100 78 44 106 59 47 74 64 50 80 69 53 86 74 56 92 79 59 98 60 44 104 65 47 110 70 50 78 75 53 84 56 56 90 61 59 96 66 44 102 71 47 108 76 50 76 57 53 82 62 56 88 67 59 94 72 44 100 77 47 106 58 50 74 63 53 80 68 56 86 73 59 92 78 44 98 59 47 104 64 50 110 69 53 78 74 56 84 79 59 90 60 44 96 65 47 102 70 50 108 75 53 76 56 56 82 61 59 88 66 44 94 71 47 100 76 50 106 57 53 74 62 56 80 67 59 86 72 44 92 77 47 98 58 50 104 63 53 110 68 56 78 73 59 84 78 44 90 59 47 96 64 50 102 69 53 108 74 56 76 79 59 82 60 44 88 65 47 94 70 50 100 75 53 106 56 56 74 61 59 80 66 44 86 71 47 92 76 50 98 57 53 104 62 56 110 67 59 78 72 44 84 77 47 90 58 50 96 63 53 102 68 56 108 73 59 76 78 44 82 59 47 88 64 50 94 69 53 100 74 56 106 79 59 74 60 44 80 65 47 86 70 50 92 75 53 98 56 56 104 61 59 110 66 44 78 71 47 84 76 50 90 57 53 96 62 56 102 67 59 108 72 44 76 77 47 82 58 50 88 63 53 94 68 56 100 73 59 106 78 44 74 59 47 80 64 50 86 69 53 92 74 56 98 79 59 104 60 44 110 65 47 78 70 50 84 75 53 90 56 56 96 61 59 102 66 44 108 71 47 76 76 50 82 57 53 88 62 56 94 67 59 100 72 44 106 77 47 74 58 50 80 63 53 86 68 56 92 73 59 98 78 44 104 59 47 110 64 50 78 69 53 84 74 56 90 79 59 96 60 44 102 65 47 108 70 50 76 75 53 82 56 56 88 61 59 94 66 44 100 71 47 106 76 50 74 57 53 80 62 56 86 67 59 92 72 44 98 77 47 104 58 50 110 63 53 78 68 56 84 73 59 90 78 44 96 59 47 102 64 50 108 69 53 76 74 56 82 79 59 88 60 44 94 65 47 100 70 50 106 75 53 74 56 56 80 61 59 86 66 44 92 71 47 98 76 50 104 57 53 110 62 56 78 67 59 84 72 44 90 77 47 96 58 50 102 63 53 108 68 56 76 73 59 82 78 44 88 59 47 94 64 50 100 69 53 106 74 56 74 79 59 80 60 44 86 65 47 92 70 50 98 75 53 104 56 56 110 61 59 78 66 44 84 71 47 90 76 50 96 57 53 102 62 56 108 67 59 76 72 44 82 77 47 88 58 50 94 63 53 100 68 56 106 73 59 74 78 44 80 59 47 86 64 50 92 69 53 98 74 56 104 79 59 110 60 44 78 65 47 84 70 50 90 75 53 96 56 56 102 61 59 108 66 44 76 71 47 82 76 50 88 57 53 94 62 56 100 67 59 106 72 44 74 77 47 80 58 50 86 63 53 92 68 56 98 73 59 104 78 44 110 59 47 78 64 50 84 69 53 90 74 56 96 79 59 102 60 44 108 65 47 76 70 50 82 75 53 88 56 56 94 61 59 100 66 44 106 71 47 74 76 50 80 57 53 86 62 56 92 67 59 98 72 44 104 77 47 110 58 50 78 63 53 84 68 56 90 73 59 96 78 44 102 59 47 108 64 50 76 69 53 82 74 56 88 79 59 94 60 44 100 65 47 106 70 50 74 75 53 80 56 56 86 61 59 92 66 44 98 71 47 104 76 50 110 57 53 78 62 56 84 67 59 90 72 44 96 77 47 102 58 50 108 63 53
99 78 58 105 59 43 111 64 46 79 69 49 85 74 52 91 79 55 97 60 58 103 65 43 109 70 46 77 75 49 83 56 52 89 61 55 95 66 58 101 71 43 107 76 46 75 57 49 81 62 52 87 67 55 93 72 58 99 77 43 105 58 46 111 63 49 79 68 52 85 73 55 91 78 58 97 59 43 103 64 46 109 69 49 77 74 52 83 79 55 89 60 58 95 65 43 101 70 46 107 75 49 75 56 52 81 61 55 87 66 58 93 71 43 99 76 46 105 57 49 111 62 52 79 67 55 85 72 58 91 77 43 97 58 46 103 63 49 109 68 52 77 73 55 83 78 58 89 59 43 95 64 46 101 69 49 107 74 52 75 79 55 81 60 58 87 65 43 93 70 46 99 75 49 105 56 52 111 61 55 79 66 58 85 71 43 91 76 46 97 57 49 103 62 52 109 67 55 77 72 58 83 77 43 89 58 46 95 63 49 101 68 52 107 73 55 75 78 58 81 59 43 87 64 46 93 69 49 99 74 52 105 79 55 111 60 58 79 65 43 85 70 46 91 75 49 97 56 52 103 61 55 109 66 58 77 71 43 83 76 46 89 57 49 95 62 52 101 67 55 107 72 58 75 77 43 81 58 46 87 63 49 93 68 52 99 73 55 105 78 58 111 59 43 79 64 46 85 69 49 91 74 52 97 79 55 103 60 58 109 65 43 77 70 46 83 75 49 89 56 52 95 61 55 101 66 58 107 71 43 75 76 46 81 57 49 87 62 52 93 67 55 99 72 58 105 77 43 111 58 46 79 63 49 85 68 52 91 73 55 97 78 58 103 59 43 109 64 46 77 69 49 83 74 52 89 79 55 95 60 58 101 65 43 107 70 46 75 75 49 81 56 52 87 61 55 93 66 58 99 71 43 105 76 46 111 57 49 79 62 52 85 67 55 91 72 58 97 77 43 103 58 46 109 63 49 77 68 52 83 73 55 89 78 58 95 59 43 101 64 46 107 69 49 75 74 52 81 79 55 87 60 58 93 65 43 99 70 46 105 75 49 111 56 52 79 61 55 85 66 58 91 71 43 97 76 46 103 57 49 109 62 52 77 67 55 83 72 58 89 77 43 95 58 46 101 63 49 107 68 52 75 73 55 81 78 58 87 59 43 93 64 46 99 69 49 105 74 52 111 79 55 79 60 58 85 65 43 91 70 46 97 75 49 103 56 52 109 61 55 77 66 58 83 71 43 89 76 46 95 57 49 101 62 52 107 67 55 75 72 58 81 77 43 87 58 46 93 63 49 99 68 52 105 73 55 111 78 58 79 59 43 85 64 46 91 69 49 97 74 52 103 79 55 109 60 58 77 65 43 83 70 46 89 75 49 95 56 52 101 61 55 107 66 58 75 71 43 81 76 46 87 57 49 93 62 52 99 67 55 105 72 58 111 77 43 79 58 46 85 63 49 91 68 52 97 73 55 103 78 58 109 59 43 77 64 46 83 69 49 89 74 52 95 79 55 101 60 58 107 65 43 75 70 46 81 75 49 87 56 52 93 61 55 99 66 58 105 71 43 111 76 46 79 57 49 85 62 52 91 67 55 97 72 58 103 77 43 109 58 46 77 63 49 83 68 52 89 73 55 95 78 58 101 59 43 107 64 46 75 69 49 81 74 52 87 79 55 93 60 58 99 65 43 105 70 46 111 75 49 79 56 52 85 61 55 91 66 58 97 71 43 103 76 46 109 57 49 77 62 52 83 67 55 89 72 58 95 77 43 101 58 46 107 63 49 75 68 52 81 73 55 87 78 58 93 59 43 99 64 46 105 69 49 111 74 52 79 79 55 85 60 58 91 65 43 97 70 46 103 75 49 109 56 52 77 61 55 83 66 58 89 71 43 95 76 46 101 57 49 107 62 52 75 67 55 81 72 58 87 77 43 93 58 46 99 63 49 105 68 52 111 73 55 79 78 58 85 59 43 91 64 46 97 69 49 103 74 52 109 79 55 77 60 58 83 65 43 89 70 46 95 75 49 101 56 52 107 61 55 75 66 58 81 71 43 87 76 46 93 57 49 99 62 52 105 67 55 111 72 58 79 77 43 85 58 46 91 63 49 97 68 52 103 73 55 109 78 58 77 59 43 83 64 46 89 69 49 95 74 52 101 79 55 107 60 58 75 65 43
104 56 48 110 61 51 78 66 54 84 71 57 90 76 42 96 57 45 102 62 48 108 67 51 76 72 54 82 77 57 88 58 42 94 63 45 100 68 48 106 73 51 74 78 54 80 59 57 86 64 42 92 69 45 98 74 48 104 79 51 110 60 54 78 65 57 84 70 42 90 75 45 96 56 48 102 61 51 108 66 54 76 71 57 82 76 42 88 57 45 94 62 48 100 67 51 106 72 54 74 77 57 80 58 42 86 63 45 92 68 48 98 73 51 104 78 54 110 59 57 78 64 42 84 69 45 90 74 48 96 79 51 102 60 54 108 65 57 76 70 42 82 75 45 88 56 48 94 61 51 100 66 54 106 71 57 74 76 42 80 57 45 86 62 48 92 67 51 98 72 54 104 77 57 110 58 42 78 63 45 84 68 48 90 73 51 96 78 54 102 59 57 108 64 42 76 69 45 82 74 48 88 79 51 94 60 54 100 65 57 106 70 42 74 75 45 80 56 48 86 61 51 92 66 54 98 71 57 104 76 42 110 57 45 78 62 48 84 67 51 90 72 54 96 77 57 102 58 42 108 63 45 76 68 48 82 73 51 88 78 54 94 59 57 100 64 42 106 69 45 74 74 48 80 79 51 86 60 54 92 65 57 98 70 42 104 75 45 110 56 48 78 61 51 84 66 54 90 71 57 96 76 42 102 57 45 108 62 48 76 67 51 82 72 54 88 77 57 94 58 42 100 63 45 106 68 48 74 73 51 80 78 54 86 59 57 92 64 42 98 69 45 104 74 48 110 79 51 78 60 54 84 65 57 90 70 42 96 75 45 102 56 48 108 61 51 76 66 54 82 71 57 88 76 42 94 57 45 100 62 48 106 67 51 74 72 54 80 77 57 86 58 42 92 63 45 98 68 48 104 73 51 110 78 54 78 59 57 84 64 42 90 69 45 96 74 48 102 79 51 108 60 54 76 65 57 82 70 42 88 75 45 94 56 48 100 61 51 106 66 54 74 71 57 80 76 42 86 57 45 92 62 48 98 67 51 104 72 54 110 77 57 78 58 42 84 63 45 90 68 48 96 73 51 102 78 54 108 59 57 76 64 42 82 69 45 88 74 48 94 79 51 100 60 54 106 65 57 74 70 42 80 75 45 86 56 48 92 61 51 98 66 54 104 71 57 110 76 42 78 57 45 84 62 48 90 67 51 96 72 54 102 77 57 108 58 42 76 63 45 82 68 48 88 73 51 94 78 54 100 59 57 106 64 42 74 69 45 80 74 48 86 79 51 92 60 54 98 65 57 104 70 42 110 75 45 78 56 48 84 61 51 90 66 54 96 71 57 102 76 42 108 57 45 76 62 48 82 67 51 88 72 54 94 77 57 100 58 42 106 63 45 74 68 48 80 73 51 86 78 54 92 59 57 98 64 42 104 69 45 110 74 48 78 79 51 84 60 54 90 65 57 96 70 42 102 75 45 108 56 48 76 61 51 82 66 54 88 71 57 94 76 42 100 57 45 106 62 48 74 67 51 80 72 54 86 77 57 92 58 42 98 63 45 104 68 48 110 73 51 78 78 54 84 59 57 90 64 42 96 69 45 102 74 48 108 79 51 76 60 54 82 65 57 88 70 42 94 75 45 100 56 48 106 61 51 74 66 54 80 71 57 86 76 42 92 57 45 98 62 48 104 67 51 110 72 54 78 77 57 84 58 42 90 63 45 96 68 48 102 73 51 108 78 54 76 59 57 82 64 42 88 69 45 94 74 48 100 79 51 106 60 54 74 65 57 80 70 42 86 75 45 92 56 48 98 61 51 104 66 54 110 71 57 78 76 42 84 57 45 90 62 48 96 67 51 102 72 54 108 77 57 76 58 42 82 63 45 88 68 48 94 73 51 100 78 54 106 59 57 74 64 42 80 69 45 86 74 48 92 79 51 98 60 54 104 65 57 110 70 42 78 75 45 84 56 48 90 61 51 96 66 54 102 71 57 108 76 42 76 57 45 82 62 48 88 67 51 94 72 54 100 77 57 106 58 42 74 63 45 80 68 48 86 73 51 92 78 54 98 59 57 104 64 42 110 69 45 78 74 48 84 79 51 90 60 54 96 65 57 102 70 42 108 75 45 76 56 48 82 61 51 88 66 54 94 71 57 100 76 42 106 57 45 74 62 48 80 67 51
109 58 56 77 63 59 83 68 44 89 73 47 95 78 50 101 59 53 107 64 56 75 69 59 81 74 44 87 79 47 93 60 50 99 65 53 105 70 56 111 75 59 79 56 44 85 61 47 91 66 50 97 71 53 103 76 56 109 57 59 77 62 44 83 67 47 89 72 50 95 77 53 101 58 56 107 63 59 75 68 44 81 73 47 87 78 50 93 59 53 99 64 56 105 69 59 111 74 44 79 79 47 85 60 50 91 65 53 97 70 56 103 75 59 109 56 44 77 61 47 83 66 50 89 71 53 95 76 56 101 57 59 107 62 44 75 67 47 81 72 50 87 77 53 93 58 56 99 63 59 105 68 44 111 73 47 79 78 50 85 59 53 91 64 56 97 69 59 103 74 44 109 79 47 77 60 50 83 65 53 89 70 56 95 75 59 101 56 44 107 61 47 75 66 50 81 71 53 87 76 56 93 57 59 99 62 44 105 67 47 111 72 50 79 77 53 85 58 56 91 63 59 97 68 44 103 73 47 109 78 50 77 59 53 83 64 56 89 69 59 95 74 44 101 79 47 107 60 50 75 65 53 81 70 56 87 75 59 93 56 44 99 61 47 105 66 50 111 71 53 79 76 56 85 57 59 91 62 44 97 67 47 103 72 50 109 77 53 77 58 56 83 63 59 89 68 44 95 73 47 101 78 50 107 59 53 75 64 56 81 69 59 87 74 44 93 79 47 99 60 50 105 65 53 111 70 56 79 75 59 85 56 44 91 61 47 97 66 50 103 71 53 109 76 56 77 57 59 83 62 44 89 67 47 95 72 50 101 77 53 107 58 56 75 63 59 81 68 44 87 73 47 93 78 50 99 59 53 105 64 56 111 69 59 79 74 44 85 79 47 91 60 50 97 65 53 103 70 56 109 75 59 77 56 44 83 61 47 89 66 50 95 71 53 101 76 56 107 57 59 75 62 44 81 67 47 87 72 50 93 77 53 99 58 56 105 63 59 111 68 44 79 73 47 85 78 50 91 59 53 97 64 56 103 69 59 109 74 44 77 79 47 83 60 50 89 65 53 95 70 56 101 75 59 107 56 44 75 61 47 81 66 50 87 71 53 93 76 56 99 57 59 105 62 44 111 67 47 79 72 50 85 77 53 91 58 56 97 63 59 103 68 44 109 73 47 77 78 50 83 59 53 89 64 56 95 69 59 101 74 44 107 79 47 75 60 50 81 65 53 87 70 56 93 75 59 99 56 44 105 61 47 111 66 50 79 71 53 85 76 56 91 57 59 97 62 44 103 67 47 109 72 50 77 77 53 83 58 56 89 63 59 95 68 44 101 73 47 107 78 50 75 59 53 81 64 56 87 69 59 93 74 44 99 79 47 105 60 50 111 65 53 79 70 56 85 75 59 91 56 44 97 61 47 103 66 50 109 71 53 77 76 56 83 57 59 89 62 44 95 67 47 101 72 50 107 77 53 75 58 56 81 63 59 87 68 44 93 73 47 99 78 50 105 59 53 111 64 56 79 69 59 85 74 44 91 79 47 97 60 50 103 65 53 109 70 56 77 75 59 83 56 44 89 61 47 95 66 50 101 71 53 107 76 56 75 57 59 81 62 44 87 67 47 93 72 50 99 77 53 105 58 56 111 63 59 79 68 44 85 73 47 91 78 50 97 59 53 103 64 56 109 69 59 77 74 44 83 79 47 89 60 50 95 65 53 101 70 56 107 75 59 75 56 44 81 61 47 87 66 50 93 71 53 99 76 56 105 57 59 111 62 44 79 67 47 85 72 50 91 77 53 97 58 56 103 63 59 109 68 44 77 73 47 83 78 50 89 59 53 95 64 56 101 69 59 107 74 44 75 79 47 81 60 50 87 65 53 93 70 56 99 75 59 105 56 44 111 61 47 79 66 50 85 71 53 91 76 56 97 57 59 103 62 44 109 67 47 77 72 50 83 77 53 89 58 56 95 63 59 101 68 44 107 73 47 75 78 50 81 59 53 87 64 56 93 69 59 99 74 44 105 79 47 111 60 50 79 65 53 85 70 56 91 75 59 97 56 44 103 61 47 109 66 50 77 71 53 83 76 56 89 57 59 95 62 44 101 67 47 107 72 50 75 77 53 81 58 56 87 63 59 93 68 44 99 73 47 105 78 50 111 59 53 79 64 56 85 69 59
76 60 46 82 65 49 88 70 52 94 75 55 100 56 58 106 61 43 74 66 46 80 71 49 86 76 52 92 57 55 98 62 58 104 67 43 110 72 46 78 77 49 84 58 52 90 63 55 96 68 58 102 73 43 108 78 46 76 59 49 82 64 52 88 69 55 94 74 58 100 79 43 106 60 46 74 65 49 80 70 52 86 75 55 92 56 58 98 61 43 104 66 46 110 71 49 78 76 52 84 57 55 90 62 58 96 67 43 102 72 46 108 77 49 76 58 52 82 63 55 88 68 58 94 73 43 100 78 46 106 59 49 74 64 52 80 69 55 86 74 58 92 79 43 98 60 46 104 65 49 110 70 52 78 75 55 84 56 58 90 61 43 96 66 46 102 71 49 108 76 52 76 57 55 82 62 58 88 67 43 94 72 46 100 77 49 106 58 52 74 63 55 80 68 58 86 73 43 92 78 46 98 59 49 104 64 52 110 69 55 78 74 58 84 79 43 90 60 46 96 65 49 102 70 52 108 75 55 76 56 58 82 61 43 88 66 46 94 71 49 100 76 52 106 57 55 74 62 58 80 67 43 86 72 46 92 77 49 98 58 52 104 63 55 110 68 58 78 73 43 84 78 46 90 59 49 96 64 52 102 69 55 108 74 58 76 79 43 82 60 46 88 65 49 94 70 52 100 75 55 106 56 58 74 61 43 80 66 46 86 71 49 92 76 52 98 57 55 104 62 58 110 67 43 78 72 46 84 77 49 90 58 52 96 63 55 102 68 58 108 73 43 76 78 46 82 59 49 88 64 52 94 69 55 100 74 58 106 79 43 74 60 46 80 65 49 86 70 52 92 75 55 98 56 58 104 61 43 110 66 46 78 71 49 84 76 52 90 57 55 96 62 58 102 67 43 108 72 46 76 77 49 82 58 52 88 63 55 94 68 58 100 73 43 106 78 46 74 59 49 80 64 52 86 69 55 92 74 58 98 79 43 104 60 46 110 65 49 78 70 52 84 75 55 90 56 58 96 61 43 102 66 46 108 71 49 76 76 52 82 57 55 88 62 58 94 67 43 100 72 46 106 77 49 74 58 52 80 63 55 86 68 58 92 73 43 98 78 46 104 59 49 110 64 52 78 69 55 84 74 58 90 79 43 96 60 46 102 65 49 108 70 52 76 75 55 82 56 58 88 61 43 94 66 46 100 71 49 106 76 52 74 57 55 80 62 58 86 67 43 92 72 46 98 77 49 104 58 52 110 63 55 78 68 58 84 73 43 90 78 46 96 59 49 102 64 52 108 69 55 76 74 58 82 79 43 88 60 46 94 65 49 100 70 52 106 75 55 74 56 58 80 61 43 86 66 46 92 71 49 98 76 52 104 57 55 110 62 58 78 67 43 84 72 46 90 77 49 96 58 52 102 63 55 108 68 58 76 73 43 82 78 46 88 59 49 94 64 52 100 69 55 106 74 58 74 79 43 80 60 46 86 65 49 92 70 52 98 75 55 104 56 58 110 61 43 78 66 46 84 71 49 90 76 52 96 57 55 102 62 58 108 67 43 76 72 46 82 77 49 88 58 52 94 63 55 100 68 58 106 73 43 74 78 46 80 59 49 86 64 52 92 69 55 98 74 58 104 79 43 110 60 46 78 65 49 84 70 52 90 75 55 96 56 58 102 61 43 108 66 46 76 71 49 82 76 52 88 57 55 94 62 58 100 67 43 106 72 46 74 77 49 80 58 52 86 63 55 92 68 58 98 73 43 104 78 46 110 59 49 78 64 52 84 69 55 90 74 58 96 79 43 102 60 46 108 65 49 76 70 52 82 75 55 88 56 58 94 61 43 100 66 46 106 71 49 74 76 52 80 57 55 86 62 58 92 67 43 98 72 46 104 77 49 110 58 52 78 63 55 84 68 58 90 73 43 96 78 46 102 59 49 108 64 52 76 69 55 82 74 58 88 79 43 94 60 46 100 65 49 106 70 52 74 75 55 80 56 58 86 61 43 92 66 46 98 71 49 104 76 52 110 57 55 78 62 58 84 67 43 90 72 46 96 77 49 102 58 52 108 63 55 76 68 58 82 73 43 88 78 46 94 59 49 100 64 52 106 69 55 74 74 58 80 79 43 86 60 46 92 65 49 98 70 52 104 75 55 110 56 58 78 61 43 84 66 46 90 71 49
81 62 54 87 67 57 93 72 42 99 77 45 105 58 48 111 63 51 79 68 54 85 73 57 91 78 42 97 59 45 103 64 48 109 69 51 77 74 54 83 79 57 89 60 42 95 65 45 101 70 48 107 75 51 75 56 54 81 61 57 87 66 42 93 71 45 99 76 48 105 57 51 111 62 54 79 67 57 85 72 42 91 77 45 97 58 48 103 63 51 109 68 54 77 73 57 83 78 42 89 59 45 95 64 48 101 69 51 107 74 54 75 79 57 81 60 42 87 65 45 93 70 48 99 75 51 105 56 54 111 61 57 79 66 42 85 71 45 91 76 48 97 57 51 103 62 54 109 67 57 77 72 42 83 77 45 89 58 48 95 63 51 101 68 54 107 73 57 75 78 42 81 59 45 87 64 48 93 69 51 99 74 54 105 79 57 111 60 42 79 65 45 85 70 48 91 75 51 97 56 54 103 61 57 109 66 42 77 71 45 83 76 48 89 57 51 95 62 54 101 67 57 107 72 42 75 77 45 81 58 48 87 63 51 93 68 54 99 73 57 105 78 42 111 59 45 79 64 48 85 69 51 91 74 54 97 79 57 103 60 42 109 65 45 77 70 48 83 75 51 89 56 54 95 61 57 101 66 42 107 71 45 75 76 48 81 57 51 87 62 54 93 67 57 99 72 42 105 77 45 111 58 48 79 63 51 85 68 54 91 73 57 97 78 42 103 59 45 109 64 48 77 69 51 83 74 54 89 79 57 95 60 42 101 65 45 107 70 48 75 75 51 81 56 54 87 61 57 93 66 42 99 71 45 105 76 48 111 57 51 79 62 54 85 67 57 91 72 42 97 77 45 103 58 48 109 63 51 77 68 54 83 73 57 89 78 42 95 59 45 101 64 48 107 69 51 75 74 54 81 79 57 87 60 42 93 65 45 99 70 48 105 75 51 111 56 54 79 61 57 85 66 42 91 71 45 97 76 48 103 57 51 109 62 54 77 67 57 83 72 42 89 77 45 95 58 48 101 63 51 107 68 54 75 73 57 81 78 42 87 59 45 93 64 48 99 69 51 105 74 54 111 79 57 79 60 42 85 65 45 91 70 48 97 75 51 103 56 54 109 61 57 77 66 42 83 71 45 89 76 48 95 57 51 101 62 54 107 67 57 75 72 42 81 77 45 87 58 48 93 63 51 99 68 54 105 73 57 111 78 42 79 59 45 85 64 48 91 69 51 97 74 54 103 79 57 109 60 42 77 65 45 83 70 48 89 75 51 95 56 54 101 61 57 107 66 42 75 71 45 81 76 48 87 57 51 93 62 54 99 67 57 105 72 42 111 77 45 79 58 48 85 63 51 91 68 54 97 73 57 103 78 42 109 59 45 77 64 48 83 69 51 89 74 54 95 79 57 101 60 42 107 65 45 75 70 48 81 75 51 87 56 54 93 61 57 99 66 42 105 71 45 111 76 48 79 57 51 85 62 54 91 67 57 97 72 42 103 77 45 109 58 48 77 63 51 83 68 54 89 73 57 95 78 42 101 59 45 107 64 48 75 69 51 81 74 54 87 79 57 93 60 42 99 65 45 105 70 48 111 75 51 79 56 54 85 61 57 91 66 42 97 71 45 103 76 48 109 57 51 77 62 54 83 67 57 89 72 42 95 77 45 101 58 48 107 63 51 75 68 54 81 73 57 87 78 42 93 59 45 99 64 48 105 69 51 111 74 54 79 79 57 85 60 42 91 65 45 97 70 48 103 75 51 109 56 54 77 61 57 83 66 42 89 71 45 95 76 48 101 57 51 107 62 54 75 67 57 81 72 42 87 77 45 93 58 48 99 63 51 105 68 54 111 73 57 79 78 42 85 59 45 91 64 48 97 69 51 103 74 54 109 79 57 77 60 42 83 65 45 89 70 48 95 75 51 101 56 54 107 61 57 75 66 42 81 71 45 87 76 48 93 57 51 99 62 54 105 67 57 111 72 42 79 77 45 85 58 48 91 63 51 97 68 54 103 73 57 109 78 42 77 59 45 83 64 48 89 69 51 95 74 54 101 79 57 107 60 42 75 65 45 81 70 48 87 75 51 93 56 54 99 61 57 105 66 42 111 71 45 79 76 48 85 57 51 91 62 54 97 67 57 103 72 42 109 77 45 77 58 48 83 63 51 89 68 54 95 73 57
86 64 44 92 69 47 98 74 50 104 79 53 110 60 56 78 65 59 84 70 44 90 75 47 96 56 50 102 61 53 108 66 56 76 71 59 82 76 44 88 57 47 94 62 50 100 67 53 106 72 56 74 77 59 80 58 44 86 63 47 92 68 50 98 73 53 104 78 56 110 59 59 78 64 44 84 69 47 90 74 50 96 79 53 102 60 56 108 65 59 76 70 44 82 75 47 88 56 50 94 61 53 100 66 56 106 71 59 74 76 44 80 57 47 86 62 50 92 67 53 98 72 56 104 77 59 110 58 44 78 63 47 84 68 50 90 73 53 96 78 56 102 59 59 108 64 44 76 69 47 82 74 50 88 79 53 94 60 56 100 65 59 106 70 44 74 75 47 80 56 50 86 61 53 92 66 56 98 71 59 104 76 44 110 57 47 78 62 50 84 67 53 90 72 56 96 77 59 102 58 44 108 63 47 76 68 50 82 73 53 88 78 56 94 59 59 100 64 44 106 69 47 74 74 50 80 79 53 86 60 56 92 65 59 98 70 44 104 75 47 110 56 50 78 61 53 84 66 56 90 71 59 96 76 44 102 57 47 108 62 50 76 67 53 82 72 56 88 77 59 94 58 44 100 63 47 106 68 50 74 73 53 80 78 56 86 59 59 92 64 44 98 69 47 104 74 50 110 79 53 78 60 56 84 65 59 90 70 44 96 75 47 102 56 50 108 61 53 76 66 56 82 71 59 88 76 44 94 57 47 100 62 50 106 67 53 74 72 56 80 77 59 86 58 44 92 63 47 98 68 50 104 73 53 110 78 56 78 59 59 84 64 44 90 69 47 96 74 50 102 79 53 108 60 56 76 65 59 82 70 44 88 75 47 94 56 50 100 61 53 106 66 56 74 71 59 80 76 44 86 57 47 92 62 50 98 67 53 104 72 56 110 77 59 78 58 44 84 63 47 90 68 50 96 73 53 102 78 56 108 59 59 76 64 44 82 69 47 88 74 50 94 79 53 100 60 56 106 65 59 74 70 44 80 75 47 86 56 50 92 61 53 98 66 56 104 71 59 110 76 44 78 57 47 84 62 50 90 67 53 96 72 56 102 77 59 108 58 44 76 63 47 82 68 50 88 73 53 94 78 56 100 59 59 106 64 44 74 69 47 80 74 50 86 79 53 92 60 56 98 65 59 104 70 44 110 75 47 78 56 50 84 61 53 90 66 56 96 71 59 102 76 44 108 57 47 76 62 50 82 67 53 88 72 56 94 77 59 100 58 44 106 63 47 74 68 50 80 73 53 86 78 56 92 59 59 98 64 44 104 69 47 110 74 50 78 79 53 84 60 56 90 65 59 96 70 44 102 75 47 108 56 50 76 61 53 82 66 56 88 71 59 94 76 44 100 57 47 106 62 50 74 67 53 80 72 56 86 77 59 92 58 44 98 63 47 104 68 50 110 73 53 78 78 56 84 59 59 90 64 44 96 69 47 102 74 50 108 79 53 76 60 56 82 65 59 88 70 44 94 75 47 100 56 50 106 61 53 74 66 56 80 71 59 86 76 44 92 57 47 98 62 50 104 67 53 110 72 56 78 77 59 84 58 44 90 63 47 96 68 50 102 73 53 108 78 56 76 59 59 82 64 44 88 69 47 94 74 50 100 79 53 106 60 56 74 65 59 80 70 44 86 75 47 92 56 50 98 61 53 104 66 56 110 71 59 78 76 44 84 57 47 90 62 50 96 67 53 102 72 56 108 77 59 76 58 44 82 63 47 88 68 50 94 73 53 100 78 56 106 59 59 74 64 44 80 69 47 86 74 50 92 79 53 98 60 56 104 65 59 110 70 44 78 75 47 84 56 50 90 61 53 96 66 56 102 71 59 108 76 44 76 57 47 82 62 50 88 67 53 94 72 56 100 77 59 106 58 44 74 63 47 80 68 50 86 73 53 92 78 56 98 59 59 104 64 44 110 69 47 78 74 50 84 79 53 90 60 56 96 65 59 102 70 44 108 75 47 76 56 50 82 61 53 88 66 56 94 71 59 100 76 44 106 57 47 74 62 50 80 67 53 86 72 56 92 77 59 98 58 44 104 63 47 110 68 50 78 73 53 84 78 56 90 59 59 96 64 44 102 69 47 108 74 50 76 79 53 82 60 56 88 65 59 94 70 44 100 75 47
91 66 52 97 71 55 103 76 58 109 57 43 77 62 46 83 67 49 89 72 52 95 77 55 101 58 58 107 63 43 75 68 46 81 73 49 87 78 52 93 59 55 99 64 58 105 69 43 111 74 46 79 79 49 85 60 52 91 65 55 97 70 58 103 75 43 109 56 46 77 61 49 83 66 52 89 71 55 95 76 58 101 57 43 107 62 46 75 67 49 81 72 52 87 77 55 93 58 58 99 63 43 105 68 46 111 73 49 79 78 52 85 59 55 91 64 58 97 69 43 103 74 46 109 79 49 77 60 52 83 65 55 89 70 58 95 75 43 101 56 46 107 61 49 75 66 52 81 71 55 87 76 58 93 57 43 99 62 46 105 67 49 111 72 52 79 77 55 85 58 58 91 63 43 97 68 46 103 73 49 109 78 52 77 59 55 83 64 58 89 69 43 95 74 46 101 79 49 107 60 52 75 65 55 81 70 58 87 75 43 93 56 46 99 61 49 105 66 52 111 71 55 79 76 58 85 57 43 91 62 46 97 67 49 103 72 52 109 77 55 77 58 58 83 63 43 89 68 46 95 73 49 101 78 52 107 59 55 75 64 58 81 69 43 87 74 46 93 79 49 99 60 52 105 65 55 111 70 58 79 75 43 85 56 46 91 61 49 97 66 52 103 71 55 109 76 58 77 57 43 83 62 46 89 67 49 95 72 52 101 77 55 107 58 58 75 63 43 81 68 46 87 73 49 93 78 52 99 59 55 105 64 58 111 69 43 79 74 46 85 79 49 91 60 52 97 65 55 103 70 58 109 75 43 77 56 46 83 61 49 89 66 52 95 71 55 101 76 58 107 57 43 75 62 46 81 67 49 87 72 52 93 77 55 99 58 58 105 63 43 111 68 46 79 73 49 85 78 52 91 59 55 97 64 58 103 69 43 109 74 46 77 79 49 83 60 52 89 65 55 95 70 58 101 75 43 107 56 46 75 61 49 81 66 52 87 71 55 93 76 58 99 57 43 105 62 46 111 67 49 79 72 52 85 77 55 91 58 58 97 63 43 103 68 46 109 73 49 77 78 52 83 59 55 89 64 58 95 69 43 101 74 46 107 79 49 75 60 52 81 65 55 87 70 58 93 75 43 99 56 46 105 61 49 111 66 52 79 71 55 85 76 58 91 57 43 97 62 46 103 67 49 109 72 52 77 77 55 83 58 58 89 63 43 95 68 46 101 73 49 107 78 52 75 59 55 81 64 58 87 69 43 93 74 46 99 79 49 105 60 52 111 65 55 79 70 58 85 75 43 91 56 46 97 61 49 103 66 52 109 71 55 77 76 58 83 57 43 89 62 46 95 67 49 101 72 52 107 77 55 75 58 58 81 63 43 87 68 46 93 73 49 99 78 52 105 59 55 111 64 58 79 69 43 85 74 46 91 79 49 97 60 52 103 65 55 109 70 58 77 75 43 83 56 46 89 61 49 95 66 52 101 71 55 107 76 58 75 57 43 81 62 46 87 67 49 93 72 52 99 77 55 105 58 58 111 63 43 79 68 46 85 73 49 91 78 52 97 59 55 103 64 58 109 69 43 77 74 46 83 79 49 89 60 52 95 65 55 101 70 58 107 75 43 75 56 46 81 61 49 87 66 52 93 71 55 99 76 58 105 57 43 111 62 46 79 67 49 85 72 52 91 77 55 97 58 58 103 63 43 109 68 46 77 73 49 83 78 52 89 59 55 95 64 58 101 69 43 107 74 46 75 79 49 81 60 52 87 65 55 93 70 58 99 75 43 105 56 46 111 61 49 79 66 52 85 71 55 91 76 58 97 57 43 103 62 46 109 67 49 77 72 52 83 77 55 89 58 58 95 63 43 101 68 46 107 73 49 75 78 52 81 59 55 87 64 58 93 69 43 99 74 46 105 79 49 111 60 52 79 65 55 85 70 58 91 75 43 97 56 46 103 61 49 109 66 52 77 71 55 83 76 58 89 57 43 95 62 46 101 67 49 107 72 52 75 77 55 81 58 58 87 63 43 93 68 46 99 73 49 105 78 52 111 59 55 79 64 58 85 69 43 91 74 46 97 79 49 103 60 52 109 65 55 77 70 58 83 75 43 89 56 46 95 61 49 101 66 52 107 71 55 75 76 58 81 57 43 87 62 46 93 67 49 99 72 52 105 77 55
96 68 42 102 73 45 108 78 48 76 59 51 82 64 54 88 69 57 94 74 42 100 79 45 106 60 48 74 65 51 80 70 54 86 75 57 92 56 42 98 61 45 104 66 48 110 71 51 78 76 54 84 57 57 90 62 42 96 67 45 102 72 48 108 77 51 76 58 54 82 63 57 88 68 42 94 73 45 100 78 48 106 59 51 74 64 54 80 69 57 86 74 42 92 79 45 98 60 48 104 65 51 110 70 54 78 75 57 84 56 42 90 61 45 96 66 48 102 71 51 108 76 54 76 57 57 82 62 42 88 67 45 94 72 48 100 77 51 106 58 54 74 63 57 80 68 42 86 73 45 92 78 48 98 59 51 104 64 54 110 69 57 78 74 42 84 79 45 90 60 48 96 65 51 102 70 54 108 75 57 76 56 42 82 61 45 88 66 48 94 71 51 100 76 54 106 57 57 74 62 42 80 67 45 86 72 48 92 77 51 98 58 54 104 63 57 110 68 42 78 73 45 84 78 48 90 59 51 96 64 54 102 69 57 108 74 42 76 79 45 82 60 48 88 65 51 94 70 54 100 75 57 106 56 42 74 61 45 80 66 48 86 71 51 92 76 54 98 57 57 104 62 42 110 67 45 78 72 48 84 77 51 90 58 54 96 63 57 102 68 42 108 73 45 76 78 48 82 59 51 88 64 54 94 69 57 100 74 42 106 79 45 74 60 48 80 65 51 86 70 54 92 75 57 98 56 42 104 61 45 110 66 48 78 71 51 84 76 54 90 57 57 96 62 42 102 67 45 108 72 48 76 77 51 82 58 54 88 63 57 94 68 42 100 73 45 106 78 48 74 59 51 80 64 54 86 69 57 92 74 42 98 79 45 104 60 48 110 65 51 78 70 54 84 75 57 90 56 42 96 61 45 102 66 48 108 71 51 76 76 54 82 57 57 88 62 42 94 67 45 100 72 48 106 77 51 74 58 54 80 63 57 86 68 42 92 73 45 98 78 48 104 59 51 110 64 54 78 69 57 84 74 42 90 79 45 96 60 48 102 65 51 108 70 54 76 75 57 82 56 42 88 61 45 94 66 48 100 71 51 106 76 54 74 57 57 80 62 42 86 67 45 92 72 48 98 77 51 104 58 54 110 63 57 78 68 42 84 73 45 90 78 48 96 59 51 102 64 54 108 69 57 76 74 42 82 79 45 88 60 48 94 65 51 100 70 54 106 75 57 74 56 42 80 61 45 86 66 48 92 71 51 98 76 54 104 57 57 110 62 42 78 67 45 84 72 48 90 77 51 96 58 54 102 63 57 108 68 42 76 73 45 82 78 48 88 59 51 94 64 54 100 69 57 106 74 42 74 79 45 80 60 48 86 65 51 92 70 54 98 75 57 104 56 42 110 61 45 78 66 48 84 71 51 90 76 54 96 57 57 102 62 42 108 67 45 76 72 48 82 77 51 88 58 54 94 63 57 100 68 42 106 73 45 74 78 48 80 59 51 86 64 54 92 69 57 98 74 42 104 79 45 110 60 48 78 65 51 84 70 54 90 75 57 96 56 42 102 61 45 108 66 48 76 71 51 82 76 54 88 57 57 94 62 42 100 67 45 106 72 48 74 77 51 80 58 54 86 63 57 92 68 42 98 73 45 104 78 48 110 59 51 78 64 54 84 69 57 90 74 42 96 79 45 102 60 48 108 65 51 76 70 54 82 75 57 88 56 42 94 61 45 100 66 48 106 71 51 74 76 54 80 57 57 86 62 42 92 67 45 98 72 48 104 77 51 110 58 54 78 63 57 84 68 42 90 73 45 96 78 48 102 59 51 108 64 54 76 69 57 82 74 42 88 79 45 94 60 48 100 65 51 106 70 54 74 75 57 80 56 42 86 61 45 92 66 48 98 71 51 104 76 54 110 57 57 78 62 42 84 67 45 90 72 48 96 77 51 102 58 54 108 63 57 76 68 42 82 73 45 88 78 48 94 59 51 100 64 54 106 69 57 74 74 42 80 79 45 86 60 48 92 65 51 98 70 54 104 75 57 110 56 42 78 61 45 84 66 48 90 71 51 96 76 54 102 57 57 108 62 42 76 67 45 82 72 48 88 77 51 94 58 54 100 63 57 106 68 42 74 73 45 80 78 48 86 59 51 92 64 54 98 69 57 104 74 42 110 79 45
101 70 50 107 75 53 75 56 56 81 61 59 87 66 44 93 71 47 99 76 50 105 57 53 111 62 56 79 67 59 85 72 44 91 77 47 97 58 50 103 63 53 109 68 56 77 73 59 83 78 44 89 59 47 95 64 50 101 69 53 107 74 56 75 79 59 81 60 44 87 65 47 93 70 50 99 75 53 105 56 56 111 61 59 79 66 44 85 71 47 91 76 50 97 57 53 103 62 56 109 67 59 77 72 44 83 77 47 89 58 50 95 63 53 101 68 56 107 73 59 75 78 44 81 59 47 87 64 50 93 69 53 99 74 56 105 79 59 111 60 44 79 65 47 85 70 50 91 75 53 97 56 56 103 61 59 109 66 44 77 71 47 83 76 50 89 57 53 95 62 56 101 67 59 107 72 44 75 77 47 81 58 50 87 63 53 93 68 56 99 73 59 105 78 44 111 59 47 79 64 50 85 69 53 91 74 56 97 79 59 103 60 44 109 65 47 77 70 50 83 75 53 89 56 56 95 61 59 101 66 44 107 71 47 75 76 50 81 57 53 87 62 56 93 67 59 99 72 44 105 77 47 111 58 50 79 63 53 85 68 56 91 73 59 97 78 44 103 59 47 109 64 50 77 69 53 83 74 56 89 79 59 95 60 44 101 65 47 107 70 50 75 75 53 81 56 56 87 61 59 93 66 44 99 71 47 105 76 50 111 57 53 79 62 56 85 67 59 91 72 44 97 77 47 103 58 50 109 63 53 77 68 56 83 73 59 89 78 44 95 59 47 101 64 50 107 69 53 75 74 56 81 79 59 87 60 44 93 65 47 99 70 50 105 75 53 111 56 56 79 61 59 85 66 44 91 71 47 97 76 50 103 57 53 109 62 56 77 67 59 83 72 44 89 77 47 95 58 50 101 63 53 107 68 56 75 73 59 81 78 44 87 59 47 93 64 50 99 69 53 105 74 56 111 79 59 79 60 44 85 65 47 91 70 50 97 75 53 103 56 56 109 61 59 77 66 44 83 71 47 89 76 50 95 57 53 101 62 56 107 67 59 75 72 44 81 77 47 87 58 50 93 63 53 99 68 56 105 73 59 111 78 44 79 59 47 85 64 50 91 69 53 97 74 56 103 79 59 109 60 44 77 65 47 83 70 50 89 75 53 95 56 56 101 61 59 107 66 44 75 71 47 81 76 50 87 57 53 93 62 56 99 67 59 105 72 44 111 77 47 79 58 50 85 63 53 91 68 56 97 73 59 103 78 44 109 59 47 77 64 50 83 69 53 89 74 56 95 79 59 101 60 44 107 65 47 75 70 50 81 75 53 87 56 56 93 61 59 99 66 44 105 71 47 111 76 50 79 57 53 85 62 56 91 67 59 97 72 44 103 77 47 109 58 50 77 63 53 83 68 56 89 73 59 95 78 44 101 59 47 107 64 50 75 69 53 81 74 56 87 79 59 93 60 44 99 65 47 105 70 50 111 75 53 79 56 56 85 61 59 91 66 44 97 71 47 103 76 50 109 57 53 77 62 56 83 67 59 89 72 44 95 77 47 101 58 50 107 63 53 75 68 56 81 73 59 87 78 44 93 59 47 99 64 50 105 69 53 111 74 56 79 79 59 85 60 44 91 65 47 97 70 50 103 75 53 109 56 56 77 61 59 83 66 44 89 71 47 95 76 50 101 57 53 107 62 56 75 67 59 81 72 44 87 77 47 93 58 50 99 63 53 105 68 56 111 73 59 79 78 44 85 59 47 91 64 50 97 69 53 103 74 56 109 79 59 77 60 44 83 65 47 89 70 50 95 75 53 101 56 56 107 61 59 75 66 44 81 71 47 87 76 50 93 57 53 99 62 56 105 67 59 111 72 44 79 77 47 85 58 50 91 63 53 97 68 56 103 73 59 109 78 44 77 59 47 83 64 50 89 69 53 95 74 56 101 79 59 107 60 44 75 65 47 81 70 50 87 75 53 93 56 56 99 61 59 105 66 44 111 71 47 79 76 50 85 57 53 91 62 56 97 67 59 103 72 44 109 77 47 77 58 50 83 63 53 89 68 56 95 73 59 101 78 44 107 59 47 75 64 50 81 69 53 87 74 56 93 79 59 99 60 44 105 65 47 111 70 50 79 75 53 85 56 56 91 61 59 97 66 44 103 71 47 109 76 50 77 57 53
106 72 58 74 77 43 80 58 46 86 63 49 92 68 52 98 73 55 104 78 58 110 59 43 78 64 46 84 69 49 90 74 52 96 79 55 102 60 58 108 65 43 76 70 46 82 75 49 88 56 52 94 61 55 100 66 58 106 71 43 74 76 46 80 57 49 86 62 52 92 67 55 98 72 58 104 77 43 110 58 46 78 63 49 84 68 52 90 73 55 96 78 58 102 59 43 108 64 46 76 69 49 82 74 52 88 79 55 94 60 58 100 65 43 106 70 46 74 75 49 80 56 52 86 61 55 92 66 58 98 71 43 104 76 46 110 57 49 78 62 52 84 67 55 90 72 58 96 77 43 102 58 46 108 63 49 76 68 52 82 73 55 88 78 58 94 59 43 100 64 46 106 69 49 74 74 52 80 79 55 86 60 58 92 65 43 98 70 46 104 75 49 110 56 52 78 61 55 84 66 58 90 71 43 96 76 46 102 57 49 108 62 52 76 67 55 82 72 58 88 77 43 94 58 46 100 63 49 106 68 52 74 73 55 80 78 58 86 59 43 92 64 46 98 69 49 104 74 52 110 79 55 78 60 58 84 65 43 90 70 46 96 75 49 102 56 52 108 61 55 76 66 58 82 71 43 88 76 46 94 57 49 100 62 52 106 67 55 74 72 58 80 77 43 86 58 46 92 63 49 98 68 52 104 73 55 110 78 58 78 59 43 84 64 46 90 69 49 96 74 52 102 79 55 108 60 58 76 65 43 82 70 46 88 75 49 94 56 52 100 61 55 106 66 58 74 71 43 80 76 46 86 57 49 92 62 52 98 67 55 104 72 58 110 77 43 78 58 46 84 63 49 90 68 52 96 73 55 102 78 58 108 59 43 76 64 46 82 69 49 88 74 52 94 79 55 100 60 58 106 65 43 74 70 46 80 75 49 86 56 52 92 61 55 98 66 58 104 71 43 110 76 46 78 57 49 84 62 52 90 67 55 96 72 58 102 77 43 108 58 46 76 63 49 82 68 52 88 73 55 94 78 58 100 59 43 106 64 46 74 69 49 80 74 52 86 79 55 92 60 58 98 65 43 104 70 46 110 75 49 78 56 52 84 61 55 90 66 58 96 71 43 102 76 46 108 57 49 76 62 52 82 67 55 88 72 58 94 77 43 100 58 46 106 63 49 74 68 52 80 73 55 86 78 58 92 59 43 98 64 46 104 69 49 110 74 52 78 79 55 84 60 58 90 65 43 96 70 46 102 75 49 108 56 52 76 61 55 82 66 58 88 71 43 94 76 46 100 57 49 106 62 52 74 67 55 80 72 58 86 77 43 92 58 46 98 63 49 104 68 52 110 73 55 78 78 58 84 59 43 90 64 46 96 69 49 102 74 52 108 79 55 76 60 58 82 65 43 88 70 46 94 75 49 100 56 52 106 61 55 74 66 58 80 71 43 86 76 46 92 57 49 98 62 52 104 67 55 110 72 58 78 77 43 84 58 46 90 63 49 96 68 52 102 73 55 108 78 58 76 59 43 82 64 46 88 69 49 94 74 52 100 79 55 106 60 58 74 65 43 80 70 46 86 75 49 92 56 52 98 61 55 104 66 58 110 71 43 78 76 46 84 57 49 90 62 52 96 67 55 102 72 58 108 77 43 76 58 46 82 63 49 88 68 52 94 73 55 100 78 58 106 59 43 74 64 46 80 69 49 86 74 52 92 79 55 98 60 58 104 65 43 110 70 46 78 75 49 84 56 52 90 61 55 96 66 58 102 71 43 108 76 46 76 57 49 82 62 52 88 67 55 94 72 58 100 77 43 106 58 46 74 63 49 80 68 52 86 73 55 92 78 58 98 59 43 104 64 46 110 69 49 78 74 52 84 79 55 90 60 58 96 65 43 102 70 46 108 75 49 76 56 52 82 61 55 88 66 58 94 71 43 100 76 46 106 57 49 74 62 52 80 67 55 86 72 58 92 77 43 98 58 46 104 63 49 110 68 52 78 73 55 84 78 58 90 59 43 96 64 46 102 69 49 108 74 52 76 79 55 82 60 58 88 65 43 94 70 46 100 75 49 106 56 52 74 61 55 80 66 58 86 71 43 92 76 46 98 57 49 104 62 52 110 67 55 78 72 58 84 77 43 90 58 46 96 63 49 102 68 52 108 73 55 76 78 58 82 59 43
111 74 48 79 79 51 85 60 54 91 65 57 97 70 42 103 75 45 109 56 48 77 61 51 83 66 54 89 71 57 95 76 42 101 57 45 107 62 48 75 67 51 81 72 54 87 77 57 93 58 42 99 63 45 105 68 48 111 73 51 79 78 54 85 59 57 91 64 42 97 69 45 103 74 48 109 79 51 77 60 54 83 65 57 89 70 42 95 75 45 101 56 48 107 61 51 75 66 54 81 71 57 87 76 42 93 57 45 99 62 48 105 67 51 111 72 54 79 77 57 85 58 42 91 63 45 97 68 48 103 73 51 109 78 54 77 59 57 83 64 42 89 69 45 95 74 48 101 79 51 107 60 54 75 65 57 81 70 42 87 75 45 93 56 48 99 61 51 105 66 54 111 71 57 79 76 42 85 57 45 91 62 48 97 67 51 103 72 54 109 77 57 77 58 42 83 63 45 89 68 48 95 73 51 101 78 54 107 59 57 75 64 42 81 69 45 87 74 48 93 79 51 99 60 54 105 65 57 111 70 42 79 75 45 85 56 48 91 61 51 97 66 54 103 71 57 109 76 42 77 57 45 83 62 48 89 67 51 95 72 54 101 77 57 107 58 42 75 63 45 81 68 48 87 73 51 93 78 54 99 59 57 105 64 42 111 69 45 79 74 48 85 79 51 91 60 54 97 65 57 103 70 42 109 75 45 77 56 48 83 61 51 89 66 54 95 71 57 101 76 42 107 57 45 75 62 48 81 67 51 87 72 54 93 77 57 99 58 42 105 63 45 111 68 48 79 73 51 85 78 54 91 59 57 97 64 42 103 69 45 109 74 48 77 79 51 83 60 54 89 65 57 95 70 42 101 75 45 107 56 48 75 61 51 81 66 54 87 71 57 93 76 42 99 57 45 105 62 48 111 67 51 79 72 54 85 77 57 91 58 42 97 63 45 103 68 48 109 73 51 77 78 54 83 59 57 89 64 42 95 69 45 101 74 48 107 79 51 75 60 54 81 65 57 87 70 42 93 75 45 99 56 48 105 61 51 111 66 54 79 71 57 85 76 42 91 57 45 97 62 48 103 67 51 109 72 54 77 77 57 83 58 42 89 63 45 95 68 48 101 73 51 107 78 54 75 59 57 81 64 42 87 69 45 93 74 48 99 79 51 105 60 54 111 65 57 79 70 42 85 75 45 91 56 48 97 61 51 103 66 54 109 71 57 77 76 42 83 57 45 89 62 48 95 67 51 101 72 54 107 77 57 75 58 42 81 63 45 87 68 48 93 73 51 99 78 54 105 59 57 111 64 42 79 69 45 85 74 48 91 79 51 97 60 54 103 65 57 109 70 42 77 75 45 83 56 48 89 61 51 95 66 54 101 71 57 107 76 42 75 57 45 81 62 48 87 67 51 93 72 54 99 77 57 105 58 42 111 63 45 79 68 48 85 73 51 91 78 54 97 59 57 103 64 42 109 69 45 77 74 48 83 79 51 89 60 54 95 65 57 101 70 42 107 75 45 75 56 48 81 61 51 87 66 54 93 71 57 99 76 42 105 57 45 111 62 48 79 67 51 85 72 54 91 77 57 97 58 42 103 63 45 109 68 48 77 73 51 83 78 54 89 59 57 95 64 42 101 69 45 107 74 48 75 79 51 81 60 54 87 65 57 93 70 42 99 75 45 105 56 48 111 61 51 79 66 54 85 71 57 91 76 42 97 57 45 103 62 48 109 67 51 77 72 54 83 77 57 89 58 42 95 63 45 101 68 48 107 73 51 75 78 54 81 59 57 87 64 42 93 69 45 99 74 48 105 79 51 111 60 54 79 65 57 85 70 42 91 75 45 97 56 48 103 61 51 109 66 54 77 71 57 83 76 42 89 57 45 95 62 48 101 67 51 107 72 54 75 77 57 81 58 42 87 63 45 93 68 48 99 73 51 105 78 54 111 59 57 79 64 42 85 69 45 91 74 48 97 79 51 103 60 54 109 65 57 77 70 42 83 75 45 89 56 48 95 61 51 101 66 54 107 71 57 75 76 42 81 57 45 87 62 48 93 67 51 99 72 54 105 77 57 111 58 42 79 63 45 85 68 48 91 73 51 97 78 54 103 59 57 109 64 42 77 69 45 83 74 48 89 79 51 95 60 54 101 65 57 107 70 42 75 75 45 81 56 48 87 61 51
78 76 56 84 57 59 90 62 44 96 67 47 102 72 50 108 77 53 76 58 56 82 63 59 88 68 44 94 73 47 100 78 50 106 59 53 74 64 56 80 69 59 86 74 44 92 79 47 98 60 50 104 65 53 110 70 56 78 75 59 84 56 44 90 61 47 96 66 50 102 71 53 108 76 56 76 57 59 82 62 44 88 67 47 94 72 50 100 77 53 106 58 56 74 63 59 80 68 44 86 73 47 92 78 50 98 59 53 104 64 56 110 69 59 78 74 44 84 79 47 90 60 50 96 65 53 102 70 56 108 75 59 76 56 44 82 61 47 88 66 50 94 71 53 100 76 56 106 57 59 74 62 44 80 67 47 86 72 50 92 77 53 98 58 56 104 63 59 110 68 44 78 73 47 84 78 50 90 59 53 96 64 56 102 69 59 108 74 44 76 79 47 82 60 50 88 65 53 94 70 56 100 75 59 106 56 44 74 61 47 80 66 50 86 71 53 92 76 56 98 57 59 104 62 44 110 67 47 78 72 50 84 77 53 90 58 56 96 63 59 102 68 44 108 73 47 76 78 50 82 59 53 88 64 56 94 69 59 100 74 44 106 79 47 74 60 50 80 65 53 86 70 56 92 75 59 98 56 44 104 61 47 110 66 50 78 71 53 84 76 56 90 57 59 96 62 44 102 67 47 108 72 50 76 77 53 82 58 56 88 63 59 94 68 44 100 73 47 106 78 50 74 59 53 80 64 56 86 69 59 92 74 44 98 79 47 104 60 50 110 65 53 78 70 56 84 75 59 90 56 44 96 61 47 102 66 50 108 71 53 76 76 56 82 57 59 88 62 44 94 67 47 100 72 50 106 77 53 74 58 56 80 63 59 86 68 44 92 73 47 98 78 50 104 59 53 110 64 56 78 69 59 84 74 44 90 79 47 96 60 50 102 65 53 108 70 56 76 75 59 82 56 44 88 61 47 94 66 50 100 71 53 106 76 56 74 57 59 80 62 44 86 67 47 92 72 50 98 77 53 104 58 56 110 63 59 78 68 44 84 73 47 90 78 50 96 59 53 102 64 56 108 69 59 76 74 44 82 79 47 88 60 50 94 65 53 100 70 56 106 75 59 74 56 44 80 61 47 86 66 50 92 71 53 98 76 56 104 57 59 110 62 44 78 67 47 84 72 50 90 77 53 96 58 56 102 63 59 108 68 44 76 73 47 82 78 50 88 59 53 94 64 56 100 69 59 106 74 44 74 79 47 80 60 50 86 65 53 92 70 56 98 75 59 104 56 44 110 61 47 78 66 50 84 71 53 90 76 56 96 57 59 102 62 44 108 67 47 76 72 50 82 77 53 88 58 56 94 63 59 100 68 44 106 73 47 74 78 50 80 59 53 86 64 56 92 69 59 98 74 44 104 79 47 110 60 50 78 65 53 84 70 56 90 75 59 96 56 44 102 61 47 108 66 50 76 71 53 82 76 56 88 57 59 94 62 44 100 67 47 106 72 50 74 77 53 80 58 56 86 63 59 92 68 44 98 73 47 104 78 50 110 59 53 78 64 56 84 69 59 90 74 44 96 79 47 102 60 50 108 65 53 76 70 56 82 75 59 88 56 44 94 61 47 100 66 50 106 71 53 74 76 56 80 57 59 86 62 44 92 67 47 98 72 50 104 77 53 110 58 56 78 63 59 84 68 44 90 73 47 96 78 50 102 59 53 108 64 56 76 69 59 82 74 44 88 79 47 94 60 50 100 65 53 106 70 56 74 75 59 80 56 44 86 61 47 92 66 50 98 71 53 104 76 56 110 57 59 78 62 44 84 67 47 90 72 50 96 77 53 102 58 56 108 63 59 76 68 44 82 73 47 88 78 50 94 59 53 100 64 56 106 69 59 74 74 44 80 79 47 86 60 50 92 65 53 98 70 56 104 75 59 110 56 44 78 61 47 84 66 50 90 71 53 96 76 56 102 57 59 108 62 44 76 67 47 82 72 50 88 77 53 94 58 56 100 63 59 106 68 44 74 73 47 80 78 50 86 59 53 92 64 56 98 69 59 104 74 44 110 79 47 78 60 50 84 65 53 90 70 56 96 75 59 102 56 44 108 61 47 76 66 50 82 71 53 88 76 56 94 57 59 100 62 44 106 67 47 74 72 50 80 77 53 86 58 56 92 63 59
83 78 46 89 59 49 95 64 52 101 69 55 107 74 58 75 79 43 81 60 46 87 65 49 93 70 52 99 75 55 105 56 58 111 61 43 79 66 46 85 71 49 91 76 52 97 57 55 103 62 58 109 67 43 77 72 46 83 77 49 89 58 52 95 63 55 101 68 58 107 73 43 75 78 46 81 59 49 87 64 52 93 69 55 99 74 58 105 79 43 111 60 46 79 65 49 85 70 52 91 75 55 97 56 58 103 61 43 109 66 46 77 71 49 83 76 52 89 57 55 95 62 58 101 67 43 107 72 46 75 77 49 81 58 52 87 63 55 93 68 58 99 73 43 105 78 46 111 59 49 79 64 52 85 69 55 91 74 58 97 79 43 103 60 46 109 65 49 77 70 52 83 75 55 89 56 58 95 61 43 101 66 46 107 71 49 75 76 52 81 57 55 87 62 58 93 67 43 99 72 46 105 77 49 111 58 52 79 63 55 85 68 58 91 73 43 97 78 46 103 59 49 109 64 52 77 69 55 83 74 58 89 79 43 95 60 46 101 65 49 107 70 52 75 75 55 81 56 58 87 61 43 93 66 46 99 71 49 105 76 52 111 57 55 79 62 58 85 67 43 91 72 46 97 77 49 103 58 52 109 63 55 77 68 58 83 73 43 89 78 46 95 59 49 101 64 52 107 69 55 75 74 58 81 79 43 87 60 46 93 65 49 99 70 52 105 75 55 111 56 58 79 61 43 85 66 46 91 71 49 97 76 52 103 57 55 109 62 58 77 67 43 83 72 46 89 77 49 95 58 52 101 63 55 107 68 58 75 73 43 81 78 46 87 59 49 93 64 52 99 69 55 105 74 58 111 79 43 79 60 46 85 65 49 91 70 52 97 75 55 103 56 58 109 61 43 77 66 46 83 71 49 89 76 52 95 57 55 101 62 58 107 67 43 75 72 46 81 77 49 87 58 52 93 63 55 99 68 58 105 73 43 111 78 46 79 59 49 85 64 52 91 69 55 97 74 58 103 79 43 109 60 46 77 65 49 83 70 52 89 75 55 95 56 58 101 61 43 107 66 46 75 71 49 81 76 52 87 57 55 93 62 58 99 67 43 105 72 46 111 77 49 79 58 52 85 63 55 91 68 58 97 73 43 103 78 46 109 59 49 77 64 52 83 69 55 89 74 58 95 79 43 101 60 46 107 65 49 75 70 52 81 75 55 87 56 58 93 61 43 99 66 46 105 71 49 111 76 52 79 57 55 85 62 58 91 67 43 97 72 46 103 77 49 109 58 52 77 63 55 83 68 58 89 73 43 95 78 46 101 59 49 107 64 52 75 69 55 81 74 58 87 79 43 93 60 46 99 65 49 105 70 52 111 75 55 79 56 58 85 61 43 91 66 46 97 71 49 103 76 52 109 57 55 77 62 58 83 67 43 89 72 46 95 77 49 101 58 52 107 63 55 75 68 58 81 73 43 87 78 46 93 59 49 99 64 52 105 69 55 111 74 58 79 79 43 85 60 46 91 65 49 97 70 52 103 75 55 109 56 58 77 61 43 83 66 46 89 71 49 95 76 52 101 57 55 107 62 58 75 67 43 81 72 46 87 77 49 93 58 52 99 63 55 105 68 58 111 73 43 79 78 46 85 59 49 91 64 52 97 69 55 103 74 58 109 79 43 77 60 46 83 65 49 89 70 52 95 75 55 101 56 58 107 61 43 75 66 46 81 71 49 87 76 52 93 57 55 99 62 58 105 67 43 111 72 46 79 77 49 85 58 52 91 63 55 97 68 58 103 73 43 109 78 46 77 59 49 83 64 52 89 69 55 95 74 58 101 79 43 107 60 46 75 65 49 81 70 52 87 75 55 93 56 58 99 61 43 105 66 46 111 71 49 79 76 52 85 57 55 91 62 58 97 67 43 103 72 46 109 77 49 77 58 52 83 63 55 89 68 58 95 73 43 101 78 46 107 59 49 75 64 52 81 69 55 87 74 58 93 79 43 99 60 46 105 65 49 111 70 52 79 75 55 85 56 58 91 61 43 97 66 46 103 71 49 109 76 52 77 57 55 83 62 58 89 67 43 95 72 46 101 77 49 107 58 52 75 63 55 81 68 58 87 73 43 93 78 46 99 59 49 105 64 52 111 69 55 79 74 58 85 79 43 91 60 46 97 65 49
88 56 54 94 61 57 100 66 42 106 71 45 74 76 48 80 57 51 86 62 54 92 67 57 98 72 42 104 77 45 110 58 48 78 63 51 84 68 54 90 73 57 96 78 42 102 59 45 108 64 48 76 69 51 82 74 54 88 79 57 94 60 42 100 65 45 106 70 48 74 75 51 80 56 54 86 61 57 92 66 42 98 71 45 104 76 48 110 57 51 78 62 54 84 67 57 90 72 42 96 77 45 102 58 48 108 63 51 76 68 54 82 73 57 88 78 42 94 59 45 100 64 48 106 69 51 74 74 54 80 79 57 86 60 42 92 65 45 98 70 48 104 75 51 110 56 54 78 61 57 84 66 42 90 71 45 96 76 48 102 57 51 108 62 54 76 67 57 82 72 42 88 77 45 94 58 48 100 63 51 106 68 54 74 73 57 80 78 42 86 59 45 92 64 48 98 69 51 104 74 54 110 79 57 78 60 42 84 65 45 90 70 48 96 75 51 102 56 54 108 61 57 76 66 42 82 71 45 88 76 48 94 57 51 100 62 54 106 67 57 74 72 42 80 77 45 86 58 48 92 63 51 98 68 54 104 73 57 110 78 42 78 59 45 84 64 48 90 69 51 96 74 54 102 79 57 108 60 42 76 65 45 82 70 48 88 75 51 94 56 54 100 61 57 106 66 42 74 71 45 80 76 48 86 57 51 92 62 54 98 67 57 104 72 42 110 77 45 78 58 48 84 63 51 90 68 54 96 73 57 102 78 42 108 59 45 76 64 48 82 69 51 88 74 54 94 79 57 100 60 42 106 65 45 74 70 48 80 75 51 86 56 54 92 61 57 98 66 42 104 71 45 110 76 48 78 57 51 84 62 54 90 67 57 96 72 42 102 77 45 108 58 48 76 63 51 82 68 54 88 73 57 94 78 42 100 59 45 106 64 48 74 69 51 80 74 54 86 79 57 92 60 42 98 65 45 104 70 48 110 75 51 78 56 54 84 61 57 90 66 42 96 71 45 102 76 48 108 57 51 76 62 54 82 67 57 88 72 42 94 77 45 100 58 48 106 63 51 74 68 54 80 73 57 86 78 42 92 59 45 98 64 48 104 69 51 110 74 54 78 79 57 84 60 42 90 65 45 96 70 48 102 75 51 108 56 54 76 61 57 82 66 42 88 71 45 94 76 48 100 57 51 106 62 54 74 67 57 80 72 42 86 77 45 92 58 48 98 63 51 104 68 54 110 73 57 78 78 42 84 59 45 90 64 48 96 69 51 102 74 54 108 79 57 76 60 42 82 65 45 88 70 48 94 75 51 100 56 54 106 61 57 74 66 42 80 71 45 86 76 48 92 57 51 98 62 54 104 67 57 110 72 42 78 77 45 84 58 48 90 63 51 96 68 54 102 73 57 108 78 42 76 59 45 82 64 48 88 69 51 94 74 54 100 79 57 106 60 42 74 65 45 80 70 48 86 75 51 92 56 54 98 61 57 104 66 42 110 71 45 78 76 48 84 57 51 90 62 54 96 67 57 102 72 42 108 77 45 76 58 48 82 63 51 88 68 54 94 73 57 100 78 42 106 59 45 74 64 48 80 69 51 86 74 54 92 79 57 98 60 42 104 65 45 110 70 48 78 75 51 84 56 54 90 61 57 96 66 42 102 71 45 108 76 48 76 57 51 82 62 54 88 67 57 94 72 42 100 77 45 106 58 48 74 63 51 80 68 54 86 73 57 92 78 42 98 59 45 104 64 48 110 69 51 78 74 54 84 79 57 90 60 42 96 65 45 102 70 48 108 75 51 76 56 54 82 61 57 88 66 42 94 71 45 100 76 48 106 57 51 74 62 54 80 67 57 86 72 42 92 77 45 98 58 48 104 63 51 110 68 54 78 73 57 84 78 42 90 59 45 96 64 48 102 69 51 108 74 54 76 79 57 82 60 42 88 65 45 94 70 48 100 75 51 106 56 54 74 61 57 80 66 42 86 71 45 92 76 48 98 57 51 104 62 54 110 67 57 78 72 42 84 77 45 90 58 48 96 63 51 102 68 54 108 73 57 76 78 42 82 59 45 88 64 48 94 69 51 100 74 54 106 79 57 74 60 42 80 65 45 86 70 48 92 75 51 98 56 54 104 61 57 110 66 42 78 71 45 84 76 48 90 57 51 96 62 54 102 67 57
93 58 44 99 63 47 105 68 50 111 73 53 79 78 56 85 59 59 91 64 44 97 69 47 103 74 50 109 79 53 77 60 56 83 65 59 89 70 44 95 75 47 101 56 50 107 61 53 75 66 56 81 71 59 87 76 44 93 57 47 99 62 50 105 67 53 111 72 56 79 77 59 85 58 44 91 63 47 97 68 50 103 73 53 109 78 56 77 59 59 83 64 44 89 69 47 95 74 50 101 79 53 107 60 56 75 65 59 81 70 44 87 75 47 93 56 50 99 61 53 105 66 56 111 71 59 79 76 44 85 57 47 91 62 50 97 67 53 103 72 56 109 77 59 77 58 44 83 63 47 89 68 50 95 73 53 101 78 56 107 59 59 75 64 44 81 69 47 87 74 50 93 79 53 99 60 56 105 65 59 111 70 44 79 75 47 85 56 50 91 61 53 97 66 56 103 71 59 109 76 44 77 57 47 83 62 50 89 67 53 95 72 56 101 77 59 107 58 44 75 63 47 81 68 50 87 73 53 93 78 56 99 59 59 105 64 44 111 69 47 79 74 50 85 79 53 91 60 56 97 65 59 103 70 44 109 75 47 77 56 50 83 61 53 89 66 56 95 71 59 101 76 44 107 57 47 75 62 50 81 67 53 87 72 56 93 77 59 99 58 44 105 63 47 111 68 50 79 73 53 85 78 56 91 59 59 97 64 44 103 69 47 109 74 50 77 79 53 83 60 56 89 65 59 95 70 44 101 75 47 107 56 50 75 61 53 81 66 56 87 71 59 93 76 44 99 57 47 105 62 50 111 67 53 79 72 56 85 77 59 91 58 44 97 63 47 103 68 50 109 73 53 77 78 56 83 59 59 89 64 44 95 69 47 101 74 50 107 79 53 75 60 56 81 65 59 87 70 44 93 75 47 99 56 50 105 61 53 111 66 56 79 71 59 85 76 44 91 57 47 97 62 50 103 67 53 109 72 56 77 77 59 83 58 44 89 63 47 95 68 50 101 73 53 107 78 56 75 59 59 81 64 44 87 69 47 93 74 50 99 79 53 105 60 56 111 65 59 79 70 44 85 75 47 91 56 50 97 61 53 103 66 56 109 71 59 77 76 44 83 57 47 89 62 50 95 67 53 101 72 56 107 77 59 75 58 44 81 63 47 87 68 50 93 73 53 99 78 56 105 59 59 111 64 44 79 69 47 85 74 50 91 79 53 97 60 56 103 65 59 109 70 44 77 75 47 83 56 50 89 61 53 95 66 56 101 71 59 107 76 44 75 57 47 81 62 50 87 67 53 93 72 56 99 77 59 105 58 44 111 63 47 79 68 50 85 73 53 91 78 56 97 59 59 103 64 44 109 69 47 77 74 50 83 79 53 89 60 56 95 65 59 101 70 44 107 75 47 75 56 50 81 61 53 87 66 56 93 71 59 99 76 44 105 57 47 111 62 50 79 67 53 85 72 56 91 77 59 97 58 44 103 63 47 109 68 50 77 73 53 83 78 56 89 59 59 95 64 44 101 69 47 107 74 50 75 79 53 81 60 56 87 65 59 93 70 44 99 75 47 105 56 50 111 61 53 79 66 56 85 71 59 91 76 44 97 57 47 103 62 50 109 67 53 77 72 56 83 77 59 89 58 44 95 63 47 101 68 50 107 73 53 75 78 56 81 59 59 87 64 44 93 69 47 99 74 50 105 79 53 111 60 56 79 65 59 85 70 44 91 75 47 97 56 50 103 61 53 109 66 56 77 71 59 83 76 44 89 57 47 95 62 50 101 67 53 107 72 56 75 77 59 81 58 44 87 63 47 93 68 50 99 73 53 105 78 56 111 59 59 79 64 44 85 69 47 91 74 50 97 79 53 103 60 56 109 65 59 77 70 44 83 75 47 89 56 50 95 61 53 101 66 56 107 71 59 75 76 44 81 57 47 87 62 50 93 67 53 99 72 56 105 77 59 111 58 44 79 63 47 85 68 50 91 73 53 97 78 56 103 59 59 109 64 44 77 69 47 83 74 50 89 79 53 95 60 56 101 65 59 107 70 44 75 75 47 81 56 50 87 61 53 93 66 56 99 71 59 105 76 44 111 57 47 79 62 50 85 67 53 91 72 56 97 77 59 103 58 44 109 63 47 77 68 50 83 73 53 89 78 56 95 59 59 101 64 44 107 69 47
98 60 52 104 65 55 110 70 58 78 75 43 84 56 46 90 61 49 96 66 52 102 71 55 108 76 58 76 57 43 82 62 46 88 67 49 94 72 52 100 77 55 106 58 58 74 63 43 80 68 46 86 73 49 92 78 52 98 59 55 104 64 58 110 69 43 78 74 46 84 79 49 90 60 52 96 65 55 102 70 58 108 75 43 76 56 46 82 61 49 88 66 52 94 71 55 100 76 58 106 57 43 74 62 46 80 67 49 86 72 52 92 77 55 98 58 58 104 63 43 110 68 46 78 73 49 84 78 52 90 59 55 96 64 58 102 69 43 108 74 46 76 79 49 82 60 52 88 65 55 94 70 58 100 75 43 106 56 46 74 61 49 80 66 52 86 71 55 92 76 58 98 57 43 104 62 46 110 67 49 78 72 52 84 77 55 90 58 58 96 63 43 102 68 46 108 73 49 76 78 52 82 59 55 88 64 58 94 69 43 100 74 46 106 79 49 74 60 52 80 65 55 86 70 58 92 75 43 98 56 46 104 61 49 110 66 52 78 71 55 84 76 58 90 57 43 96 62 46 102 67 49 108 72 52 76 77 55 82 58 58 88 63 43 94 68 46 100 73 49 106 78 52 74 59 55 80 64 58 86 69 43 92 74 46 98 79 49 104 60 52 110 65 55 78 70 58 84 75 43 90 56 46 96 61 49 102 66 52 108 71 55 76 76 58 82 57 43 88 62 46 94 67 49 100 72 52 106 77 55 74 58 58 80 63 43 86 68 46 92 73 49 98 78 52 104 59 55 110 64 58 78 69 43 84 74 46 90 79 49 96 60 52 102 65 55 108 70 58 76 75 43 82 56 46 88 61 49 94 66 52 100 71 55 106 76 58 74 57 43 80 62 46 86 67 49 92 72 52 98 77 55 104 58 58 110 63 43 78 68 46 84 73 49 90 78 52 96 59 55 102 64 58 108 69 43 76 74 46 82 79 49 88 60 52 94 65 55 100 70 58 106 75 43 74 56 46 80 61 49 86 66 52 92 71 55 98 76 58 104 57 43 110 62 46 78 67 49 84 72 52 90 77 55 96 58 58 102 63 43 108 68 46 76 73 49 82 78 52 88 59 55 94 64 58 100 69 43 106 74 46 74 79 49 80 60 52 86 65 55 92 70 58 98 75 43 104 56 46 110 61 49 78 66 52 84 71 55 90 76 58 96 57 43 102 62 46 108 67 49 76 72 52 82 77 55 88 58 58 94 63 43 100 68 46 106 73 49 74 78 52 80 59 55 86 64 58 92 69 43 98 74 46 104 79 49 110 60 52 78 65 55 84 70 58 90 75 43 96 56 46 102 61 49 108 66 52 76 71 55 82 76 58 88 57 43 94 62 46 100 67 49 106 72 52 74 77 55 80 58 58 86 63 43 92 68 46 98 73 49 104 78 52 110 59 55 78 64 58 84 69 43 90 74 46 96 79 49 102 60 52 108 65 55 76 70 58 82 75 43 88 56 46 94 61 49 100 66 52 106 71 55 74 76 58 80 57 43 86 62 46 92 67 49 98 72 52 104 77 55 110 58 58 78 63 43 84 68 46 90 73 49 96 78 52 102 59 55 108 64 58 76 69 43 82 74 46 88 79 49 94 60 52 100 65 55 106 70 58 74 75 43 80 56 46 86 61 49 92 66 52 98 71 55 104 76 58 110 57 43 78 62 46 84 67 49 90 72 52 96 77 55 102 58 58 108 63 43 76 68 46 82 73 49 88 78 52 94 59 55 100 64 58 106 69 43 74 74 46 80 79 49 86 60 52 92 65 55 98 70 58 104 75 43 110 56 46 78 61 49 84 66 52 90 71 55 96 76 58 102 57 43 108 62 46 76 67 49 82 72 52 88 77 55 94 58 58 100 63 43 106 68 46 74 73 49 80 78 52 86 59 55 92 64 58 98 69 43 104 74 46 110 79 49 78 60 52 84 65 55 90 70 58 96 75 43 102 56 46 108 61 49 76 66 52 82 71 55 88 76 58 94 57 43 100 62 46 106 67 49 74 72 52 80 77 55 86 58 58 92 63 43 98 68 46 104 73 49 110 78 52 78 59 55 84 64 58 90 69 43 96 74 46 102 79 49 108 60 52 76 65 55 82 70 58 88 75 43 94 56 46 100 61 49 106 66 52 74 71 55
103 62 42 109 67 45 77 72 48 83 77 51 89 58 54 95 63 57 101 68 42 107 73 45 75 78 48 81 59 51 87 64 54 93 69 57 99 74 42 105 79 45 111 60 48 79 65 51 85 70 54 91 75 57 97 56 42 103 61 45 109 66 48 77 71 51 83 76 54 89 57 57 95 62 42 101 67 45 107 72 48 75 77 51 81 58 54 87 63 57 93 68 42 99 73 45 105 78 48 111 59 51 79 64 54 85 69 57 91 74 42 97 79 45 103 60 48 109 65 51 77 70 54 83 75 57 89 56 42 95 61 45 101 66 48 107 71 51 75 76 54 81 57 57 87 62 42 93 67 45 99 72 48 105 77 51 111 58 54 79 63 57 85 68 42 91 73 45 97 78 48 103 59 51 109 64 54 77 69 57 83 74 42 89 79 45 95 60 48 101 65 51 107 70 54 75 75 57 81 56 42 87 61 45 93 66 48 99 71 51 105 76 54 111 57 57 79 62 42 85 67 45 91 72 48 97 77 51 103 58 54 109 63 57 77 68 42 83 73 45 89 78 48 95 59 51 101 64 54 107 69 57 75 74 42 81 79 45 87 60 48 93 65 51 99 70 54 105 75 57 111 56 42 79 61 45 85 66 48 91 71 51 97 76 54 103 57 57 109 62 42 77 67 45 83 72 48 89 77 51 95 58 54 101 63 57 107 68 42 75 73 45 81 78 48 87 59 51 93 64 54 99 69 57 105 74 42 111 79 45 79 60 48 85 65 51 91 70 54 97 75 57 103 56 42 109 61 45 77 66 48 83 71 51 89 76 54 95 57 57 101 62 42 107 67 45 75 72 48 81 77 51 87 58 54 93 63 57 99 68 42 105 73 45 111 78 48 79 59 51 85 64 54 91 69 57 97 74 42 103 79 45 109 60 48 77 65 51 83 70 54 89 75 57 95 56 42 101 61 45 107 66 48 75 71 51 81 76 54 87 57 57 93 62 42 99 67 45 105 72 48 111 77 51 79 58 54 85 63 57 91 68 42 97 73 45 103 78 48 109 59 51 77 64 54 83 69 57 89 74 42 95 79 45 101 60 48 107 65 51 75 70 54 81 75 57 87 56 42 93 61 45 99 66 48 105 71 51 111 76 54 79 57 57 85 62 42 91 67 45 97 72 48 103 77 51 109 58 54 77 63 57 83 68 42 89 73 45 95 78 48 101 59 51 107 64 54 75 69 57 81 74 42 87 79 45 93 60 48 99 65 51 105 70 54 111 75 57 79 56 42 85 61 45 91 66 48 97 71 51 103 76 54 109 57 57 77 62 42 83 67 45 89 72 48 95 77 51 101 58 54 107 63 57 75 68 42 81 73 45 87 78 48 93 59 51 99 64 54 105 69 57 111 74 42 79 79 45 85 60 48 91 65 51 97 70 54 103 75 57 109 56 42 77 61 45 83 66 48 89 71 51 95 76 54 101 57 57 107 62 42 75 67 45 81 72 48 87 77 51 93 58 54 99 63 57 105 68 42 111 73 45 79 78 48 85 59 51 91 64 54 97 69 57 103 74 42 109 79 45 77 60 48 83 65 51 89 70 54 95 75 57 101 56 42 107 61 45 75 66 48 81 71 51 87 76 54 93 57 57 99 62 42 105 67 45 111 72 48 79 77 51 85 58 54 91 63 57 97 68 42 103 73 45 109 78 48 77 59 51 83 64 54 89 69 57 95 74 42 101 79 45 107 60 48 75 65 51 81 70 54 87 75 57 93 56 42 99 61 45 105 66 48 111 71 51 79 76 54 85 57 57 91 62 42 97 67 45 103 72 48 109 77 51 77 58 54 83 63 57 89 68 42 95 73 45 101 78 48 107 59 51 75 64 54 81 69 57 87 74 42 93 79 45 99 60 48 105 65 51 111 70 54 79 75 57 85 56 42 91 61 45 97 66 48 103 71 51 109 76 54 77 57 57 83 62 42 89 67 45 95 72 48 101 77 51 107 58 54 75 63 57 81 68 42 87 73 45 93 78 48 99 59 51 105 64 54 111 69 57 79 74 42 85 79 45 91 60 48 97 65 51 103 70 54 109 75 57 77 56 42 83 61 45 89 66 48 95 71 51 101 76 54 107 57 57 75 62 42 81 67 45 87 72 48 93 77 51 99 58 54 105 63 57 111 68 42 79 73 45
108 64 50 76 69 53 82 74 56 88 79 59 94 60 44 100 65 47 106 70 50 74 75 53 80 56 56 86 61 59 92 66 44 98 71 47 104 76 50 110 57 53 78 62 56 84 67 59 90 72 44 96 77 47 102 58 50 108 63 53 76 68 56 82 73 59 88 78 44 94 59 47 100 64 50 106 69 53 74 74 56 80 79 59 86 60 44 92 65 47 98 70 50 104 75 53 110 56 56 78 61 59 84 66 44 90 71 47 96 76 50 102 57 53 108 62 56 76 67 59 82 72 44 88 77 47 94 58 50 100 63 53 106 68 56 74 73 59 80 78 44 86 59 47 92 64 50 98 69 53 104 74 56 110 79 59 78 60 44 84 65 47 90 70 50 96 75 53 102 56 56 108 61 59 76 66 44 82 71 47 88 76 50 94 57 53 100 62 56 106 67 59 74 72 44 80 77 47 86 58 50 92 63 53 98 68 56 104 73 59 110 78 44 78 59 47 84 64 50 90 69 53 96 74 56 102 79 59 108 60 44 76 65 47 82 70 50 88 75 53 94 56 56 100 61 59 106 66 44 74 71 47 80 76 50 86 57 53 92 62 56 98 67 59 104 72 44 110 77 47 78 58 50 84 63 53 90 68 56 96 73 59 102 78 44 108 59 47 76 64 50 82 69 53 88 74 56 94 79 59 100 60 44 106 65 47 74 70 50 80 75 53 86 56 56 92 61 59 98 66 44 104 71 47 110 76 50 78 57 53 84 62 56 90 67 59 96 72 44 102 77 47 108 58 50 76 63 53 82 68 56 88 73 59 94 78 44 100 59 47 106 64 50 74 69 53 80 74 56 86 79 59 92 60 44 98 65 47 104 70 50 110 75 53 78 56 56 84 61 59 90 66 44 96 71 47 102 76 50 108 57 53 76 62 56 82 67 59 88 72 44 94 77 47 100 58 50 106 63 53 74 68 56 80 73 59 86 78 44 92 59 47 98 64 50 104 69 53 110 74 56 78 79 59 84 60 44 90 65 47 96 70 50 102 75 53 108 56 56 76 61 59 82 66 44 88 71 47 94 76 50 100 57 53 106 62 56 74 67 59 80 72 44 86 77 47 92 58 50 98 63 53 104 68 56 110 73 59 78 78 44 84 59 47 90 64 50 96 69 53 102 74 56 108 79 59 76 60 44 82 65 47 88 70 50 94 75 53 100 56 56 106 61 59 74 66 44 80 71 47 86 76 50 92 57 53 98 62 56 104 67 59 110 72 44 78 77 47 84 58 50 90 63 53 96 68 56 102 73 59 108 78 44 76 59 47 82 64 50 88 69 53 94 74 56 100 79 59 106 60 44 74 65 47 80 70 50 86 75 53 92 56 56 98 61 59 104 66 44 110 71 47 78 76 50 84 57 53 90 62 56 96 67 59 102 72 44 108 77 47 76 58 50 82 63 53 88 68 56 94 73 59 100 78 44 106 59 47 74 64 50 80 69 53 86 74 56 92 79 59 98 60 44 104 65 47 110 70 50 78 75 53 84 56 56 90 61 59 96 66 44 102 71 47 108 76 50 76 57 53 82 62 56 88 67 59 94 72 44 100 77 47 106 58 50 74 63 53 80 68 56 86 73 59 92 78 44 98 59 47 104 64 50 110 69 53 78 74 56 84 79 59 90 60 44 96 65 47 102 70 50 108 75 53 76 56 56 82 61 59 88 66 44 94 71 47 100 76 50 106 57 53 74 62 56 80 67 59 86 72 44 92 77 47 98 58 50 104 63 53 110 68 56 78 73 59 84 78 44 90 59 47 96 64 50 102 69 53 108 74 56 76 79 59 82 60 44 88 65 47 94 70 50 100 75 53 106 56 56 74 61 59 80 66 44 86 71 47 92 76 50 98 57 53 104 62 56 110 67 59 78 72 44 84 77 47 90 58 50 96 63 53 102 68 56 108 73 59 76 78 44 82 59 47 88 64 50 94 69 53 100 74 56 106 79 59 74 60 44 80 65 47 86 70 50 92 75 53 98 56 56 104 61 59 110 66 44 78 71 47 84 76 50 90 57 53 96 62 56 102 67 59 108 72 44 76 77 47 82 58 50 88 63 53 94 68 56 100 73 59 106 78 44 74 59 47 80 64 50 86 69 53 92 74 56 98 79 59 104 60 44 110 65 47 78 70 50 84 75 53
75 66 58 81 71 43 87 76 46 93 57 49 99 62 52 105 67 55 111 72 58 79 77 43 85 58 46 91 63 49 97 68 52 103 73 55 109 78 58 77 59 43 83 64 46 89 69 49 95 74 52 101 79 55 107 60 58 75 65 43 81 70 46 87 75 49 93 56 52 99 61 55 105 66 58 111 71 43 79 76 46 85 57 49 91 62 52 97 67 55 103 72 58 109 77 43 77 58 46 83 63 49 89 68 52 95 73 55 101 78 58 107 59 43 75 64 46 81 69 49 87 74 52 93 79 55 99 60 58 105 65 43 111 70 46 79 75 49 85 56 52 91 61 55 97 66 58 103 71 43 109 76 46 77 57 49 83 62 52 89 67 55 95 72 58 101 77 43 107 58 46 75 63 49 81 68 52 87 73 55 93 78 58 99 59 43 105 64 46 111 69 49 79 74 52 85 79 55 91 60 58 97 65 43 103 70 46 109 75 49 77 56 52 83 61 55 89 66 58 95 71 43 101 76 46 107 57 49 75 62 52 81 67 55 87 72 58 93 77 43 99 58 46 105 63 49 111 68 52 79 73 55 85 78 58 91 59 43 97 64 46 103 69 49 109 74 52 77 79 55 83 60 58 89 65 43 95 70 46 101 75 49 107 56 52 75 61 55 81 66 58 87 71 43 93 76 46 99 57 49 105 62 52 111 67 55 79 72 58 85 77 43 91 58 46 97 63 49 103 68 52 109 73 55 77 78 58 83 59 43 89 64 46 95 69 49 101 74 52 107 79 55 75 60 58 81 65 43 87 70 46 93 75 49 99 56 52 105 61 55 111 66 58 79 71 43 85 76 46 91 57 49 97 62 52 103 67 55 109 72 58 77 77 43 83 58 46 89 63 49 95 68 52 101 73 55 107 78 58 75 59 43 81 64 46 87 69 49 93 74 52 99 79 55 105 60 58 111 65 43 79 70 46 85 75 49 91 56 52 97 61 55 103 66 58 109 71 43 77 76 46 83 57 49 89 62 52 95 67 55 101 72 58 107 77 43 75 58 46 81 63 49 87 68 52 93 73 55 99 78 58 105 59 43 111 64 46 79 69 49 85 74 52 91 79 55 97 60 58 103 65 43 109 70 46 77 75 49 83 56 52 89 61 55 95 66 58 101 71 43 107 76 46 75 57 49 81 62 52 87 67 55 93 72 58 99 77 43 105 58 46 111 63 49 79 68 52 85 73 55 91 78 58 97 59 43 103 64 46 109 69 49 77 74 52 83 79 55 89 60 58 95 65 43 101 70 46 107 75 49 75 56 52 81 61 55 87 66 58 93 71 43 99 76 46 105 57 49 111 62 52 79 67 55 85 72 58 91 77 43 97 58 46 103 63 49 109 68 52 77 73 55 83 78 58 89 59 43 95 64 46 101 69 49 107 74 52 75 79 55 81 60 58 87 65 43 93 70 46 99 75 49 105 56 52 111 61 55 79 66 58 85 71 43 91 76 46 97 57 49 103 62 52 109 67 55 77 72 58 83 77 43 89 58 46 95 63 49 101 68 52 107 73 55 75 78 58 81 59 43 87 64 46 93 69 49 99 74 52 105 79 55 111 60 58 79 65 43 85 70 46 91 75 49 97 56 52 103 61 55 109 66 58 77 71 43 83 76 46 89 57 49 95 62 52 101 67 55 107 72 58 75 77 43 81 58 46 87 63 49 93 68 52 99 73 55 105 78 58 111 59 43 79 64 46 85 69 49 91 74 52 97 79 55 103 60 58 109 65 43 77 70 46 83 75 49 89 56 52 95 61 55 101 66 58 107 71 43 75 76 46 81 57 49 87 62 52 93 67 55 99 72 58 105 77 43 111 58 46 79 63 49 85 68 52 91 73 55 97 78 58 103 59 43 109 64 46 77 69 49 83 74 52 89 79 55 95 60 58 101 65 43 107 70 46 75 75 49 81 56 52 87 61 55 93 66 58 99 71 43 105 76 46 111 57 49 79 62 52 85 67 55 91 72 58 97 77 43 103 58 46 109 63 49 77 68 52 83 73 55 89 78 58 95 59 43 101 64 46 107 69 49 75 74 52 81 79 55 87 60 58 93 65 43 99 70 46 105 75 49 111 56 52 79 61 55 85 66 58 91 71 43 97 76 46 103 57 49 109 62 52 77 67 55 83 72 58 89 77 43
80 68 48 86 73 51 92 78 54 98 59 57 104 64 42 110 69 45 78 74 48 84 79 51 90 60 54 96 65 57 102 70 42 108 75 45 76 56 48 82 61 51 88 66 54 94 71 57 100 76 42 106 57 45 74 62 48 80 67 51 86 72 54 92 77 57 98 58 42 104 63 45 110 68 48 78 73 51 84 78 54 90 59 57 96 64 42 102 69 45 108 74 48 76 79 51 82 60 54 88 65 57 94 70 42 100 75 45 106 56 48 74 61 51 80 66 54 86 71 57 92 76 42 98 57 45 104 62 48 110 67 51 78 72 54 84 77 57 90 58 42 96 63 45 102 68 48 108 73 51 76 78 54 82 59 57 88 64 42 94 69 45 100 74 48 106 79 51 74 60 54 80 65 57 86 70 42 92 75 45 98 56 48 104 61 51 110 66 54 78 71 57 84 76 42 90 57 45 96 62 48 102 67 51 108 72 54 76 77 57 82 58 42 88 63 45 94 68 48 100 73 51 106 78 54 74 59 57 80 64 42 86 69 45 92 74 48 98 79 51 104 60 54 110 65 57 78 70 42 84 75 45 90 56 48 96 61 51 102 66 54 108 71 57 76 76 42 82 57 45 88 62 48 94 67 51 100 72 54 106 77 57 74 58 42 80 63 45 86 68 48 92 73 51 98 78 54 104 59 57 110 64 42 78 69 45 84 74 48 90 79 51 96 60 54 102 65 57 108 70 42 76 75 45 82 56 48 88 61 51 94 66 54 100 71 57 106 76 42 74 57 45 80 62 48 86 67 51 92 72 54 98 77 57 104 58 42 110 63 45 78 68 48 84 73 51 90 78 54 96 59 57 102 64 42 108 69 45 76 74 48 82 79 51 88 60 54 94 65 57 100 70 42 106 75 45 74 56 48 80 61 51 86 66 54 92 71 57 98 76 42 104 57 45 110 62 48 78 67 51 84 72 54 90 77 57 96 58 42 102 63 45 108 68 48 76 73 51 82 78 54 88 59 57 94 64 42 100 69 45 106 74 48 74 79 51 80 60 54 86 65 57 92 70 42 98 75 45 104 56 48 110 61 51 78 66 54 84 71 57 90 76 42 96 57 45 102 62 48 108 67 51 76 72 54 82 77 57 88 58 42 94 63 45 100 68 48 106 73 51 74 78 54 80 59 57 86 64 42 92 69 45 98 74 48 104 79 51 110 60 54 78 65 57 84 70 42 90 75 45 96 56 48 102 61 51 108 66 54 76 71 57 82 76 42 88 57 45 94 62 48 100 67 51 106 72 54 74 77 57 80 58 42 86 63 45 92 68 48 98 73 51 104 78 54 110 59 57 78 64 42 84 69 45 90 74 48 96 79 51 102 60 54 108 65 57 76 70 42 82 75 45 88 56 48 94 61 51 100 66 54 106 71 57 74 76 42 80 57 45 86 62 48 92 67 51 98 72 54 104 77 57 110 58 42 78 63 45 84 68 48 90 73 51 96 78 54 102 59 57 108 64 42 76 69 45 82 74 48 88 79 51 94 60 54 100 65 57 106 70 42 74 75 45 80 56 48 86 61 51 92 66 54 98 71 57 104 76 42 110 57 45 78 62 48 84 67 51 90 72 54 96 77 57 102 58 42 108 63 45 76 68 48 82 73 51 88 78 54 94 59 57 100 64 42 106 69 45 74 74 48 80 79 51 86 60 54 92 65 57 98 70 42 104 75 45 110 56 48 78 61 51 84 66 54 90 71 57 96 76 42 102 57 45 108 62 48 76 67 51 82 72 54 88 77 57 94 58 42 100 63 45 106 68 48 74 73 51 80 78 54 86 59 57 92 64 42 98 69 45 104 74 48 110 79 51 78 60 54 84 65 57 90 70 42 96 75 45 102 56 48 108 61 51 76 66 54 82 71 57 88 76 42 94 57 45 100 62 48 106 67 51 74 72 54 80 77 57 86 58 42 92 63 45 98 68 48 104 73 51 110 78 54 78 59 57 84 64 42 90 69 45 96 74 48 102 79 51 108 60 54 76 65 57 82 70 42 88 75 45 94 56 48 100 61 51 106 66 54 74 71 57 80 76 42 86 57 45 92 62 48 98 67 51 104 72 54 110 77 57 78 58 42 84 63 45 90 68 48 96 73 51 102 78 54 108 59 57 76 64 42 82 69 45 88 74 48 94 79 51
85 70 56 91 75 59 97 56 44 103 61 47 109 66 50 77 71 53 83 76 56 89 57 59 95 62 44 101 67 47 107 72 50 75 77 53 81 58 56 87 63 59 93 68 44 99 73 47 105 78 50 111 59 53 79 64 56 85 69 59 91 74 44 97 79 47 103 60 50 109 65 53 77 70 56 83 75 59 89 56 44 95 61 47 101 66 50 107 71 53 75 76 56 81 57 59 87 62 44 93 67 47 99 72 50 105 77 53 111 58 56 79 63 59 85 68 44 91 73 47 97 78 50 103 59 53 109 64 56 77 69 59 83 74 44 89 79 47 95 60 50 101 65 53 107 70 56 75 75 59 81 56 44 87 61 47 93 66 50 99 71 53 105 76 56 111 57 59 79 62 44 85 67 47 91 72 50 97 77 53 103 58 56 109 63 59 77 68 44 83 73 47 89 78 50 95 59 53 101 64 56 107 69 59 75 74 44 81 79 47 87 60 50 93 65 53 99 70 56 105 75 59 111 56 44 79 61 47 85 66 50 91 71 53 97 76 56 103 57 59 109 62 44 77 67 47 83 72 50 89 77 53 95 58 56 101 63 59 107 68 44 75 73 47 81 78 50 87 59 53 93 64 56 99 69 59 105 74 44 111 79 47 79 60 50 85 65 53 91 70 56 97 75 59 103 56 44 109 61 47 77 66 50 83 71 53 89 76 56 95 57 59 101 62 44 107 67 47 75 72 50 81 77 53 87 58 56 93 63 59 99 68 44 105 73 47 111 78 50 79 59 53 85 64 56 91 69 59 97 74 44 103 79 47 109 60 50 77 65 53 83 70 56 89 75 59 95 56 44 101 61 47 107 66 50 75 71 53 81 76 56 87 57 59 93 62 44 99 67 47 105 72 50 111 77 53 79 58 56 85 63 59 91 68 44 97 73 47 103 78 50 109 59 53 77 64 56 83 69 59 89 74 44 95 79 47 101 60 50 107 65 53 75 70 56 81 75 59 87 56 44 93 61 47 99 66 50 105 71 53 111 76 56 79 57 59 85 62 44 91 67 47 97 72 50 103 77 53 109 58 56 77 63 59 83 68 44 89 73 47 95 78 50 101 59 53 107 64 56 75 69 59 81 74 44 87 79 47 93 60 50 99 65 53 105 70 56 111 75 59 79 56 44 85 61 47 91 66 50 97 71 53 103 76 56 109 57 59 77 62 44 83 67 47 89 72 50 95 77 53 101 58 56 107 63 59 75 68 44 81 73 47 87 78 50 93 59 53 99 64 56 105 69 59 111 74 44 79 79 47 85 60 50 91 65 53 97 70 56 103 75 59 109 56 44 77 61 47 83 66 50 89 71 53 95 76 56 101 57 59 107 62 44 75 67 47 81 72 50 87 77 53 93 58 56 99 63 59 105 68 44 111 73 47 79 78 50 85 59 53 91 64 56 97 69 59 103 74 44 109 79 47 77 60 50 83 65 53 89 70 56 95 75 59 101 56 44 107 61 47 75 66 50 81 71 53 87 76 56 93 57 59 99 62 44 105 67 47 111 72 50 79 77 53 85 58 56 91 63 59 97 68 44 103 73 47 109 78 50 77 59 53 83 64 56 89 69 59 95 74 44 101 79 47 107 60 50 75 65 53 81 70 56 87 75 59 93 56 44 99 61 47 105 66 50 111 71 53 79 76 56 85 57 59 91 62 44 97 67 47 103 72 50 109 77 53 77 58 56 83 63 59 89 68 44 95 73 47 101 78 50 107 59 53 75 64 56 81 69 59 87 74 44 93 79 47 99 60 50 105 65 53 111 70 56 79 75 59 85 56 44 91 61 47 97 66 50 103 71 53 109 76 56 77 57 59 83 62 44 89 67 47 95 72 50 101 77 53 107 58 56 75 63 59 81 68 44 87 73 47 93 78 50 99 59 53 105 64 56 111 69 59 79 74 44 85 79 47 91 60 50 97 65 53 103 70 56 109 75 59 77 56 44 83 61 47 89 66 50 95 71 53 101 76 56 107 57 59 75 62 44 81 67 47 87 72 50 93 77 53 99 58 56 105 63 59 111 68 44 79 73 47 85 78 50 91 59 53 97 64 56 103 69 59 109 74 44 77 79 47 83 60 50 89 65 53 95 70 56 101 75 59 107 56 44 75 61 47 81 66 50 87 71 53 93 76 56 99 57 59
90 72 46 96 77 49 102 58 52 108 63 55 76 68 58 82 73 43 88 78 46 94 59 49 100 64 52 106 69 55 74 74 58 80 79 43 86 60 46 92 65 49 98 70 52 104 75 55 110 56 58 78 61 43 84 66 46 90 71 49 96 76 52 102 57 55 108 62 58 76 67 43 82 72 46 88 77 49 94 58 52 100 63 55 106 68 58 74 73 43 80 78 46 86 59 49 92 64 52 98 69 55 104 74 58 110 79 43 78 60 46 84 65 49 90 70 52 96 75 55 102 56 58 108 61 43 76 66 46 82 71 49 88 76 52 94 57 55 100 62 58 106 67 43 74 72 46 80 77 49 86 58 52 92 63 55 98 68 58 104 73 43 110 78 46 78 59 49 84 64 52 90 69 55 96 74 58 102 79 43 108 60 46 76 65 49 82 70 52 88 75 55 94 56 58 100 61 43 106 66 46 74 71 49 80 76 52 86 57 55 92 62 58 98 67 43 104 72 46 110 77 49 78 58 52 84 63 55 90 68 58 96 73 43 102 78 46 108 59 49 76 64 52 82 69 55 88 74 58 94 79 43 100 60 46 106 65 49 74 70 52 80 75 55 86 56 58 92 61 43 98 66 46 104 71 49 110 76 52 78 57 55 84 62 58 90 67 43 96 72 46 102 77 49 108 58 52 76 63 55 82 68 58 88 73 43 94 78 46 100 59 49 106 64 52 74 69 55 80 74 58 86 79 43 92 60 46 98 65 49 104 70 52 110 75 55 78 56 58 84 61 43 90 66 46 96 71 49 102 76 52 108 57 55 76 62 58 82 67 43 88 72 46 94 77 49 100 58 52 106 63 55 74 68 58 80 73 43 86 78 46 92 59 49 98 64 52 104 69 55 110 74 58 78 79 43 84 60 46 90 65 49 96 70 52 102 75 55 108 56 58 76 61 43 82 66 46 88 71 49 94 76 52 100 57 55 106 62 58 74 67 43 80 72 46 86 77 49 92 58 52 98 63 55 104 68 58 110 73 43 78 78 46 84 59 49 90 64 52 96 69 55 102 74 58 108 79 43 76 60 46 82 65 49 88 70 52 94 75 55 100 56 58 106 61 43 74 66 46 80 71 49 86 76 52 92 57 55 98 62 58 104 67 43 110 72 46 78 77 49 84 58 52 90 63 55 96 68 58 102 73 43 108 78 46 76 59 49 82 64 52 88 69 55 94 74 58 100 79 43 106 60 46 74 65 49 80 70 52 86 75 55 92 56 58 98 61 43 104 66 46 110 71 49 78 76 52 84 57 55 90 62 58 96 67 43 102 72 46 108 77 49 76 58 52 82 63 55 88 68 58 94 73 43 100 78 46 106 59 49 74 64 52 80 69 55 86 74 58 92 79 43 98 60 46 104 65 49 110 70 52 78 75 55 84 56 58 90 61 43 96 66 46 102 71 49 108 76 52 76 57 55 82 62 58 88 67 43 94 72 46 100 77 49 106 58 52 74 63 55 80 68 58 86 73 43 92 78 46 98 59 49 104 64 52 110 69 55 78 74 58 84 79 43 90 60 46 96 65 49 102 70 52 108 75 55 76 56 58 82 61 43 88 66 46 94 71 49 100 76 52 106 57 55 74 62 58 80 67 43 86 72 46 92 77 49 98 58 52 104 63 55 110 68 58 78 73 43 84 78 46 90 59 49 96 64 52 102 69 55 108 74 58 76 79 43 82 60 46 88 65 49 94 70 52 100 75 55 106 56 58 74 61 43 80 66 46 86 71 49 92 76 52 98 57 55 104 62 58 110 67 43 78 72 46 84 77 49 90 58 52 96 63 55 102 68 58 108 73 43 76 78 46 82 59 49 88 64 52 94 69 55 100 74 58 106 79 43 74 60 46 80 65 49 86 70 52 92 75 55 98 56 58 104 61 43 110 66 46 78 71 49 84 76 52 90 57 55 96 62 58 102 67 43 108 72 46 76 77 49 82 58 52 88 63 55 94 68 58 100 73 43 106 78 46 74 59 49 80 64 52 86 69 55 92 74 58 98 79 43 104 60 46 110 65 49 78 70 52 84 75 55 90 56 58 96 61 43 102 66 46 108 71 49 76 76 52 82 57 55 88 62 58 94 67 43 100 72 46 106 77 49 74 58 52 80 63 55 86 68 58 92 73 43 98 78 46 104 59 49
95 74 54 101 79 57 107 60 42 75 65 45 81 70 48 87 75 51 93 56 54 99 61 57 105 66 42 111 71 45 79 76 48 85 57 51 91 62 54 97 67 57 103 72 42 109 77 45 77 58 48 83 63 51 89 68 54 95 73 57 101 78 42 107 59 45 75 64 48 81 69 51 87 74 54 93 79 57 99 60 42 105 65 45 111 70 48 79 75 51 85 56 54 91 61 57 97 66 42 103 71 45 109 76 48 77 57 51 83 62 54 89 67 57 95 72 42 101 77 45 107 58 48 75 63 51 81 68 54 87 73 57 93 78 42 99 59 45 105 64 48 111 69 51 79 74 54 85 79 57 91 60 42 97 65 45 103 70 48 109 75 51 77 56 54 83 61 57 89 66 42 95 71 45 101 76 48 107 57 51 75 62 54 81 67 57 87 72 42 93 77 45 99 58 48 105 63 51 111 68 54 79 73 57 85 78 42 91 59 45 97 64 48 103 69 51 109 74 54 77 79 57 83 60 42 89 65 45 95 70 48 101 75 51 107 56 54 75 61 57 81 66 42 87 71 45 93 76 48 99 57 51 105 62 54 111 67 57 79 72 42 85 77 45 91 58 48 97 63 51 103 68 54 109 73 57 77 78 42 83 59 45 89 64 48 95 69 51 101 74 54 107 79 57 75 60 42 81 65 45 87 70 48 93 75 51 99 56 54 105 61 57 111 66 42 79 71 45 85 76 48 91 57 51 97 62 54 103 67 57 109 72 42 77 77 45 83 58 48 89 63 51 95 68 54 101 73 57 107 78 42 75 59 45 81 64 48 87 69 51 93 74 54 99 79 57 105 60 42 111 65 45 79 70 48 85 75 51 91 56 54 97 61 57 103 66 42 109 71 45 77 76 48 83 57 51 89 62 54 95 67 57 101 72 42 107 77 45 75 58 48 81 63 51 87 68 54 93 73 57 99 78 42 105 59 45 111 64 48 79 69 51 85 74 54 91 79 57 97 60 42 103 65 45 109 70 48 77 75 51 83 56 54 89 61 57 95 66 42 101 71 45 107 76 48 75 57 51 81 62 54 87 67 57 93 72 42 99 77 45 105 58 48 111 63 51 79 68 54 85 73 57 91 78 42 97 59 45 103 64 48 109 69 51 77 74 54 83 79 57 89 60 42 95 65 45 101 70 48 107 75 51 75 56 54 81 61 57 87 66 42 93 71 45 99 76 48 105 57 51 111 62 54 79 67 57 85 72 42 91 77 45 97 58 48 103 63 51 109 68 54 77 73 57 83 78 42 89 59 45 95 64 48 101 69 51 107 74 54 75 79 57 81 60 42 87 65 45 93 70 48 99 75 51 105 56 54 111 61 57 79 66 42 85 71 45 91 76 48 97 57 51 103 62 54 109 67 57 77 72 42 83 77 45 89 58 48 95 63 51 101 68 54 107 73 57 75 78 42 81 59 45 87 64 48 93 69 51 99 74 54 105 79 57 111 60 42 79 65 45 85 70 48 91 75 51 97 56 54 103 61 57 109 66 42 77 71 45 83 76 48 89 57 51 95 62 54 101 67 57 107 72 42 75 77 45 81 58 48 87 63 51 93 68 54 99 73 57 105 78 42 111 59 45 79 64 48 85 69 51 91 74 54 97 79 57 103 60 42 109 65 45 77 70 48 83 75 51 89 56 54 95 61 57 101 66 42 107 71 45 75 76 48 81 57 51 87 62 54 93 67 57 99 72 42 105 77 45 111 58 48 79 63 51 85 68 54 91 73 57 97 78 42 103 59 45 109 64 48 77 69 51 83 74 54 89 79 57 95 60 42 101 65 45 107 70 48 75 75 51 81 56 54 87 61 57 93 66 42 99 71 45 105 76 48 111 57 51 79 62 54 85 67 57 91 72 42 97 77 45 103 58 48 109 63 51 77 68 54 83 73 57 89 78 42 95 59 45 101 64 48 107 69 51 75 74 54 81 79 57 87 60 42 93 65 45 99 70 48 105 75 51 111 56 54 79 61 57 85 66 42 91 71 45 97 76 48 103 57 51 109 62 54 77 67 57 83 72 42 89 77 45 95 58 48 101 63 51 107 68 54 75 73 57 81 78 42 87 59 45 93 64 48 99 69 51 105 74 54 111 79 57 79 60 42 85 65 45 91 70 48 97 75 51 103 56 54 109 61 57
100 76 44 106 57 47 74 62 50 80 67 53 86 72 56 92 77 59 98 58 44 104 63 47 110 68 50 78 73 53 84 78 56 90 59 59 96 64 44 102 69 47 108 74 50 76 79 53 82 60 56 88 65 59 94 70 44 100 75 47 106 56 50 74 61 53 80 66 56 86 71 59 92 76 44 98 57 47 104 62 50 110 67 53 78 72 56 84 77 59 90 58 44 96 63 47 102 68 50 108 73 53 76 78 56 82 59 59 88 64 44 94 69 47 100 74 50 106 79 53 74 60 56 80 65 59 86 70 44 92 75 47 98 56 50 104 61 53 110 66 56 78 71 59 84 76 44 90 57 47 96 62 50 102 67 53 108 72 56 76 77 59 82 58 44 88 63 47 94 68 50 100 73 53 106 78 56 74 59 59 80 64 44 86 69 47 92 74 50 98 79 53 104 60 56 110 65 59 78 70 44 84 75 47 90 56 50 96 61 53 102 66 56 108 71 59 76 76 44 82 57 47 88 62 50 94 67 53 100 72 56 106 77 59 74 58 44 80 63 47 86 68 50 92 73 53 98 78 56 104 59 59 110 64 44 78 69 47 84 74 50 90 79 53 96 60 56 102 65 59 108 70 44 76 75 47 82 56 50 88 61 53 94 66 56 100 71 59 106 76 44 74 57 47 80 62 50 86 67 53 92 72 56 98 77 59 104 58 44 110 63 47 78 68 50 84 73 53 90 78 56 96 59 59 102 64 44 108 69 47 76 74 50 82 79 53 88 60 56 94 65 59 100 70 44 106 75 47 74 56 50 80 61 53 86 66 56 92 71 59 98 76 44 104 57 47 110 62 50 78 67 53 84 72 56 90 77 59 96 58 44 102 63 47 108 68 50 76 73 53 82 78 56 88 59 59 94 64 44 100 69 47 106 74 50 74 79 53 80 60 56 86 65 59 92 70 44 98 75 47 104 56 50 110 61 53 78 66 56 84 71 59 90 76 44 96 57 47 102 62 50 108 67 53 76 72 56 82 77 59 88 58 44 94 63 47 100 68 50 106 73 53 74 78 56 80 59 59 86 64 44 92 69 47 98 74 50 104 79 53 110 60 56 78 65 59 84 70 44 90 75 47 96 56 50 102 61 53 108 66 56 76 71 59 82 76 44 88 57 47 94 62 50 100 67 53 106 72 56 74 77 59 80 58 44 86 63 47 92 68 50 98 73 53 104 78 56 110 59 59 78 64 44 84 69 47 90 74 50 96 79 53 102 60 56 108 65 59 76 70 44 82 75 47 88 56 50 94 61 53 100 66 56 106 71 59 74 76 44 80 57 47 86 62 50 92 67 53 98 72 56 104 77 59 110 58 44 78 63 47 84 68 50 90 73 53 96 78 56 102 59 59 108 64 44 76 69 47 82 74 50 88 79 53 94 60 56 100 65 59 106 70 44 74 75 47 80 56 50 86 61 53 92 66 56 98 71 59 104 76 44 110 57 47 78 62 50 84 67 53 90 72 56 96 77 59 102 58 44 108 63 47 76 68 50 82 73 53 88 78 56 94 59 59 100 64 44 106 69 47 74 74 50 80 79 53 86 60 56 92 65 59 98 70 44 104 75 47 110 56 50 78 61 53 84 66 56 90 71 59 96 76 44 102 57 47 108 62 50 76 67 53 82 72 56 88 77 59 94 58 44 100 63 47 106 68 50 74 73 53 80 78 56 86 59 59 92 64 44 98 69 47 104 74 50 110 79 53 78 60 56 84 65 59 90 70 44 96 75 47 102 56 50 108 61 53 76 66 56 82 71 59 88 76 44 94 57 47 100 62 50 106 67 53 74 72 56 80 77 59 86 58 44 92 63 47 98 68 50 104 73 53 110 78 56 78 59 59 84 64 44 90 69 47 96 74 50 102 79 53 108 60 56 76 65 59 82 70 44 88 75 47 94 56 50 100 61 53 106 66 56 74 71 59 80 76 44 86 57 47 92 62 50 98 67 53 104 72 56 110 77 59 78 58 44 84 63 47 90 68 50 96 73 53 102 78 56 108 59 59 76 64 44 82 69 47 88 74 50 94 79 53 100 60 56 106 65 59 74 70 44 80 75 47 86 56 50 92 61 53 98 66 56 104 71 59 110 76 44 78 57 47 84 62 50 90 67 53 96 72 56 102 77 59 108 58 44 76 63 47
105 78 52 111 59 55 79 64 58 85 69 43 91 74 46 97 79 49 103 60 52 109 65 55 77 70 58 83 75 43 89 56 46 95 61 49 101 66 52 107 71 55 75 76 58 81 57 43 87 62 46 93 67 49 99 72 52 105 77 55 111 58 58 79 63 43 85 68 46 91 73 49 97 78 52 103 59 55 109 64 58 77 69 43 83 74 46 89 79 49 95 60 52 101 65 55 107 70 58 75 75 43 81 56 46 87 61 49 93 66 52 99 71 55 105 76 58 111 57 43 79 62 46 85 67 49 91 72 52 97 77 55 103 58 58 109 63 43 77 68 46 83 73 49 89 78 52 95 59 55 101 64 58 107 69 43 75 74 46 81 79 49 87 60 52 93 65 55 99 70 58 105 75 43 111 56 46 79 61 49 85 66 52 91 71 55 97 76 58 103 57 43 109 62 46 77 67 49 83 72 52 89 77 55 95 58 58 101 63 43 107 68 46 75 73 49 81 78 52 87 59 55 93 64 58 99 69 43 105 74 46 111 79 49 79 60 52 85 65 55 91 70 58 97 75 43 103 56 46 109 61 49 77 66 52 83 71 55 89 76 58 95 57 43 101 62 46 107 67 49 75 72 52 81 77 55 87 58 58 93 63 43 99 68 46 105 73 49 111 78 52 79 59 55 85 64 58 91 69 43 97 74 46 103 79 49 109 60 52 77 65 55 83 70 58 89 75 43 95 56 46 101 61 49 107 66 52 75 71 55 81 76 58 87 57 43 93 62 46 99 67 49 105 72 52 111 77 55 79 58 58 85 63 43 91 68 46 97 73 49 103 78 52 109 59 55 77 64 58 83 69 43 89 74 46 95 79 49 101 60 52 107 65 55 75 70 58 81 75 43 87 56 46 93 61 49 99 66 52 105 71 55 111 76 58 79 57 43 85 62 46 91 67 49 97 72 52 103 77 55 109 58 58 77 63 43 83 68 46 89 73 49 95 78 52 101 59 55 107 64 58 75 69 43 81 74 46 87 79 49 93 60 52 99 65 55 105 70 58 111 75 43 79 56 46 85 61 49 91 66 52 97 71 55 103 76 58 109 57 43 77 62 46 83 67 49 89 72 52 95 77 55 101 58 58 107 63 43 75 68 46 81 73 49 87 78 52 93 59 55 99 64 58 105 69 43 111 74 46 79 79 49 85 60 52 91 65 55 97 70 58 103 75 43 109 56 46 77 61 49 83 66 52 89 71 55 95 76 58 101 57 43 107 62 46 75 67 49 81 72 52 87 77 55 93 58 58 99 63 43 105 68 46 111 73 49 79 78 52 85 59 55 91 64 58 97 69 43 103 74 46 109 79 49 77 60 52 83 65 55 89 70 58 95 75 43 101 56 46 107 61 49 75 66 52 81 71 55 87 76 58 93 57 43 99 62 46 105 67 49 111 72 52 79 77 55 85 58 58 91 63 43 97 68 46 103 73 49 109 78 52 77 59 55 83 64 58 89 69 43 95 74 46 101 79 49 107 60 52 75 65 55 81 70 58 87 75 43 93 56 46 99 61 49 105 66 52 111 71 55 79 76 58 85 57 43 91 62 46 97 67 49 103 72 52 109 77 55 77 58 58 83 63 43 89 68 46 95 73 49 101 78 52 107 59 55 75 64 58 81 69 43 87 74 46 93 79 49 99 60 52 105 65 55 111 70 58 79 75 43 85 56 46 91 61 49 97 66 52 103 71 55 109 76 58 77 57 43 83 62 46 89 67 49 95 72 52 101 77 55 107 58 58 75 63 43 81 68 46 87 73 49 93 78 52 99 59 55 105 64 58 111 69 43 79 74 46 85 79 49 91 60 52 97 65 55 103 70 58 109 75 43 77 56 46 83 61 49 89 66 52 95 71 55 101 76 58 107 57 43 75 62 46 81 67 49 87 72 52 93 77 55 99 58 58 105 63 43 111 68 46 79 73 49 85 78 52 91 59 55 97 64 58 103 69 43 109 74 46 77 79 49 83 60 52 89 65 55 95 70 58 101 75 43 107 56 46 75 61 49 81 66 52 87 71 55 93 76 58 99 57 43 105 62 46 111 67 49 79 72 52 85 77 55 91 58 58 97 63 43 103 68 46 109 73 49 77 78 52 83 59 55 89 64 58 95 69 43 101 74 46 107 79 49 75 60 52 81 65 55
110 56 42 78 61 45 84 66 48 90 71 51 96 76 54 102 57 57 108 62 42 76 67 45 82 72 48 88 77 51 94 58 54 100 63 57 106 68 42 74 73 45 80 78 48 86 59 51 92 64 54 98 69 57 104 74 42 110 79 45 78 60 48 84 65 51 90 70 54 96 75 57 102 56 42 108 61 45 76 66 48 82 71 51 88 76 54 94 57 57 100 62 42 106 67 45 74 72 48 80 77 51 86 58 54 92 63 57 98 68 42 104 73 45 110 78 48 78 59 51 84 64 54 90 69 57 96 74 42 102 79 45 108 60 48 76 65 51 82 70 54 88 75 57 94 56 42 100 61 45 106 66 48 74 71 51 80 76 54 86 57 57 92 62 42 98 67 45 104 72 48 110 77 51 78 58 54 84 63 57 90 68 42 96 73 45 102 78 48 108 59 51 76 64 54 82 69 57 88 74 42 94 79 45 100 60 48 106 65 51 74 70 54 80 75 57 86 56 42 92 61 45 98 66 48 104 71 51 110 76 54 78 57 57 84 62 42 90 67 45 96 72 48 102 77 51 108 58 54 76 63 57 82 68 42 88 73 45 94 78 48 100 59 51 106 64 54 74 69 57 80 74 42 86 79 45 92 60 48 98 65 51 104 70 54 110 75 57 78 56 42 84 61 45 90 66 48 96 71 51 102 76 54 108 57 57 76 62 42 82 67 45 88 72 48 94 77 51 100 58 54 106 63 57 74 68 42 80 73 45 86 78 48 92 59 51 98 64 54 104 69 57 110 74 42 78 79 45 84 60 48 90 65 51 96 70 54 102 75 57 108 56 42 76 61 45 82 66 48 88 71 51 94 76 54 100 57 57 106 62 42 74 67 45 80 72 48 86 77 51 92 58 54 98 63 57 104 68 42 110 73 45 78 78 48 84 59 51 90 64 54 96 69 57 102 74 42 108 79 45 76 60 48 82 65 51 88 70 54 94 75 57 100 56 42 106 61 45 74 66 48 80 71 51 86 76 54 92 57 57 98 62 42 104 67 45 110 72 48 78 77 51 84 58 54 90 63 57 96 68 42 102 73 45 108 78 48 76 59 51 82 64 54 88 69 57 94 74 42 100 79 45 106 60 48 74 65 51 80 70 54 86 75 57 92 56 42 98 61 45 104 66 48 110 71 51 78 76 54 84 57 57 90 62 42 96 67 45 102 72 48 108 77 51 76 58 54 82 63 57 88 68 42 94 73 45 100 78 48 106 59 51 74 64 54 80 69 57 86 74 42 92 79 45 98 60 48 104 65 51 110 70 54 78 75 57 84 56 42 90 61 45 96 66 48 102 71 51 108 76 54 76 57 57 82 62 42 88 67 45 94 72 48 100 77 51 106 58 54 74 63 57 80 68 42 86 73 45 92 78 48 98 59 51 104 64 54 110 69 57 78 74 42 84 79 45 90 60 48 96 65 51 102 70 54 108 75 57 76 56 42 82 61 45 88 66 48 94 71 51 100 76 54 106 57 57 74 62 42 80 67 45 86 72 48 92 77 51 98 58 54 104 63 57 110 68 42 78 73 45 84 78 48 90 59 51 96 64 54 102 69 57 108 74 42 76 79 45 82 60 48 88 65 51 94 70 54 100 75 57 106 56 42 74 61 45 80 66 48 86 71 51 92 76 54 98 57 57 104 62 42 110 67 45 78 72 48 84 77 51 90 58 54 96 63 57 102 68 42 108 73 45 76 78 48 82 59 51 88 64 54 94 69 57 100 74 42 106 79 45 74 60 48 80 65 51 86 70 54 92 75 57 98 56 42 104 61 45 110 66 48 78 71 51 84 76 54 90 57 57 96 62 42 102 67 45 108 72 48 76 77 51 82 58 54 88 63 57 94 68 42 100 73 45 106 78 48 74 59 51 80 64 54 86 69 57 92 74 42 98 79 45 104 60 48 110 65 51 78 70 54 84 75 57 90 56 42 96 61 45 102 66 48 108 71 51 76 76 54 82 57 57 88 62 42 94 67 45 100 72 48 106 77 51 74 58 54 80 63 57 86 68 42 92 73 45 98 78 48 104 59 51 110 64 54 78 69 57 84 74 42 90 79 45 96 60 48 102 65 51 108 70 54 76 75 57 82 56 42 88 61 45 94 66 48 100 71 51 106 76 54 74 57 57 80 62 42 86 67 45
77 58 50 83 63 53 89 68 56 95 73 59 101 78 44 107 59 47 75 64 50 81 69 53 87 74 56 93 79 59 99 60 44 105 65 47 111 70 50 79 75 53 85 56 56 91 61 59 97 66 44 103 71 47 109 76 50 77 57 53 83 62 56 89 67 59 95 72 44 101 77 47 107 58 50 75 63 53 81 68 56 87 73 59 93 78 44 99 59 47 105 64 50 111 69 53 79 74 56 85 79 59 91 60 44 97 65 47 103 70 50 109 75 53 77 56 56 83 61 59 89 66 44 95 71 47 101 76 50 107 57 53 75 62 56 81 67 59 87 72 44 93 77 47 99 58 50 105 63 53 111 68 56 79 73 59 85 78 44 91 59 47 97 64 50 103 69 53 109 74 56 77 79 59 83 60 44 89 65 47 95 70 50 101 75 53 107 56 56 75 61 59 81 66 44 87 71 47 93 76 50 99 57 53 105 62 56 111 67 59 79 72 44 85 77 47 91 58 50 97 63 53 103 68 56 109 73 59 77 78 44 83 59 47 89 64 50 95 69 53 101 74 56 107 79 59 75 60 44 81 65 47 87 70 50 93 75 53 99 56 56 105 61 59 111 66 44 79 71 47 85 76 50 91 57 53 97 62 56 103 67 59 109 72 44 77 77 47 83 58 50 89 63 53 95 68 56 101 73 59 107 78 44 75 59 47 81 64 50 87 69 53 93 74 56 99 79 59 105 60 44 111 65 47 79 70 50 85 75 53 91 56 56 97 61 59 103 66 44 109 71 47 77 76 50 83 57 53 89 62 56 95 67 59 101 72 44 107 77 47 75 58 50 81 63 53 87 68 56 93 73 59 99 78 44 105 59 47 111 64 50 79 69 53 85 74 56 91 79 59 97 60 44 103 65 47 109 70 50 77 75 53 83 56 56 89 61 59 95 66 44 101 71 47 107 76 50 75 57 53 81 62 56 87 67 59 93 72 44 99 77 47 105 58 50 111 63 53 79 68 56 85 73 59 91 78 44 97 59 47 103 64 50 109 69 53 77 74 56 83 79 59 89 60 44 95 65 47 101 70 50 107 75 53 75 56 56 81 61 59 87 66 44 93 71 47 99 76 50 105 57 53 111 62 56 79 67 59 85 72 44 91 77 47 97 58 50 103 63 53 109 68 56 77 73 59 83 78 44 89 59 47 95 64 50 101 69 53 107 74 56 75 79 59 81 60 44 87 65 47 93 70 50 99 75 53 105 56 56 111 61 59 79 66 44 85 71 47 91 76 50 97 57 53 103 62 56 109 67 59 77 72 44 83 77 47 89 58 50 95 63 53 101 68 56 107 73 59 75 78 44 81 59 47 87 64 50 93 69 53 99 74 56 105 79 59 111 60 44 79 65 47 85 70 50 91 75 53 97 56 56 103 61 59 109 66 44 77 71 47 83 76 50 89 57 53 95 62 56 101 67 59 107 72 44 75 77 47 81 58 50 87 63 53 93 68 56 99 73 59 105 78 44 111 59 47 79 64 50 85 69 53 91 74 56 97 79 59 103 60 44 109 65 47 77 70 50 83 75 53 89 56 56 95 61 59 101 66 44 107 71 47 75 76 50 81 57 53 87 62 56 93 67 59 99 72 44 105 77 47 111 58 50 79 63 53 85 68 56 91 73 59 97 78 44 103 59 47 109 64 50 77 69 53 83 74 56 89 79 59 95 60 44 101 65 47 107 70 50 75 75 53 81 56 56 87 61 59 93 66 44 99 71 47 105 76 50 111 57 53 79 62 56 85 67 59 91 72 44 97 77 47 103 58 50 109 63 53 77 68 56 83 73 59 89 78 44 95 59 47 101 64 50 107 69 53 75 74 56 81 79 59 87 60 44 93 65 47 99 70 50 105 75 53 111 56 56 79 61 59 85 66 44 91 71 47 97 76 50 103 57 53 109 62 56 77 67 59 83 72 44 89 77 47 95 58 50 101 63 53 107 68 56 75 73 59 81 78 44 87 59 47 93 64 50 99 69 53 105 74 56 111 79 59 79 60 44 85 65 47 91 70 50 97 75 53 103 56 56 109 61 59 77 66 44 83 71 47 89 76 50 95 57 53 101 62 56 107 67 59 75 72 44 81 77 47 87 58 50 93 63 53 99 68 56 105 73 59 111 78 44 79 59 47 85 64 50 91 69 53
82 60 58 88 65 43 94 70 46 100 75 49 106 56 52 74 61 55 80 66 58 86 71 43 92 76 46 98 57 49 104 62 52 110 67 55 78 72 58 84 77 43 90 58 46 96 63 49 102 68 52 108 73 55 76 78 58 82 59 43 88 64 46 94 69 49 100 74 52 106 79 55 74 60 58 80 65 43 86 70 46 92 75 49 98 56 52 104 61 55 110 66 58 78 71 43 84 76 46 90 57 49 96 62 52 102 67 55 108 72 58 76 77 43 82 58 46 88 63 49 94 68 52 100 73 55 106 78 58 74 59 43 80 64 46 86 69 49 92 74 52 98 79 55 104 60 58 110 65 43 78 70 46 84 75 49 90 56 52 96 61 55 102 66 58 108 71 43 76 76 46 82 57 49 88 62 52 94 67 55 100 72 58 106 77 43 74 58 46 80 63 49 86 68 52 92 73 55 98 78 58 104 59 43 110 64 46 78 69 49 84 74 52 90 79 55 96 60 58 102 65 43 108 70 46 76 75 49 82 56 52 88 61 55 94 66 58 100 71 43 106 76 46 74 57 49 80 62 52 86 67 55 92 72 58 98 77 43 104 58 46 110 63 49 78 68 52 84 73 55 90 78 58 96 59 43 102 64 46 108 69 49 76 74 52 82 79 55 88 60 58 94 65 43 100 70 46 106 75 49 74 56 52 80 61 55 86 66 58 92 71 43 98 76 46 104 57 49 110 62 52 78 67 55 84 72 58 90 77 43 96 58 46 102 63 49 108 68 52 76 73 55 82 78 58 88 59 43 94 64 46 100 69 49 106 74 52 74 79 55 80 60 58 86 65 43 92 70 46 98 75 49 104 56 52 110 61 55 78 66 58 84 71 43 90 76 46 96 57 49 102 62 52 108 67 55 76 72 58 82 77 43 88 58 46 94 63 49 100 68 52 106 73 55 74 78 58 80 59 43 86 64 46 92 69 49 98 74 52 104 79 55 110 60 58 78 65 43 84 70 46 90 75 49 96 56 52 102 61 55 108 66 58 76 71 43 82 76 46 88 57 49 94 62 52 100 67 55 106 72 58 74 77 43 80 58 46 86 63 49 92 68 52 98 73 55 104 78 58 110 59 43 78 64 46 84 69 49 90 74 52 96 79 55 102 60 58 108 65 43 76 70 46 82 75 49 88 56 52 94 61 55 100 66 58 106 71 43 74 76 46 80 57 49 86 62 52 92 67 55 98 72 58 104 77 43 110 58 46 78 63 49 84 68 52 90 73 55 96 78 58 102 59 43 108 64 46 76 69 49 82 74 52 88 79 55 94 60 58 100 65 43 106 70 46 74 75 49 80 56 52 86 61 55 92 66 58 98 71 43 104 76 46 110 57 49 78 62 52 84 67 55 90 72 58 96 77 43 102 58 46 108 63 49 76 68 52 82 73 55 88 78 58 94 59 43 100 64 46 106 69 49 74 74 52 80 79 55 86 60 58 92 65 43 98 70 46 104 75 49 110 56 52 78 61 55 84 66 58 90 71 43 96 76 46 102 57 49 108 62 52 76 67 55 82 72 58 88 77 43 94 58 46 100 63 49 106 68 52 74 73 55 80 78 58 86 59 43 92 64 46 98 69 49 104 74 52 110 79 55 78 60 58 84 65 43 90 70 46 96 75 49 102 56 52 108 61 55 76 66 58 82 71 43 88 76 46 94 57 49 100 62 52 106 67 55 74 72 58 80 77 43 86 58 46 92 63 49 98 68 52 104 73 55 110 78 58 78 59 43 84 64 46 90 69 49 96 74 52 102 79 55 108 60 58 76 65 43 82 70 46 88 75 49 94 56 52 100 61 55 106 66 58 74 71 43 80 76 46 86 57 49 92 62 52 98 67 55 104 72 58 110 77 43 78 58 46 84 63 49 90 68 52 96 73 55 102 78 58 108 59 43 76 64 46 82 69 49 88 74 52 94 79 55 100 60 58 106 65 43 74 70 46 80 75 49 86 56 52 92 61 55 98 66 58 104 71 43 110 76 46 78 57 49 84 62 52 90 67 55 96 72 58 102 77 43 108 58 46 76 63 49 82 68 52 88 73 55 94 78 58 100 59 43 106 64 46 74 69 49 80 74 52 86 79 55 92 60 58 98 65 43 104 70 46 110 75 49 78 56 52 84 61 55 90 66 58 96 71 43
87 62 48 93 67 51 99 72 54 105 77 57 111 58 42 79 63 45 85 68 48 91 73 51 97 78 54 103 59 57 109 64 42 77 69 45 83 74 48 89 79 51 95 60 54 101 65 57 107 70 42 75 75 45 81 56 48 87 61 51 93 66 54 99 71 57 105 76 42 111 57 45 79 62 48 85 67 51 91 72 54 97 77 57 103 58 42 109 63 45 77 68 48 83 73 51 89 78 54 95 59 57 101 64 42 107 69 45 75 74 48 81 79 51 87 60 54 93 65 57 99 70 42 105 75 45 111 56 48 79 61 51 85 66 54 91 71 57 97 76 42 103 57 45 109 62 48 77 67 51 83 72 54 89 77 57 95 58 42 101 63 45 107 68 48 75 73 51 81 78 54 87 59 57 93 64 42 99 69 45 105 74 48 111 79 51 79 60 54 85 65 57 91 70 42 97 75 45 103 56 48 109 61 51 77 66 54 83 71 57 89 76 42 95 57 45 101 62 48 107 67 51 75 72 54 81 77 57 87 58 42 93 63 45 99 68 48 105 73 51 111 78 54 79 59 57 85 64 42 91 69 45 97 74 48 103 79 51 109 60 54 77 65 57 83 70 42 89 75 45 95 56 48 101 61 51 107 66 54 75 71 57 81 76 42 87 57 45 93 62 48 99 67 51 105 72 54 111 77 57 79 58 42 85 63 45 91 68 48 97 73 51 103 78 54 109 59 57 77 64 42 83 69 45 89 74 48 95 79 51 101 60 54 107 65 57 75 70 42 81 75 45 87 56 48 93 61 51 99 66 54 105 71 57 111 76 42 79 57 45 85 62 48 91 67 51 97 72 54 103 77 57 109 58 42 77 63 45 83 68 48 89 73 51 95 78 54 101 59 57 107 64 42 75 69 45 81 74 48 87 79 51 93 60 54 99 65 57 105 70 42 111 75 45 79 56 48 85 61 51 91 66 54 97 71 57 103 76 42 109 57 45 77 62 48 83 67 51 89 72 54 95 77 57 101 58 42 107 63 45 75 68 48 81 73 51 87 78 54 93 59 57 99 64 42 105 69 45 111 74 48 79 79 51 85 60 54 91 65 57 97 70 42 103 75 45 109 56 48 77 61 51 83 66 54 89 71 57 95 76 42 101 57 45 107 62 48 75 67 51 81 72 54 87 77 57 93 58 42 99 63 45 105 68 48 111 73 51 79 78 54 85 59 57 91 64 42 97 69 45 103 74 48 109 79 51 77 60 54 83 65 57 89 70 42 95 75 45 101 56 48 107 61 51 75 66 54 81 71 57 87 76 42 93 57 45 99 62 48 105 67 51 111 72 54 79 77 57 85 58 42 91 63 45 97 68 48 103 73 51 109 78 54 77 59 57 83 64 42 89 69 45 95 74 48 101 79 51 107 60 54 75 65 57 81 70 42 87 75 45 93 56 48 99 61 51 105 66 54 111 71 57 79 76 42 85 57 45 91 62 48 97 67 51 103 72 54 109 77 57 77 58 42 83 63 45 89 68 48 95 73 51 101 78 54 107 59 57 75 64 42 81 69 45 87 74 48 93 79 51 99 60 54 105 65 57 111 70 42 79 75 45 85 56 48 91 61 51 97 66 54 103 71 57 109 76 42 77 57 45 83 62 48 89 67 51 95 72 54 101 77 57 107 58 42 75 63 45 81 68 48 87 73 51 93 78 54 99 59 57 105 64 42 111 69 45 79 74 48 85 79 51 91 60 54 97 65 57 103 70 42 109 75 45 77 56 48 83 61 51 89 66 54 95 71 57 101 76 42 107 57 45 75 62 48 81 67 51 87 72 54 93 77 57 99 58 42 105 63 45 111 68 48 79 73 51 85 78 54 91 59 57 97 64 42 103 69 45 109 74 48 77 79 51 83 60 54 89 65 57 95 70 42 101 75 45 107 56 48 75 61 51 81 66 54 87 71 57 93 76 42 99 57 45 105 62 48 111 67 51 79 72 54 85 77 57 91 58 42 97 63 45 103 68 48 109 73 51 77 78 54 83 59 57 89 64 42 95 69 45 101 74 48 107 79 51 75 60 54 81 65 57 87 70 42 93 75 45 99 56 48 105 61 51 111 66 54 79 71 57 85 76 42 91 57 45 97 62 48 103 67 51 109 72 54 77 77 57 83 58 42 89 63 45 95 68 48 101 73 51
92 64 56 98 69 59 104 74 44 110 79 47 78 60 50 84 65 53 90 70 56 96 75 59 102 56 44 108 61 47 76 66 50 82 71 53 88 76 56 94 57 59 100 62 44 106 67 47 74 72 50 80 77 53 86 58 56 92 63 59 98 68 44 104 73 47 110 78 50 78 59 53 84 64 56 90 69 59 96 74 44 102 79 47 108 60 50 76 65 53 82 70 56 88 75 59 94 56 44 100 61 47 106 66 50 74 71 53 80 76 56 86 57 59 92 62 44 98 67 47 104 72 50 110 77 53 78 58 56 84 63 59 90 68 44 96 73 47 102 78 50 108 59 53 76 64 56 82 69 59 88 74 44 94 79 47 100 60 50 106 65 53 74 70 56 80 75 59 86 56 44 92 61 47 98 66 50 104 71 53 110 76 56 78 57 59 84 62 44 90 67 47 96 72 50 102 77 53 108 58 56 76 63 59 82 68 44 88 73 47 94 78 50 100 59 53 106 64 56 74 69 59 80 74 44 86 79 47 92 60 50 98 65 53 104 70 56 110 75 59 78 56 44 84 61 47 90 66 50 96 71 53 102 76 56 108 57 59 76 62 44 82 67 47 88 72 50 94 77 53 100 58 56 106 63 59 74 68 44 80 73 47 86 78 50 92 59 53 98 64 56 104 69 59 110 74 44 78 79 47 84 60 50 90 65 53 96 70 56 102 75 59 108 56 44 76 61 47 82 66 50 88 71 53 94 76 56 100 57 59 106 62 44 74 67 47 80 72 50 86 77 53 92 58 56 98 63 59 104 68 44 110 73 47 78 78 50 84 59 53 90 64 56 96 69 59 102 74 44 108 79 47 76 60 50 82 65 53 88 70 56 94 75 59 100 56 44 106 61 47 74 66 50 80 71 53 86 76 56 92 57 59 98 62 44 104 67 47 110 72 50 78 77 53 84 58 56 90 63 59 96 68 44 102 73 47 108 78 50 76 59 53 82 64 56 88 69 59 94 74 44 100 79 47 106 60 50 74 65 53 80 70 56 86 75 59 92 56 44 98 61 47 104 66 50 110 71 53 78 76 56 84 57 59 90 62 44 96 67 47 102 72 50 108 77 53 76 58 56 82 63 59 88 68 44 94 73 47 100 78 50 106 59 53 74 64 56 80 69 59 86 74 44 92 79 47 98 60 50 104 65 53 110 70 56 78 75 59 84 56 44 90 61 47 96 66 50 102 71 53 108 76 56 76 57 59 82 62 44 88 67 47 94 72 50 100 77 53 106 58 56 74 63 59 80 68 44 86 73 47 92 78 50 98 59 53 104 64 56 110 69 59 78 74 44 84 79 47 90 60 50 96 65 53 102 70 56 108 75 59 76 56 44 82 61 47 88 66 50 94 71 53 100 76 56 106 57 59 74 62 44 80 67 47 86 72 50 92 77 53 98 58 56 104 63 59 110 68 44 78 73 47 84 78 50 90 59 53 96 64 56 102 69 59 108 74 44 76 79 47 82 60 50 88 65 53 94 70 56 100 75 59 106 56 44 74 61 47 80 66 50 86 71 53 92 76 56 98 57 59 104 62 44 110 67 47 78 72 50 84 77 53 90 58 56 96 63 59 102 68 44 108 73 47 76 78 50 82 59 53 88 64 56 94 69 59 100 74 44 106 79 47 74 60 50 80 65 53 86 70 56 92 75 59 98 56 44 104 61 47 110 66 50 78 71 53 84 76 56 90 57 59 96 62 44 102 67 47 108 72 50 76 77 53 82 58 56 88 63 59 94 68 44 100 73 47 106 78 50 74 59 53 80 64 56 86 69 59 92 74 44 98 79 47 104 60 50 110 65 53 78 70 56 84 75 59 90 56 44 96 61 47 102 66 50 108 71 53 76 76 56 82 57 59 88 62 44 94 67 47 100 72 50 106 77 53 74 58 56 80 63 59 86 68 44 92 73 47 98 78 50 104 59 53 110 64 56 78 69 59 84 74 44 90 79 47 96 60 50 102 65 53 108 70 56 76 75 59 82 56 44 88 61 47 94 66 50 100 71 53 106 76 56 74 57 59 80 62 44 86 67 47 92 72 50 98 77 53 104 58 56 110 63 59 78 68 44 84 73 47 90 78 50 96 59 53 102 64 56 108 69 59 76 74 44 82 79 47 88 60 50 94 65 53 100 70 56 106 75 59
97 66 46 103 71 49 109 76 52 77 57 55 83 62 58 89 67 43 95 72 46 101 77 49 107 58 52 75 63 55 81 68 58 87 73 43 93 78 46 99 59 49 105 64 52 111 69 55 79 74 58 85 79 43 91 60 46 97 65 49 103 70 52 109 75 55 77 56 58 83 61 43 89 66 46 95 71 49 101 76 52 107 57 55 75 62 58 81 67 43 87 72 46 93 77 49 99 58 52 105 63 55 111 68 58 79 73 43 85 78 46 91 59 49 97 64 52 103 69 55 109 74 58 77 79 43 83 60 46 89 65 49 95 70 52 101 75 55 107 56 58 75 61 43 81 66 46 87 71 49 93 76 52 99 57 55 105 62 58 111 67 43 79 72 46 85 77 49 91 58 52 97 63 55 103 68 58 109 73 43 77 78 46 83 59 49 89 64 52 95 69 55 101 74 58 107 79 43 75 60 46 81 65 49 87 70 52 93 75 55 99 56 58 105 61 43 111 66 46 79 71 49 85 76 52 91 57 55 97 62 58 103 67 43 109 72 46 77 77 49 83 58 52 89 63 55 95 68 58 101 73 43 107 78 46 75 59 49 81 64 52 87 69 55 93 74 58 99 79 43 105 60 46 111 65 49 79 70 52 85 75 55 91 56 58 97 61 43 103 66 46 109 71 49 77 76 52 83 57 55 89 62 58 95 67 43 101 72 46 107 77 49 75 58 52 81 63 55 87 68 58 93 73 43 99 78 46 105 59 49 111 64 52 79 69 55 85 74 58 91 79 43 97 60 46 103 65 49 109 70 52 77 75 55 83 56 58 89 61 43 95 66 46 101 71 49 107 76 52 75 57 55 81 62 58 87 67 43 93 72 46 99 77 49 105 58 52 111 63 55 79 68 58 85 73 43 91 78 46 97 59 49 103 64 52 109 69 55 77 74 58 83 79 43 89 60 46 95 65 49 101 70 52 107 75 55 75 56 58 81 61 43 87 66 46 93 71 49 99 76 52 105 57 55 111 62 58 79 67 43 85 72 46 91 77 49 97 58 52 103 63 55 109 68 58 77 73 43 83 78 46 89 59 49 95 64 52 101 69 55 107 74 58 75 79 43 81 60 46 87 65 49 93 70 52 99 75 55 105 56 58 111 61 43 79 66 46 85 71 49 91 76 52 97 57 55 103 62 58 109 67 43 77 72 46 83 77 49 89 58 52 95 63 55 101 68 58 107 73 43 75 78 46 81 59 49 87 64 52 93 69 55 99 74 58 105 79 43 111 60 46 79 65 49 85 70 52 91 75 55 97 56 58 103 61 43 109 66 46 77 71 49 83 76 52 89 57 55 95 62 58 101 67 43 107 72 46 75 77 49 81 58 52 87 63 55 93 68 58 99 73 43 105 78 46 111 59 49 79 64 52 85 69 55 91 74 58 97 79 43 103 60 46 109 65 49 77 70 52 83 75 55 89 56 58 95 61 43 101 66 46 107 71 49 75 76 52 81 57 55 87 62 58 93 67 43 99 72 46 105 77 49 111 58 52 79 63 55 85 68 58 91 73 43 97 78 46 103 59 49 109 64 52 77 69 55 83 74 58 89 79 43 95 60 46 101 65 49 107 70 52 75 75 55 81 56 58 87 61 43 93 66 46 99 71 49 105 76 52 111 57 55 79 62 58 85 67 43 91 72 46 97 77 49 103 58 52 109 63 55 77 68 58 83 73 43 89 78 46 95 59 49 101 64 52 107 69 55 75 74 58 81 79 43 87 60 46 93 65 49 99 70 52 105 75 55 111 56 58 79 61 43 85 66 46 91 71 49 97 76 52 103 57 55 109 62 58 77 67 43 83 72 46 89 77 49 95 58 52 101 63 55 107 68 58 75 73 43 81 78 46 87 59 49 93 64 52 99 69 55 105 74 58 111 79 43 79 60 46 85 65 49 91 70 52 97 75 55 103 56 58 109 61 43 77 66 46 83 71 49 89 76 52 95 57 55 101 62 58 107 67 43 75 72 46 81 77 49 87 58 52 93 63 55 99 68 58 105 73 43 111 78 46 79 59 49 85 64 52 91 69 55 97 74 58 103 79 43 109 60 46 77 65 49 83 70 52 89 75 55 95 56 58 101 61 43 107 66 46 75 71 49 81 76 52 87 57 55 93 62 58 99 67 43 105 72 46 111 77 49
102 68 54 108 73 57 76 78 42 82 59 45 88 64 48 94 69 51 100 74 54 106 79 57 74 60 42 80 65 45 86 70 48 92 75 51 98 56 54 104 61 57 110 66 42 78 71 45 84 76 48 90 57 51 96 62 54 102 67 57 108 72 42 76 77 45 82 58 48 88 63 51 94 68 54 100 73 57 106 78 42 74 59 45 80 64 48 86 69 51 92 74 54 98 79 57 104 60 42 110 65 45 78 70 48 84 75 51 90 56 54 96 61 57 102 66 42 108 71 45 76 76 48 82 57 51 88 62 54 94 67 57 100 72 42 106 77 45 74 58 48 80 63 51 86 68 54 92 73 57 98 78 42 104 59 45 110 64 48 78 69 51 84 74 54 90 79 57 96 60 42 102 65 45 108 70 48 76 75 51 82 56 54 88 61 57 94 66 42 100 71 45 106 76 48 74 57 51 80 62 54 86 67 57 92 72 42 98 77 45 104 58 48 110 63 51 78 68 54 84 73 57 90 78 42 96 59 45 102 64 48 108 69 51 76 74 54 82 79 57 88 60 42 94 65 45 100 70 48 106 75 51 74 56 54 80 61 57 86 66 42 92 71 45 98 76 48 104 57 51 110 62 54 78 67 57 84 72 42 90 77 45 96 58 48 102 63 51 108 68 54 76 73 57 82 78 42 88 59 45 94 64 48 100 69 51 106 74 54 74 79 57 80 60 42 86 65 45 92 70 48 98 75 51 104 56 54 110 61 57 78 66 42 84 71 45 90 76 48 96 57 51 102 62 54 108 67 57 76 72 42 82 77 45 88 58 48 94 63 51 100 68 54 106 73 57 74 78 42 80 59 45 86 64 48 92 69 51 98 74 54 104 79 57 110 60 42 78 65 45 84 70 48 90 75 51 96 56 54 102 61 57 108 66 42 76 71 45 82 76 48 88 57 51 94 62 54 100 67 57 106 72 42 74 77 45 80 58 48 86 63 51 92 68 54 98 73 57 104 78 42 110 59 45 78 64 48 84 69 51 90 74 54 96 79 57 102 60 42 108 65 45 76 70 48 82 75 51 88 56 54 94 61 57 100 66 42 106 71 45 74 76 48 80 57 51 86 62 54 92 67 57 98 72 42 104 77 45 110 58 48 78 63 51 84 68 54 90 73 57 96 78 42 102 59 45 108 64 48 76 69 51 82 74 54 88 79 57 94 60 42 100 65 45 106 70 48 74 75 51 80 56 54 86 61 57 92 66 42 98 71 45 104 76 48 110 57 51 78 62 54 84 67 57 90 72 42 96 77 45 102 58 48 108 63 51 76 68 54 82 73 57 88 78 42 94 59 45 100 64 48 106 69 51 74 74 54 80 79 57 86 60 42 92 65 45 98 70 48 104 75 51 110 56 54 78 61 57 84 66 42 90 71 45 96 76 48 102 57 51 108 62 54 76 67 57 82 72 42 88 77 45 94 58 48 100 63 51 106 68 54 74 73 57 80 78 42 86 59 45 92 64 48 98 69 51 104 74 54 110 79 57 78 60 42 84 65 45 90 70 48 96 75 51 102 56 54 108 61 57 76 66 42 82 71 45 88 76 48 94 57 51 100 62 54 106 67 57 74 72 42 80 77 45 86 58 48 92 63 51 98 68 54 104 73 57 110 78 42 78 59 45 84 64 48 90 69 51 96 74 54 102 79 57 108 60 42 76 65 45 82 70 48 88 75 51 94 56 54 100 61 57 106 66 42 74 71 45 80 76 48 86 57 51 92 62 54 98 67 57 104 72 42 110 77 45 78 58 48 84 63 51 90 68 54 96 73 57 102 78 42 108 59 45 76 64 48 82 69 51 88 74 54 94 79 57 100 60 42 106 65 45 74 70 48 80 75 51 86 56 54 92 61 57 98 66 42 104 71 45 110 76 48 78 57 51 84 62 54 90 67 57 96 72 42 102 77 45 108 58 48 76 63 51 82 68 54 88 73 57 94 78 42 100 59 45 106 64 48 74 69 51 80 74 54 86 79 57 92 60 42 98 65 45 104 70 48 110 75 51 78 56 54 84 61 57 90 66 42 96 71 45 102 76 48 108 57 51 76 62 54 82 67 57 88 72 42 94 77 45 100 58 48 106 63 51 74 68 54 80 73 57 86 78 42 92 59 45 98 64 48 104 69 51 110 74 54 78 79 57
107 70 44 75 75 47 81 56 50 87 61 53 93 66 56 99 71 59 105 76 44 111 57 47 79 62 50 85 67 53 91 72 56 97 77 59 103 58 44 109 63 47 77 68 50 83 73 53 89 78 56 95 59 59 101 64 44 107 69 47 75 74 50 81 79 53 87 60 56 93 65 59 99 70 44 105 75 47 111 56 50 79 61 53 85 66 56 91 71 59 97 76 44 103 57 47 109 62 50 77 67 53 83 72 56 89 77 59 95 58 44 101 63 47 107 68 50 75 73 53 81 78 56 87 59 59 93 64 44 99 69 47 105 74 50 111 79 53 79 60 56 85 65 59 91 70 44 97 75 47 103 56 50 109 61 53 77 66 56 83 71 59 89 76 44 95 57 47 101 62 50 107 67 53 75 72 56 81 77 59 87 58 44 93 63 47 99 68 50 105 73 53 111 78 56 79 59 59 85 64 44 91 69 47 97 74 50 103 79 53 109 60 56 77 65 59 83 70 44 89 75 47 95 56 50 101 61 53 107 66 56 75 71 59 81 76 44 87 57 47 93 62 50 99 67 53 105 72 56 111 77 59 79 58 44 85 63 47 91 68 50 97 73 53 103 78 56 109 59 59 77 64 44 83 69 47 89 74 50 95 79 53 101 60 56 107 65 59 75 70 44 81 75 47 87 56 50 93 61 53 99 66 56 105 71 59 111 76 44 79 57 47 85 62 50 91 67 53 97 72 56 103 77 59 109 58 44 77 63 47 83 68 50 89 73 53 95 78 56 101 59 59 107 64 44 75 69 47 81 74 50 87 79 53 93 60 56 99 65 59 105 70 44 111 75 47 79 56 50 85 61 53 91 66 56 97 71 59 103 76 44 109 57 47 77 62 50 83 67 53 89 72 56 95 77 59 101 58 44 107 63 47 75 68 50 81 73 53 87 78 56 93 59 59 99 64 44 105 69 47 111 74 50 79 79 53 85 60 56 91 65 59 97 70 44 103 75 47 109 56 50 77 61 53 83 66 56 89 71 59 95 76 44 101 57 47 107 62 50 75 67 53 81 72 56 87 77 59 93 58 44 99 63 47 105 68 50 111 73 53 79 78 56 85 59 59 91 64 44 97 69 47 103 74 50 109 79 53 77 60 56 83 65 59 89 70 44 95 75 47 101 56 50 107 61 53 75 66 56 81 71 59 87 76 44 93 57 47 99 62 50 105 67 53 111 72 56 79 77 59 85 58 44 91 63 47 97 68 50 103 73 53 109 78 56 77 59 59 83 64 44 89 69 47 95 74 50 101 79 53 107 60 56 75 65 59 81 70 44 87 75 47 93 56 50 99 61 53 105 66 56 111 71 59 79 76 44 85 57 47 91 62 50 97 67 53 103 72 56 109 77 59 77 58 44 83 63 47 89 68 50 95 73 53 101 78 56 107 59 59 75 64 44 81 69 47 87 74 50 93 79 53 99 60 56 105 65 59 111 70 44 79 75 47 85 56 50 91 61 53 97 66 56 103 71 59 109 76 44 77 57 47 83 62 50 89 67 53 95 72 56 101 77 59 107 58 44 75 63 47 81 68 50 87 73 53 93 78 56 99 59 59 105 64 44 111 69 47 79 74 50 85 79 53 91 60 56 97 65 59 103 70 44 109 75 47 77 56 50 83 61 53 89 66 56 95 71 59 101 76 44 107 57 47 75 62 50 81 67 53 87 72 56 93 77 59 99 58 44 105 63 47 111 68 50 79 73 53 85 78 56 91 59 59 97 64 44 103 69 47 109 74 50 77 79 53 83 60 56 89 65 59 95 70 44 101 75 47 107 56 50 75 61 53 81 66 56 87 71 59 93 76 44 99 57 47 105 62 50 111 67 53 79 72 56 85 77 59 91 58 44 97 63 47 103 68 50 109 73 53 77 78 56 83 59 59 89 64 44 95 69 47 101 74 50 107 79 53 75 60 56 81 65 59 87 70 44 93 75 47 99 56 50 105 61 53 111 66 56 79 71 59 85 76 44 91 57 47 97 62 50 103 67 53 109 72 56 77 77 59 83 58 44 89 63 47 95 68 50 101 73 53 107 78 56 75 59 59 81 64 44 87 69 47 93 74 50 99 79 53 105 60 56 111 65 59 79 70 44 85 75 47 91 56 50 97 61 53 103 66 56 109 71 59 77 76 44 83 57 47
74 72 52 80 77 55 86 58 58 92 63 43 98 68 46 104 73 49 110 78 52 78 59 55 84 64 58 90 69 43 96 74 46 102 79 49 108 60 52 76 65 55 82 70 58 88 75 43 94 56 46 100 61 49 106 66 52 74 71 55 80 76 58 86 57 43 92 62 46 98 67 49 104 72 52 110 77 55 78 58 58 84 63 43 90 68 46 96 73 49 102 78 52 108 59 55 76 64 58 82 69 43 88 74 46 94 79 49 100 60 52 106 65 55 74 70 58 80 75 43 86 56 46 92 61 49 98 66 52 104 71 55 110 76 58 78 57 43 84 62 46 90 67 49 96 72 52 102 77 55 108 58 58 76 63 43 82 68 46 88 73 49 94 78 52 100 59 55 106 64 58 74 69 43 80 74 46 86 79 49 92 60 52 98 65 55 104 70 58 110 75 43 78 56 46 84 61 49 90 66 52 96 71 55 102 76 58 108 57 43 76 62 46 82 67 49 88 72 52 94 77 55 100 58 58 106 63 43 74 68 46 80 73 49 86 78 52 92 59 55 98 64 58 104 69 43 110 74 46 78 79 49 84 60 52 90 65 55 96 70 58 102 75 43 108 56 46 76 61 49 82 66 52 88 71 55 94 76 58 100 57 43 106 62 46 74 67 49 80 72 52 86 77 55 92 58 58 98 63 43 104 68 46 110 73 49 78 78 52 84 59 55 90 64 58 96 69 43 102 74 46 108 79 49 76 60 52 82 65 55 88 70 58 94 75 43 100 56 46 106 61 49 74 66 52 80 71 55 86 76 58 92 57 43 98 62 46 104 67 49 110 72 52 78 77 55 84 58 58 90 63 43 96 68 46 102 73 49 108 78 52 76 59 55 82 64 58 88 69 43 94 74 46 100 79 49 106 60 52 74 65 55 80 70 58 86 75 43 92 56 46 98 61 49 104 66 52 110 71 55 78 76 58 84 57 43 90 62 46 96 67 49 102 72 52 108 77 55 76 58 58 82 63 43 88 68 46 94 73 49 100 78 52 106 59 55 74 64 58 80 69 43 86 74 46 92 79 49 98 60 52 104 65 55 110 70 58 78 75 43 84 56 46 90 61 49 96 66 52 102 71 55 108 76 58 76 57 43 82 62 46 88 67 49 94 72 52 100 77 55 106 58 58 74 63 43 80 68 46 86 73 49 92 78 52 98 59 55 104 64 58 110 69 43 78 74 46 84 79 49 90 60 52 96 65 55 102 70 58 108 75 43 76 56 46 82 61 49 88 66 52 94 71 55 100 76 58 106 57 43 74 62 46 80 67 49 86 72 52 92 77 55 98 58 58 104 63 43 110 68 46 78 73 49 84 78 52 90 59 55 96 64 58 102 69 43 108 74 46 76 79 49 82 60 52 88 65 55 94 70 58 100 75 43 106 56 46 74 61 49 80 66 52 86 71 55 92 76 58 98 57 43 104 62 46 110 67 49 78 72 52 84 77 55 90 58 58 96 63 43 102 68 46 108 73 49 76 78 52 82 59 55 88 64 58 94 69 43 100 74 46 106 79 49 74 60 52 80 65 55 86 70 58 92 75 43 98 56 46 104 61 49 110 66 52 78 71 55 84 76 58 90 57 43 96 62 46 102 67 49 108 72 52 76 77 55 82 58 58 88 63 43 94 68 46 100 73 49 106 78 52 74 59 55 80 64 58 86 69 43 92 74 46 98 79 49 104 60 52 110 65 55 78 70 58 84 75 43 90 56 46 96 61 49 102 66 52 108 71 55 76 76 58 82 57 43 88 62 46 94 67 49 100 72 52 106 77 55 74 58 58 80 63 43 86 68 46 92 73 49 98 78 52 104 59 55 110 64 58 78 69 43 84 74 46 90 79 49 96 60 52 102 65 55 108 70 58 76 75 43 82 56 46 88 61 49 94 66 52 100 71 55 106 76 58 74 57 43 80 62 46 86 67 49 92 72 52 98 77 55 104 58 58 110 63 43 78 68 46 84 73 49 90 78 52 96 59 55 102 64 58 108 69 43 76 74 46 82 79 49 88 60 52 94 65 55 100 70 58 106 75 43 74 56 46 80 61 49 86 66 52 92 71 55 98 76 58 104 57 43 110 62 46 78 67 49 84 72 52 90 77 55 96 58 58 102 63 43 108 68 46 76 73 49 82 78 52 88 59 55
79 74 42 85 79 45 91 60 48 97 65 51 103 70 54 109 75 57 77 56 42 83 61 45 89 66 48 95 71 51 101 76 54 107 57 57 75 62 42 81 67 45 87 72 48 93 77 51 99 58 54 105 63 57 111 68 42 79 73 45 85 78 48 91 59 51 97 64 54 103 69 57 109 74 42 77 79 45 83 60 48 89 65 51 95 70 54 101 75 57 107 56 42 75 61 45 81 66 48 87 71 51 93 76 54 99 57 57 105 62 42 111 67 45 79 72 48 85 77 51 91 58 54 97 63 57 103 68 42 109 73 45 77 78 48 83 59 51 89 64 54 95 69 57 101 74 42 107 79 45 75 60 48 81 65 51 87 70 54 93 75 57 99 56 42 105 61 45 111 66 48 79 71 51 85 76 54 91 57 57 97 62 42 103 67 45 109 72 48 77 77 51 83 58 54 89 63 57 95 68 42 101 73 45 107 78 48 75 59 51 81 64 54 87 69 57 93 74 42 99 79 45 105 60 48 111 65 51 79 70 54 85 75 57 91 56 42 97 61 45 103 66 48 109 71 51 77 76 54 83 57 57 89 62 42 95 67 45 101 72 48 107 77 51 75 58 54 81 63 57 87 68 42 93 73 45 99 78 48 105 59 51 111 64 54 79 69 57 85 74 42 91 79 45 97 60 48 103 65 51 109 70 54 77 75 57 83 56 42 89 61 45 95 66 48 101 71 51 107 76 54 75 57 57 81 62 42 87 67 45 93 72 48 99 77 51 105 58 54 111 63 57 79 68 42 85 73 45 91 78 48 97 59 51 103 64 54 109 69 57 77 74 42 83 79 45 89 60 48 95 65 51 101 70 54 107 75 57 75 56 42 81 61 45 87 66 48 93 71 51 99 76 54 105 57 57 111 62 42 79 67 45 85 72 48 91 77 51 97 58 54 103 63 57 109 68 42 77 73 45 83 78 48 89 59 51 95 64 54 101 69 57 107 74 42 75 79 45 81 60 48 87 65 51 93 70 54 99 75 57 105 56 42 111 61 45 79 66 48 85 71 51 91 76 54 97 57 57 103 62 42 109 67 45 77 72 48 83 77 51 89 58 54 95 63 57 101 68 42 107 73 45 75 78 48 81 59 51 87 64 54 93 69 57 99 74 42 105 79 45 111 60 48 79 65 51 85 70 54 91 75 57 97 56 42 103 61 45 109 66 48 77 71 51 83 76 54 89 57 57 95 62 42 101 67 45 107 72 48 75 77 51 81 58 54 87 63 57 93 68 42 99 73 45 105 78 48 111 59 51 79 64 54 85 69 57 91 74 42 97 79 45 103 60 48 109 65 51 77 70 54 83 75 57 89 56 42 95 61 45 101 66 48 107 71 51 75 76 54 81 57 57 87 62 42 93 67 45 99 72 48 105 77 51 111 58 54 79 63 57 85 68 42 91 73 45 97 78 48 103 59 51 109 64 54 77 69 57 83 74 42 89 79 45 95 60 48 101 65 51 107 70 54 75 75 57 81 56 42 87 61 45 93 66 48 99 71 51 105 76 54 111 57 57 79 62 42 85 67 45 91 72 48 97 77 51 103 58 54 109 63 57 77 68 42 83 73 45 89 78 48 95 59 51 101 64 54 107 69 57 75 74 42 81 79 45 87 60 48 93 65 51 99 70 54 105 75 57 111 56 42 79 61 45 85 66 48 91 71 51 97 76 54 103 57 57 109 62 42 77 67 45 83 72 48 89 77 51 95 58 54 101 63 57 107 68 42 75 73 45 81 78 48 87 59 51 93 64 54 99 69 57 105 74 42 111 79 45 79 60 48 85 65 51 91 70 54 97 75 57 103 56 42 109 61 45 77 66 48 83 71 51 89 76 54 95 57 57 101 62 42 107 67 45 75 72 48 81 77 51 87 58 54 93 63 57 99 68 42 105 73 45 111 78 48 79 59 51 85 64 54 91 69 57 97 74 42 103 79 45 109 60 48 77 65 51 83 70 54 89 75 57 95 56 42 101 61 45 107 66 48 75 71 51 81 76 54 87 57 57 93 62 42 99 67 45 105 72 48 111 77 51 79 58 54 85 63 57 91 68 42 97 73 45 103 78 48 109 59 51 77 64 54 83 69 57 89 74 42 95 79 45 101 60 48 107 65 51 75 70 54 81 75 57 87 56 42 93 61 45
84 76 50 90 57 53 96 62 56 102 67 59 108 72 44 76 77 47 82 58 50 88 63 53 94 68 56 100 73 59 106 78 44 74 59 47 80 64 50 86 69 53 92 74 56 98 79 59 104 60 44 110 65 47 78 70 50 84 75 53 90 56 56 96 61 59 102 66 44 108 71 47 76 76 50 82 57 53 88 62 56 94 67 59 100 72 44 106 77 47 74 58 50 80 63 53 86 68 56 92 73 59 98 78 44 104 59 47 110 64 50 78 69 53 84 74 56 90 79 59 96 60 44 102 65 47 108 70 50 76 75 53 82 56 56 88 61 59 94 66 44 100 71 47 106 76 50 74 57 53 80 62 56 86 67 59 92 72 44 98 77 47 104 58 50 110 63 53 78 68 56 84 73 59 90 78 44 96 59 47 102 64 50 108 69 53 76 74 56 82 79 59 88 60 44 94 65 47 100 70 50 106 75 53 74 56 56 80 61 59 86 66 44 92 71 47 98 76 50 104 57 53 110 62 56 78 67 59 84 72 44 90 77 47 96 58 50 102 63 53 108 68 56 76 73 59 82 78 44 88 59 47 94 64 50 100 69 53 106 74 56 74 79 59 80 60 44 86 65 47 92 70 50 98 75 53 104 56 56 110 61 59 78 66 44 84 71 47 90 76 50 96 57 53 102 62 56 108 67 59 76 72 44 82 77 47 88 58 50 94 63 53 100 68 56 106 73 59 74 78 44 80 59 47 86 64 50 92 69 53 98 74 56 104 79 59 110 60 44 78 65 47 84 70 50 90 75 53 96 56 56 102 61 59 108 66 44 76 71 47 82 76 50 88 57 53 94 62 56 100 67 59 106 72 44 74 77 47 80 58 50 86 63 53 92 68 56 98 73 59 104 78 44 110 59 47 78 64 50 84 69 53 90 74 56 96 79 59 102 60 44 108 65 47 76 70 50 82 75 53 88 56 56 94 61 59 100 66 44 106 71 47 74 76 50 80 57 53 86 62 56 92 67 59 98 72 44 104 77 47 110 58 50 78 63 53 84 68 56 90 73 59 96 78 44 102 59 47 108 64 50 76 69 53 82 74 56 88 79 59 94 60 44 100 65 47 106 70 50 74 75 53 80 56 56 86 61 59 92 66 44 98 71 47 104 76 50 110 57 53 78 62 56 84 67 59 90 72 44 96 77 47 102 58 50 108 63 53 76 68 56 82 73 59 88 78 44 94 59 47 100 64 50 106 69 53 74 74 56 80 79 59 86 60 44 92 65 47 98 70 50 104 75 53 110 56 56 78 61 59 84 66 44 90 71 47 96 76 50 102 57 53 108 62 56 76 67 59 82 72 44 88 77 47 94 58 50 100 63 53 106 68 56 74 73 59 80 78 44 86 59 47 92 64 50 98 69 53 104 74 56 110 79 59 78 60 44 84 65 47 90 70 50 96 75 53 102 56 56 108 61 59 76 66 44 82 71 47 88 76 50 94 57 53 100 62 56 106 67 59 74 72 44 80 77 47 86 58 50 92 63 53 98 68 56 104 73 59 110 78 44 78 59 47 84 64 50 90 69 53 96 74 56 102 79 59 108 60 44 76 65 47 82 70 50 88 75 53 94 56 56 100 61 59 106 66 44 74 71 47 80 76 50 86 57 53 92 62 56 98 67 59 104 72 44 110 77 47 78 58 50 84 63 53 90 68 56 96 73 59 102 78 44 108 59 47 76 64 50 82 69 53 88 74 56 94 79 59 100 60 44 106 65 47 74 70 50 80 75 53 86 56 56 92 61 59 98 66 44 104 71 47 110 76 50 78 57 53 84 62 56 90 67 59 96 72 44 102 77 47 108 58 50 76 63 53 82 68 56 88 73 59 94 78 44 100 59 47 106 64 50 74 69 53 80 74 56 86 79 59 92 60 44 98 65 47 104 70 50 110 75 53 78 56 56 84 61 59 90 66 44 96 71 47 102 76 50 108 57 53 76 62 56 82 67 59 88 72 44 94 77 47 100 58 50 106 63 53 74 68 56 80 73 59 86 78 44 92 59 47 98 64 50 104 69 53 110 74 56 78 79 59 84 60 44 90 65 47 96 70 50 102 75 53 108 56 56 76 61 59 82 66 44 88 71 47 94 76 50 100 57 53 106 62 56 74 67 59 80 72 44 86 77 47 92 58 50 98 63 53
89 78 58 95 59 43 101 64 46 107 69 49 75 74 52 81 79 55 87 60 58 93 65 43 99 70 46 105 75 49 111 56 52 79 61 55 85 66 58 91 71 43 97 76 46 103 57 49 109 62 52 77 67 55 83 72 58 89 77 43 95 58 46 101 63 49 107 68 52 75 73 55 81 78 58 87 59 43 93 64 46 99 69 49 105 74 52 111 79 55 79 60 58 85 65 43 91 70 46 97 75 49 103 56 52 109 61 55 77 66 58 83 71 43 89 76 46 95 57 49 101 62 52 107 67 55 75 72 58 81 77 43 87 58 46 93 63 49 99 68 52 105 73 55 111 78 58 79 59 43 85 64 46 91 69 49 97 74 52 103 79 55 109 60 58 77 65 43 83 70 46 89 75 49 95 56 52 101 61 55 107 66 58 75 71 43 81 76 46 87 57 49 93 62 52 99 67 55 105 72 58 111 77 43 79 58 46 85 63 49 91 68 52 97 73 55 103 78 58 109 59 43 77 64 46 83 69 49 89 74 52 95 79 55 101 60 58 107 65 43 75 70 46 81 75 49 87 56 52 93 61 55 99 66 58 105 71 43 111 76 46 79 57 49 85 62 52 91 67 55 97 72 58 103 77 43 109 58 46 77 63 49 83 68 52 89 73 55 95 78 58 101 59 43 107 64 46 75 69 49 81 74 52 87 79 55 93 60 58 99 65 43 105 70 46 111 75 49 79 56 52 85 61 55 91 66 58 97 71 43 103 76 46 109 57 49 77 62 52 83 67 55 89 72 58 95 77 43 101 58 46 107 63 49 75 68 52 81 73 55 87 78 58 93 59 43 99 64 46 105 69 49 111 74 52 79 79 55 85 60 58 91 65 43 97 70 46 103 75 49 109 56 52 77 61 55 83 66 58 89 71 43 95 76 46 101 57 49 107 62 52 75 67 55 81 72 58 87 77 43 93 58 46 99 63 49 105 68 52 111 73 55 79 78 58 85 59 43 91 64 46 97 69 49 103 74 52 109 79 55 77 60 58 83 65 43 89 70 46 95 75 49 101 56 52 107 61 55 75 66 58 81 71 43 87 76 46 93 57 49 99 62 52 105 67 55 111 72 58 79 77 43 85 58 46 91 63 49 97 68 52 103 73 55 109 78 58 77 59 43 83 64 46 89 69 49 95 74 52 101 79 55 107 60 58 75 65 43 81 70 46 87 75 49 93 56 52 99 61 55 105 66 58 111 71 43 79 76 46 85 57 49 91 62 52 97 67 55 103 72 58 109 77 43 77 58 46 83 63 49 89 68 52 95 73 55 101 78 58 107 59 43 75 64 46 81 69 49 87 74 52 93 79 55 99 60 58 105 65 43 111 70 46 79 75 49 85 56 52 91 61 55 97 66 58 103 71 43 109 76 46 77 57 49 83 62 52 89 67 55 95 72 58 101 77 43 107 58 46 75 63 49 81 68 52 87 73 55 93 78 58 99 59 43 105 64 46 111 69 49 79 74 52 85 79 55 91 60 58 97 65 43 103 70 46 109 75 49 77 56 52 83 61 55 89 66 58 95 71 43 101 76 46 107 57 49 75 62 52 81 67 55 87 72 58 93 77 43 99 58 46 105 63 49 111 68 52 79 73 55 85 78 58 91 59 43 97 64 46 103 69 49 109 74 52 77 79 55 83 60 58 89 65 43 95 70 46 101 75 49 107 56 52 75 61 55 81 66 58 87 71 43 93 76 46 99 57 49 105 62 52 111 67 55 79 72 58 85 77 43 91 58 46 97 63 49 103 68 52 109 73 55 77 78 58 83 59 43 89 64 46 95 69 49 101 74 52 107 79 55 75 60 58 81 65 43 87 70 46 93 75 49 99 56 52 105 61 55 111 66 58 79 71 43 85 76 46 91 57 49 97 62 52 103 67 55 109 72 58 77 77 43 83 58 46 89 63 49 95 68 52 101 73 55 107 78 58 75 59 43 81 64 46 87 69 49 93 74 52 99 79 55 105 60 58 111 65 43 79 70 46 85 75 49 91 56 52 97 61 55 103 66 58 109 71 43 77 76 46 83 57 49 89 62 52 95 67 55 101 72 58 107 77 43 75 58 46 81 63 49 87 68 52 93 73 55 99 78 58 105 59 43 111 64 46 79 69 49 85 74 52 91 79 55 97 60 58 103 65 43
94 56 48 100 61 51 106 66 54 74 71 57 80 76 42 86 57 45 92 62 48 98 67 51 104 72 54 110 77 57 78 58 42 84 63 45 90 68 48 96 73 51 102 78 54 108 59 57 76 64 42 82 69 45 88 74 48 94 79 51 100 60 54 106 65 57 74 70 42 80 75 45 86 56 48 92 61 51 98 66 54 104 71 57 110 76 42 78 57 45 84 62 48 90 67 51 96 72 54 102 77 57 108 58 42 76 63 45 82 68 48 88 73 51 94 78 54 100 59 57 106 64 42 74 69 45 80 74 48 86 79 51 92 60 54 98 65 57 104 70 42 110 75 45 78 56 48 84 61 51 90 66 54 96 71 57 102 76 42 108 57 45 76 62 48 82 67 51 88 72 54 94 77 57 100 58 42 106 63 45 74 68 48 80 73 51 86 78 54 92 59 57 98 64 42 104 69 45 110 74 48 78 79 51 84 60 54 90 65 57 96 70 42 102 75 45 108 56 48 76 61 51 82 66 54 88 71 57 94 76 42 100 57 45 106 62 48 74 67 51 80 72 54 86 77 57 92 58 42 98 63 45 104 68 48 110 73 51 78 78 54 84 59 57 90 64 42 96 69 45 102 74 48 108 79 51 76 60 54 82 65 57 88 70 42 94 75 45 100 56 48 106 61 51 74 66 54 80 71 57 86 76 42 92 57 45 98 62 48 104 67 51 110 72 54 78 77 57 84 58 42 90 63 45 96 68 48 102 73 51 108 78 54 76 59 57 82 64 42 88 69 45 94 74 48 100 79 51 106 60 54 74 65 57 80 70 42 86 75 45 92 56 48 98 61 51 104 66 54 110 71 57 78 76 42 84 57 45 90 62 48 96 67 51 102 72 54 108 77 57 76 58 42 82 63 45 88 68 48 94 73 51 100 78 54 106 59 57 74 64 42 80 69 45 86 74 48 92 79 51 98 60 54 104 65 57 110 70 42 78 75 45 84 56 48 90 61 51 96 66 54 102 71 57 108 76 42 76 57 45 82 62 48 88 67 51 94 72 54 100 77 57 106 58 42 74 63 45 80 68 48 86 73 51 92 78 54 98 59 57 104 64 42 110 69 45 78 74 48 84 79 51 90 60 54 96 65 57 102 70 42 108 75 45 76 56 48 82 61 51 88 66 54 94 71 57 100 76 42 106 57 45 74 62 48 80 67 51 86 72 54 92 77 57 98 58 42 104 63 45 110 68 48 78 73 51 84 78 54 90 59 57 96 64 42 102 69 45 108 74 48 76 79 51 82 60 54 88 65 57 94 70 42 100 75 45 106 56 48 74 61 51 80 66 54 86 71 57 92 76 42 98 57 45 104 62 48 110 67 51 78 72 54 84 77 57 90 58 42 96 63 45 102 68 48 108 73 51 76 78 54 82 59 57 88 64 42 94 69 45 100 74 48 106 79 51 74 60 54 80 65 57 86 70 42 92 75 45 98 56 48 104 61 51 110 66 54 78 71 57 84 76 42 90 57 45 96 62 48 102 67 51 108 72 54 76 77 57 82 58 42 88 63 45 94 68 48 100 73 51 106 78 54 74 59 57 80 64 42 86 69 45 92 74 48 98 79 51 104 60 54 110 65 57 78 70 42 84 75 45 90 56 48 96 61 51 102 66 54 108 71 57 76 76 42 82 57 45 88 62 48 94 67 51 100 72 54 106 77 57 74 58 42 80 63 45 86 68 48 92 73 51 98 78 54 104 59 57 110 64 42 78 69 45 84 74 48 90 79 51 96 60 54 102 65 57 108 70 42 76 75 45 82 56 48 88 61 51 94 66 54 100 71 57 106 76 42 74 57 45 80 62 48 86 67 51 92 72 54 98 77 57 104 58 42 110 63 45 78 68 48 84 73 51 90 78 54 96 59 57 102 64 42 108 69 45 76 74 48 82 79 51 88 60 54 94 65 57 100 70 42 106 75 45 74 56 48 80 61 51 86 66 54 92 71 57 98 76 42 104 57 45 110 62 48 78 67 51 84 72 54 90 77 57 96 58 42 102 63 45 108 68 48 76 73 51 82 78 54 88 59 57 94 64 42 100 69 45 106 74 48 74 79 51 80 60 54 86 65 57 92 70 42 98 75 45 104 56 48 110 61 51 78 66 54 84 71 57 90 76 42 96 57 45 102 62 48 108 67 51
99 58 56 105 63 59 111 68 44 79 73 47 85 78 50 91 59 53 97 64 56 103 69 59 109 74 44 77 79 47 83 60 50 89 65 53 95 70 56 101 75 59 107 56 44 75 61 47 81 66 50 87 71 53 93 76 56 99 57 59 105 62 44 111 67 47 79 72 50 85 77 53 91 58 56 97 63 59 103 68 44 109 73 47 77 78 50 83 59 53 89 64 56 95 69 59 101 74 44 107 79 47 75 60 50 81 65 53 87 70 56 93 75 59 99 56 44 105 61 47 111 66 50 79 71 53 85 76 56 91 57 59 97 62 44 103 67 47 109 72 50 77 77 53 83 58 56 89 63 59 95 68 44 101 73 47 107 78 50 75 59 53 81 64 56 87 69 59 93 74 44 99 79 47 105 60 50 111 65 53 79 70 56 85 75 59 91 56 44 97 61 47 103 66 50 109 71 53 77 76 56 83 57 59 89 62 44 95 67 47 101 72 50 107 77 53 75 58 56 81 63 59 87 68 44 93 73 47 99 78 50 105 59 53 111 64 56 79 69 59 85 74 44 91 79 47 97 60 50 103 65 53 109 70 56 77 75 59 83 56 44 89 61 47 95 66 50 101 71 53 107 76 56 75 57 59 81 62 44 87 67 47 93 72 50 99 77 53 105 58 56 111 63 59 79 68 44 85 73 47 91 78 50 97 59 53 103 64 56 109 69 59 77 74 44 83 79 47 89 60 50 95 65 53 101 70 56 107 75 59 75 56 44 81 61 47 87 66 50 93 71 53 99 76 56 105 57 59 111 62 44 79 67 47 85 72 50 91 77 53 97 58 56 103 63 59 109 68 44 77 73 47 83 78 50 89 59 53 95 64 56 101 69 59 107 74 44 75 79 47 81 60 50 87 65 53 93 70 56 99 75 59 105 56 44 111 61 47 79 66 50 85 71 53 91 76 56 97 57 59 103 62 44 109 67 47 77 72 50 83 77 53 89 58 56 95 63 59 101 68 44 107 73 47 75 78 50 81 59 53 87 64 56 93 69 59 99 74 44 105 79 47 111 60 50 79 65 53 85 70 56 91 75 59 97 56 44 103 61 47 109 66 50 77 71 53 83 76 56 89 57 59 95 62 44 101 67 47 107 72 50 75 77 53 81 58 56 87 63 59 93 68 44 99 73 47 105 78 50 111 59 53 79 64 56 85 69 59 91 74 44 97 79 47 103 60 50 109 65 53 77 70 56 83 75 59 89 56 44 95 61 47 101 66 50 107 71 53 75 76 56 81 57 59 87 62 44 93 67 47 99 72 50 105 77 53 111 58 56 79 63 59 85 68 44 91 73 47 97 78 50 103 59 53 109 64 56 77 69 59 83 74 44 89 79 47 95 60 50 101 65 53 107 70 56 75 75 59 81 56 44 87 61 47 93 66 50 99 71 53 105 76 56 111 57 59 79 62 44 85 67 47 91 72 50 97 77 53 103 58 56 109 63 59 77 68 44 83 73 47 89 78 50 95 59 53 101 64 56 107 69 59 75 74 44 81 79 47 87 60 50 93 65 53 99 70 56 105 75 59 111 56 44 79 61 47 85 66 50 91 71 53 97 76 56 103 57 59 109 62 44 77 67 47 83 72 50 89 77 53 95 58 56 101 63 59 107 68 44 75 73 47 81 78 50 87 59 53 93 64 56 99 69 59 105 74 44 111 79 47 79 60 50 85 65 53 91 70 56 97 75 59 103 56 44 109 61 47 77 66 50 83 71 53 89 76 56 95 57 59 101 62 44 107 67 47 75 72 50 81 77 53 87 58 56 93 63 59 99 68 44 105 73 47 111 78 50 79 59 53 85 64 56 91 69 59 97 74 44 103 79 47 109 60 50 77 65 53 83 70 56 89 75 59 95 56 44 101 61 47 107 66 50 75 71 53 81 76 56 87 57 59 93 62 44 99 67 47 105 72 50 111 77 53 79 58 56 85 63 59 91 68 44 97 73 47 103 78 50 109 59 53 77 64 56 83 69 59 89 74 44 95 79 47 101 60 50 107 65 53 75 70 56 81 75 59 87 56 44 93 61 47 99 66 50 105 71 53 111 76 56 79 57 59 85 62 44 91 67 47 97 72 50 103 77 53 109 58 56 77 63 59 83 68 44 89 73 47 95 78 50 101 59 53 107 64 56 75 69 59
104 60 46 110 65 49 78 70 52 84 75 55 90 56 58 96 61 43 102 66 46 108 71 49 76 76 52 82 57 55 88 62 58 94 67 43 100 72 46 106 77 49 74 58 52 80 63 55 86 68 58 92 73 43 98 78 46 104 59 49 110 64 52 78 69 55 84 74 58 90 79 43 96 60 46 102 65 49 108 70 52 76 75 55 82 56 58 88 61 43 94 66 46 100 71 49 106 76 52 74 57 55 80 62 58 86 67 43 92 72 46 98 77 49 104 58 52 110 63 55 78 68 58 84 73 43 90 78 46 96 59 49 102 64 52 108 69 55 76 74 58 82 79 43 88 60 46 94 65 49 100 70 52 106 75 55 74 56 58 80 61 43 86 66 46 92 71 49 98 76 52 104 57 55 110 62 58 78 67 43 84 72 46 90 77 49 96 58 52 102 63 55 108 68 58 76 73 43 82 78 46 88 59 49 94 64 52 100 69 55 106 74 58 74 79 43 80 60 46 86 65 49 92 70 52 98 75 55 104 56 58 110 61 43 78 66 46 84 71 49 90 76 52 96 57 55 102 62 58 108 67 43 76 72 46 82 77 49 88 58 52 94 63 55 100 68 58 106 73 43 74 78 46 80 59 49 86 64 52 92 69 55 98 74 58 104 79 43 110 60 46 78 65 49 84 70 52 90 75 55 96 56 58 102 61 43 108 66 46 76 71 49 82 76 52 88 57 55 94 62 58 100 67 43 106 72 46 74 77 49 80 58 52 86 63 55 92 68 58 98 73 43 104 78 46 110 59 49 78 64 52 84 69 55 90 74 58 96 79 43 102 60 46 108 65 49 76 70 52 82 75 55 88 56 58 94 61 43 100 66 46 106 71 49 74 76 52 80 57 55 86 62 58 92 67 43 98 72 46 104 77 49 110 58 52 78 63 55 84 68 58 90 73 43 96 78 46 102 59 49 108 64 52 76 69 55 82 74 58 88 79 43 94 60 46 100 65 49 106 70 52 74 75 55 80 56 58 86 61 43 92 66 46 98 71 49 104 76 52 110 57 55 78 62 58 84 67 43 90 72 46 96 77 49 102 58 52 108 63 55 76 68 58 82 73 43 88 78 46 94 59 49 100 64 52 106 69 55 74 74 58 80 79 43 86 60 46 92 65 49 98 70 52 104 75 55 110 56 58 78 61 43 84 66 46 90 71 49 96 76 52 102 57 55 108 62 58 76 67 43 82 72 46 88 77 49 94 58 52 100 63 55 106 68 58 74 73 43 80 78 46 86 59 49 92 64 52 98 69 55 104 74 58 110 79 43 78 60 46 84 65 49 90 70 52 96 75 55 102 56 58 108 61 43 76 66 46 82 71 49 88 76 52 94 57 55 100 62 58 106 67 43 74 72 46 80 77 49 86 58 52 92 63 55 98 68 58 104 73 43 110 78 46 78 59 49 84 64 52 90 69 55 96 74 58 102 79 43 108 60 46 76 65 49 82 70 52 88 75 55 94 56 58 100 61 43 106 66 46 74 71 49 80 76 52 86 57 55 92 62 58 98 67 43 104 72 46 110 77 49 78 58 52 84 63 55 90 68 58 96 73 43 102 78 46 108 59 49 76 64 52 82 69 55 88 74 58 94 79 43 100 60 46 106 65 49 74 70 52 80 75 55 86 56 58 92 61 43 98 66 46 104 71 49 110 76 52 78 57 55 84 62 58 90 67 43 96 72 46 102 77 49 108 58 52 76 63 55 82 68 58 88 73 43 94 78 46 100 59 49 106 64 52 74 69 55 80 74 58 86 79 43 92 60 46 98 65 49 104 70 52 110 75 55 78 56 58 84 61 43 90 66 46 96 71 49 102 76 52 108 57 55 76 62 58 82 67 43 88 72 46 94 77 49 100 58 52 106 63 55 74 68 58 80 73 43 86 78 46 92 59 49 98 64 52 104 69 55 110 74 58 78 79 43 84 60 46 90 65 49 96 70 52 102 75 55 108 56 58 76 61 43 82 66 46 88 71 49 94 76 52 100 57 55 106 62 58 74 67 43 80 72 46 86 77 49 92 58 52 98 63 55 104 68 58 110 73 43 78 78 46 84 59 49 90 64 52 96 69 55 102 74 58 108 79 43 76 60 46 82 65 49 88 70 52 94 75 55 100 56 58 106 61 43 74 66 46 80 71 49
109 62 54 77 67 57 83 72 42 89 77 45 95 58 48 101 63 51 107 68 54 75 73 57 81 78 42 87 59 45 93 64 48 99 69 51 105 74 54 111 79 57 79 60 42 85 65 45 91 70 48 97 75 51 103 56 54 109 61 57 77 66 42 83 71 45 89 76 48 95 57 51 101 62 54 107 67 57 75 72 42 81 77 45 87 58 48 93 63 51 99 68 54 105 73 57 111 78 42 79 59 45 85 64 48 91 69 51 97 74 54 103 79 57 109 60 42 77 65 45 83 70 48 89 75 51 95 56 54 101 61 57 107 66 42 75 71 45 81 76 48 87 57 51 93 62 54 99 67 57 105 72 42 111 77 45 79 58 48 85 63 51 91 68 54 97 73 57 103 78 42 109 59 45 77 64 48 83 69 51 89 74 54 95 79 57 101 60 42 107 65 45 75 70 48 81 75 51 87 56 54 93 61 57 99 66 42 105 71 45 111 76 48 79 57 51 85 62 54 91 67 57 97 72 42 103 77 45 109 58 48 77 63 51 83 68 54 89 73 57 95 78 42 101 59 45 107 64 48 75 69 51 81 74 54 87 79 57 93 60 42 99 65 45 105 70 48 111 75 51 79 56 54 85 61 57 91 66 42 97 71 45 103 76 48 109 57 51 77 62 54 83 67 57 89 72 42 95 77 45 101 58 48 107 63 51 75 68 54 81 73 57 87 78 42 93 59 45 99 64 48 105 69 51 111 74 54 79 79 57 85 60 42 91 65 45 97 70 48 103 75 51 109 56 54 77 61 57 83 66 42 89 71 45 95 76 48 101 57 51 107 62 54 75 67 57 81 72 42 87 77 45 93 58 48 99 63 51 105 68 54 111 73 57 79 78 42 85 59 45 91 64 48 97 69 51 103 74 54 109 79 57 77 60 42 83 65 45 89 70 48 95 75 51 101 56 54 107 61 57 75 66 42 81 71 45 87 76 48 93 57 51 99 62 54 105 67 57 111 72 42 79 77 45 85 58 48 91 63 51 97 68 54 103 73 57 109 78 42 77 59 45 83 64 48 89 69 51 95 74 54 101 79 57 107 60 42 75 65 45 81 70 48 87 75 51 93 56 54 99 61 57 105 66 42 111 71 45 79 76 48 85 57 51 91 62 54 97 67 57 103 72 42 109 77 45 77 58 48 83 63 51 89 68 54 95 73 57 101 78 42 107 59 45 75 64 48 81 69 51 87 74 54 93 79 57 99 60 42 105 65 45 111 70 48 79 75 51 85 56 54 91 61 57 97 66 42 103 71 45 109 76 48 77 57 51 83 62 54 89 67 57 95 72 42 101 77 45 107 58 48 75 63 51 81 68 54 87 73 57 93 78 42 99 59 45 105 64 48 111 69 51 79 74 54 85 79 57 91 60 42 97 65 45 103 70 48 109 75 51 77 56 54 83 61 57 89 66 42 95 71 45 101 76 48 107 57 51 75 62 54 81 67 57 87 72 42 93 77 45 99 58 48 105 63 51 111 68 54 79 73 57 85 78 42 91 59 45 97 64 48 103 69 51 109 74 54 77 79 57 83 60 42 89 65 45 95 70 48 101 75 51 107 56 54 75 61 57 81 66 42 87 71 45 93 76 48 99 57 51 105 62 54 111 67 57 79 72 42 85 77 45 91 58 48 97 63 51 103 68 54 109 73 57 77 78 42 83 59 45 89 64 48 95 69 51 101 74 54 107 79 57 75 60 42 81 65 45 87 70 48 93 75 51 99 56 54 105 61 57 111 66 42 79 71 45 85 76 48 91 57 51 97 62 54 103 67 57 109 72 42 77 77 45 83 58 48 89 63 51 95 68 54 101 73 57 107 78 42 75 59 45 81 64 48 87 69 51 93 74 54 99 79 57 105 60 42 111 65 45 79 70 48 85 75 51 91 56 54 97 61 57 103 66 42 109 71 45 77 76 48 83 57 51 89 62 54 95 67 57 101 72 42 107 77 45 75 58 48 81 63 51 87 68 54 93 73 57 99 78 42 105 59 45 111 64 48 79 69 51 85 74 54 91 79 57 97 60 42 103 65 45 109 70 48 77 75 51 83 56 54 89 61 57 95 66 42 101 71 45 107 76 48 75 57 51 81 62 54 87 67 57 93 72 42 99 77 45 105 58 48 111 63 51 79 68 54 85 73 57
76 64 44 82 69 47 88 74 50 94 79 53 100 60 56 106 65 59 74 70 44 80 75 47 86 56 50 92 61 53 98 66 56 104 71 59 110 76 44 78 57 47 84 62 50 90 67 53 96 72 56 102 77 59 108 58 44 76 63 47 82 68 50 88 73 53 94 78 56 100 59 59 106 64 44 74 69 47 80 74 50 86 79 53 92 60 56 98 65 59 104 70 44 110 75 47 78 56 50 84 61 53 90 66 56 96 71 59 102 76 44 108 57 47 76 62 50 82 67 53 88 72 56 94 77 59 100 58 44 106 63 47 74 68 50 80 73 53 86 78 56 92 59 59 98 64 44 104 69 47 110 74 50 78 79 53 84 60 56 90 65 59 96 70 44 102 75 47 108 56 50 76 61 53 82 66 56 88 71 59 94 76 44 100 57 47 106 62 50 74 67 53 80 72 56 86 77 59 92 58 44 98 63 47 104 68 50 110 73 53 78 78 56 84 59 59 90 64 44 96 69 47 102 74 50 108 79 53 76 60 56 82 65 59 88 70 44 94 75 47 100 56 50 106 61 53 74 66 56 80 71 59 86 76 44 92 57 47 98 62 50 104 67 53 110 72 56 78 77 59 84 58 44 90 63 47 96 68 50 102 73 53 108 78 56 76 59 59 82 64 44 88 69 47 94 74 50 100 79 53 106 60 56 74 65 59 80 70 44 86 75 47 92 56 50 98 61 53 104 66 56 110 71 59 78 76 44 84 57 47 90 62 50 96 67 53 102 72 56 108 77 59 76 58 44 82 63 47 88 68 50 94 73 53 100 78 56 106 59 59 74 64 44 80 69 47 86 74 50 92 79 53 98 60 56 104 65 59 110 70 44 78 75 47 84 56 50 90 61 53 96 66 56 102 71 59 108 76 44 76 57 47 82 62 50 88 67 53 94 72 56 100 77 59 106 58 44 74 63 47 80 68 50 86 73 53 92 78 56 98 59 59 104 64 44 110 69 47 78 74 50 84 79 53 90 60 56 96 65 59 102 70 44 108 75 47 76 56 50 82 61 53 88 66 56 94 71 59 100 76 44 106 57 47 74 62 50 80 67 53 86 72 56 92 77 59 98 58 44 104 63 47 110 68 50 78 73 53 84 78 56 90 59 59 96 64 44 102 69 47 108 74 50 76 79 53 82 60 56 88 65 59 94 70 44 100 75 47 106 56 50 74 61 53 80 66 56 86 71 59 92 76 44 98 57 47 104 62 50 110 67 53 78 72 56 84 77 59 90 58 44 96 63 47 102 68 50 108 73 53 76 78 56 82 59 59 88 64 44 94 69 47 100 74 50 106 79 53 74 60 56 80 65 59 86 70 44 92 75 47 98 56 50 104 61 53 110 66 56 78 71 59 84 76 44 90 57 47 96 62 50 102 67 53 108 72 56 76 77 59 82 58 44 88 63 47 94 68 50 100 73 53 106 78 56 74 59 59 80 64 44 86 69 47 92 74 50 98 79 53 104 60 56 110 65 59 78 70 44 84 75 47 90 56 50 96 61 53 102 66 56 108 71 59 76 76 44 82 57 47 88 62 50 94 67 53 100 72 56 106 77 59 74 58 44 80 63 47 86 68 50 92 73 53 98 78 56 104 59 59 110 64 44 78 69 47 84 74 50 90 79 53 96 60 56 102 65 59 108 70 44 76 75 47 82 56 50 88 61 53 94 66 56 100 71 59 106 76 44 74 57 47 80 62 50 86 67 53 92 72 56 98 77 59 104 58 44 110 63 47 78 68 50 84 73 53 90 78 56 96 59 59 102 64 44 108 69 47 76 74 50 82 79 53 88 60 56 94 65 59 100 70 44 106 75 47 74 56 50 80 61 53 86 66 56 92 71 59 98 76 44 104 57 47 110 62 50 78 67 53 84 72 56 90 77 59 96 58 44 102 63 47 108 68 50 76 73 53 82 78 56 88 59 59 94 64 44 100 69 47 106 74 50 74 79 53 80 60 56 86 65 59 92 70 44 98 75 47 104 56 50 110 61 53 78 66 56 84 71 59 90 76 44 96 57 47 102 62 50 108 67 53 76 72 56 82 77 59 88 58 44 94 63 47 100 68 50 106 73 53 74 78 56 80 59 59 86 64 44 92 69 47 98 74 50 104 79 53 110 60 56 78 65 59 84 70 44 90 75 47
81 66 52 87 71 55 93 76 58 99 57 43 105 62 46 111 67 49 79 72 52 85 77 55 91 58 58 97 63 43 103 68 46 109 73 49 77 78 52 83 59 55 89 64 58 95 69 43 101 74 46 107 79 49 75 60 52 81 65 55 87 70 58 93 75 43 99 56 46 105 61 49 111 66 52 79 71 55 85 76 58 91 57 43 97 62 46 103 67 49 109 72 52 77 77 55 83 58 58 89 63 43 95 68 46 101 73 49 107 78 52 75 59 55 81 64 58 87 69 43 93 74 46 99 79 49 105 60 52 111 65 55 79 70 58 85 75 43 91 56 46 97 61 49 103 66 52 109 71 55 77 76 58 83 57 43 89 62 46 95 67 49 101 72 52 107 77 55 75 58 58 81 63 43 87 68 46 93 73 49 99 78 52 105 59 55 111 64 58 79 69 43 85 74 46 91 79 49 97 60 52 103 65 55 109 70 58 77 75 43 83 56 46 89 61 49 95 66 52 101 71 55 107 76 58 75 57 43 81 62 46 87 67 49 93 72 52 99 77 55 105 58 58 111 63 43 79 68 46 85 73 49 91 78 52 97 59 55 103 64 58 109 69 43 77 74 46 83 79 49 89 60 52 95 65 55 101 70 58 107 75 43 75 56 46 81 61 49 87 66 52 93 71 55 99 76 58 105 57 43 111 62 46 79 67 49 85 72 52 91 77 55 97 58 58 103 63 43 109 68 46 77 73 49 83 78 52 89 59 55 95 64 58 101 69 43 107 74 46 75 79 49 81 60 52 87 65 55 93 70 58 99 75 43 105 56 46 111 61 49 79 66 52 85 71 55 91 76 58 97 57 43 103 62 46 109 67 49 77 72 52 83 77 55 89 58 58 95 63 43 101 68 46 107 73 49 75 78 52 81 59 55 87 64 58 93 69 43 99 74 46 105 79 49 111 60 52 79 65 55 85 70 58 91 75 43 97 56 46 103 61 49 109 66 52 77 71 55 83 76 58 89 57 43 95 62 46 101 67 49 107 72 52 75 77 55 81 58 58 87 63 43 93 68 46 99 73 49 105 78 52 111 59 55 79 64 58 85 69 43 91 74 46 97 79 49 103 60 52 109 65 55 77 70 58 83 75 43 89 56 46 95 61 49 101 66 52 107 71 55 75 76 58 81 57 43 87 62 46 93 67 49 99 72 52 105 77 55 111 58 58 79 63 43 85 68 46 91 73 49 97 78 52 103 59 55 109 64 58 77 69 43 83 74 46 89 79 49 95 60 52 101 65 55 107 70 58 75 75 43 81 56 46 87 61 49 93 66 52 99 71 55 105 76 58 111 57 43 79 62 46 85 67 49 91 72 52 97 77 55 103 58 58 109 63 43 77 68 46 83 73 49 89 78 52 95 59 55 101 64 58 107 69 43 75 74 46 81 79 49 87 60 52 93 65 55 99 70 58 105 75 43 111 56 46 79 61 49 85 66 52 91 71 55 97 76 58 103 57 43 109 62 46 77 67 49 83 72 52 89 77 55 95 58 58 101 63 43 107 68 46 75 73 49 81 78 52 87 59 55 93 64 58 99 69 43 105 74 46 111 79 49 79 60 52 85 65 55 91 70 58 97 75 43 103 56 46 109 61 49 77 66 52 83 71 55 89 76 58 95 57 43 101 62 46 107 67 49 75 72 52 81 77 55 87 58 58 93 63 43 99 68 46 105 73 49 111 78 52 79 59 55 85 64 58 91 69 43 97 74 46 103 79 49 109 60 52 77 65 55 83 70 58 89 75 43 95 56 46 101 61 49 107 66 52 75 71 55 81 76 58 87 57 43 93 62 46 99 67 49 105 72 52 111 77 55 79 58 58 85 63 43 91 68 46 97 73 49 103 78 52 109 59 55 77 64 58 83 69 43 89 74 46 95 79 49 101 60 52 107 65 55 75 70 58 81 75 43 87 56 46 93 61 49 99 66 52 105 71 55 111 76 58 79 57 43 85 62 46 91 67 49 97 72 52 103 77 55 109 58 58 77 63 43 83 68 46 89 73 49 95 78 52 101 59 55 107 64 58 75 69 43 81 74 46 87 79 49 93 60 52 99 65 55 105 70 58 111 75 43 79 56 46 85 61 49 91 66 52 97 71 55 103 76 58 109 57 43 77 62 46 83 67 49 89 72 52 95 77 55
86 68 42 92 73 45 98 78 48 104 59 51 110 64 54 78 69 57 84 74 42 90 79 45 96 60 48 102 65 51 108 70 54 76 75 57 82 56 42 88 61 45 94 66 48 100 71 51 106 76 54 74 57 57 80 62 42 86 67 45 92 72 48 98 77 51 104 58 54 110 63 57 78 68 42 84 73 45 90 78 48 96 59 51 102 64 54 108 69 57 76 74 42 82 79 45 88 60 48 94 65 51 100 70 54 106 75 57 74 56 42 80 61 45 86 66 48 92 71 51 98 76 54 104 57 57 110 62 42 78 67 45 84 72 48 90 77 51 96 58 54 102 63 57 108 68 42 76 73 45 82 78 48 88 59 51 94 64 54 100 69 57 106 74 42 74 79 45 80 60 48 86 65 51 92 70 54 98 75 57 104 56 42 110 61 45 78 66 48 84 71 51 90 76 54 96 57 57 102 62 42 108 67 45 76 72 48 82 77 51 88 58 54 94 63 57 100 68 42 106 73 45 74 78 48 80 59 51 86 64 54 92 69 57 98 74 42 104 79 45 110 60 48 78 65 51 84 70 54 90 75 57 96 56 42 102 61 45 108 66 48 76 71 51 82 76 54 88 57 57 94 62 42 100 67 45 106 72 48 74 77 51 80 58 54 86 63 57 92 68 42 98 73 45 104 78 48 110 59 51 78 64 54 84 69 57 90 74 42 96 79 45 102 60 48 108 65 51 76 70 54 82 75 57 88 56 42 94 61 45 100 66 48 106 71 51 74 76 54 80 57 57 86 62 42 92 67 45 98 72 48 104 77 51 110 58 54 78 63 57 84 68 42 90 73 45 96 78 48 102 59 51 108 64 54 76 69 57 82 74 42 88 79 45 94 60 48 100 65 51 106 70 54 74 75 57 80 56 42 86 61 45 92 66 48 98 71 51 104 76 54 110 57 57 78 62 42 84 67 45 90 72 48 96 77 51 102 58 54 108 63 57 76 68 42 82 73 45 88 78 48 94 59 51 100 64 54 106 69 57 74 74 42 80 79 45 86 60 48 92 65 51 98 70 54 104 75 57 110 56 42 78 61 45 84 66 48 90 71 51 96 76 54 102 57 57 108 62 42 76 67 45 82 72 48 88 77 51 94 58 54 100 63 57 106 68 42 74 73 45 80 78 48 86 59 51 92 64 54 98 69 57 104 74 42 110 79 45 78 60 48 84 65 51 90 70 54 96 75 57 102 56 42 108 61 45 76 66 48 82 71 51 88 76 54 94 57 57 100 62 42 106 67 45 74 72 48 80 77 51 86 58 54 92 63 57 98 68 42 104 73 45 110 78 48 78 59 51 84 64 54 90 69 57 96 74 42 102 79 45 108 60 48 76 65 51 82 70 54 88 75 57 94 56 42 100 61 45 106 66 48 74 71 51 80 76 54 86 57 57 92 62 42 98 67 45 104 72 48 110 77 51 78 58 54 84 63 57 90 68 42 96 73 45 102 78 48 108 59 51 76 64 54 82 69 57 88 74 42 94 79 45 100 60 48 106 65 51 74 70 54 80 75 57 86 56 42 92 61 45 98 66 48 104 71 51 110 76 54 78 57 57 84 62 42 90 67 45 96 72 48 102 77 51 108 58 54 76 63 57 82 68 42 88 73 45 94 78 48 100 59 51 106 64 54 74 69 57 80 74 42 86 79 45 92 60 48 98 65 51 104 70 54 110 75 57 78 56 42 84 61 45 90 66 48 96 71 51 102 76 54 108 57 57 76 62 42 82 67 45 88 72 48 94 77 51 100 58 54 106 63 57 74 68 42 80 73 45 86 78 48 92 59 51 98 64 54 104 69 57 110 74 42 78 79 45 84 60 48 90 65 51 96 70 54 102 75 57 108 56 42 76 61 45 82 66 48 88 71 51 94 76 54 100 57 57 106 62 42 74 67 45 80 72 48 86 77 51 92 58 54 98 63 57 104 68 42 110 73 45 78 78 48 84 59 51 90 64 54 96 69 57 102 74 42 108 79 45 76 60 48 82 65 51 88 70 54 94 75 57 100 56 42 106 61 45 74 66 48 80 71 51 86 76 54 92 57 57 98 62 42 104 67 45 110 72 48 78 77 51 84 58 54 90 63 57 96 68 42 102 73 45 108 78 48 76 59 51 82 64 54 88 69 57 94 74 42 100 79 45
91 70 50 97 75 53 103 56 56 109 61 59 77 66 44 83 71 47 89 76 50 95 57 53 101 62 56 107 67 59 75 72 44 81 77 47 87 58 50 93 63 53 99 68 56 105 73 59 111 78 44 79 59 47 85 64 50 91 69 53 97 74 56 103 79 59 109 60 44 77 65 47 83 70 50 89 75 53 95 56 56 101 61 59 107 66 44 75 71 47 81 76 50 87 57 53 93 62 56 99 67 59 105 72 44 111 77 47 79 58 50 85 63 53 91 68 56 97 73 59 103 78 44 109 59 47 77 64 50 83 69 53 89 74 56 95 79 59 101 60 44 107 65 47 75 70 50 81 75 53 87 56 56 93 61 59 99 66 44 105 71 47 111 76 50 79 57 53 85 62 56 91 67 59 97 72 44 103 77 47 109 58 50 77 63 53 83 68 56 89 73 59 95 78 44 101 59 47 107 64 50 75 69 53 81 74 56 87 79 59 93 60 44 99 65 47 105 70 50 111 75 53 79 56 56 85 61 59 91 66 44 97 71 47 103 76 50 109 57 53 77 62 56 83 67 59 89 72 44 95 77 47 101 58 50 107 63 53 75 68 56 81 73 59 87 78 44 93 59 47 99 64 50 105 69 53 111 74 56 79 79 59 85 60 44 91 65 47 97 70 50 103 75 53 109 56 56 77 61 59 83 66 44 89 71 47 95 76 50 101 57 53 107 62 56 75 67 59 81 72 44 87 77 47 93 58 50 99 63 53 105 68 56 111 73 59 79 78 44 85 59 47 91 64 50 97 69 53 103 74 56 109 79 59 77 60 44 83 65 47 89 70 50 95 75 53 101 56 56 107 61 59 75 66 44 81 71 47 87 76 50 93 57 53 99 62 56 105 67 59 111 72 44 79 77 47 85 58 50 91 63 53 97 68 56 103 73 59 109 78 44 77 59 47 83 64 50 89 69 53 95 74 56 101 79 59 107 60 44 75 65 47 81 70 50 87 75 53 93 56 56 99 61 59 105 66 44 111 71 47 79 76 50 85 57 53 91 62 56 97 67 59 103 72 44 109 77 47 77 58 50 83 63 53 89 68 56 95 73 59 101 78 44 107 59 47 75 64 50 81 69 53 87 74 56 93 79 59 99 60 44 105 65 47 111 70 50 79 75 53 85 56 56 91 61 59 97 66 44 103 71 47 109 76 50 77 57 53 83 62 56 89 67 59 95 72 44 101 77 47 107 58 50 75 63 53 81 68 56 87 73 59 93 78 44 99 59 47 105 64 50 111 69 53 79 74 56 85 79 59 91 60 44 97 65 47 103 70 50 109 75 53 77 56 56 83 61 59 89 66 44 95 71 47 101 76 50 107 57 53 75 62 56 81 67 59 87 72 44 93 77 47 99 58 50 105 63 53 111 68 56 79 73 59 85 78 44 91 59 47 97 64 50 103 69 53 109 74 56 77 79 59 83 60 44 89 65 47 95 70 50 101 75 53 107 56 56 75 61 59 81 66 44 87 71 47 93 76 50 99 57 53 105 62 56 111 67 59 79 72 44 85 77 47 91 58 50 97 63 53 103 68 56 109 73 59 77 78 44 83 59 47 89 64 50 95 69 53 101 74 56 107 79 59 75 60 44 81 65 47 87 70 50 93 75 53 99 56 56 105 61 59 111 66 44 79 71 47 85 76 50 91 57 53 97 62 56 103 67 59 109 72 44 77 77 47 83 58 50 89 63 53 95 68 56 101 73 59 107 78 44 75 59 47 81 64 50 87 69 53 93 74 56 99 79 59 105 60 44 111 65 47 79 70 50 85 75 53 91 56 56 97 61 59 103 66 44 109 71 47 77 76 50 83 57 53 89 62 56 95 67 59 101 72 44 107 77 47 75 58 50 81 63 53 87 68 56 93 73 59 99 78 44 105 59 47 111 64 50 79 69 53 85 74 56 91 79 59 97 60 44 103 65 47 109 70 50 77 75 53 83 56 56 89 61 59 95 66 44 101 71 47 107 76 50 75 57 53 81 62 56 87 67 59 93 72 44 99 77 47 105 58 50 111 63 53 79 68 56 85 73 59 91 78 44 97 59 47 103 64 50 109 69 53 77 74 56 83 79 59 89 60 44 95 65 47 101 70 50 107 75 53 75 56 56 81 61 59 87 66 44 93 71 47 99 76 50 105 57 53
96 72 58 102 77 43 108 58 46 76 63 49 82 68 52 88 73 55 94 78 58 100 59 43 106 64 46 74 69 49 80 74 52 86 79 55 92 60 58 98 65 43 104 70 46 110 75 49 78 56 52 84 61 55 90 66 58 96 71 43 102 76 46 108 57 49 76 62 52 82 67 55 88 72 58 94 77 43 100 58 46 106 63 49 74 68 52 80 73 55 86 78 58 92 59 43 98 64 46 104 69 49 110 74 52 78 79 55 84 60 58 90 65 43 96 70 46 102 75 49 108 56 52 76 61 55 82 66 58 88 71 43 94 76 46 100 57 49 106 62 52 74 67 55 80 72 58 86 77 43 92 58 46 98 63 49 104 68 52 110 73 55 78 78 58 84 59 43 90 64 46 96 69 49 102 74 52 108 79 55 76 60 58 82 65 43 88 70 46 94 75 49 100 56 52 106 61 55 74 66 58 80 71 43 86 76 46 92 57 49 98 62 52 104 67 55 110 72 58 78 77 43 84 58 46 90 63 49 96 68 52 102 73 55 108 78 58 76 59 43 82 64 46 88 69 49 94 74 52 100 79 55 106 60 58 74 65 43 80 70 46 86 75 49 92 56 52 98 61 55 104 66 58 110 71 43 78 76 46 84 57 49 90 62 52 96 67 55 102 72 58 108 77 43 76 58 46 82 63 49 88 68 52 94 73 55 100 78 58 106 59 43 74 64 46 80 69 49 86 74 52 92 79 55 98 60 58 104 65 43 110 70 46 78 75 49 84 56 52 90 61 55 96 66 58 102 71 43 108 76 46 76 57 49 82 62 52 88 67 55 94 72 58 100 77 43 106 58 46 74 63 49 80 68 52 86 73 55 92 78 58 98 59 43 104 64 46 110 69 49 78 74 52 84 79 55 90 60 58 96 65 43 102 70 46 108 75 49 76 56 52 82 61 55 88 66 58 94 71 43 100 76 46 106 57 49 74 62 52 80 67 55 86 72 58 92 77 43 98 58 46 104 63 49 110 68 52 78 73 55 84 78 58 90 59 43 96 64 46 102 69 49 108 74 52 76 79 55 82 60 58 88 65 43 94 70 46 100 75 49 106 56 52 74 61 55 80 66 58 86 71 43 92 76 46 98 57 49 104 62 52 110 67 55 78 72 58 84 77 43 90 58 46 96 63 49 102 68 52 108 73 55 76 78 58 82 59 43 88 64 46 94 69 49 100 74 52 106 79 55 74 60 58 80 65 43 86 70 46 92 75 49 98 56 52 104 61 55 110 66 58 78 71 43 84 76 46 90 57 49 96 62 52 102 67 55 108 72 58 76 77 43 82 58 46 88 63 49 94 68 52 100 73 55 106 78 58 74 59 43 80 64 46 86 69 49 92 74 52 98 79 55 104 60 58 110 65 43 78 70 46 84 75 49 90 56 52 96 61 55 102 66 58 108 71 43 76 76 46 82 57 49 88 62 52 94 67 55 100 72 58 106 77 43 74 58 46 80 63 49 86 68 52 92 73 55 98 78 58 104 59 43 110 64 46 78 69 49 84 74 52 90 79 55 96 60 58 102 65 43 108 70 46 76 75 49 82 56 52 88 61 55 94 66 58 100 71 43 106 76 46 74 57 49 80 62 52 86 67 55 92 72 58 98 77 43 104 58 46 110 63 49 78 68 52 84 73 55 90 78 58 96 59 43 102 64 46 108 69 49 76 74 52 82 79 55 88 60 58 94 65 43 100 70 46 106 75 49 74 56 52 80 61 55 86 66 58 92 71 43 98 76 46 104 57 49 110 62 52 78 67 55 84 72 58 90 77 43 96 58 46 102 63 49 108 68 52 76 73 55 82 78 58 88 59 43 94 64 46 100 69 49 106 74 52 74 79 55 80 60 58 86 65 43 92 70 46 98 75 49 104 56 52 110 61 55 78 66 58 84 71 43 90 76 46 96 57 49 102 62 52 108 67 55 76 72 58 82 77 43 88 58 46 94 63 49 100 68 52 106 73 55 74 78 58 80 59 43 86 64 46 92 69 49 98 74 52 104 79 55 110 60 58 78 65 43 84 70 46 90 75 49 96 56 52 102 61 55 108 66 58 76 71 43 82 76 46 88 57 49 94 62 52 100 67 55 106 72 58 74 77 43 80 58 46 86 63 49 92 68 52 98 73 55 104 78 58 110 59 43
101 74 48 107 79 51 75 60 54 81 65 57 87 70 42 93 75 45 99 56 48 105 61 51 111 66 54 79 71 57 85 76 42 91 57 45 97 62 48 103 67 51 109 72 54 77 77 57 83 58 42 89 63 45 95 68 48 101 73 51 107 78 54 75 59 57 81 64 42 87 69 45 93 74 48 99 79 51 105 60 54 111 65 57 79 70 42 85 75 45 91 56 48 97 61 51 103 66 54 109 71 57 77 76 42 83 57 45 89 62 48 95 67 51 101 72 54 107 77 57 75 58 42 81 63 45 87 68 48 93 73 51 99 78 54 105 59 57 111 64 42 79 69 45 85 74 48 91 79 51 97 60 54 103 65 57 109 70 42 77 75 45 83 56 48 89 61 51 95 66 54 101 71 57 107 76 42 75 57 45 81 62 48 87 67 51 93 72 54 99 77 57 105 58 42 111 63 45 79 68 48 85 73 51 91 78 54 97 59 57 103 64 42 109 69 45 77 74 48 83 79 51 89 60 54 95 65 57 101 70 42 107 75 45 75 56 48 81 61 51 87 66 54 93 71 57 99 76 42 105 57 45 111 62 48 79 67 51 85 72 54 91 77 57 97 58 42 103 63 45 109 68 48 77 73 51 83 78 54 89 59 57 95 64 42 101 69 45 107 74 48 75 79 51 81 60 54 87 65 57 93 70 42 99 75 45 105 56 48 111 61 51 79 66 54 85 71 57 91 76 42 97 57 45 103 62 48 109 67 51 77 72 54 83 77 57 89 58 42 95 63 45 101 68 48 107 73 51 75 78 54 81 59 57 87 64 42 93 69 45 99 74 48 105 79 51 111 60 54 79 65 57 85 70 42 91 75 45 97 56 48 103 61 51 109 66 54 77 71 57 83 76 42 89 57 45 95 62 48 101 67 51 107 72 54 75 77 57 81 58 42 87 63 45 93 68 48 99 73 51 105 78 54 111 59 57 79 64 42 85 69 45 91 74 48 97 79 51 103 60 54 109 65 57 77 70 42 83 75 45 89 56 48 95 61 51 101 66 54 107 71 57 75 76 42 81 57 45 87 62 48 93 67 51 99 72 54 105 77 57 111 58 42 79 63 45 85 68 48 91 73 51 97 78 54 103 59 57 109 64 42 77 69 45 83 74 48 89 79 51 95 60 54 101 65 57 107 70 42 75 75 45 81 56 48 87 61 51 93 66 54 99 71 57 105 76 42 111 57 45 79 62 48 85 67 51 91 72 54 97 77 57 103 58 42 109 63 45 77 68 48 83 73 51 89 78 54 95 59 57 101 64 42 107 69 45 75 74 48 81 79 51 87 60 54 93 65 57 99 70 42 105 75 45 111 56 48 79 61 51 85 66 54 91 71 57 97 76 42 103 57 45 109 62 48 77 67 51 83 72 54 89 77 57 95 58 42 101 63 45 107 68 48 75 73 51 81 78 54 87 59 57 93 64 42 99 69 45 105 74 48 111 79 51 79 60 54 85 65 57 91 70 42 97 75 45 103 56 48 109 61 51 77 66 54 83 71 57 89 76 42 95 57 45 101 62 48 107 67 51 75 72 54 81 77 57 87 58 42 93 63 45 99 68 48 105 73 51 111 78 54 79 59 57 85 64 42 91 69 45 97 74 48 103 79 51 109 60 54 77 65 57 83 70 42 89 75 45 95 56 48 101 61 51 107 66 54 75 71 57 81 76 42 87 57 45 93 62 48 99 67 51 105 72 54 111 77 57 79 58 42 85 63 45 91 68 48 97 73 51 103 78 54 109 59 57 77 64 42 83 69 45 89 74 48 95 79 51 101 60 54 107 65 57 75 70 42 81 75 45 87 56 48 93 61 51 99 66 54 105 71 57 111 76 42 79 57 45 85 62 48 91 67 51 97 72 54 103 77 57 109 58 42 77 63 45 83 68 48 89 73 51 95 78 54 101 59 57 107 64 42 75 69 45 81 74 48 87 79 51 93 60 54 99 65 57 105 70 42 111 75 45 79 56 48 85 61 51 91 66 54 97 71 57 103 76 42 109 57 45 77 62 48 83 67 51 89 72 54 95 77 57 101 58 42 107 63 45 75 68 48 81 73 51 87 78 54 93 59 57 99 64 42 105 69 45 111 74 48 79 79 51 85 60 54 91 65 57 97 70 42 103 75 45 109 56 48 77 61 51
106 76 56 74 57 59 80 62 44 86 67 47 92 72 50 98 77 53 104 58 56 110 63 59 78 68 44 84 73 47 90 78 50 96 59 53 102 64 56 108 69 59 76 74 44 82 79 47 88 60 50 94 65 53 100 70 56 106 75 59 74 56 44 80 61 47 86 66 50 92 71 53 98 76 56 104 57 59 110 62 44 78 67 47 84 72 50 90 77 53 96 58 56 102 63 59 108 68 44 76 73 47 82 78 50 88 59 53 94 64 56 100 69 59 106 74 44 74 79 47 80 60 50 86 65 53 92 70 56 98 75 59 104 56 44 110 61 47 78 66 50 84 71 53 90 76 56 96 57 59 102 62 44 108 67 47 76 72 50 82 77 53 88 58 56 94 63 59 100 68 44 106 73 47 74 78 50 80 59 53 86 64 56 92 69 59 98 74 44 104 79 47 110 60 50 78 65 53 84 70 56 90 75 59 96 56 44 102 61 47 108 66 50 76 71 53 82 76 56 88 57 59 94 62 44 100 67 47 106 72 50 74 77 53 80 58 56 86 63 59 92 68 44 98 73 47 104 78 50 110 59 53 78 64 56 84 69 59 90 74 44 96 79 47 102 60 50 108 65 53 76 70 56 82 75 59 88 56 44 94 61 47 100 66 50 106 71 53 74 76 56 80 57 59 86 62 44 92 67 47 98 72 50 104 77 53 110 58 56 78 63 59 84 68 44 90 73 47 96 78 50 102 59 53 108 64 56 76 69 59 82 74 44 88 79 47 94 60 50 100 65 53 106 70 56 74 75 59 80 56 44 86 61 47 92 66 50 98 71 53 104 76 56 110 57 59 78 62 44 84 67 47 90 72 50 96 77 53 102 58 56 108 63 59 76 68 44 82 73 47 88 78 50 94 59 53 100 64 56 106 69 59 74 74 44 80 79 47 86 60 50 92 65 53 98 70 56 104 75 59 110 56 44 78 61 47 84 66 50 90 71 53 96 76 56 102 57 59 108 62 44 76 67 47 82 72 50 88 77 53 94 58 56 100 63 59 106 68 44 74 73 47 80 78 50 86 59 53 92 64 56 98 69 59 104 74 44 110 79 47 78 60 50 84 65 53 90 70 56 96 75 59 102 56 44 108 61 47 76 66 50 82 71 53 88 76 56 94 57 59 100 62 44 106 67 47 74 72 50 80 77 53 86 58 56 92 63 59 98 68 44 104 73 47 110 78 50 78 59 53 84 64 56 90 69 59 96 74 44 102 79 47 108 60 50 76 65 53 82 70 56 88 75 59 94 56 44 100 61 47 106 66 50 74 71 53 80 76 56 86 57 59 92 62 44 98 67 47 104 72 50 110 77 53 78 58 56 84 63 59 90 68 44 96 73 47 102 78 50 108 59 53 76 64 56 82 69 59 88 74 44 94 79 47 100 60 50 106 65 53 74 70 56 80 75 59 86 56 44 92 61 47 98 66 50 104 71 53 110 76 56 78 57 59 84 62 44 90 67 47 96 72 50 102 77 53 108 58 56 76 63 59 82 68 44 88 73 47 94 78 50 100 59 53 106 64 56 74 69 59 80 74 44 86 79 47 92 60 50 98 65 53 104 70 56 110 75 59 78 56 44 84 61 47 90 66 50 96 71 53 102 76 56 108 57 59 76 62 44 82 67 47 88 72 50 94 77 53 100 58 56 106 63 59 74 68 44 80 73 47 86 78 50 92 59 53 98 64 56 104 69 59 110 74 44 78 79 47 84 60 50 90 65 53 96 70 56 102 75 59 108 56 44 76 61 47 82 66 50 88 71 53 94 76 56 100 57 59 106 62 44 74 67 47 80 72 50 86 77 53 92 58 56 98 63 59 104 68 44 110 73 47 78 78 50 84 59 53 90 64 56 96 69 59 102 74 44 108 79 47 76 60 50 82 65 53 88 70 56 94 75 59 100 56 44 106 61 47 74 66 50 80 71 53 86 76 56 92 57 59 98 62 44 104 67 47 110 72 50 78 77 53 84 58 56 90 63 59 96 68 44 102 73 47 108 78 50 76 59 53 82 64 56 88 69 59 94 74 44 100 79 47 106 60 50 74 65 53 80 70 56 86 75 59 92 56 44 98 61 47 104 66 50 110 71 53 78 76 56 84 57 59 90 62 44 96 67 47 102 72 50 108 77 53 76 58 56 82 63 59
111 78 46 79 59 49 85 64 52 91 69 55 97 74 58 103 79 43 109 60 46 77 65 49 83 70 52 89 75 55 95 56 58 101 61 43 107 66 46 75 71 49 81 76 52 87 57 55 93 62 58 99 67 43 105 72 46 111 77 49 79 58 52 85 63 55 91 68 58 97 73 43 103 78 46 109 59 49 77 64 52 83 69 55 89 74 58 95 79 43 101 60 46 107 65 49 75 70 52 81 75 55 87 56 58 93 61 43 99 66 46 105 71 49 111 76 52 79 57 55 85 62 58 91 67 43 97 72 46 103 77 49 109 58 52 77 63 55 83 68 58 89 73 43 95 78 46 101 59 49 107 64 52 75 69 55 81 74 58 87 79 43 93 60 46 99 65 49 105 70 52 111 75 55 79 56 58 85 61 43 91 66 46 97 71 49 103 76 52 109 57 55 77 62 58 83 67 43 89 72 46 95 77 49 101 58 52 107 63 55 75 68 58 81 73 43 87 78 46 93 59 49 99 64 52 105 69 55 111 74 58 79 79 43 85 60 46 91 65 49 97 70 52 103 75 55 109 56 58 77 61 43 83 66 46 89 71 49 95 76 52 101 57 55 107 62 58 75 67 43 81 72 46 87 77 49 93 58 52 99 63 55 105 68 58 111 73 43 79 78 46 85 59 49 91 64 52 97 69 55 103 74 58 109 79 43 77 60 46 83 65 49 89 70 52 95 75 55 101 56 58 107 61 43 75 66 46 81 71 49 87 76 52 93 57 55 99 62 58 105 67 43 111 72 46 79 77 49 85 58 52 91 63 55 97 68 58 103 73 43 109 78 46 77 59 49 83 64 52 89 69 55 95 74 58 101 79 43 107 60 46 75 65 49 81 70 52 87 75 55 93 56 58 99 61 43 105 66 46 111 71 49 79 76 52 85 57 55 91 62 58 97 67 43 103 72 46 109 77 49 77 58 52 83 63 55 89 68 58 95 73 43 101 78 46 107 59 49 75 64 52 81 69 55 87 74 58 93 79 43 99 60 46 105 65 49 111 70 52 79 75 55 85 56 58 91 61 43 97 66 46 103 71 49 109 76 52 77 57 55 83 62 58 89 67 43 95 72 46 101 77 49 107 58 52 75 63 55 81 68 58 87 73 43 93 78 46 99 59 49 105 64 52 111 69 55 79 74 58 85 79 43 91 60 46 97 65 49 103 70 52 109 75 55 77 56 58 83 61 43 89 66 46 95 71 49 101 76 52 107 57 55 75 62 58 81 67 43 87 72 46 93 77 49 99 58 52 105 63 55 111 68 58 79 73 43 85 78 46 91 59 49 97 64 52 103 69 55 109 74 58 77 79 43 83 60 46 89 65 49 95 70 52 101 75 55 107 56 58 75 61 43 81 66 46 87 71 49 93 76 52 99 57 55 105 62 58 111 67 43 79 72 46 85 77 49 91 58 52 97 63 55 103 68 58 109 73 43 77 78 46 83 59 49 89 64 52 95 69 55 101 74 58 107 79 43 75 60 46 81 65 49 87 70 52 93 75 55 99 56 58 105 61 43 111 66 46 79 71 49 85 76 52 91 57 55 97 62 58 103 67 43 109 72 46 77 77 49 83 58 52 89 63 55 95 68 58 101 73 43 107 78 46 75 59 49 81 64 52 87 69 55 93 74 58 99 79 43 105 60 46 111 65 49 79 70 52 85 75 55 91 56 58 97 61 43 103 66 46 109 71 49 77 76 52 83 57 55 89 62 58 95 67 43 101 72 46 107 77 49 75 58 52 81 63 55 87 68 58 93 73 43 99 78 46 105 59 49 111 64 52 79 69 55 85 74 58 91 79 43 97 60 46 103 65 49 109 70 52 77 75 55 83 56 58 89 61 43 95 66 46 101 71 49 107 76 52 75 57 55 81 62 58 87 67 43 93 72 46 99 77 49 105 58 52 111 63 55 79 68 58 85 73 43 91 78 46 97 59 49 103 64 52 109 69 55 77 74 58 83 79 43 89 60 46 95 65 49 101 70 52 107 75 55 75 56 58 81 61 43 87 66 46 93 71 49 99 76 52 105 57 55 111 62 58 79 67 43 85 72 46 91 77 49 97 58 52 103 63 55 109 68 58 77 73 43 83 78 46 89 59 49 95 64 52 101 69 55 107 74 58 75 79 43 81 60 46 87 65 49
78 56 54 84 61 57 90 66 42 96 71 45 102 76 48 108 57 51 76 62 54 82 67 57 88 72 42 94 77 45 100 58 48 106 63 51 74 68 54 80 73 57 86 78 42 92 59 45 98 64 48 104 69 51 110 74 54 78 79 57 84 60 42 90 65 45 96 70 48 102 75 51 108 56 54 76 61 57 82 66 42 88 71 45 94 76 48 100 57 51 106 62 54 74 67 57 80 72 42 86 77 45 92 58 48 98 63 51 104 68 54 110 73 57 78 78 42 84 59 45 90 64 48 96 69 51 102 74 54 108 79 57 76 60 42 82 65 45 88 70 48 94 75 51 100 56 54 106 61 57 74 66 42 80 71 45 86 76 48 92 57 51 98 62 54 104 67 57 110 72 42 78 77 45 84 58 48 90 63 51 96 68 54 102 73 57 108 78 42 76 59 45 82 64 48 88 69 51 94 74 54 100 79 57 106 60 42 74 65 45 80 70 48 86 75 51 92 56 54 98 61 57 104 66 42 110 71 45 78 76 48 84 57 51 90 62 54 96 67 57 102 72 42 108 77 45 76 58 48 82 63 51 88 68 54 94 73 57 100 78 42 106 59 45 74 64 48 80 69 51 86 74 54 92 79 57 98 60 42 104 65 45 110 70 48 78 75 51 84 56 54 90 61 57 96 66 42 102 71 45 108 76 48 76 57 51 82 62 54 88 67 57 94 72 42 100 77 45 106 58 48 74 63 51 80 68 54 86 73 57 92 78 42 98 59 45 104 64 48 110 69 51 78 74 54 84 79 57 90 60 42 96 65 45 102 70 48 108 75 51 76 56 54 82 61 57 88 66 42 94 71 45 100 76 48 106 57 51 74 62 54 80 67 57 86 72 42 92 77 45 98 58 48 104 63 51 110 68 54 78 73 57 84 78 42 90 59 45 96 64 48 102 69 51 108 74 54 76 79 57 82 60 42 88 65 45 94 70 48 100 75 51 106 56 54 74 61 57 80 66 42 86 71 45 92 76 48 98 57 51 104 62 54 110 67 57 78 72 42 84 77 45 90 58 48 96 63 51 102 68 54 108 73 57 76 78 42 82 59 45 88 64 48 94 69 51 100 74 54 106 79 57 74 60 42 80 65 45 86 70 48 92 75 51 98 56 54 104 61 57 110 66 42 78 71 45 84 76 48 90 57 51 96 62 54 102 67 57 108 72 42 76 77 45 82 58 48 88 63 51 94 68 54 100 73 57 106 78 42 74 59 45 80 64 48 86 69 51 92 74 54 98 79 57 104 60 42 110 65 45 78 70 48 84 75 51 90 56 54 96 61 57 102 66 42 108 71 45 76 76 48 82 57 51 88 62 54 94 67 57 100 72 42 106 77 45 74 58 48 80 63 51 86 68 54 92 73 57 98 78 42 104 59 45 110 64 48 78 69 51 84 74 54 90 79 57 96 60 42 102 65 45 108 70 48 76 75 51 82 56 54 88 61 57 94 66 42 100 71 45 106 76 48 74 57 51 80 62 54 86 67 57 92 72 42 98 77 45 104 58 48 110 63 51 78 68 54 84 73 57 90 78 42 96 59 45 102 64 48 108 69 51 76 74 54 82 79 57 88 60 42 94 65 45 100 70 48 106 75 51 74 56 54 80 61 57 86 66 42 92 71 45 98 76 48 104 57 51 110 62 54 78 67 57 84 72 42 90 77 45 96 58 48 102 63 51 108 68 54 76 73 57 82 78 42 88 59 45 94 64 48 100 69 51 106 74 54 74 79 57 80 60 42 86 65 45 92 70 48 98 75 51 104 56 54 110 61 57 78 66 42 84 71 45 90 76 48 96 57 51 102 62 54 108 67 57 76 72 42 82 77 45 88 58 48 94 63 51 100 68 54 106 73 57 74 78 42 80 59 45 86 64 48 92 69 51 98 74 54 104 79 57 110 60 42 78 65 45 84 70 48 90 75 51 96 56 54 102 61 57 108 66 42 76 71 45 82 76 48 88 57 51 94 62 54 100 67 57 106 72 42 74 77 45 80 58 48 86 63 51 92 68 54 98 73 57 104 78 42 110 59 45 78 64 48 84 69 51 90 74 54 96 79 57 102 60 42 108 65 45 76 70 48 82 75 51 88 56 54 94 61 57 100 66 42 106 71 45 74 76 48 80 57 51 86 62 54 92 67 57
83 58 44 89 63 47 95 68 50 101 73 53 107 78 56 75 59 59 81 64 44 87 69 47 93 74 50 99 79 53 105 60 56 111 65 59 79 70 44 85 75 47 91 56 50 97 61 53 103 66 56 109 71 59 77 76 44 83 57 47 89 62 50 95 67 53 101 72 56 107 77 59 75 58 44 81 63 47 87 68 50 93 73 53 99 78 56 105 59 59 111 64 44 79 69 47 85 74 50 91 79 53 97 60 56 103 65 59 109 70 44 77 75 47 83 56 50 89 61 53 95 66 56 101 71 59 107 76 44 75 57 47 81 62 50 87 67 53 93 72 56 99 77 59 105 58 44 111 63 47 79 68 50 85 73 53 91 78 56 97 59 59 103 64 44 109 69 47 77 74 50 83 79 53 89 60 56 95 65 59 101 70 44 107 75 47 75 56 50 81 61 53 87 66 56 93 71 59 99 76 44 105 57 47 111 62 50 79 67 53 85 72 56 91 77 59 97 58 44 103 63 47 109 68 50 77 73 53 83 78 56 89 59 59 95 64 44 101 69 47 107 74 50 75 79 53 81 60 56 87 65 59 93 70 44 99 75 47 105 56 50 111 61 53 79 66 56 85 71 59 91 76 44 97 57 47 103 62 50 109 67 53 77 72 56 83 77 59 89 58 44 95 63 47 101 68 50 107 73 53 75 78 56 81 59 59 87 64 44 93 69 47 99 74 50 105 79 53 111 60 56 79 65 59 85 70 44 91 75 47 97 56 50 103 61 53 109 66 56 77 71 59 83 76 44 89 57 47 95 62 50 101 67 53 107 72 56 75 77 59 81 58 44 87 63 47 93 68 50 99 73 53 105 78 56 111 59 59 79 64 44 85 69 47 91 74 50 97 79 53 103 60 56 109 65 59 77 70 44 83 75 47 89 56 50 95 61 53 101 66 56 107 71 59 75 76 44 81 57 47 87 62 50 93 67 53 99 72 56 105 77 59 111 58 44 79 63 47 85 68 50 91 73 53 97 78 56 103 59 59 109 64 44 77 69 47 83 74 50 89 79 53 95 60 56 101 65 59 107 70 44 75 75 47 81 56 50 87 61 53 93 66 56 99 71 59 105 76 44 111 57 47 79 62 50 85 67 53 91 72 56 97 77 59 103 58 44 109 63 47 77 68 50 83 73 53 89 78 56 95 59 59 101 64 44 107 69 47 75 74 50 81 79 53 87 60 56 93 65 59 99 70 44 105 75 47 111 56 50 79 61 53 85 66 56 91 71 59 97 76 44 103 57 47 109 62 50 77 67 53 83 72 56 89 77 59 95 58 44 101 63 47 107 68 50 75 73 53 81 78 56 87 59 59 93 64 44 99 69 47 105 74 50 111 79 53 79 60 56 85 65 59 91 70 44 97 75 47 103 56 50 109 61 53 77 66 56 83 71 59 89 76 44 95 57 47 101 62 50 107 67 53 75 72 56 81 77 59 87 58 44 93 63 47 99 68 50 105 73 53 111 78 56 79 59 59 85 64 44 91 69 47 97 74 50 103 79 53 109 60 56 77 65 59 83 70 44 89 75 47 95 56 50 101 61 53 107 66 56 75 71 59 81 76 44 87 57 47 93 62 50 99 67 53 105 72 56 111 77 59 79 58 44 85 63 47 91 68 50 97 73 53 103 78 56 109 59 59 77 64 44 83 69 47 89 74 50 95 79 53 101 60 56 107 65 59 75 70 44 81 75 47 87 56 50 93 61 53 99 66 56 105 71 59 111 76 44 79 57 47 85 62 50 91 67 53 97 72 56 103 77 59 109 58 44 77 63 47 83 68 50 89 73 53 95 78 56 101 59 59 107 64 44 75 69 47 81 74 50 87 79 53 93 60 56 99 65 59 105 70 44 111 75 47 79 56 50 85 61 53 91 66 56 97 71 59 103 76 44 109 57 47 77 62 50 83 67 53 89 72 56 95 77 59 101 58 44 107 63 47 75 68 50 81 73 53 87 78 56 93 59 59 99 64 44 105 69 47 111 74 50 79 79 53 85 60 56 91 65 59 97 70 44 103 75 47 109 56 50 77 61 53 83 66 56 89 71 59 95 76 44 101 57 47 107 62 50 75 67 53 81 72 56 87 77 59 93 58 44 99 63 47 105 68 50 111 73 53 79 78 56 85 59 59 91 64 44 97 69 47
88 60 52 94 65 55 100 70 58 106 75 43 74 56 46 80 61 49 86 66 52 92 71 55 98 76 58 104 57 43 110 62 46 78 67 49 84 72 52 90 77 55 96 58 58 102 63 43 108 68 46 76 73 49 82 78 52 88 59 55 94 64 58 100 69 43 106 74 46 74 79 49 80 60 52 86 65 55 92 70 58 98 75 43 104 56 46 110 61 49 78 66 52 84 71 55 90 76 58 96 57 43 102 62 46 108 67 49 76 72 52 82 77 55 88 58 58 94 63 43 100 68 46 106 73 49 74 78 52 80 59 55 86 64 58 92 69 43 98 74 46 104 79 49 110 60 52 78 65 55 84 70 58 90 75 43 96 56 46 102 61 49 108 66 52 76 71 55 82 76 58 88 57 43 94 62 46 100 67 49 106 72 52 74 77 55 80 58 58 86 63 43 92 68 46 98 73 49 104 78 52 110 59 55 78 64 58 84 69 43 90 74 46 96 79 49 102 60 52 108 65 55 76 70 58 82 75 43 88 56 46 94 61 49 100 66 52 106 71 55 74 76 58 80 57 43 86 62 46 92 67 49 98 72 52 104 77 55 110 58 58 78 63 43 84 68 46 90 73 49 96 78 52 102 59 55 108 64 58 76 69 43 82 74 46 88 79 49 94 60 52 100 65 55 106 70 58 74 75 43 80 56 46 86 61 49 92 66 52 98 71 55 104 76 58 110 57 43 78 62 46 84 67 49 90 72 52 96 77 55 102 58 58 108 63 43 76 68 46 82 73 49 88 78 52 94 59 55 100 64 58 106 69 43 74 74 46 80 79 49 86 60 52 92 65 55 98 70 58 104 75 43 110 56 46 78 61 49 84 66 52 90 71 55 96 76 58 102 57 43 108 62 46 76 67 49 82 72 52 88 77 55 94 58 58 100 63 43 106 68 46 74 73 49 80 78 52 86 59 55 92 64 58 98 69 43 104 74 46 110 79 49 78 60 52 84 65 55 90 70 58 96 75 43 102 56 46 108 61 49 76 66 52 82 71 55 88 76 58 94 57 43 100 62 46 106 67 49 74 72 52 80 77 55 86 58 58 92 63 43 98 68 46 104 73 49 110 78 52 78 59 55 84 64 58 90 69 43 96 74 46 102 79 49 108 60 52 76 65 55 82 70 58 88 75 43 94 56 46 100 61 49 106 66 52 74 71 55 80 76 58 86 57 43 92 62 46 98 67 49 104 72 52 110 77 55 78 58 58 84 63 43 90 68 46 96 73 49 102 78 52 108 59 55 76 64 58 82 69 43 88 74 46 94 79 49 100 60 52 106 65 55 74 70 58 80 75 43 86 56 46 92 61 49 98 66 52 104 71 55 110 76 58 78 57 43 84 62 46 90 67 49 96 72 52 102 77 55 108 58 58 76 63 43 82 68 46 88 73 49 94 78 52 100 59 55 106 64 58 74 69 43 80 74 46 86 79 49 92 60 52 98 65 55 104 70 58 110 75 43 78 56 46 84 61 49 90 66 52 96 71 55 102 76 58 108 57 43 76 62 46 82 67 49 88 72 52 94 77 55 100 58 58 106 63 43 74 68 46 80 73 49 86 78 52 92 59 55 98 64 58 104 69 43 110 74 46 78 79 49 84 60 52 90 65 55 96 70 58 102 75 43 108 56 46 76 61 49 82 66 52 88 71 55 94 76 58 100 57 43 106 62 46 74 67 49 80 72 52 86 77 55 92 58 58 98 63 43 104 68 46 110 73 49 78 78 52 84 59 55 90 64 58 96 69 43 102 74 46 108 79 49 76 60 52 82 65 55 88 70 58 94 75 43 100 56 46 106 61 49 74 66 52 80 71 55 86 76 58 92 57 43 98 62 46 104 67 49 110 72 52 78 77 55 84 58 58 90 63 43 96 68 46 102 73 49 108 78 52 76 59 55 82 64 58 88 69 43 94 74 46 100 79 49 106 60 52 74 65 55 80 70 58 86 75 43 92 56 46 98 61 49 104 66 52 110 71 55 78 76 58 84 57 43 90 62 46 96 67 49 102 72 52 108 77 55 76 58 58 82 63 43 88 68 46 94 73 49 100 78 52 106 59 55 74 64 58 80 69 43 86 74 46 92 79 49 98 60 52 104 65 55 110 70 58 78 75 43 84 56 46 90 61 49 96 66 52 102 71 55
93 62 42 99 67 45 105 72 48 111 77 51 79 58 54 85 63 57 91 68 42 97 73 45 103 78 48 109 59 51 77 64 54 83 69 57 89 74 42 95 79 45 101 60 48 107 65 51 75 70 54 81 75 57 87 56 42 93 61 45 99 66 48 105 71 51 111 76 54 79 57 57 85 62 42 91 67 45 97 72 48 103 77 51 109 58 54 77 63 57 83 68 42 89 73 45 95 78 48 101 59 51 107 64 54 75 69 57 81 74 42 87 79 45 93 60 48 99 65 51 105 70 54 111 75 57 79 56 42 85 61 45 91 66 48 97 71 51 103 76 54 109 57 57 77 62 42 83 67 45 89 72 48 95 77 51 101 58 54 107 63 57 75 68 42 81 73 45 87 78 48 93 59 51 99 64 54 105 69 57 111 74 42 79 79 45 85 60 48 91 65 51 97 70 54 103 75 57 109 56 42 77 61 45 83 66 48 89 71 51 95 76 54 101 57 57 107 62 42 75 67 45 81 72 48 87 77 51 93 58 54 99 63 57 105 68 42 111 73 45 79 78 48 85 59 51 91 64 54 97 69 57 103 74 42 109 79 45 77 60 48 83 65 51 89 70 54 95 75 57 101 56 42 107 61 45 75 66 48 81 71 51 87 76 54 93 57 57 99 62 42 105 67 45 111 72 48 79 77 51 85 58 54 91 63 57 97 68 42 103 73 45 109 78 48 77 59 51 83 64 54 89 69 57 95 74 42 101 79 45 107 60 48 75 65 51 81 70 54 87 75 57 93 56 42 99 61 45 105 66 48 111 71 51 79 76 54 85 57 57 91 62 42 97 67 45 103 72 48 109 77 51 77 58 54 83 63 57 89 68 42 95 73 45 101 78 48 107 59 51 75 64 54 81 69 57 87 74 42 93 79 45 99 60 48 105 65 51 111 70 54 79 75 57 85 56 42 91 61 45 97 66 48 103 71 51 109 76 54 77 57 57 83 62 42 89 67 45 95 72 48 101 77 51 107 58 54 75 63 57 81 68 42 87 73 45 93 78 48 99 59 51 105 64 54 111 69 57 79 74 42 85 79 45 91 60 48 97 65 51 103 70 54 109 75 57 77 56 42 83 61 45 89 66 48 95 71 51 101 76 54 107 57 57 75 62 42 81 67 45 87 72 48 93 77 51 99 58 54 105 63 57 111 68 42 79 73 45 85 78 48 91 59 51 97 64 54 103 69 57 109 74 42 77 79 45 83 60 48 89 65 51 95 70 54 101 75 57 107 56 42 75 61 45 81 66 48 87 71 51 93 76 54 99 57 57 105 62 42 111 67 45 79 72 48 85 77 51 91 58 54 97 63 57 103 68 42 109 73 45 77 78 48 83 59 51 89 64 54 95 69 57 101 74 42 107 79 45 75 60 48 81 65 51 87 70 54 93 75 57 99 56 42 105 61 45 111 66 48 79 71 51 85 76 54 91 57 57 97 62 42 103 67 45 109 72 48 77 77 51 83 58 54 89 63 57 95 68 42 101 73 45 107 78 48 75 59 51 81 64 54 87 69 57 93 74 42 99 79 45 105 60 48 111 65 51 79 70 54 85 75 57 91 56 42 97 61 45 103 66 48 109 71 51 77 76 54 83 57 57 89 62 42 95 67 45 101 72 48 107 77 51 75 58 54 81 63 57 87 68 42 93 73 45 99 78 48 105 59 51 111 64 54 79 69 57 85 74 42 91 79 45 97 60 48 103 65 51 109 70 54 77 75 57 83 56 42 89 61 45 95 66 48 101 71 51 107 76 54 75 57 57 81 62 42 87 67 45 93 72 48 99 77 51 105 58 54 111 63 57 79 68 42 85 73 45 91 78 48 97 59 51 103 64 54 109 69 57 77 74 42 83 79 45 89 60 48 95 65 51 101 70 54 107 75 57 75 56 42 81 61 45 87 66 48 93 71 51 99 76 54 105 57 57 111 62 42 79 67 45 85 72 48 91 77 51 97 58 54 103 63 57 109 68 42 77 73 45 83 78 48 89 59 51 95 64 54 101 69 57 107 74 42 75 79 45 81 60 48 87 65 51 93 70 54 99 75 57 105 56 42 111 61 45 79 66 48 85 71 51 91 76 54 97 57 57 103 62 42 109 67 45 77 72 48 83 77 51 89 58 54 95 63 57 101 68 42 107 73 45
98 64 50 104 69 53 110 74 56 78 79 59 84 60 44 90 65 47 96 70 50 102 75 53 108 56 56 76 61 59 82 66 44 88 71 47 94 76 50 100 57 53 106 62 56 74 67 59 80 72 44 86 77 47 92 58 50 98 63 53 104 68 56 110 73 59 78 78 44 84 59 47 90 64 50 96 69 53 102 74 56 108 79 59 76 60 44 82 65 47 88 70 50 94 75 53 100 56 56 106 61 59 74 66 44 80 71 47 86 76 50 92 57 53 98 62 56 104 67 59 110 72 44 78 77 47 84 58 50 90 63 53 96 68 56 102 73 59 108 78 44 76 59 47 82 64 50 88 69 53 94 74 56 100 79 59 106 60 44 74 65 47 80 70 50 86 75 53 92 56 56 98 61 59 104 66 44 110 71 47 78 76 50 84 57 53 90 62 56 96 67 59 102 72 44 108 77 47 76 58 50 82 63 53 88 68 56 94 73 59 100 78 44 106 59 47 74 64 50 80 69 53 86 74 56 92 79 59 98 60 44 104 65 47 110 70 50 78 75 53 84 56 56 90 61 59 96 66 44 102 71 47 108 76 50 76 57 53 82 62 56 88 67 59 94 72 44 100 77 47 106 58 50 74 63 53 80 68 56 86 73 59 92 78 44 98 59 47 104 64 50 110 69 53 78 74 56 84 79 59 90 60 44 96 65 47 102 70 50 108 75 53 76 56 56 82 61 59 88 66 44 94 71 47 100 76 50 106 57 53 74 62 56 80 67 59 86 72 44 92 77 47 98 58 50 104 63 53 110 68 56 78 73 59 84 78 44 90 59 47 96 64 50 102 69 53 108 74 56 76 79 59 82 60 44 88 65 47 94 70 50 100 75 53 106 56 56 74 61 59 80 66 44 86 71 47 92 76 50 98 57 53 104 62 56 110 67 59 78 72 44 84 77 47 90 58 50 96 63 53 102 68 56 108 73 59 76 78 44 82 59 47 88 64 50 94 69 53 100 74 56 106 79 59 74 60 44 80 65 47 86 70 50 92 75 53 98 56 56 104 61 59 110 66 44 78 71 47 84 76 50 90 57 53 96 62 56 102 67 59 108 72 44 76 77 47 82 58 50 88 63 53 94 68 56 100 73 59 106 78 44 74 59 47 80 64 50 86 69 53 92 74 56 98 79 59 104 60 44 110 65 47 78 70 50 84 75 53 90 56 56 96 61 59 102 66 44 108 71 47 76 76 50 82 57 53 88 62 56 94 67 59 100 72 44 106 77 47 74 58 50 80 63 53 86 68 56 92 73 59 98 78 44 104 59 47 110 64 50 78 69 53 84 74 56 90 79 59 96 60 44 102 65 47 108 70 50 76 75 53 82 56 56 88 61 59 94 66 44 100 71 47 106 76 50 74 57 53 80 62 56 86 67 59 92 72 44 98 77 47 104 58 50 110 63 53 78 68 56 84 73 59 90 78 44 96 59 47 102 64 50 108 69 53 76 74 56 82 79 59 88 60 44 94 65 47 100 70 50 106 75 53 74 56 56 80 61 59 86 66 44 92 71 47 98 76 50 104 57 53 110 62 56 78 67 59 84 72 44 90 77 47 96 58 50 102 63 53 108 68 56 76 73 59 82 78 44 88 59 47 94 64 50 100 69 53 106 74 56 74 79 59 80 60 44 86 65 47 92 70 50 98 75 53 104 56 56 110 61 59 78 66 44 84 71 47 90 76 50 96 57 53 102 62 56 108 67 59 76 72 44 82 77 47 88 58 50 94 63 53 100 68 56 106 73 59 74 78 44 80 59 47 86 64 50 92 69 53 98 74 56 104 79 59 110 60 44 78 65 47 84 70 50 90 75 53 96 56 56 102 61 59 108 66 44 76 71 47 82 76 50 88 57 53 94 62 56 100 67 59 106 72 44 74 77 47 80 58 50 86 63 53 92 68 56 98 73 59 104 78 44 110 59 47 78 64 50 84 69 53 90 74 56 96 79 59 102 60 44 108 65 47 76 70 50 82 75 53 88 56 56 94 61 59 100 66 44 106 71 47 74 76 50 80 57 53 86 62 56 92 67 59 98 72 44 104 77 47 110 58 50 78 63 53 84 68 56 90 73 59 96 78 44 102 59 47 108 64 50 76 69 53 82 74 56 88 79 59 94 60 44 100 65 47 106 70 50 74 75 53
103 66 58 109 71 43 77 76 46 83 57 49 89 62 52 95 67 55 101 72 58 107 77 43 75 58 46 81 63 49 87 68 52 93 73 55 99 78 58 105 59 43 111 64 46 79 69 49 85 74 52 91 79 55 97 60 58 103 65 43 109 70 46 77 75 49 83 56 52 89 61 55 95 66 58 101 71 43 107 76 46 75 57 49 81 62 52 87 67 55 93 72 58 99 77 43 105 58 46 111 63 49 79 68 52 85 73 55 91 78 58 97 59 43 103 64 46 109 69 49 77 74 52 83 79 55 89 60 58 95 65 43 101 70 46 107 75 49 75 56 52 81 61 55 87 66 58 93 71 43 99 76 46 105 57 49 111 62 52 79 67 55 85 72 58 91 77 43 97 58 46 103 63 49 109 68 52 77 73 55 83 78 58 89 59 43 95 64 46 101 69 49 107 74 52 75 79 55 81 60 58 87 65 43 93 70 46 99 75 49 105 56 52 111 61 55 79 66 58 85 71 43 91 76 46 97 57 49 103 62 52 109 67 55 77 72 58 83 77 43 89 58 46 95 63 49 101 68 52 107 73 55 75 78 58 81 59 43 87 64 46 93 69 49 99 74 52 105 79 55 111 60 58 79 65 43 85 70 46 91 75 49 97 56 52 103 61 55 109 66 58 77 71 43 83 76 46 89 57 49 95 62 52 101 67 55 107 72 58 75 77 43 81 58 46 87 63 49 93 68 52 99 73 55 105 78 58 111 59 43 79 64 46 85 69 49 91 74 52 97 79 55 103 60 58 109 65 43 77 70 46 83 75 49 89 56 52 95 61 55 101 66 58 107 71 43 75 76 46 81 57 49 87 62 52 93 67 55 99 72 58 105 77 43 111 58 46 79 63 49 85 68 52 91 73 55 97 78 58 103 59 43 109 64 46 77 69 49 83 74 52 89 79 55 95 60 58 101 65 43 107 70 46 75 75 49 81 56 52 87 61 55 93 66 58 99 71 43 105 76 46 111 57 49 79 62 52 85 67 55 91 72 58 97 77 43 103 58 46 109 63 49 77 68 52 83 73 55 89 78 58 95 59 43 101 64 46 107 69 49 75 74 52 81 79 55 87 60 58 93 65 43 99 70 46 105 75 49 111 56 52 79 61 55 85 66 58 91 71 43 97 76 46 103 57 49 109 62 52 77 67 55 83 72 58 89 77 43 95 58 46 101 63 49 107 68 52 75 73 55 81 78 58 87 59 43 93 64 46 99 69 49 105 74 52 111 79 55 79 60 58 85 65 43 91 70 46 97 75 49 103 56 52 109 61 55 77 66 58 83 71 43 89 76 46 95 57 49 101 62 52 107 67 55 75 72 58 81 77 43 87 58 46 93 63 49 99 68 52 105 73 55 111 78 58 79 59 43 85 64 46 91 69 49 97 74 52 103 79 55 109 60 58 77 65 43 83 70 46 89 75 49 95 56 52 101 61 55 107 66 58 75 71 43 81 76 46 87 57 49 93 62 52 99 67 55 105 72 58 111 77 43 79 58 46 85 63 49 91 68 52 97 73 55 103 78 58 109 59 43 77 64 46 83 69 49 89 74 52 95 79 55 101 60 58 107 65 43 75 70 46 81 75 49 87 56 52 93 61 55 99 66 58 105 71 43 111 76 46 79 57 49 85 62 52 91 67 55 97 72 58 103 77 43 109 58 46 77 63 49 83 68 52 89 73 55 95 78 58 101 59 43 107 64 46 75 69 49 81 74 52 87 79 55 93 60 58 99 65 43 105 70 46 111 75 49 79 56 52 85 61 55 91 66 58 97 71 43 103 76 46 109 57 49 77 62 52 83 67 55 89 72 58 95 77 43 101 58 46 107 63 49 75 68 52 81 73 55 87 78 58 93 59 43 99 64 46 105 69 49 111 74 52 79 79 55 85 60 58 91 65 43 97 70 46 103 75 49 109 56 52 77 61 55 83 66 58 89 71 43 95 76 46 101 57 49 107 62 52 75 67 55 81 72 58 87 77 43 93 58 46 99 63 49 105 68 52 111 73 55 79 78 58 85 59 43 91 64 46 97 69 49 103 74 52 109 79 55 77 60 58 83 65 43 89 70 46 95 75 49 101 56 52 107 61 55 75 66 58 81 71 43 87 76 46 93 57 49 99 62 52 105 67 55 111 72 58 79 77 43
108 68 48 76 73 51 82 78 54 88 59 57 94 64 42 100 69 45 106 74 48 74 79 51 80 60 54 86 65 57 92 70 42 98 75 45 104 56 48 110 61 51 78 66 54 84 71 57 90 76 42 96 57 45 102 62 48 108 67 51 76 72 54 82 77 57 88 58 42 94 63 45 100 68 48 106 73 51 74 78 54 80 59 57 86 64 42 92 69 45 98 74 48 104 79 51 110 60 54 78 65 57 84 70 42 90 75 45 96 56 48 102 61 51 108 66 54 76 71 57 82 76 42 88 57 45 94 62 48 100 67 51 106 72 54 74 77 57 80 58 42 86 63 45 92 68 48 98 73 51 104 78 54 110 59 57 78 64 42 84 69 45 90 74 48 96 79 51 102 60 54 108 65 57 76 70 42 82 75 45 88 56 48 94 61 51 100 66 54 106 71 57 74 76 42 80 57 45 86 62 48 92 67 51 98 72 54 104 77 57 110 58 42 78 63 45 84 68 48 90 73 51 96 78 54 102 59 57 108 64 42 76 69 45 82 74 48 88 79 51 94 60 54 100 65 57 106 70 42 74 75 45 80 56 48 86 61 51 92 66 54 98 71 57 104 76 42 110 57 45 78 62 48 84 67 51 90 72 54 96 77 57 102 58 42 108 63 45 76 68 48 82 73 51 88 78 54 94 59 57 100 64 42 106 69 45 74 74 48 80 79 51 86 60 54 92 65 57 98 70 42 104 75 45 110 56 48 78 61 51 84 66 54 90 71 57 96 76 42 102 57 45 108 62 48 76 67 51 82 72 54 88 77 57 94 58 42 100 63 45 106 68 48 74 73 51 80 78 54 86 59 57 92 64 42 98 69 45 104 74 48 110 79 51 78 60 54 84 65 57 90 70 42 96 75 45 102 56 48 108 61 51 76 66 54 82 71 57 88 76 42 94 57 45 100 62 48 106 67 51 74 72 54 80 77 57 86 58 42 92 63 45 98 68 48 104 73 51 110 78 54 78 59 57 84 64 42 90 69 45 96 74 48 102 79 51 108 60 54 76 65 57 82 70 42 88 75 45 94 56 48 100 61 51 106 66 54 74 71 57 80 76 42 86 57 45 92 62 48 98 67 51 104 72 54 110 77 57 78 58 42 84 63 45 90 68 48 96 73 51 102 78 54 108 59 57 76 64 42 82 69 45 88 74 48 94 79 51 100 60 54 106 65 57 74 70 42 80 75 45 86 56 48 92 61 51 98 66 54 104 71 57 110 76 42 78 57 45 84 62 48 90 67 51 96 72 54 102 77 57 108 58 42 76 63 45 82 68 48 88 73 51 94 78 54 100 59 57 106 64 42 74 69 45 80 74 48 86 79 51 92 60 54 98 65 57 104 70 42 110 75 45 78 56 48 84 61 51 90 66 54 96 71 57 102 76 42 108 57 45 76 62 48 82 67 51 88 72 54 94 77 57 100 58 42 106 63 45 74 68 48 80 73 51 86 78 54 92 59 57 98 64 42 104 69 45 110 74 48 78 79 51 84 60 54 90 65 57 96 70 42 102 75 45 108 56 48 76 61 51 82 66 54 88 71 57 94 76 42 100 57 45 106 62 48 74 67 51 80 72 54 86 77 57 92 58 42 98 63 45 104 68 48 110 73 51 78 78 54 84 59 57 90 64 42 96 69 45 102 74 48 108 79 51 76 60 54 82 65 57 88 70 42 94 75 45 100 56 48 106 61 51 74 66 54 80 71 57 86 76 42 92 57 45 98 62 48 104 67 51 110 72 54 78 77 57 84 58 42 90 63 45 96 68 48 102 73 51 108 78 54 76 59 57 82 64 42 88 69 45 94 74 48 100 79 51 106 60 54 74 65 57 80 70 42 86 75 45 92 56 48 98 61 51 104 66 54 110 71 57 78 76 42 84 57 45 90 62 48 96 67 51 102 72 54 108 77 57 76 58 42 82 63 45 88 68 48 94 73 51 100 78 54 106 59 57 74 64 42 80 69 45 86 74 48 92 79 51 98 60 54 104 65 57 110 70 42 78 75 45 84 56 48 90 61 51 96 66 54 102 71 57 108 76 42 76 57 45 82 62 48 88 67 51 94 72 54 100 77 57 106 58 42 74 63 45 80 68 48 86 73 51 92 78 54 98 59 57 104 64 42 110 69 45 78 74 48 84 79 51
75 70 56 81 75 59 87 56 44 93 61 47 99 66 50 105 71 53 111 76 56 79 57 59 85 62 44 91 67 47 97 72 50 103 77 53 109 58 56 77 63 59 83 68 44 89 73 47 95 78 50 101 59 53 107 64 56 75 69 59 81 74 44 87 79 47 93 60 50 99 65 53 105 70 56 111 75 59 79 56 44 85 61 47 91 66 50 97 71 53 103 76 56 109 57 59 77 62 44 83 67 47 89 72 50 95 77 53 101 58 56 107 63 59 75 68 44 81 73 47 87 78 50 93 59 53 99 64 56 105 69 59 111 74 44 79 79 47 85 60 50 91 65 53 97 70 56 103 75 59 109 56 44 77 61 47 83 66 50 89 71 53 95 76 56 101 57 59 107 62 44 75 67 47 81 72 50 87 77 53 93 58 56 99 63 59 105 68 44 111 73 47 79 78 50 85 59 53 91 64 56 97 69 59 103 74 44 109 79 47 77 60 50 83 65 53 89 70 56 95 75 59 101 56 44 107 61 47 75 66 50 81 71 53 87 76 56 93 57 59 99 62 44 105 67 47 111 72 50 79 77 53 85 58 56 91 63 59 97 68 44 103 73 47 109 78 50 77 59 53 83 64 56 89 69 59 95 74 44 101 79 47 107 60 50 75 65 53 81 70 56 87 75 59 93 56 44 99 61 47 105 66 50 111 71 53 79 76 56 85 57 59 91 62 44 97 67 47 103 72 50 109 77 53 77 58 56 83 63 59 89 68 44 95 73 47 101 78 50 107 59 53 75 64 56 81 69 59 87 74 44 93 79 47 99 60 50 105 65 53 111 70 56 79 75 59 85 56 44 91 61 47 97 66 50 103 71 53 109 76 56 77 57 59 83 62 44 89 67 47 95 72 50 101 77 53 107 58 56 75 63 59 81 68 44 87 73 47 93 78 50 99 59 53 105 64 56 111 69 59 79 74 44 85 79 47 91 60 50 97 65 53 103 70 56 109 75 59 77 56 44 83 61 47 89 66 50 95 71 53 101 76 56 107 57 59 75 62 44 81 67 47 87 72 50 93 77 53 99 58 56 105 63 59 111 68 44 79 73 47 85 78 50 91 59 53 97 64 56 103 69 59 109 74 44 77 79 47 83 60 50 89 65 53 95 70 56 101 75 59 107 56 44 75 61 47 81 66 50 87 71 53 93 76 56 99 57 59 105 62 44 111 67 47 79 72 50 85 77 53 91 58 56 97 63 59 103 68 44 109 73 47 77 78 50 83 59 53 89 64 56 95 69 59 101 74 44 107 79 47 75 60 50 81 65 53 87 70 56 93 75 59 99 56 44 105 61 47 111 66 50 79 71 53 85 76 56 91 57 59 97 62 44 103 67 47 109 72 50 77 77 53 83 58 56 89 63 59 95 68 44 101 73 47 107 78 50 75 59 53 81 64 56 87 69 59 93 74 44 99 79 47 105 60 50 111 65 53 79 70 56 85 75 59 91 56 44 97 61 47 103 66 50 109 71 53 77 76 56 83 57 59 89 62 44 95 67 47 101 72 50 107 77 53 75 58 56 81 63 59 87 68 44 93 73 47 99 78 50 105 59 53 111 64 56 79 69 59 85 74 44 91 79 47 97 60 50 103 65 53 109 70 56 77 75 59 83 56 44 89 61 47 95 66 50 101 71 53 107 76 56 75 57 59 81 62 44 87 67 47 93 72 50 99 77 53 105 58 56 111 63 59 79 68 44 85 73 47 91 78 50 97 59 53 103 64 56 109 69 59 77 74 44 83 79 47 89 60 50 95 65 53 101 70 56 107 75 59 75 56 44 81 61 47 87 66 50 93 71 53 99 76 56 105 57 59 111 62 44 79 67 47 85 72 50 91 77 53 97 58 56 103 63 59 109 68 44 77 73 47 83 78 50 89 59 53 95 64 56 101 69 59 107 74 44 75 79 47 81 60 50 87 65 53 93 70 56 99 75 59 105 56 44 111 61 47 79 66 50 85 71 53 91 76 56 97 57 59 103 62 44 109 67 47 77 72 50 83 77 53 89 58 56 95 63 59 101 68 44 107 73 47 75 78 50 81 59 53 87 64 56 93 69 59 99 74 44 105 79 47 111 60 50 79 65 53 85 70 56 91 75 59 97 56 44 103 61 47 109 66 50 77 71 53 83 76 56 89 57 59
80 72 46 86 77 49 92 58 52 98 63 55 104 68 58 110 73 43 78 78 46 84 59 49 90 64 52 96 69 55 102 74 58 108 79 43 76 60 46 82 65 49 88 70 52 94 75 55 100 56 58 106 61 43 74 66 46 80 71 49 86 76 52 92 57 55 98 62 58 104 67 43 110 72 46 78 77 49 84 58 52 90 63 55 96 68 58 102 73 43 108 78 46 76 59 49 82 64 52 88 69 55 94 74 58 100 79 43 106 60 46 74 65 49 80 70 52 86 75 55 92 56 58 98 61 43 104 66 46 110 71 49 78 76 52 84 57 55 90 62 58 96 67 43 102 72 46 108 77 49 76 58 52 82 63 55 88 68 58 94 73 43 100 78 46 106 59 49 74 64 52 80 69 55 86 74 58 92 79 43 98 60 46 104 65 49 110 70 52 78 75 55 84 56 58 90 61 43 96 66 46 102 71 49 108 76 52 76 57 55 82 62 58 88 67 43 94 72 46 100 77 49 106 58 52 74 63 55 80 68 58 86 73 43 92 78 46 98 59 49 104 64 52 110 69 55 78 74 58 84 79 43 90 60 46 96 65 49 102 70 52 108 75 55 76 56 58 82 61 43 88 66 46 94 71 49 100 76 52 106 57 55 74 62 58 80 67 43 86 72 46 92 77 49 98 58 52 104 63 55 110 68 58 78 73 43 84 78 46 90 59 49 96 64 52 102 69 55 108 74 58 76 79 43 82 60 46 88 65 49 94 70 52 100 75 55 106 56 58 74 61 43 80 66 46 86 71 49 92 76 52 98 57 55 104 62 58 110 67 43 78 72 46 84 77 49 90 58 52 96 63 55 102 68 58 108 73 43 76 78 46 82 59 49 88 64 52 94 69 55 100 74 58 106 79 43 74 60 46 80 65 49 86 70 52 92 75 55 98 56 58 104 61 43 110 66 46 78 71 49 84 76 52 90 57 55 96 62 58 102 67 43 108 72 46 76 77 49 82 58 52 88 63 55 94 68 58 100 73 43 106 78 46 74 59 49 80 64 52 86 69 55 92 74 58 98 79 43 104 60 46 110 65 49 78 70 52 84 75 55 90 56 58 96 61 43 102 66 46 108 71 49 76 76 52 82 57 55 88 62 58 94 67 43 100 72 46 106 77 49 74 58 52 80 63 55 86 68 58 92 73 43 98 78 46 104 59 49 110 64 52 78 69 55 84 74 58 90 79 43 96 60 46 102 65 49 108 70 52 76 75 55 82 56 58 88 61 43 94 66 46 100 71 49 106 76 52 74 57 55 80 62 58 86 67 43 92 72 46 98 77 49 104 58 52 110 63 55 78 68 58 84 73 43 90 78 46 96 59 49 102 64 52 108 69 55 76 74 58 82 79 43 88 60 46 94 65 49 100 70 52 106 75 55 74 56 58 80 61 43 86 66 46 92 71 49 98 76 52 104 57 55 110 62 58 78 67 43 84 72 46 90 77 49 96 58 52 102 63 55 108 68 58 76 73 43 82 78 46 88 59 49 94 64 52 100 69 55 106 74 58 74 79 43 80 60 46 86 65 49 92 70 52 98 75 55 104 56 58 110 61 43 78 66 46 84 71 49 90 76 52 96 57 55 102 62 58 108 67 43 76 72 46 82 77 49 88 58 52 94 63 55 100 68 58 106 73 43 74 78 46 80 59 49 86 64 52 92 69 55 98 74 58 104 79 43 110 60 46 78 65 49 84 70 52 90 75 55 96 56 58 102 61 43 108 66 46 76 71 49 82 76 52 88 57 55 94 62 58 100 67 43 106 72 46 74 77 49 80 58 52 86 63 55 92 68 58 98 73 43 104 78 46 110 59 49 78 64 52 84 69 55 90 74 58 96 79 43 102 60 46 108 65 49 76 70 52 82 75 55 88 56 58 94 61 43 100 66 46 106 71 49 74 76 52 80 57 55 86 62 58 92 67 43 98 72 46 104 77 49 110 58 52 78 63 55 84 68 58 90 73 43 96 78 46 102 59 49 108 64 52 76 69 55 82 74 58 88 79 43 94 60 46 100 65 49 106 70 52 74 75 55 80 56 58 86 61 43 92 66 46 98 71 49 104 76 52 110 57 55 78 62 58 84 67 43 90 72 46 96 77 49 102 58 52 108 63 55 76 68 58 82 73 43 88 78 46 94 59 49
85 74 54 91 79 57 97 60 42 103 65 45 109 70 48 77 75 51 83 56 54 89 61 57 95 66 42 101 71 45 107 76 48 75 57 51 81 62 54 87 67 57 93 72 42 99 77 45 105 58 48 111 63 51 79 68 54 85 73 57 91 78 42 97 59 45 103 64 48 109 69 51 77 74 54 83 79 57 89 60 42 95 65 45 101 70 48 107 75 51 75 56 54 81 61 57 87 66 42 93 71 45 99 76 48 105 57 51 111 62 54 79 67 57 85 72 42 91 77 45 97 58 48 103 63 51 109 68 54 77 73 57 83 78 42 89 59 45 95 64 48 101 69 51 107 74 54 75 79 57 81 60 42 87 65 45 93 70 48 99 75 51 105 56 54 111 61 57 79 66 42 85 71 45 91 76 48 97 57 51 103 62 54 109 67 57 77 72 42 83 77 45 89 58 48 95 63 51 101 68 54 107 73 57 75 78 42 81 59 45 87 64 48 93 69 51 99 74 54 105 79 57 111 60 42 79 65 45 85 70 48 91 75 51 97 56 54 103 61 57 109 66 42 77 71 45 83 76 48 89 57 51 95 62 54 101 67 57 107 72 42 75 77 45 81 58 48 87 63 51 93 68 54 99 73 57 105 78 42 111 59 45 79 64 48 85 69 51 91 74 54 97 79 57 103 60 42 109 65 45 77 70 48 83 75 51 89 56 54 95 61 57 101 66 42 107 71 45 75 76 48 81 57 51 87 62 54 93 67 57 99 72 42 105 77 45 111 58 48 79 63 51 85 68 54 91 73 57 97 78 42 103 59 45 109 64 48 77 69 51 83 74 54 89 79 57 95 60 42 101 65 45 107 70 48 75 75 51 81 56 54 87 61 57 93 66 42 99 71 45 105 76 48 111 57 51 79 62 54 85 67 57 91 72 42 97 77 45 103 58 48 109 63 51 77 68 54 83 73 57 89 78 42 95 59 45 101 64 48 107 69 51 75 74 54 81 79 57 87 60 42 93 65 45 99 70 48 105 75 51 111 56 54 79 61 57 85 66 42 91 71 45 97 76 48 103 57 51 109 62 54 77 67 57 83 72 42 89 77 45 95 58 48 101 63 51 107 68 54 75 73 57 81 78 42 87 59 45 93 64 48 99 69 51 105 74 54 111 79 57 79 60 42 85 65 45 91 70 48 97 75 51 103 56 54 109 61 57 77 66 42 83 71 45 89 76 48 95 57 51 101 62 54 107 67 57 75 72 42 81 77 45 87 58 48 93 63 51 99 68 54 105 73 57 111 78 42 79 59 45 85 64 48 91 69 51 97 74 54 103 79 57 109 60 42 77 65 45 83 70 48 89 75 51 95 56 54 101 61 57 107 66 42 75 71 45 81 76 48 87 57 51 93 62 54 99 67 57 105 72 42 111 77 45 79 58 48 85 63 51 91 68 54 97 73 57 103 78 42 109 59 45 77 64 48 83 69 51 89 74 54 95 79 57 101 60 42 107 65 45 75 70 48 81 75 51 87 56 54 93 61 57 99 66 42 105 71 45 111 76 48 79 57 51 85 62 54 91 67 57 97 72 42 103 77 45 109 58 48 77 63 51 83 68 54 89 73 57 95 78 42 101 59 45 107 64 48 75 69 51 81 74 54 87 79 57 93 60 42 99 65 45 105 70 48 111 75 51 79 56 54 85 61 57 91 66 42 97 71 45 103 76 48 109 57 51 77 62 54 83 67 57 89 72 42 95 77 45 101 58 48 107 63 51 75 68 54 81 73 57 87 78 42 93 59 45 99 64 48 105 69 51 111 74 54 79 79 57 85 60 42 91 65 45 97 70 48 103 75 51 109 56 54 77 61 57 83 66 42 89 71 45 95 76 48 101 57 51 107 62 54 75 67 57 81 72 42 87 77 45 93 58 48 99 63 51 105 68 54 111 73 57 79 78 42 85 59 45 91 64 48 97 69 51 103 74 54 109 79 57 77 60 42 83 65 45 89 70 48 95 75 51 101 56 54 107 61 57 75 66 42 81 71 45 87 76 48 93 57 51 99 62 54 105 67 57 111 72 42 79 77 45 85 58 48 91 63 51 97 68 54 103 73 57 109 78 42 77 59 45 83 64 48 89 69 51 95 74 54 101 79 57 107 60 42 75 65 45 81 70 48 87 75 51 93 56 54 99 61 57
90 76 44 96 57 47 102 62 50 108 67 53 76 72 56 82 77 59 88 58 44 94 63 47 100 68 50 106 73 53 74 78 56 80 59 59 86 64 44 92 69 47 98 74 50 104 79 53 110 60 56 78 65 59 84 70 44 90 75 47 96 56 50 102 61 53 108 66 56 76 71 59 82 76 44 88 57 47 94 62 50 100 67 53 106 72 56 74 77 59 80 58 44 86 63 47 92 68 50 98 73 53 104 78 56 110 59 59 78 64 44 84 69 47 90 74 50 96 79 53 102 60 56 108 65 59 76 70 44 82 75 47 88 56 50 94 61 53 100 66 56 106 71 59 74 76 44 80 57 47 86 62 50 92 67 53 98 72 56 104 77 59 110 58 44 78 63 47 84 68 50 90 73 53 96 78 56 102 59 59 108 64 44 76 69 47 82 74 50 88 79 53 94 60 56 100 65 59 106 70 44 74 75 47 80 56 50 86 61 53 92 66 56 98 71 59 104 76 44 110 57 47 78 62 50 84 67 53 90 72 56 96 77 59 102 58 44 108 63 47 76 68 50 82 73 53 88 78 56 94 59 59 100 64 44 106 69 47 74 74 50 80 79 53 86 60 56 92 65 59 98 70 44 104 75 47 110 56 50 78 61 53 84 66 56 90 71 59 96 76 44 102 57 47 108 62 50 76 67 53 82 72 56 88 77 59 94 58 44 100 63 47 106 68 50 74 73 53 80 78 56 86 59 59 92 64 44 98 69 47 104 74 50 110 79 53 78 60 56 84 65 59 90 70 44 96 75 47 102 56 50 108 61 53 76 66 56 82 71 59 88 76 44 94 57 47 100 62 50 106 67 53 74 72 56 80 77 59 86 58 44 92 63 47 98 68 50 104 73 53 110 78 56 78 59 59 84 64 44 90 69 47 96 74 50 102 79 53 108 60 56 76 65 59 82 70 44 88 75 47 94 56 50 100 61 53 106 66 56 74 71 59 80 76 44 86 57 47 92 62 50 98 67 53 104 72 56 110 77 59 78 58 44 84 63 47 90 68 50 96 73 53 102 78 56 108 59 59 76 64 44 82 69 47 88 74 50 94 79 53 100 60 56 106 65 59 74 70 44 80 75 47 86 56 50 92 61 53 98 66 56 104 71 59 110 76 44 78 57 47 84 62 50 90 67 53 96 72 56 102 77 59 108 58 44 76 63 47 82 68 50 88 73 53 94 78 56 100 59 59 106 64 44 74 69 47 80 74 50 86 79 53 92 60 56 98 65 59 104 70 44 110 75 47 78 56 50 84 61 53 90 66 56 96 71 59 102 76 44 108 57 47 76 62 50 82 67 53 88 72 56 94 77 59 100 58 44 106 63 47 74 68 50 80 73 53 86 78 56 92 59 59 98 64 44 104 69 47 110 74 50 78 79 53 84 60 56 90 65 59 96 70 44 102 75 47 108 56 50 76 61 53 82 66 56 88 71 59 94 76 44 100 57 47 106 62 50 74 67 53 80 72 56 86 77 59 92 58 44 98 63 47 104 68 50 110 73 53 78 78 56 84 59 59 90 64 44 96 69 47 102 74 50 108 79 53 76 60 56 82 65 59 88 70 44 94 75 47 100 56 50 106 61 53 74 66 56 80 71 59 86 76 44 92 57 47 98 62 50 104 67 53 110 72 56 78 77 59 84 58 44 90 63 47 96 68 50 102 73 53 108 78 56 76 59 59 82 64 44 88 69 47 94 74 50 100 79 53 106 60 56 74 65 59 80 70 44 86 75 47 92 56 50 98 61 53 104 66 56 110 71 59 78 76 44 84 57 47 90 62 50 96 67 53 102 72 56 108 77 59 76 58 44 82 63 47 88 68 50 94 73 53 100 78 56 106 59 59 74 64 44 80 69 47 86 74 50 92 79 53 98 60 56 104 65 59 110 70 44 78 75 47 84 56 50 90 61 53 96 66 56 102 71 59 108 76 44 76 57 47 82 62 50 88 67 53 94 72 56 100 77 59 106 58 44 74 63 47 80 68 50 86 73 53 92 78 56 98 59 59 104 64 44 110 69 47 78 74 50 84 79 53 90 60 56 96 65 59 102 70 44 108 75 47 76 56 50 82 61 53 88 66 56 94 71 59 100 76 44 106 57 47 74 62 50 80 67 53 86 72 56 92 77 59 98 58 44 104 63 47
95 78 52 101 59 55 107 64 58 75 69 43 81 74 46 87 79 49 93 60 52 99 65 55 105 70 58 111 75 43 79 56 46 85 61 49 91 66 52 97 71 55 103 76 58 109 57 43 77 62 46 83 67 49 89 72 52 95 77 55 101 58 58 107 63 43 75 68 46 81 73 49 87 78 52 93 59 55 99 64 58 105 69 43 111 74 46 79 79 49 85 60 52 91 65 55 97 70 58 103 75 43 109 56 46 77 61 49 83 66 52 89 71 55 95 76 58 101 57 43 107 62 46 75 67 49 81 72 52 87 77 55 93 58 58 99 63 43 105 68 46 111 73 49 79 78 52 85 59 55 91 64 58 97 69 43 103 74 46 109 79 49 77 60 52 83 65 55 89 70 58 95 75 43 101 56 46 107 61 49 75 66 52 81 71 55 87 76 58 93 57 43 99 62 46 105 67 49 111 72 52 79 77 55 85 58 58 91 63 43 97 68 46 103 73 49 109 78 52 77 59 55 83 64 58 89 69 43 95 74 46 101 79 49 107 60 52 75 65 55 81 70 58 87 75 43 93 56 46 99 61 49 105 66 52 111 71 55 79 76 58 85 57 43 91 62 46 97 67 49 103 72 52 109 77 55 77 58 58 83 63 43 89 68 46 95 73 49 101 78 52 107 59 55 75 64 58 81 69 43 87 74 46 93 79 49 99 60 52 105 65 55 111 70 58 79 75 43 85 56 46 91 61 49 97 66 52 103 71 55 109 76 58 77 57 43 83 62 46 89 67 49 95 72 52 101 77 55 107 58 58 75 63 43 81 68 46 87 73 49 93 78 52 99 59 55 105 64 58 111 69 43 79 74 46 85 79 49 91 60 52 97 65 55 103 70 58 109 75 43 77 56 46 83 61 49 89 66 52 95 71 55 101 76 58 107 57 43 75 62 46 81 67 49 87 72 52 93 77 55 99 58 58 105 63 43 111 68 46 79 73 49 85 78 52 91 59 55 97 64 58 103 69 43 109 74 46 77 79 49 83 60 52 89 65 55 95 70 58 101 75 43 107 56 46 75 61 49 81 66 52 87 71 55 93 76 58 99 57 43 105 62 46 111 67 49 79 72 52 85 77 55 91 58 58 97 63 43 103 68 46 109 73 49 77 78 52 83 59 55 89 64 58 95 69 43 101 74 46 107 79 49 75 60 52 81 65 55 87 70 58 93 75 43 99 56 46 105 61 49 111 66 52 79 71 55 85 76 58 91 57 43 97 62 46 103 67 49 109 72 52 77 77 55 83 58 58 89 63 43 95 68 46 101 73 49 107 78 52 75 59 55 81 64 58 87 69 43 93 74 46 99 79 49 105 60 52 111 65 55 79 70 58 85 75 43 91 56 46 97 61 49 103 66 52 109 71 55 77 76 58 83 57 43 89 62 46 95 67 49 101 72 52 107 77 55 75 58 58 81 63 43 87 68 46 93 73 49 99 78 52 105 59 55 111 64 58 79 69 43 85 74 46 91 79 49 97 60 52 103 65 55 109 70 58 77 75 43 83 56 46 89 61 49 95 66 52 101 71 55 107 76 58 75 57 43 81 62 46 87 67 49 93 72 52 99 77 55 105 58 58 111 63 43 79 68 46 85 73 49 91 78 52 97 59 55 103 64 58 109 69 43 77 74 46 83 79 49 89 60 52 95 65 55 101 70 58 107 75 43 75 56 46 81 61 49 87 66 52 93 71 55 99 76 58 105 57 43 111 62 46 79 67 49 85 72 52 91 77 55 97 58 58 103 63 43 109 68 46 77 73 49 83 78 52 89 59 55 95 64 58 101 69 43 107 74 46 75 79 49 81 60 52 87 65 55 93 70 58 99 75 43 105 56 46 111 61 49 79 66 52 85 71 55 91 76 58 97 57 43 103 62 46 109 67 49 77 72 52 83 77 55 89 58 58 95 63 43 101 68 46 107 73 49 75 78 52 81 59 55 87 64 58 93 69 43 99 74 46 105 79 49 111 60 52 79 65 55 85 70 58 91 75 43 97 56 46 103 61 49 109 66 52 77 71 55 83 76 58 89 57 43 95 62 46 101 67 49 107 72 52 75 77 55 81 58 58 87 63 43 93 68 46 99 73 49 105 78 52 111 59 55 79 64 58 85 69 43 91 74 46 97 79 49 103 60 52 109 65 55
100 56 42 106 61 45 74 66 48 80 71 51 86 76 54 92 57 57 98 62 42 104 67 45 110 72 48 78 77 51 84 58 54 90 63 57 96 68 42 102 73 45 108 78 48 76 59 51 82 64 54 88 69 57 94 74 42 100 79 45 106 60 48 74 65 51 80 70 54 86 75 57 92 56 42 98 61 45 104 66 48 110 71 51 78 76 54 84 57 57 90 62 42 96 67 45 102 72 48 108 77 51 76 58 54 82 63 57 88 68 42 94 73 45 100 78 48 106 59 51 74 64 54 80 69 57 86 74 42 92 79 45 98 60 48 104 65 51 110 70 54 78 75 57 84 56 42 90 61 45 96 66 48 102 71 51 108 76 54 76 57 57 82 62 42 88 67 45 94 72 48 100 77 51 106 58 54 74 63 57 80 68 42 86 73 45 92 78 48 98 59 51 104 64 54 110 69 57 78 74 42 84 79 45 90 60 48 96 65 51 102 70 54 108 75 57 76 56 42 82 61 45 88 66 48 94 71 51 100 76 54 106 57 57 74 62 42 80 67 45 86 72 48 92 77 51 98 58 54 104 63 57 110 68 42 78 73 45 84 78 48 90 59 51 96 64 54 102 69 57 108 74 42 76 79 45 82 60 48 88 65 51 94 70 54 100 75 57 106 56 42 74 61 45 80 66 48 86 71 51 92 76 54 98 57 57 104 62 42 110 67 45 78 72 48 84 77 51 90 58 54 96 63 57 102 68 42 108 73 45 76 78 48 82 59 51 88 64 54 94 69 57 100 74 42 106 79 45 74 60 48 80 65 51 86 70 54 92 75 57 98 56 42 104 61 45 110 66 48 78 71 51 84 76 54 90 57 57 96 62 42 102 67 45 108 72 48 76 77 51 82 58 54 88 63 57 94 68 42 100 73 45 106 78 48 74 59 51 80 64 54 86 69 57 92 74 42 98 79 45 104 60 48 110 65 51 78 70 54 84 75 57 90 56 42 96 61 45 102 66 48 108 71 51 76 76 54 82 57 57 88 62 42 94 67 45 100 72 48 106 77 51 74 58 54 80 63 57 86 68 42 92 73 45 98 78 48 104 59 51 110 64 54 78 69 57 84 74 42 90 79 45 96 60 48 102 65 51 108 70 54 76 75 57 82 56 42 88 61 45 94 66 48 100 71 51 106 76 54 74 57 57 80 62 42 86 67 45 92 72 48 98 77 51 104 58 54 110 63 57 78 68 42 84 73 45 90 78 48 96 59 51 102 64 54 108 69 57 76 74 42 82 79 45 88 60 48 94 65 51 100 70 54 106 75 57 74 56 42 80 61 45 86 66 48 92 71 51 98 76 54 104 57 57 110 62 42 78 67 45 84 72 48 90 77 51 96 58 54 102 63 57 108 68 42 76 73 45 82 78 48 88 59 51 94 64 54 100 69 57 106 74 42 74 79 45 80 60 48 86 65 51 92 70 54 98 75 57 104 56 42 110 61 45 78 66 48 84 71 51 90 76 54 96 57 57 102 62 42 108 67 45 76 72 48 82 77 51 88 58 54 94 63 57 100 68 42 106 73 45 74 78 48 80 59 51 86 64 54 92 69 57 98 74 42 104 79 45 110 60 48 78 65 51 84 70 54 90 75 57 96 56 42 102 61 45 108 66 48 76 71 51 82 76 54 88 57 57 94 62 42 100 67 45 106 72 48 74 77 51 80 58 54 86 63 57 92 68 42 98 73 45 104 78 48 110 59 51 78 64 54 84 69 57 90 74 42 96 79 45 102 60 48 108 65 51 76 70 54 82 75 57 88 56 42 94 61 45 100 66 48 106 71 51 74 76 54 80 57 57 86 62 42 92 67 45 98 72 48 104 77 51 110 58 54 78 63 57 84 68 42 90 73 45 96 78 48 102 59 51 108 64 54 76 69 57 82 74 42 88 79 45 94 60 48 100 65 51 106 70 54 74 75 57 80 56 42 86 61 45 92 66 48 98 71 51 104 76 54 110 57 57 78 62 42 84 67 45 90 72 48 96 77 51 102 58 54 108 63 57 76 68 42 82 73 45 88 78 48 94 59 51 100 64 54 106 69 57 74 74 42 80 79 45 86 60 48 92 65 51 98 70 54 104 75 57 110 56 42 78 61 45 84 66 48 90 71 51 96 76 54 102 57 57 108 62 42 76 67 45
105 58 50 111 63 53 79 68 56 85 73 59 91 78 44 97 59 47 103 64 50 109 69 53 77 74 56 83 79 59 89 60 44 95 65 47 101 70 50 107 75 53 75 56 56 81 61 59 87 66 44 93 71 47 99 76 50 105 57 53 111 62 56 79 67 59 85 72 44 91 77 47 97 58 50 103 63 53 109 68 56 77 73 59 83 78 44 89 59 47 95 64 50 101 69 53 107 74 56 75 79 59 81 60 44 87 65 47 93 70 50 99 75 53 105 56 56 111 61 59 79 66 44 85 71 47 91 76 50 97 57 53 103 62 56 109 67 59 77 72 44 83 77 47 89 58 50 95 63 53 101 68 56 107 73 59 75 78 44 81 59 47 87 64 50 93 69 53 99 74 56 105 79 59 111 60 44 79 65 47 85 70 50 91 75 53 97 56 56 103 61 59 109 66 44 77 71 47 83 76 50 89 57 53 95 62 56 101 67 59 107 72 44 75 77 47 81 58 50 87 63 53 93 68 56 99 73 59 105 78 44 111 59 47 79 64 50 85 69 53 91 74 56 97 79 59 103 60 44 109 65 47 77 70 50 83 75 53 89 56 56 95 61 59 101 66 44 107 71 47 75 76 50 81 57 53 87 62 56 93 67 59 99 72 44 105 77 47 111 58 50 79 63 53 85 68 56 91 73 59 97 78 44 103 59 47 109 64 50 77 69 53 83 74 56 89 79 59 95 60 44 101 65 47 107 70 50 75 75 53 81 56 56 87 61 59 93 66 44 99 71 47 105 76 50 111 57 53 79 62 56 85 67 59 91 72 44 97 77 47 103 58 50 109 63 53 77 68 56 83 73 59 89 78 44 95 59 47 101 64 50 107 69 53 75 74 56 81 79 59 87 60 44 93 65 47 99 70 50 105 75 53 111 56 56 79 61 59 85 66 44 91 71 47 97 76 50 103 57 53 109 62 56 77 67 59 83 72 44 89 77 47 95 58 50 101 63 53 107 68 56 75 73 59 81 78 44 87 59 47 93 64 50 99 69 53 105 74 56 111 79 59 79 60 44 85 65 47 91 70 50 97 75 53 103 56 56 109 61 59 77 66 44 83 71 47 89 76 50 95 57 53 101 62 56 107 67 59 75 72 44 81 77 47 87 58 50 93 63 53 99 68 56 105 73 59 111 78 44 79 59 47 85 64 50 91 69 53 97 74 56 103 79 59 109 60 44 77 65 47 83 70 50 89 75 53 95 56 56 101 61 59 107 66 44 75 71 47 81 76 50 87 57 53 93 62 56 99 67 59 105 72 44 111 77 47 79 58 50 85 63 53 91 68 56 97 73 59 103 78 44 109 59 47 77 64 50 83 69 53 89 74 56 95 79 59 101 60 44 107 65 47 75 70 50 81 75 53 87 56 56 93 61 59 99 66 44 105 71 47 111 76 50 79 57 53 85 62 56 91 67 59 97 72 44 103 77 47 109 58 50 77 63 53 83 68 56 89 73 59 95 78 44 101 59 47 107 64 50 75 69 53 81 74 56 87 79 59 93 60 44 99 65 47 105 70 50 111 75 53 79 56 56 85 61 59 91 66 44 97 71 47 103 76 50 109 57 53 77 62 56 83 67 59 89 72 44 95 77 47 101 58 50 107 63 53 75 68 56 81 73 59 87 78 44 93 59 47 99 64 50 105 69 53 111 74 56 79 79 59 85 60 44 91 65 47 97 70 50 103 75 53 109 56 56 77 61 59 83 66 44 89 71 47 95 76 50 101 57 53 107 62 56 75 67 59 81 72 44 87 77 47 93 58 50 99 63 53 105 68 56 111 73 59 79 78 44 85 59 47 91 64 50 97 69 53 103 74 56 109 79 59 77 60 44 83 65 47 89 70 50 95 75 53 101 56 56 107 61 59 75 66 44 81 71 47 87 76 50 93 57 53 99 62 56 105 67 59 111 72 44 79 77 47 85 58 50 91 63 53 97 68 56 103 73 59 109 78 44 77 59 47 83 64 50 89 69 53 95 74 56 101 79 59 107 60 44 75 65 47 81 70 50 87 75 53 93 56 56 99 61 59 105 66 44 111 71 47 79 76 50 85 57 53 91 62 56 97 67 59 103 72 44 109 77 47 77 58 50 83 63 53 89 68 56 95 73 59 101 78 44 107 59 47 75 64 50 81 69 53
110 60 58 78 65 43 84 70 46 90 75 49 96 56 52 102 61 55 108 66 58 76 71 43 82 76 46 88 57 49 94 62 52 100 67 55 106 72 58 74 77 43 80 58 46 86 63 49 92 68 52 98 73 55 104 78 58 110 59 43 78 64 46 84 69 49 90 74 52 96 79 55 102 60 58 108 65 43 76 70 46 82 75 49 88 56 52 94 61 55 100 66 58 106 71 43 74 76 46 80 57 49 86 62 52 92 67 55 98 72 58 104 77 43 110 58 46 78 63 49 84 68 52 90 73 55 96 78 58 102 59 43 108 64 46 76 69 49 82 74 52 88 79 55 94 60 58 100 65 43 106 70 46 74 75 49 80 56 52 86 61 55 92 66 58 98 71 43 104 76 46 110 57 49 78 62 52 84 67 55 90 72 58 96 77 43 102 58 46 108 63 49 76 68 52 82 73 55 88 78 58 94 59 43 100 64 46 106 69 49 74 74 52 80 79 55 86 60 58 92 65 43 98 70 46 104 75 49 110 56 52 78 61 55 84 66 58 90 71 43 96 76 46 102 57 49 108 62 52 76 67 55 82 72 58 88 77 43 94 58 46 100 63 49 106 68 52 74 73 55 80 78 58 86 59 43 92 64 46 98 69 49 104 74 52 110 79 55 78 60 58 84 65 43 90 70 46 96 75 49 102 56 52 108 61 55 76 66 58 82 71 43 88 76 46 94 57 49 100 62 52 106 67 55 74 72 58 80 77 43 86 58 46 92 63 49 98 68 52 104 73 55 110 78 58 78 59 43 84 64 46 90 69 49 96 74 52 102 79 55 108 60 58 76 65 43 82 70 46 88 75 49 94 56 52 100 61 55 106 66 58 74 71 43 80 76 46 86 57 49 92 62 52 98 67 55 104 72 58 110 77 43 78 58 46 84 63 49 90 68 52 96 73 55 102 78 58 108 59 43 76 64 46 82 69 49 88 74 52 94 79 55 100 60 58 106 65 43 74 70 46 80 75 49 86 56 52 92 61 55 98 66 58 104 71 43 110 76 46 78 57 49 84 62 52 90 67 55 96 72 58 102 77 43 108 58 46 76 63 49 82 68 52 88 73 55 94 78 58 100 59 43 106 64 46 74 69 49 80 74 52 86 79 55 92 60 58 98 65 43 104 70 46 110 75 49 78 56 52 84 61 55 90 66 58 96 71 43 102 76 46 108 57 49 76 62 52 82 67 55 88 72 58 94 77 43 100 58 46 106 63 49 74 68 52 80 73 55 86 78 58 92 59 43 98 64 46 104 69 49 110 74 52 78 79 55 84 60 58 90 65 43 96 70 46 102 75 49 108 56 52 76 61 55 82 66 58 88 71 43 94 76 46 100 57 49 106 62 52 74 67 55 80 72 58 86 77 43 92 58 46 98 63 49 104 68 52 110 73 55 78 78 58 84 59 43 90 64 46 96 69 49 102 74 52 108 79 55 76 60 58 82 65 43 88 70 46 94 75 49 100 56 52 106 61 55 74 66 58 80 71 43 86 76 46 92 57 49 98 62 52 104 67 55 110 72 58 78 77 43 84 58 46 90 63 49 96 68 52 102 73 55 108 78 58 76 59 43 82 64 46 88 69 49 94 74 52 100 79 55 106 60 58 74 65 43 80 70 46 86 75 49 92 56 52 98 61 55 104 66 58 110 71 43 78 76 46 84 57 49 90 62 52 96 67 55 102 72 58 108 77 43 76 58 46 82 63 49 88 68 52 94 73 55 100 78 58 106 59 43 74 64 46 80 69 49 86 74 52 92 79 55 98 60 58 104 65 43 110 70 46 78 75 49 84 56 52 90 61 55 96 66 58 102 71 43 108 76 46 76 57 49 82 62 52 88 67 55 94 72 58 100 77 43 106 58 46 74 63 49 80 68 52 86 73 55 92 78 58 98 59 43 104 64 46 110 69 49 78 74 52 84 79 55 90 60 58 96 65 43 102 70 46 108 75 49 76 56 52 82 61 55 88 66 58 94 71 43 100 76 46 106 57 49 74 62 52 80 67 55 86 72 58 92 77 43 98 58 46 104 63 49 110 68 52 78 73 55 84 78 58 90 59 43 96 64 46 102 69 49 108 74 52 76 79 55 82 60 58 88 65 43 94 70 46 100 75 49 106 56 52 74 61 55 80 66 58 86 71 43
77 62 48 83 67 51 89 72 54 95 77 57 101 58 42 107 63 45 75 68 48 81 73 51 87 78 54 93 59 57 99 64 42 105 69 45 111 74 48 79 79 51 85 60 54 91 65 57 97 70 42 103 75 45 109 56 48 77 61 51 83 66 54 89 71 57 95 76 42 101 57 45 107 62 48 75 67 51 81 72 54 87 77 57 93 58 42 99 63 45 105 68 48 111 73 51 79 78 54 85 59 57 91 64 42 97 69 45 103 74 48 109 79 51 77 60 54 83 65 57 89 70 42 95 75 45 101 56 48 107 61 51 75 66 54 81 71 57 87 76 42 93 57 45 99 62 48 105 67 51 111 72 54 79 77 57 85 58 42 91 63 45 97 68 48 103 73 51 109 78 54 77 59 57 83 64 42 89 69 45 95 74 48 101 79 51 107 60 54 75 65 57 81 70 42 87 75 45 93 56 48 99 61 51 105 66 54 111 71 57 79 76 42 85 57 45 91 62 48 97 67 51 103 72 54 109 77 57 77 58 42 83 63 45 89 68 48 95 73 51 101 78 54 107 59 57 75 64 42 81 69 45 87 74 48 93 79 51 99 60 54 105 65 57 111 70 42 79 75 45 85 56 48 91 61 51 97 66 54 103 71 57 109 76 42 77 57 45 83 62 48 89 67 51 95 72 54 101 77 57 107 58 42 75 63 45 81 68 48 87 73 51 93 78 54 99 59 57 105 64 42 111 69 45 79 74 48 85 79 51 91 60 54 97 65 57 103 70 42 109 75 45 77 56 48 83 61 51 89 66 54 95 71 57 101 76 42 107 57 45 75 62 48 81 67 51 87 72 54 93 77 57 99 58 42 105 63 45 111 68 48 79 73 51 85 78 54 91 59 57 97 64 42 103 69 45 109 74 48 77 79 51 83 60 54 89 65 57 95 70 42 101 75 45 107 56 48 75 61 51 81 66 54 87 71 57 93 76 42 99 57 45 105 62 48 111 67 51 79 72 54 85 77 57 91 58 42 97 63 45 103 68 48 109 73 51 77 78 54 83 59 57 89 64 42 95 69 45 101 74 48 107 79 51 75 60 54 81 65 57 87 70 42 93 75 45 99 56 48 105 61 51 111 66 54 79 71 57 85 76 42 91 57 45 97 62 48 103 67 51 109 72 54 77 77 57 83 58 42 89 63 45 95 68 48 101 73 51 107 78 54 75 59 57 81 64 42 87 69 45 93 74 48 99 79 51 105 60 54 111 65 57 79 70 42 85 75 45 91 56 48 97 61 51 103 66 54 109 71 57 77 76 42 83 57 45 89 62 48 95 67 51 101 72 54 107 77 57 75 58 42 81 63 45 87 68 48 93 73 51 99 78 54 105 59 57 111 64 42 79 69 45 85 74 48 91 79 51 97 60 54 103 65 57 109 70 42 77 75 45 83 56 48 89 61 51 95 66 54 101 71 57 107 76 42 75 57 45 81 62 48 87 67 51 93 72 54 99 77 57 105 58 42 111 63 45 79 68 48 85 73 51 91 78 54 97 59 57 103 64 42 109 69 45 77 74 48 83 79 51 89 60 54 95 65 57 101 70 42 107 75 45 75 56 48 81 61 51 87 66 54 93 71 57 99 76 42 105 57 45 111 62 48 79 67 51 85 72 54 91 77 57 97 58 42 103 63 45 109 68 48 77 73 51 83 78 54 89 59 57 95 64 42 101 69 45 107 74 48 75 79 51 81 60 54 87 65 57 93 70 42 99 75 45 105 56 48 111 61 51 79 66 54 85 71 57 91 76 42 97 57 45 103 62 48 109 67 51 77 72 54 83 77 57 89 58 42 95 63 45 101 68 48 107 73 51 75 78 54 81 59 57 87 64 42 93 69 45 99 74 48 105 79 51 111 60 54 79 65 57 85 70 42 91 75 45 97 56 48 103 61 51 109 66 54 77 71 57 83 76 42 89 57 45 95 62 48 101 67 51 107 72 54 75 77 57 81 58 42 87 63 45 93 68 48 99 73 51 105 78 54 111 59 57 79 64 42 85 69 45 91 74 48 97 79 51 103 60 54 109 65 57 77 70 42 83 75 45 89 56 48 95 61 51 101 66 54 107 71 57 75 76 42 81 57 45 87 62 48 93 67 51 99 72 54 105 77 57 111 58 42 79 63 45 85 68 48 91 73 51
82 64 56 88 69 59 94 74 44 100 79 47 106 60 50 74 65 53 80 70 56 86 75 59 92 56 44 98 61 47 104 66 50 110 71 53 78 76 56 84 57 59 90 62 44 96 67 47 102 72 50 108 77 53 76 58 56 82 63 59 88 68 44 94 73 47 100 78 50 106 59 53 74 64 56 80 69 59 86 74 44 92 79 47 98 60 50 104 65 53 110 70 56 78 75 59 84 56 44 90 61 47 96 66 50 102 71 53 108 76 56 76 57 59 82 62 44 88 67 47 94 72 50 100 77 53 106 58 56 74 63 59 80 68 44 86 73 47 92 78 50 98 59 53 104 64 56 110 69 59 78 74 44 84 79 47 90 60 50 96 65 53 102 70 56 108 75 59 76 56 44 82 61 47 88 66 50 94 71 53 100 76 56 106 57 59 74 62 44 80 67 47 86 72 50 92 77 53 98 58 56 104 63 59 110 68 44 78 73 47 84 78 50 90 59 53 96 64 56 102 69 59 108 74 44 76 79 47 82 60 50 88 65 53 94 70 56 100 75 59 106 56 44 74 61 47 80 66 50 86 71 53 92 76 56 98 57 59 104 62 44 110 67 47 78 72 50 84 77 53 90 58 56 96 63 59 102 68 44 108 73 47 76 78 50 82 59 53 88 64 56 94 69 59 100 74 44 106 79 47 74 60 50 80 65 53 86 70 56 92 75 59 98 56 44 104 61 47 110 66 50 78 71 53 84 76 56 90 57 59 96 62 44 102 67 47 108 72 50 76 77 53 82 58 56 88 63 59 94 68 44 100 73 47 106 78 50 74 59 53 80 64 56 86 69 59 92 74 44 98 79 47 104 60 50 110 65 53 78 70 56 84 75 59 90 56 44 96 61 47 102 66 50 108 71 53 76 76 56 82 57 59 88 62 44 94 67 47 100 72 50 106 77 53 74 58 56 80 63 59 86 68 44 92 73 47 98 78 50 104 59 53 110 64 56 78 69 59 84 74 44 90 79 47 96 60 50 102 65 53 108 70 56 76 75 59 82 56 44 88 61 47 94 66 50 100 71 53 106 76 56 74 57 59 80 62 44 86 67 47 92 72 50 98 77 53 104 58 56 110 63 59 78 68 44 84 73 47 90 78 50 96 59 53 102 64 56 108 69 59 76 74 44 82 79 47 88 60 50 94 65 53 100 70 56 106 75 59 74 56 44 80 61 47 86 66 50 92 71 53 98 76 56 104 57 59 110 62 44 78 67 47 84 72 50 90 77 53 96 58 56 102 63 59 108 68 44 76 73 47 82 78 50 88 59 53 94 64 56 100 69 59 106 74 44 74 79 47 80 60 50 86 65 53 92 70 56 98 75 59 104 56 44 110 61 47 78 66 50 84 71 53 90 76 56 96 57 59 102 62 44 108 67 47 76 72 50 82 77 53 88 58 56 94 63 59 100 68 44 106 73 47 74 78 50 80 59 53 86 64 56 92 69 59 98 74 44 104 79 47 110 60 50 78 65 53 84 70 56 90 75 59 96 56 44 102 61 47 108 66 50 76 71 53 82 76 56 88 57 59 94 62 44 100 67 47 106 72 50 74 77 53 80 58 56 86 63 59 92 68 44 98 73 47 104 78 50 110 59 53 78 64 56 84 69 59 90 74 44 96 79 47 102 60 50 108 65 53 76 70 56 82 75 59 88 56 44 94 61 47 100 66 50 106 71 53 74 76 56 80 57 59 86 62 44 92 67 47 98 72 50 104 77 53 110 58 56 78 63 59 84 68 44 90 73 47 96 78 50 102 59 53 108 64 56 76 69 59 82 74 44 88 79 47 94 60 50 100 65 53 106 70 56 74 75 59 80 56 44 86 61 47 92 66 50 98 71 53 104 76 56 110 57 59 78 62 44 84 67 47 90 72 50 96 77 53 102 58 56 108 63 59 76 68 44 82 73 47 88 78 50 94 59 53 100 64 56 106 69 59 74 74 44 80 79 47 86 60 50 92 65 53 98 70 56 104 75 59 110 56 44 78 61 47 84 66 50 90 71 53 96 76 56 102 57 59 108 62 44 76 67 47 82 72 50 88 77 53 94 58 56 100 63 59 106 68 44 74 73 47 80 78 50 86 59 53 92 64 56 98 69 59 104 74 44 110 79 47 78 60 50 84 65 53 90 70 56 96 75 59
87 66 46 93 71 49 99 76 52 105 57 55 111 62 58 79 67 43 85 72 46 91 77 49 97 58 52 103 63 55 109 68 58 77 73 43 83 78 46 89 59 49 95 64 52 101 69 55 107 74 58 75 79 43 81 60 46 87 65 49 93 70 52 99 75 55 105 56 58 111 61 43 79 66 46 85 71 49 91 76 52 97 57 55 103 62 58 109 67 43 77 72 46 83 77 49 89 58 52 95 63 55 101 68 58 107 73 43 75 78 46 81 59 49 87 64 52 93 69 55 99 74 58 105 79 43 111 60 46 79 65 49 85 70 52 91 75 55 97 56 58 103 61 43 109 66 46 77 71 49 83 76 52 89 57 55 95 62 58 101 67 43 107 72 46 75 77 49 81 58 52 87 63 55 93 68 58 99 73 43 105 78 46 111 59 49 79 64 52 85 69 55 91 74 58 97 79 43 103 60 46 109 65 49 77 70 52 83 75 55 89 56 58 95 61 43 101 66 46 107 71 49 75 76 52 81 57 55 87 62 58 93 67 43 99 72 46 105 77 49 111 58 52 79 63 55 85 68 58 91 73 43 97 78 46 103 59 49 109 64 52 77 69 55 83 74 58 89 79 43 95 60 46 101 65 49 107 70 52 75 75 55 81 56 58 87 61 43 93 66 46 99 71 49 105 76 52 111 57 55 79 62 58 85 67 43 91 72 46 97 77 49 103 58 52 109 63 55 77 68 58 83 73 43 89 78 46 95 59 49 101 64 52 107 69 55 75 74 58 81 79 43 87 60 46 93 65 49 99 70 52 105 75 55 111 56 58 79 61 43 85 66 46 91 71 49 97 76 52 103 57 55 109 62 58 77 67 43 83 72 46 89 77 49 95 58 52 101 63 55 107 68 58 75 73 43 81 78 46 87 59 49 93 64 52 99 69 55 105 74 58 111 79 43 79 60 46 85 65 49 91 70 52 97 75 55 103 56 58 109 61 43 77 66 46 83 71 49 89 76 52 95 57 55 101 62 58 107 67 43 75 72 46 81 77 49 87 58 52 93 63 55 99 68 58 105 73 43 111 78 46 79 59 49 85 64 52 91 69 55 97 74 58 103 79 43 109 60 46 77 65 49 83 70 52 89 75 55 95 56 58 101 61 43 107 66 46 75 71 49 81 76 52 87 57 55 93 62 58 99 67 43 105 72 46 111 77 49 79 58 52 85 63 55 91 68 58 97 73 43 103 78 46 109 59 49 77 64 52 83 69 55 89 74 58 95 79 43 101 60 46 107 65 49 75 70 52 81 75 55 87 56 58 93 61 43 99 66 46 105 71 49 111 76 52 79 57 55 85 62 58 91 67 43 97 72 46 103 77 49 109 58 52 77 63 55 83 68 58 89 73 43 95 78 46 101 59 49 107 64 52 75 69 55 81 74 58 87 79 43 93 60 46 99 65 49 105 70 52 111 75 55 79 56 58 85 61 43 91 66 46 97 71 49 103 76 52 109 57 55 77 62 58 83 67 43 89 72 46 95 77 49 101 58 52 107 63 55 75 68 58 81 73 43 87 78 46 93 59 49 99 64 52 105 69 55 111 74 58 79 79 43 85 60 46 91 65 49 97 70 52 103 75 55 109 56 58 77 61 43 83 66 46 89 71 49 95 76 52 101 57 55 107 62 58 75 67 43 81 72 46 87 77 49 93 58 52 99 63 55 105 68 58 111 73 43 79 78 46 85 59 49 91 64 52 97 69 55 103 74 58 109 79 43 77 60 46 83 65 49 89 70 52 95 75 55 101 56 58 107 61 43 75 66 46 81 71 49 87 76 52 93 57 55 99 62 58 105 67 43 111 72 46 79 77 49 85 58 52 91 63 55 97 68 58 103 73 43 109 78 46 77 59 49 83 64 52 89 69 55 95 74 58 101 79 43 107 60 46 75 65 49 81 70 52 87 75 55 93 56 58 99 61 43 105 66 46 111 71 49 79 76 52 85 57 55 91 62 58 97 67 43 103 72 46 109 77 49 77 58 52 83 63 55 89 68 58 95 73 43 101 78 46 107 59 49 75 64 52 81 69 55 87 74 58 93 79 43 99 60 46 105 65 49 111 70 52 79 75 55 85 56 58 91 61 43 97 66 46 103 71 49 109 76 52 77 57 55 83 62 58 89 67 43 95 72 46 101 77 49
92 68 54 98 73 57 104 78 42 110 59 45 78 64 48 84 69 51 90 74 54 96 79 57 102 60 42 108 65 45 76 70 48 82 75 51 88 56 54 94 61 57 100 66 42 106 71 45 74 76 48 80 57 51 86 62 54 92 67 57 98 72 42 104 77 45 110 58 48 78 63 51 84 68 54 90 73 57 96 78 42 102 59 45 108 64 48 76 69 51 82 74 54 88 79 57 94 60 42 100 65 45 106 70 48 74 75 51 80 56 54 86 61 57 92 66 42 98 71 45 104 76 48 110 57 51 78 62 54 84 67 57 90 72 42 96 77 45 102 58 48 108 63 51 76 68 54 82 73 57 88 78 42 94 59 45 100 64 48 106 69 51 74 74 54 80 79 57 86 60 42 92 65 45 98 70 48 104 75 51 110 56 54 78 61 57 84 66 42 90 71 45 96 76 48 102 57 51 108 62 54 76 67 57 82 72 42 88 77 45 94 58 48 100 63 51 106 68 54 74 73 57 80 78 42 86 59 45 92 64 48 98 69 51 104 74 54 110 79 57 78 60 42 84 65 45 90 70 48 96 75 51 102 56 54 108 61 57 76 66 42 82 71 45 88 76 48 94 57 51 100 62 54 106 67 57 74 72 42 80 77 45 86 58 48 92 63 51 98 68 54 104 73 57 110 78 42 78 59 45 84 64 48 90 69 51 96 74 54 102 79 57 108 60 42 76 65 45 82 70 48 88 75 51 94 56 54 100 61 57 106 66 42 74 71 45 80 76 48 86 57 51 92 62 54 98 67 57 104 72 42 110 77 45 78 58 48 84 63 51 90 68 54 96 73 57 102 78 42 108 59 45 76 64 48 82 69 51 88 74 54 94 79 57 100 60 42 106 65 45 74 70 48 80 75 51 86 56 54 92 61 57 98 66 42 104 71 45 110 76 48 78 57 51 84 62 54 90 67 57 96 72 42 102 77 45 108 58 48 76 63 51 82 68 54 88 73 57 94 78 42 100 59 45 106 64 48 74 69 51 80 74 54 86 79 57 92 60 42 98 65 45 104 70 48 110 75 51 78 56 54 84 61 57 90 66 42 96 71 45 102 76 48 108 57 51 76 62 54 82 67 57 88 72 42 94 77 45 100 58 48 106 63 51 74 68 54 80 73 57 86 78 42 92 59 45 98 64 48 104 69 51 110 74 54 78 79 57 84 60 42 90 65 45 96 70 48 102 75 51 108 56 54 76 61 57 82 66 42 88 71 45 94 76 48 100 57 51 106 62 54 74 67 57 80 72 42 86 77 45 92 58 48 98 63 51 104 68 54 110 73 57 78 78 42 84 59 45 90 64 48 96 69 51 102 74 54 108 79 57 76 60 42 82 65 45 88 70 48 94 75 51 100 56 54 106 61 57 74 66 42 80 71 45 86 76 48 92 57 51 98 62 54 104 67 57 110 72 42 78 77 45 84 58 48 90 63 51 96 68 54 102 73 57 108 78 42 76 59 45 82 64 48 88 69 51 94 74 54 100 79 57 106 60 42 74 65 45 80 70 48 86 75 51 92 56 54 98 61 57 104 66 42 110 71 45 78 76 48 84 57 51 90 62 54 96 67 57 102 72 42 108 77 45 76 58 48 82 63 51 88 68 54 94 73 57 100 78 42 106 59 45 74 64 48 80 69 51 86 74 54 92 79 57 98 60 42 104 65 45 110 70 48 78 75 51 84 56 54 90 61 57 96 66 42 102 71 45 108 76 48 76 57 51 82 62 54 88 67 57 94 72 42 100 77 45 106 58 48 74 63 51 80 68 54 86 73 57 92 78 42 98 59 45 104 64 48 110 69 51 78 74 54 84 79 57 90 60 42 96 65 45 102 70 48 108 75 51 76 56 54 82 61 57 88 66 42 94 71 45 100 76 48 106 57 51 74 62 54 80 67 57 86 72 42 92 77 45 98 58 48 104 63 51 110 68 54 78 73 57 84 78 42 90 59 45 96 64 48 102 69 51 108 74 54 76 79 57 82 60 42 88 65 45 94 70 48 100 75 51 106 56 54 74 61 57 80 66 42 86 71 45 92 76 48 98 57 51 104 62 54 110 67 57 78 72 42 84 77 45 90 58 48 96 63 51 102 68 54 108 73 57 76 78 42 82 59 45 88 64 48 94 69 51 100 74 54 106 79 57
97 70 44 103 75 47 109 56 50 77 61 53 83 66 56 89 71 59 95 76 44 101 57 47 107 62 50 75 67 53 81 72 56 87 77 59 93 58 44 99 63 47 105 68 50 111 73 53 79 78 56 85 59 59 91 64 44 97 69 47 103 74 50 109 79 53 77 60 56 83 65 59 89 70 44 95 75 47 101 56 50 107 61 53 75 66 56 81 71 59 87 76 44 93 57 47 99 62 50 105 67 53 111 72 56 79 77 59 85 58 44 91 63 47 97 68 50 103 73 53 109 78 56 77 59 59 83 64 44 89 69 47 95 74 50 101 79 53 107 60 56 75 65 59 81 70 44 87 75 47 93 56 50 99 61 53 105 66 56 111 71 59 79 76 44 85 57 47 91 62 50 97 67 53 103 72 56 109 77 59 77 58 44 83 63 47 89 68 50 95 73 53 101 78 56 107 59 59 75 64 44 81 69 47 87 74 50 93 79 53 99 60 56 105 65 59 111 70 44 79 75 47 85 56 50 91 61 53 97 66 56 103 71 59 109 76 44 77 57 47 83 62 50 89 67 53 95 72 56 101 77 59 107 58 44 75 63 47 81 68 50 87 73 53 93 78 56 99 59 59 105 64 44 111 69 47 79 74 50 85 79 53 91 60 56 97 65 59 103 70 44 109 75 47 77 56 50 83 61 53 89 66 56 95 71 59 101 76 44 107 57 47 75 62 50 81 67 53 87 72 56 93 77 59 99 58 44 105 63 47 111 68 50 79 73 53 85 78 56 91 59 59 97 64 44 103 69 47 109 74 50 77 79 53 83 60 56 89 65 59 95 70 44 101 75 47 107 56 50 75 61 53 81 66 56 87 71 59 93 76 44 99 57 47 105 62 50 111 67 53 79 72 56 85 77 59 91 58 44 97 63 47 103 68 50 109 73 53 77 78 56 83 59 59 89 64 44 95 69 47 101 74 50 107 79 53 75 60 56 81 65 59 87 70 44 93 75 47 99 56 50 105 61 53 111 66 56 79 71 59 85 76 44 91 57 47 97 62 50 103 67 53 109 72 56 77 77 59 83 58 44 89 63 47 95 68 50 101 73 53 107 78 56 75 59 59 81 64 44 87 69 47 93 74 50 99 79 53 105 60 56 111 65 59 79 70 44 85 75 47 91 56 50 97 61 53 103 66 56 109 71 59 77 76 44 83 57 47 89 62 50 95 67 53 101 72 56 107 77 59 75 58 44 81 63 47 87 68 50 93 73 53 99 78 56 105 59 59 111 64 44 79 69 47 85 74 50 91 79 53 97 60 56 103 65 59 109 70 44 77 75 47 83 56 50 89 61 53 95 66 56 101 71 59 107 76 44 75 57 47 81 62 50 87 67 53 93 72 56 99 77 59 105 58 44 111 63 47 79 68 50 85 73 53 91 78 56 97 59 59 103 64 44 109 69 47 77 74 50 83 79 53 89 60 56 95 65 59 101 70 44 107 75 47 75 56 50 81 61 53 87 66 56 93 71 59 99 76 44 105 57 47 111 62 50 79 67 53 85 72 56 91 77 59 97 58 44 103 63 47 109 68 50 77 73 53 83 78 56 89 59 59 95 64 44 101 69 47 107 74 50 75 79 53 81 60 56 87 65 59 93 70 44 99 75 47 105 56 50 111 61 53 79 66 56 85 71 59 91 76 44 97 57 47 103 62 50 109 67 53 77 72 56 83 77 59 89 58 44 95 63 47 101 68 50 107 73 53 75 78 56 81 59 59 87 64 44 93 69 47 99 74 50 105 79 53 111 60 56 79 65 59 85 70 44 91 75 47 97 56 50 103 61 53 109 66 56 77 71 59 83 76 44 89 57 47 95 62 50 101 67 53 107 72 56 75 77 59 81 58 44 87 63 47 93 68 50 99 73 53 105 78 56 111 59 59 79 64 44 85 69 47 91 74 50 97 79 53 103 60 56 109 65 59 77 70 44 83 75 47 89 56 50 95 61 53 101 66 56 107 71 59 75 76 44 81 57 47 87 62 50 93 67 53 99 72 56 105 77 59 111 58 44 79 63 47 85 68 50 91 73 53 97 78 56 103 59 59 109 64 44 77 69 47 83 74 50 89 79 53 95 60 56 101 65 59 107 70 44 75 75 47 81 56 50 87 61 53 93 66 56 99 71 59 105 76 44 111 57 47
102 72 52 108 77 55 76 58 58 82 63 43 88 68 46 94 73 49 100 78 52 106 59 55 74 64 58 80 69 43 86 74 46 92 79 49 98 60 52 104 65 55 110 70 58 78 75 43 84 56 46 90 61 49 96 66 52 102 71 55 108 76 58 76 57 43 82 62 46 88 67 49 94 72 52 100 77 55 106 58 58 74 63 43 80 68 46 86 73 49 92 78 52 98 59 55 104 64 58 110 69 43 78 74 46 84 79 49 90 60 52 96 65 55 102 70 58 108 75 43 76 56 46 82 61 49 88 66 52 94 71 55 100 76 58 106 57 43 74 62 46 80 67 49 86 72 52 92 77 55 98 58 58 104 63 43 110 68 46 78 73 49 84 78 52 90 59 55 96 64 58 102 69 43 108 74 46 76 79 49 82 60 52 88 65 55 94 70 58 100 75 43 106 56 46 74 61 49 80 66 52 86 71 55 92 76 58 98 57 43 104 62 46 110 67 49 78 72 52 84 77 55 90 58 58 96 63 43 102 68 46 108 73 49 76 78 52 82 59 55 88 64 58 94 69 43 100 74 46 106 79 49 74 60 52 80 65 55 86 70 58 92 75 43 98 56 46 104 61 49 110 66 52 78 71 55 84 76 58 90 57 43 96 62 46 102 67 49 108 72 52 76 77 55 82 58 58 88 63 43 94 68 46 100 73 49 106 78 52 74 59 55 80 64 58 86 69 43 92 74 46 98 79 49 104 60 52 110 65 55 78 70 58 84 75 43 90 56 46 96 61 49 102 66 52 108 71 55 76 76 58 82 57 43 88 62 46 94 67 49 100 72 52 106 77 55 74 58 58 80 63 43 86 68 46 92 73 49 98 78 52 104 59 55 110 64 58 78 69 43 84 74 46 90 79 49 96 60 52 102 65 55 108 70 58 76 75 43 82 56 46 88 61 49 94 66 52 100 71 55 106 76 58 74 57 43 80 62 46 86 67 49 92 72 52 98 77 55 104 58 58 110 63 43 78 68 46 84 73 49 90 78 52 96 59 55 102 64 58 108 69 43 76 74 46 82 79 49 88 60 52 94 65 55 100 70 58 106 75 43 74 56 46 80 61 49 86 66 52 92 71 55 98 76 58 104 57 43 110 62 46 78 67 49 84 72 52 90 77 55 96 58 58 102 63 43 108 68 46 76 73 49 82 78 52 88 59 55 94 64 58 100 69 43 106 74 46 74 79 49 80 60 52 86 65 55 92 70 58 98 75 43 104 56 46 110 61 49 78 66 52 84 71 55 90 76 58 96 57 43 102 62 46 108 67 49 76 72 52 82 77 55 88 58 58 94 63 43 100 68 46 106 73 49 74 78 52 80 59 55 86 64 58 92 69 43 98 74 46 104 79 49 110 60 52 78 65 55 84 70 58 90 75 43 96 56 46 102 61 49 108 66 52 76 71 55 82 76 58 88 57 43 94 62 46 100 67 49 106 72 52 74 77 55 80 58 58 86 63 43 92 68 46 98 73 49 104 78 52 110 59 55 78 64 58 84 69 43 90 74 46 96 79 49 102 60 52 108 65 55 76 70 58 82 75 43 88 56 46 94 61 49 100 66 52 106 71 55 74 76 58 80 57 43 86 62 46 92 67 49 98 72 52 104 77 55 110 58 58 78 63 43 84 68 46 90 73 49 96 78 52 102 59 55 108 64 58 76 69 43 82 74 46 88 79 49 94 60 52 100 65 55 106 70 58 74 75 43 80 56 46 86 61 49 92 66 52 98 71 55 104 76 58 110 57 43 78 62 46 84 67 49 90 72 52 96 77 55 102 58 58 108 63 43 76 68 46 82 73 49 88 78 52 94 59 55 100 64 58 106 69 43 74 74 46 80 79 49 86 60 52 92 65 55 98 70 58 104 75 43 110 56 46 78 61 49 84 66 52 90 71 55 96 76 58 102 57 43 108 62 46 76 67 49 82 72 52 88 77 55 94 58 58 100 63 43 106 68 46 74 73 49 80 78 52 86 59 55 92 64 58 98 69 43 104 74 46 110 79 49 78 60 52 84 65 55 90 70 58 96 75 43 102 56 46 108 61 49 76 66 52 82 71 55 88 76 58 94 57 43 100 62 46 106 67 49 74 72 52 80 77 55 86 58 58 92 63 43 98 68 46 104 73 49 110 78 52 78 59 55
107 74 42 75 79 45 81 60 48 87 65 51 93 70 54 99 75 57 105 56 42 111 61 45 79 66 48 85 71 51 91 76 54 97 57 57 103 62 42 109 67 45 77 72 48 83 77 51 89 58 54 95 63 57 101 68 42 107 73 45 75 78 48 81 59 51 87 64 54 93 69 57 99 74 42 105 79 45 111 60 48 79 65 51 85 70 54 91 75 57 97 56 42 103 61 45 109 66 48 77 71 51 83 76 54 89 57 57 95 62 42 101 67 45 107 72 48 75 77 51 81 58 54 87 63 57 93 68 42 99 73 45 105 78 48 111 59 51 79 64 54 85 69 57 91 74 42 97 79 45 103 60 48 109 65 51 77 70 54 83 75 57 89 56 42 95 61 45 101 66 48 107 71 51 75 76 54 81 57 57 87 62 42 93 67 45 99 72 48 105 77 51 111 58 54 79 63 57 85 68 42 91 73 45 97 78 48 103 59 51 109 64 54 77 69 57 83 74 42 89 79 45 95 60 48 101 65 51 107 70 54 75 75 57 81 56 42 87 61 45 93 66 48 99 71 51 105 76 54 111 57 57 79 62 42 85 67 45 91 72 48 97 77 51 103 58 54 109 63 57 77 68 42 83 73 45 89 78 48 95 59 51 101 64 54 107 69 57 75 74 42 81 79 45 87 60 48 93 65 51 99 70 54 105 75 57 111 56 42 79 61 45 85 66 48 91 71 51 97 76 54 103 57 57 109 62 42 77 67 45 83 72 48 89 77 51 95 58 54 101 63 57 107 68 42 75 73 45 81 78 48 87 59 51 93 64 54 99 69 57 105 74 42 111 79 45 79 60 48 85 65 51 91 70 54 97 75 57 103 56 42 109 61 45 77 66 48 83 71 51 89 76 54 95 57 57 101 62 42 107 67 45 75 72 48 81 77 51 87 58 54 93 63 57 99 68 42 105 73 45 111 78 48 79 59 51 85 64 54 91 69 57 97 74 42 103 79 45 109 60 48 77 65 51 83 70 54 89 75 57 95 56 42 101 61 45 107 66 48 75 71 51 81 76 54 87 57 57 93 62 42 99 67 45 105 72 48 111 77 51 79 58 54 85 63 57 91 68 42 97 73 45 103 78 48 109 59 51 77 64 54 83 69 57 89 74 42 95 79 45 101 60 48 107 65 51 75 70 54 81 75 57 87 56 42 93 61 45 99 66 48 105 71 51 111 76 54 79 57 57 85 62 42 91 67 45 97 72 48 103 77 51 109 58 54 77 63 57 83 68 42 89 73 45 95 78 48 101 59 51 107 64 54 75 69 57 81 74 42 87 79 45 93 60 48 99 65 51 105 70 54 111 75 57 79 56 42 85 61 45 91 66 48 97 71 51 103 76 54 109 57 57 77 62 42 83 67 45 89 72 48 95 77 51 101 58 54 107 63 57 75 68 42 81 73 45 87 78 48 93 59 51 99 64 54 105 69 57 111 74 42 79 79 45 85 60 48 91 65 51 97 70 54 103 75 57 109 56 42 77 61 45 83 66 48 89 71 51 95 76 54 101 57 57 107 62 42 75 67 45 81 72 48 87 77 51 93 58 54 99 63 57 105 68 42 111 73 45 79 78 48 85 59 51 91 64 54 97 69 57 103 74 42 109 79 45 77 60 48 83 65 51 89 70 54 95 75 57 101 56 42 107 61 45 75 66 48 81 71 51 87 76 54 93 57 57 99 62 42 105 67 45 111 72 48 79 77 51 85 58 54 91 63 57 97 68 42 103 73 45 109 78 48 77 59 51 83 64 54 89 69 57 95 74 42 101 79 45 107 60 48 75 65 51 81 70 54 87 75 57 93 56 42 99 61 45 105 66 48 111 71 51 79 76 54 85 57 57 91 62 42 97 67 45 103 72 48 109 77 51 77 58 54 83 63 57 89 68 42 95 73 45 101 78 48 107 59 51 75 64 54 81 69 57 87 74 42 93 79 45 99 60 48 105 65 51 111 70 54 79 75 57 85 56 42 91 61 45 97 66 48 103 71 51 109 76 54 77 57 57 83 62 42 89 67 45 95 72 48 101 77 51 107 58 54 75 63 57 81 68 42 87 73 45 93 78 48 99 59 51 105 64 54 111 69 57 79 74 42 85 79 45 91 60 48 97 65 51 103 70 54 109 75 57 77 56 42 83 61 45
74 76 50 80 57 53 86 62 56 92 67 59 98 72 44 104 77 47 110 58 50 78 63 53 84 68 56 90 73 59 96 78 44 102 59 47 108 64 50 76 69 53 82 74 56 88 79 59 94 60 44 100 65 47 106 70 50 74 75 53 80 56 56 86 61 59 92 66 44 98 71 47 104 76 50 110 57 53 78 62 56 84 67 59 90 72 44 96 77 47 102 58 50 108 63 53 76 68 56 82 73 59 88 78 44 94 59 47 100 64 50 106 69 53 74 74 56 80 79 59 86 60 44 92 65 47 98 70 50 104 75 53 110 56 56 78 61 59 84 66 44 90 71 47 96 76 50 102 57 53 108 62 56 76 67 59 82 72 44 88 77 47 94 58 50 100 63 53 106 68 56 74 73 59 80 78 44 86 59 47 92 64 50 98 69 53 104 74 56 110 79 59 78 60 44 84 65 47 90 70 50 96 75 53 102 56 56 108 61 59 76 66 44 82 71 47 88 76 50 94 57 53 100 62 56 106 67 59 74 72 44 80 77 47 86 58 50 92 63 53 98 68 56 104 73 59 110 78 44 78 59 47 84 64 50 90 69 53 96 74 56 102 79 59 108 60 44 76 65 47 82 70 50 88 75 53 94 56 56 100 61 59 106 66 44 74 71 47 80 76 50 86 57 53 92 62 56 98 67 59 104 72 44 110 77 47 78 58 50 84 63 53 90 68 56 96 73 59 102 78 44 108 59 47 76 64 50 82 69 53 88 74 56 94 79 59 100 60 44 106 65 47 74 70 50 80 75 53 86 56 56 92 61 59 98 66 44 104 71 47 110 76 50 78 57 53 84 62 56 90 67 59 96 72 44 102 77 47 108 58 50 76 63 53 82 68 56 88 73 59 94 78 44 100 59 47 106 64 50 74 69 53 80 74 56 86 79 59 92 60 44 98 65 47 104 70 50 110 75 53 78 56 56 84 61 59 90 66 44 96 71 47 102 76 50 108 57 53 76 62 56 82 67 59 88 72 44 94 77 47 100 58 50 106 63 53 74 68 56 80 73 59 86 78 44 92 59 47 98 64 50 104 69 53 110 74 56 78 79 59 84 60 44 90 65 47 96 70 50 102 75 53 108 56 56 76 61 59 82 66 44 88 71 47 94 76 50 100 57 53 106 62 56 74 67 59 80 72 44 86 77 47 92 58 50 98 63 53 104 68 56 110 73 59 78 78 44 84 59 47 90 64 50 96 69 53 102 74 56 108 79 59 76 60 44 82 65 47 88 70 50 94 75 53 100 56 56 106 61 59 74 66 44 80 71 47 86 76 50 92 57 53 98 62 56 104 67 59 110 72 44 78 77 47 84 58 50 90 63 53 96 68 56 102 73 59 108 78 44 76 59 47 82 64 50 88 69 53 94 74 56 100 79 59 106 60 44 74 65 47 80 70 50 86 75 53 92 56 56 98 61 59 104 66 44 110 71 47 78 76 50 84 57 53 90 62 56 96 67 59 102 72 44 108 77 47 76 58 50 82 63 53 88 68 56 94 73 59 100 78 44 106 59 47 74 64 50 80 69 53 86 74 56 92 79 59 98 60 44 104 65 47 110 70 50 78 75 53 84 56 56 90 61 59 96 66 44 102 71 47 108 76 50 76 57 53 82 62 56 88 67 59 94 72 44 100 77 47 106 58 50 74 63 53 80 68 56 86 73 59 92 78 44 98 59 47 104 64 50 110 69 53 78 74 56 84 79 59 90 60 44 96 65 47 102 70 50 108 75 53 76 56 56 82 61 59 88 66 44 94 71 47 100 76 50 106 57 53 74 62 56 80 67 59 86 72 44 92 77 47 98 58 50 104 63 53 110 68 56 78 73 59 84 78 44 90 59 47 96 64 50 102 69 53 108 74 56 76 79 59 82 60 44 88 65 47 94 70 50 100 75 53 106 56 56 74 61 59 80 66 44 86 71 47 92 76 50 98 57 53 104 62 56 110 67 59 78 72 44 84 77 47 90 58 50 96 63 53 102 68 56 108 73 59 76 78 44 82 59 47 88 64 50 94 69 53 100 74 56 106 79 59 74 60 44 80 65 47 86 70 50 92 75 53 98 56 56 104 61 59 110 66 44 78 71 47 84 76 50 90 57 53 96 62 56 102 67 59 108 72 44 76 77 47 82 58 50 88 63 53
79 78 58 85 59 43 91 64 46 97 69 49 103 74 52 109 79 55 77 60 58 83 65 43 89 70 46 95 75 49 101 56 52 107 61 55 75 66 58 81 71 43 87 76 46 93 57 49 99 62 52 105 67 55 111 72 58 79 77 43 85 58 46 91 63 49 97 68 52 103 73 55 109 78 58 77 59 43 83 64 46 89 69 49 95 74 52 101 79 55 107 60 58 75 65 43 81 70 46 87 75 49 93 56 52 99 61 55 105 66 58 111 71 43 79 76 46 85 57 49 91 62 52 97 67 55 103 72 58 109 77 43 77 58 46 83 63 49 89 68 52 95 73 55 101 78 58 107 59 43 75 64 46 81 69 49 87 74 52 93 79 55 99 60 58 105 65 43 111 70 46 79 75 49 85 56 52 91 61 55 97 66 58 103 71 43 109 76 46 77 57 49 83 62 52 89 67 55 95 72 58 101 77 43 107 58 46 75 63 49 81 68 52 87 73 55 93 78 58 99 59 43 105 64 46 111 69 49 79 74 52 85 79 55 91 60 58 97 65 43 103 70 46 109 75 49 77 56 52 83 61 55 89 66 58 95 71 43 101 76 46 107 57 49 75 62 52 81 67 55 87 72 58 93 77 43 99 58 46 105 63 49 111 68 52 79 73 55 85 78 58 91 59 43 97 64 46 103 69 49 109 74 52 77 79 55 83 60 58 89 65 43 95 70 46 101 75 49 107 56 52 75 61 55 81 66 58 87 71 43 93 76 46 99 57 49 105 62 52 111 67 55 79 72 58 85 77 43 91 58 46 97 63 49 103 68 52 109 73 55 77 78 58 83 59 43 89 64 46 95 69 49 101 74 52 107 79 55 75 60 58 81 65 43 87 70 46 93 75 49 99 56 52 105 61 55 111 66 58 79 71 43 85 76 46 91 57 49 97 62 52 103 67 55 109 72 58 77 77 43 83 58 46 89 63 49 95 68 52 101 73 55 107 78 58 75 59 43 81 64 46 87 69 49 93 74 52 99 79 55 105 60 58 111 65 43 79 70 46 85 75 49 91 56 52 97 61 55 103 66 58 109 71 43 77 76 46 83 57 49 89 62 52 95 67 55 101 72 58 107 77 43 75 58 46 81 63 49 87 68 52 93 73 55 99 78 58 105 59 43 111 64 46 79 69 49 85 74 52 91 79 55 97 60 58 103 65 43 109 70 46 77 75 49 83 56 52 89 61 55 95 66 58 101 71 43 107 76 46 75 57 49 81 62 52 87 67 55 93 72 58 99 77 43 105 58 46 111 63 49 79 68 52 85 73 55 91 78 58 97 59 43 103 64 46 109 69 49 77 74 52 83 79 55 89 60 58 95 65 43 101 70 46 107 75 49 75 56 52 81 61 55 87 66 58 93 71 43 99 76 46 105 57 49 111 62 52 79 67 55 85 72 58 91 77 43 97 58 46 103 63 49 109 68 52 77 73 55 83 78 58 89 59 43 95 64 46 101 69 49 107 74 52 75 79 55 81 60 58 87 65 43 93 70 46 99 75 49 105 56 52 111 61 55 79 66 58 85 71 43 91 76 46 97 57 49 103 62 52 109 67 55 77 72 58 83 77 43 89 58 46 95 63 49 101 68 52 107 73 55 75 78 58 81 59 43 87 64 46 93 69 49 99 74 52 105 79 55 111 60 58 79 65 43 85 70 46 91 75 49 97 56 52 103 61 55 109 66 58 77 71 43 83 76 46 89 57 49 95 62 52 101 67 55 107 72 58 75 77 43 81 58 46 87 63 49 93 68 52 99 73 55 105 78 58 111 59 43 79 64 46 85 69 49 91 74 52 97 79 55 103 60 58 109 65 43 77 70 46 83 75 49 89 56 52 95 61 55 101 66 58 107 71 43 75 76 46 81 57 49 87 62 52 93 67 55 99 72 58 105 77 43 111 58 46 79 63 49 85 68 52 91 73 55 97 78 58 103 59 43 109 64 46 77 69 49 83 74 52 89 79 55 95 60 58 101 65 43 107 70 46 75 75 49 81 56 52 87 61 55 93 66 58 99 71 43 105 76 46 111 57 49 79 62 52 85 67 55 91 72 58 97 77 43 103 58 46 109 63 49 77 68 52 83 73 55 89 78 58 95 59 43 101 64 46 107 69 49 75 74 52 81 79 55 87 60 58 93 65 43
84 56 48 90 61 51 96 66 54 102 71 57 108 76 42 76 57 45 82 62 48 88 67 51 94 72 54 100 77 57 106 58 42 74 63 45 80 68 48 86 73 51 92 78 54 98 59 57 104 64 42 110 69 45 78 74 48 84 79 51 90 60 54 96 65 57 102 70 42 108 75 45 76 56 48 82 61 51 88 66 54 94 71 57 100 76 42 106 57 45 74 62 48 80 67 51 86 72 54 92 77 57 98 58 42 104 63 45 110 68 48 78 73 51 84 78 54 90 59 57 96 64 42 102 69 45 108 74 48 76 79 51 82 60 54 88 65 57 94 70 42 100 75 45 106 56 48 74 61 51 80 66 54 86 71 57 92 76 42 98 57 45 104 62 48 110 67 51 78 72 54 84 77 57 90 58 42 96 63 45 102 68 48 108 73 51 76 78 54 82 59 57 88 64 42 94 69 45 100 74 48 106 79 51 74 60 54 80 65 57 86 70 42 92 75 45 98 56 48 104 61 51 110 66 54 78 71 57 84 76 42 90 57 45 96 62 48 102 67 51 108 72 54 76 77 57 82 58 42 88 63 45 94 68 48 100 73 51 106 78 54 74 59 57 80 64 42 86 69 45 92 74 48 98 79 51 104 60 54 110 65 57 78 70 42 84 75 45 90 56 48 96 61 51 102 66 54 108 71 57 76 76 42 82 57 45 88 62 48 94 67 51 100 72 54 106 77 57 74 58 42 80 63 45 86 68 48 92 73 51 98 78 54 104 59 57 110 64 42 78 69 45 84 74 48 90 79 51 96 60 54 102 65 57 108 70 42 76 75 45 82 56 48 88 61 51 94 66 54 100 71 57 106 76 42 74 57 45 80 62 48 86 67 51 92 72 54 98 77 57 104 58 42 110 63 45 78 68 48 84 73 51 90 78 54 96 59 57 102 64 42 108 69 45 76 74 48 82 79 51 88 60 54 94 65 57 100 70 42 106 75 45 74 56 48 80 61 51 86 66 54 92 71 57 98 76 42 104 57 45 110 62 48 78 67 51 84 72 54 90 77 57 96 58 42 102 63 45 108 68 48 76 73 51 82 78 54 88 59 57 94 64 42 100 69 45 106 74 48 74 79 51 80 60 54 86 65 57 92 70 42 98 75 45 104 56 48 110 61 51 78 66 54 84 71 57 90 76 42 96 57 45 102 62 48 108 67 51 76 72 54 82 77 57 88 58 42 94 63 45 100 68 48 106 73 51 74 78 54 80 59 57 86 64 42 92 69 45 98 74 48 104 79 51 110 60 54 78 65 57 84 70 42 90 75 45 96 56 48 102 61 51 108 66 54 76 71 57 82 76 42 88 57 45 94 62 48 100 67 51 106 72 54 74 77 57 80 58 42 86 63 45 92 68 48 98 73 51 104 78 54 110 59 57 78 64 42 84 69 45 90 74 48 96 79 51 102 60 54 108 65 57 76 70 42 82 75 45 88 56 48 94 61 51 100 66 54 106 71 57 74 76 42 80 57 45 86 62 48 92 67 51 98 72 54 104 77 57 110 58 42 78 63 45 84 68 48 90 73 51 96 78 54 102 59 57 108 64 42 76 69 45 82 74 48 88 79 51 94 60 54 100 65 57 106 70 42 74 75 45 80 56 48 86 61 51 92 66 54 98 71 57 104 76 42 110 57 45 78 62 48 84 67 51 90 72 54 96 77 57 102 58 42 108 63 45 76 68 48 82 73 51 88 78 54 94 59 57 100 64 42 106 69 45 74 74 48 80 79 51 86 60 54 92 65 57 98 70 42 104 75 45 110 56 48 78 61 51 84 66 54 90 71 57 96 76 42 102 57 45 108 62 48 76 67 51 82 72 54 88 77 57 94 58 42 100 63 45 106 68 48 74 73 51 80 78 54 86 59 57 92 64 42 98 69 45 104 74 48 110 79 51 78 60 54 84 65 57 90 70 42 96 75 45 102 56 48 108 61 51 76 66 54 82 71 57 88 76 42 94 57 45 100 62 48 106 67 51 74 72 54 80 77 57 86 58 42 92 63 45 98 68 48 104 73 51 110 78 54 78 59 57 84 64 42 90 69 45 96 74 48 102 79 51 108 60 54 76 65 57 82 70 42 88 75 45 94 56 48 100 61 51 106 66 54 74 71 57 80 76 42 86 57 45 92 62 48 98 67 51
89 58 56 95 63 59 101 68 44 107 73 47 75 78 50 81 59 53 87 64 56 93 69 59 99 74 44 105 79 47 111 60 50 79 65 53 85 70 56 91 75 59 97 56 44 103 61 47 109 66 50 77 71 53 83 76 56 89 57 59 95 62 44 101 67 47 107 72 50 75 77 53 81 58 56 87 63 59 93 68 44 99 73 47 105 78 50 111 59 53 79 64 56 85 69 59 91 74 44 97 79 47 103 60 50 109 65 53 77 70 56 83 75 59 89 56 44 95 61 47 101 66 50 107 71 53 75 76 56 81 57 59 87 62 44 93 67 47 99 72 50 105 77 53 111 58 56 79 63 59 85 68 44 91 73 47 97 78 50 103 59 53 109 64 56 77 69 59 83 74 44 89 79 47 95 60 50 101 65 53 107 70 56 75 75 59 81 56 44 87 61 47 93 66 50 99 71 53 105 76 56 111 57 59 79 62 44 85 67 47 91 72 50 97 77 53 103 58 56 109 63 59 77 68 44 83 73 47 89 78 50 95 59 53 101 64 56 107 69 59 75 74 44 81 79 47 87 60 50 93 65 53 99 70 56 105 75 59 111 56 44 79 61 47 85 66 50 91 71 53 97 76 56 103 57 59 109 62 44 77 67 47 83 72 50 89 77 53 95 58 56 101 63 59 107 68 44 75 73 47 81 78 50 87 59 53 93 64 56 99 69 59 105 74 44 111 79 47 79 60 50 85 65 53 91 70 56 97 75 59 103 56 44 109 61 47 77 66 50 83 71 53 89 76 56 95 57 59 101 62 44 107 67 47 75 72 50 81 77 53 87 58 56 93 63 59 99 68 44 105 73 47 111 78 50 79 59 53 85 64 56 91 69 59 97 74 44 103 79 47 109 60 50 77 65 53 83 70 56 89 75 59 95 56 44 101 61 47 107 66 50 75 71 53 81 76 56 87 57 59 93 62 44 99 67 47 105 72 50 111 77 53 79 58 56 85 63 59 91 68 44 97 73 47 103 78 50 109 59 53 77 64 56 83 69 59 89 74 44 95 79 47 101 60 50 107 65 53 75 70 56 81 75 59 87 56 44 93 61 47 99 66 50 105 71 53 111 76 56 79 57 59 85 62 44 91 67 47 97 72 50 103 77 53 109 58 56 77 63 59 83 68 44 89 73 47 95 78 50 101 59 53 107 64 56 75 69 59 81 74 44 87 79 47 93 60 50 99 65 53 105 70 56 111 75 59 79 56 44 85 61 47 91 66 50 97 71 53 103 76 56 109 57 59 77 62 44 83 67 47 89 72 50 95 77 53 101 58 56 107 63 59 75 68 44 81 73 47 87 78 50 93 59 53 99 64 56 105 69 59 111 74 44 79 79 47 85 60 50 91 65 53 97 70 56 103 75 59 109 56 44 77 61 47 83 66 50 89 71 53 95 76 56 101 57 59 107 62 44 75 67 47 81 72 50 87 77 53 93 58 56 99 63 59 105 68 44 111 73 47 79 78 50 85 59 53 91 64 56 97 69 59 103 74 44 109 79 47 77 60 50 83 65 53 89 70 56 95 75 59 101 56 44 107 61 47 75 66 50 81 71 53 87 76 56 93 57 59 99 62 44 105 67 47 111 72 50 79 77 53 85 58 56 91 63 59 97 68 44 103 73 47 109 78 50 77 59 53 83 64 56 89 69 59 95 74 44 101 79 47 107 60 50 75 65 53 81 70 56 87 75 59 93 56 44 99 61 47 105 66 50 111 71 53 79 76 56 85 57 59 91 62 44 97 67 47 103 72 50 109 77 53 77 58 56 83 63 59 89 68 44 95 73 47 101 78 50 107 59 53 75 64 56 81 69 59 87 74 44 93 79 47 99 60 50 105 65 53 111 70 56 79 75 59 85 56 44 91 61 47 97 66 50 103 71 53 109 76 56 77 57 59 83 62 44 89 67 47 95 72 50 101 77 53 107 58 56 75 63 59 81 68 44 87 73 47 93 78 50 99 59 53 105 64 56 111 69 59 79 74 44 85 79 47 91 60 50 97 65 53 103 70 56 109 75 59 77 56 44 83 61 47 89 66 50 95 71 53 101 76 56 107 57 59 75 62 44 81 67 47 87 72 50 93 77 53 99 58 56 105 63 59 111 68 44 79 73 47 85 78 50 91 59 53 97 64 56 103 69 59
94 60 46 100 65 49 106 70 52 74 75 55 80 56 58 86 61 43 92 66 46 98 71 49 104 76 52 110 57 55 78 62 58 84 67 43 90 72 46 96 77 49 102 58 52 108 63 55 76 68 58 82 73 43 88 78 46 94 59 49 100 64 52 106 69 55 74 74 58 80 79 43 86 60 46 92 65 49 98 70 52 104 75 55 110 56 58 78 61 43 84 66 46 90 71 49 96 76 52 102 57 55 108 62 58 76 67 43 82 72 46 88 77 49 94 58 52 100 63 55 106 68 58 74 73 43 80 78 46 86 59 49 92 64 52 98 69 55 104 74 58 110 79 43 78 60 46 84 65 49 90 70 52 96 75 55 102 56 58 108 61 43 76 66 46 82 71 49 88 76 52 94 57 55 100 62 58 106 67 43 74 72 46 80 77 49 86 58 52 92 63 55 98 68 58 104 73 43 110 78 46 78 59 49 84 64 52 90 69 55 96 74 58 102 79 43 108 60 46 76 65 49 82 70 52 88 75 55 94 56 58 100 61 43 106 66 46 74 71 49 80 76 52 86 57 55 92 62 58 98 67 43 104 72 46 110 77 49 78 58 52 84 63 55 90 68 58 96 73 43 102 78 46 108 59 49 76 64 52 82 69 55 88 74 58 94 79 43 100 60 46 106 65 49 74 70 52 80 75 55 86 56 58 92 61 43 98 66 46 104 71 49 110 76 52 78 57 55 84 62 58 90 67 43 96 72 46 102 77 49 108 58 52 76 63 55 82 68 58 88 73 43 94 78 46 100 59 49 106 64 52 74 69 55 80 74 58 86 79 43 92 60 46 98 65 49 104 70 52 110 75 55 78 56 58 84 61 43 90 66 46 96 71 49 102 76 52 108 57 55 76 62 58 82 67 43 88 72 46 94 77 49 100 58 52 106 63 55 74 68 58 80 73 43 86 78 46 92 59 49 98 64 52 104 69 55 110 74 58 78 79 43 84 60 46 90 65 49 96 70 52 102 75 55 108 56 58 76 61 43 82 66 46 88 71 49 94 76 52 100 57 55 106 62 58 74 67 43 80 72 46 86 77 49 92 58 52 98 63 55 104 68 58 110 73 43 78 78 46 84 59 49 90 64 52 96 69 55 102 74 58 108 79 43 76 60 46 82 65 49 88 70 52 94 75 55 100 56 58 106 61 43 74 66 46 80 71 49 86 76 52 92 57 55 98 62 58 104 67 43 110 72 46 78 77 49 84 58 52 90 63 55 96 68 58 102 73 43 108 78 46 76 59 49 82 64 52 88 69 55 94 74 58 100 79 43 106 60 46 74 65 49 80 70 52 86 75 55 92 56 58 98 61 43 104 66 46 110 71 49 78 76 52 84 57 55 90 62 58 96 67 43 102 72 46 108 77 49 76 58 52 82 63 55 88 68 58 94 73 43 100 78 46 106 59 49 74 64 52 80 69 55 86 74 58 92 79 43 98 60 46 104 65 49 110 70 52 78 75 55 84 56 58 90 61 43 96 66 46 102 71 49 108 76 52 76 57 55 82 62 58 88 67 43 94 72 46 100 77 49 106 58 52 74 63 55 80 68 58 86 73 43 92 78 46 98 59 49 104 64 52 110 69 55 78 74 58 84 79 43 90 60 46 96 65 49 102 70 52 108 75 55 76 56 58 82 61 43 88 66 46 94 71 49 100 76 52 106 57 55 74 62 58 80 67 43 86 72 46 92 77 49 98 58 52 104 63 55 110 68 58 78 73 43 84 78 46 90 59 49 96 64 52 102 69 55 108 74 58 76 79 43 82 60 46 88 65 49 94 70 52 100 75 55 106 56 58 74 61 43 80 66 46 86 71 49 92 76 52 98 57 55 104 62 58 110 67 43 78 72 46 84 77 49 90 58 52 96 63 55 102 68 58 108 73 43 76 78 46 82 59 49 88 64 52 94 69 55 100 74 58 106 79 43 74 60 46 80 65 49 86 70 52 92 75 55 98 56 58 104 61 43 110 66 46 78 71 49 84 76 52 90 57 55 96 62 58 102 67 43 108 72 46 76 77 49 82 58 52 88 63 55 94 68 58 100 73 43 106 78 46 74 59 49 80 64 52 86 69 55 92 74 58 98 79 43 104 60 46 110 65 49 78 70 52 84 75 55 90 56 58 96 61 43 102 66 46 108 71 49
99 62 54 105 67 57 111 72 42 79 77 45 85 58 48 91 63 51 97 68 54 103 73 57 109 78 42 77 59 45 83 64 48 89 69 51 95 74 54 101 79 57 107 60 42 75 65 45 81 70 48 87 75 51 93 56 54 99 61 57 105 66 42 111 71 45 79 76 48 85 57 51 91 62 54 97 67 57 103 72 42 109 77 45 77 58 48 83 63 51 89 68 54 95 73 57 101 78 42 107 59 45 75 64 48 81 69 51 87 74 54 93 79 57 99 60 42 105 65 45 111 70 48 79 75 51 85 56 54 91 61 57 97 66 42 103 71 45 109 76 48 77 57 51 83 62 54 89 67 57 95 72 42 101 77 45 107 58 48 75 63 51 81 68 54 87 73 57 93 78 42 99 59 45 105 64 48 111 69 51 79 74 54 85 79 57 91 60 42 97 65 45 103 70 48 109 75 51 77 56 54 83 61 57 89 66 42 95 71 45 101 76 48 107 57 51 75 62 54 81 67 57 87 72 42 93 77 45 99 58 48 105 63 51 111 68 54 79 73 57 85 78 42 91 59 45 97 64 48 103 69 51 109 74 54 77 79 57 83 60 42 89 65 45 95 70 48 101 75 51 107 56 54 75 61 57 81 66 42 87 71 45 93 76 48 99 57 51 105 62 54 111 67 57 79 72 42 85 77 45 91 58 48 97 63 51 103 68 54 109 73 57 77 78 42 83 59 45 89 64 48 95 69 51 101 74 54 107 79 57 75 60 42 81 65 45 87 70 48 93 75 51 99 56 54 105 61 57 111 66 42 79 71 45 85 76 48 91 57 51 97 62 54 103 67 57 109 72 42 77 77 45 83 58 48 89 63 51 95 68 54 101 73 57 107 78 42 75 59 45 81 64 48 87 69 51 93 74 54 99 79 57 105 60 42 111 65 45 79 70 48 85 75 51 91 56 54 97 61 57 103 66 42 109 71 45 77 76 48 83 57 51 89 62 54 95 67 57 101 72 42 107 77 45 75 58 48 81 63 51 87 68 54 93 73 57 99 78 42 105 59 45 111 64 48 79 69 51 85 74 54 91 79 57 97 60 42 103 65 45 109 70 48 77 75 51 83 56 54 89 61 57 95 66 42 101 71 45 107 76 48 75 57 51 81 62 54 87 67 57 93 72 42 99 77 45 105 58 48 111 63 51 79 68 54 85 73 57 91 78 42 97 59 45 103 64 48 109 69 51 77 74 54 83 79 57 89 60 42 95 65 45 101 70 48 107 75 51 75 56 54 81 61 57 87 66 42 93 71 45 99 76 48 105 57 51 111 62 54 79 67 57 85 72 42 91 77 45 97 58 48 103 63 51 109 68 54 77 73 57 83 78 42 89 59 45 95 64 48 101 69 51 107 74 54 75 79 57 81 60 42 87 65 45 93 70 48 99 75 51 105 56 54 111 61 57 79 66 42 85 71 45 91 76 48 97 57 51 103 62 54 109 67 57 77 72 42 83 77 45 89 58 48 95 63 51 101 68 54 107 73 57 75 78 42 81 59 45 87 64 48 93 69 51 99 74 54 105 79 57 111 60 42 79 65 45 85 70 48 91 75 51 97 56 54 103 61 57 109 66 42 77 71 45 83 76 48 89 57 51 95 62 54 101 67 57 107 72 42 75 77 45 81 58 48 87 63 51 93 68 54 99 73 57 105 78 42 111 59 45 79 64 48 85 69 51 91 74 54 97 79 57 103 60 42 109 65 45 77 70 48 83 75 51 89 56 54 95 61 57 101 66 42 107 71 45 75 76 48 81 57 51 87 62 54 93 67 57 99 72 42 105 77 45 111 58 48 79 63 51 85 68 54 91 73 57 97 78 42 103 59 45 109 64 48 77 69 51 83 74 54 89 79 57 95 60 42 101 65 45 107 70 48 75 75 51 81 56 54 87 61 57 93 66 42 99 71 45 105 76 48 111 57 51 79 62 54 85 67 57 91 72 42 97 77 45 103 58 48 109 63 51 77 68 54 83 73 57 89 78 42 95 59 45 101 64 48 107 69 51 75 74 54 81 79 57 87 60 42 93 65 45 99 70 48 105 75 51 111 56 54 79 61 57 85 66 42 91 71 45 97 76 48 103 57 51 109 62 54 77 67 57 83 72 42 89 77 45 95 58 48 101 63 51 107 68 54 75 73 57
104 64 44 110 69 47 78 74 50 84 79 53 90 60 56 96 65 59 102 70 44 108 75 47 76 56 50 82 61 53 88 66 56 94 71 59 100 76 44 106 57 47 74 62 50 80 67 53 86 72 56 92 77 59 98 58 44 104 63 47 110 68 50 78 73 53 84 78 56 90 59 59 96 64 44 102 69 47 108 74 50 76 79 53 82 60 56 88 65 59 94 70 44 100 75 47 106 56 50 74 61 53 80 66 56 86 71 59 92 76 44 98 57 47 104 62 50 110 67 53 78 72 56 84 77 59 90 58 44 96 63 47 102 68 50 108 73 53 76 78 56 82 59 59 88 64 44 94 69 47 100 74 50 106 79 53 74 60 56 80 65 59 86 70 44 92 75 47 98 56 50 104 61 53 110 66 56 78 71 59 84 76 44 90 57 47 96 62 50 102 67 53 108 72 56 76 77 59 82 58 44 88 63 47 94 68 50 100 73 53 106 78 56 74 59 59 80 64 44 86 69 47 92 74 50 98 79 53 104 60 56 110 65 59 78 70 44 84 75 47 90 56 50 96 61 53 102 66 56 108 71 59 76 76 44 82 57 47 88 62 50 94 67 53 100 72 56 106 77 59 74 58 44 80 63 47 86 68 50 92 73 53 98 78 56 104 59 59 110 64 44 78 69 47 84 74 50 90 79 53 96 60 56 102 65 59 108 70 44 76 75 47 82 56 50 88 61 53 94 66 56 100 71 59 106 76 44 74 57 47 80 62 50 86 67 53 92 72 56 98 77 59 104 58 44 110 63 47 78 68 50 84 73 53 90 78 56 96 59 59 102 64 44 108 69 47 76 74 50 82 79 53 88 60 56 94 65 59 100 70 44 106 75 47 74 56 50 80 61 53 86 66 56 92 71 59 98 76 44 104 57 47 110 62 50 78 67 53 84 72 56 90 77 59 96 58 44 102 63 47 108 68 50 76 73 53 82 78 56 88 59 59 94 64 44 100 69 47 106 74 50 74 79 53 80 60 56 86 65 59 92 70 44 98 75 47 104 56 50 110 61 53 78 66 56 84 71 59 90 76 44 96 57 47 102 62 50 108 67 53 76 72 56 82 77 59 88 58 44 94 63 47 100 68 50 106 73 53 74 78 56 80 59 59 86 64 44 92 69 47 98 74 50 104 79 53 110 60 56 78 65 59 84 70 44 90 75 47 96 56 50 102 61 53 108 66 56 76 71 59 82 76 44 88 57 47 94 62 50 100 67 53 106 72 56 74 77 59 80 58 44 86 63 47 92 68 50 98 73 53 104 78 56 110 59 59 78 64 44 84 69 47 90 74 50 96 79 53 102 60 56 108 65 59 76 70 44 82 75 47 88 56 50 94 61 53 100 66 56 106 71 59 74 76 44 80 57 47 86 62 50 92 67 53 98 72 56 104 77 59 110 58 44 78 63 47 84 68 50 90 73 53 96 78 56 102 59 59 108 64 44 76 69 47 82 74 50 88 79 53 94 60 56 100 65 59 106 70 44 74 75 47 80 56 50 86 61 53 92 66 56 98 71 59 104 76 44 110 57 47 78 62 50 84 67 53 90 72 56 96 77 59 102 58 44 108 63 47 76 68 50 82 73 53 88 78 56 94 59 59 100 64 44 106 69 47 74 74 50 80 79 53 86 60 56 92 65 59 98 70 44 104 75 47 110 56 50 78 61 53 84 66 56 90 71 59 96 76 44 102 57 47 108 62 50 76 67 53 82 72 56 88 77 59 94 58 44 100 63 47 106 68 50 74 73 53 80 78 56 86 59 59 92 64 44 98 69 47 104 74 50 110 79 53 78 60 56 84 65 59 90 70 44 96 75 47 102 56 50 108 61 53 76 66 56 82 71 59 88 76 44 94 57 47 100 62 50 106 67 53 74 72 56 80 77 59 86 58 44 92 63 47 98 68 50 104 73 53 110 78 56 78 59 59 84 64 44 90 69 47 96 74 50 102 79 53 108 60 56 76 65 59 82 70 44 88 75 47 94 56 50 100 61 53 106 66 56 74 71 59 80 76 44 86 57 47 92 62 50 98 67 53 104 72 56 110 77 59 78 58 44 84 63 47 90 68 50 96 73 53 102 78 56 108 59 59 76 64 44 82 69 47 88 74 50 94 79 53 100 60 56 106 65 59 74 70 44 80 75 47
109 66 52 77 71 55 83 76 58 89 57 43 95 62 46 101 67 49 107 72 52 75 77 55 81 58 58 87 63 43 93 68 46 99 73 49 105 78 52 111 59 55 79 64 58 85 69 43 91 74 46 97 79 49 103 60 52 109 65 55 77 70 58 83 75 43 89 56 46 95 61 49 101 66 52 107 71 55 75 76 58 81 57 43 87 62 46 93 67 49 99 72 52 105 77 55 111 58 58 79 63 43 85 68 46 91 73 49 97 78 52 103 59 55 109 64 58 77 69 43 83 74 46 89 79 49 95 60 52 101 65 55 107 70 58 75 75 43 81 56 46 87 61 49 93 66 52 99 71 55 105 76 58 111 57 43 79 62 46 85 67 49 91 72 52 97 77 55 103 58 58 109 63 43 77 68 46 83 73 49 89 78 52 95 59 55 101 64 58 107 69 43 75 74 46 81 79 49 87 60 52 93 65 55 99 70 58 105 75 43 111 56 46 79 61 49 85 66 52 91 71 55 97 76 58 103 57 43 109 62 46 77 67 49 83 72 52 89 77 55 95 58 58 101 63 43 107 68 46 75 73 49 81 78 52 87 59 55 93 64 58 99 69 43 105 74 46 111 79 49 79 60 52 85 65 55 91 70 58 97 75 43 103 56 46 109 61 49 77 66 52 83 71 55 89 76 58 95 57 43 101 62 46 107 67 49 75 72 52 81 77 55 87 58 58 93 63 43 99 68 46 105 73 49 111 78 52 79 59 55 85 64 58 91 69 43 97 74 46 103 79 49 109 60 52 77 65 55 83 70 58 89 75 43 95 56 46 101 61 49 107 66 52 75 71 55 81 76 58 87 57 43 93 62 46 99 67 49 105 72 52 111 77 55 79 58 58 85 63 43 91 68 46 97 73 49 103 78 52 109 59 55 77 64 58 83 69 43 89 74 46 95 79 49 101 60 52 107 65 55 75 70 58 81 75 43 87 56 46 93 61 49 99 66 52 105 71 55 111 76 58 79 57 43 85 62 46 91 67 49 97 72 52 103 77 55 109 58 58 77 63 43 83 68 46 89 73 49 95 78 52 101 59 55 107 64 58 75 69 43 81 74 46 87 79 49 93 60 52 99 65 55 105 70 58 111 75 43 79 56 46 85 61 49 91 66 52 97 71 55 103 76 58 109 57 43 77 62 46 83 67 49 89 72 52 95 77 55 101 58 58 107 63 43 75 68 46 81 73 49 87 78 52 93 59 55 99 64 58 105 69 43 111 74 46 79 79 49 85 60 52 91 65 55 97 70 58 103 75 43 109 56 46 77 61 49 83 66 52 89 71 55 95 76 58 101 57 43 107 62 46 75 67 49 81 72 52 87 77 55 93 58 58 99 63 43 105 68 46 111 73 49 79 78 52 85 59 55 91 64 58 97 69 43 103 74 46 109 79 49 77 60 52 83 65 55 89 70 58 95 75 43 101 56 46 107 61 49 75 66 52 81 71 55 87 76 58 93 57 43 99 62 46 105 67 49 111 72 52 79 77 55 85 58 58 91 63 43 97 68 46 103 73 49 109 78 52 77 59 55 83 64 58 89 69 43 95 74 46 101 79 49 107 60 52 75 65 55 81 70 58 87 75 43 93 56 46 99 61 49 105 66 52 111 71 55 79 76 58 85 57 43 91 62 46 97 67 49 103 72 52 109 77 55 77 58 58 83 63 43 89 68 46 95 73 49 101 78 52 107 59 55 75 64 58 81 69 43 87 74 46 93 79 49 99 60 52 105 65 55 111 70 58 79 75 43 85 56 46 91 61 49 97 66 52 103 71 55 109 76 58 77 57 43 83 62 46 89 67 49 95 72 52 101 77 55 107 58 58 75 63 43 81 68 46 87 73 49 93 78 52 99 59 55 105 64 58 111 69 43 79 74 46 85 79 49 91 60 52 97 65 55 103 70 58 109 75 43 77 56 46 83 61 49 89 66 52 95 71 55 101 76 58 107 57 43 75 62 46 81 67 49 87 72 52 93 77 55 99 58 58 105 63 43 111 68 46 79 73 49 85 78 52 91 59 55 97 64 58 103 69 43 109 74 46 77 79 49 83 60 52 89 65 55 95 70 58 101 75 43 107 56 46 75 61 49 81 66 52 87 71 55 93 76 58 99 57 43 105 62 46 111 67 49 79 72 52 85 77 55
76 68 42 82 73 45 88 78 48 94 59 51 100 64 54 106 69 57 74 74 42 80 79 45 86 60 48 92 65 51 98 70 54 104 75 57 110 56 42 78 61 45 84 66 48 90 71 51 96 76 54 102 57 57 108 62 42 76 67 45 82 72 48 88 77 51 94 58 54 100 63 57 106 68 42 74 73 45 80 78 48 86 59 51 92 64 54 98 69 57 104 74 42 110 79 45 78 60 48 84 65 51 90 70 54 96 75 57 102 56 42 108 61 45 76 66 48 82 71 51 88 76 54 94 57 57 100 62 42 106 67 45 74 72 48 80 77 51 86 58 54 92 63 57 98 68 42 104 73 45 110 78 48 78 59 51 84 64 54 90 69 57 96 74 42 102 79 45 108 60 48 76 65 51 82 70 54 88 75 57 94 56 42 100 61 45 106 66 48 74 71 51 80 76 54 86 57 57 92 62 42 98 67 45 104 72 48 110 77 51 78 58 54 84 63 57 90 68 42 96 73 45 102 78 48 108 59 51 76 64 54 82 69 57 88 74 42 94 79 45 100 60 48 106 65 51 74 70 54 80 75 57 86 56 42 92 61 45 98 66 48 104 71 51 110 76 54 78 57 57 84 62 42 90 67 45 96 72 48 102 77 51 108 58 54 76 63 57 82 68 42 88 73 45 94 78 48 100 59 51 106 64 54 74 69 57 80 74 42 86 79 45 92 60 48 98 65 51 104 70 54 110 75 57 78 56 42 84 61 45 90 66 48 96 71 51 102 76 54 108 57 57 76 62 42 82 67 45 88 72 48 94 77 51 100 58 54 106 63 57 74 68 42 80 73 45 86 78 48 92 59 51 98 64 54 104 69 57 110 74 42 78 79 45 84 60 48 90 65 51 96 70 54 102 75 57 108 56 42 76 61 45 82 66 48 88 71 51 94 76 54 100 57 57 106 62 42 74 67 45 80 72 48 86 77 51 92 58 54 98 63 57 104 68 42 110 73 45 78 78 48 84 59 51 90 64 54 96 69 57 102 74 42 108 79 45 76 60 48 82 65 51 88 70 54 94 75 57 100 56 42 106 61 45 74 66 48 80 71 51 86 76 54 92 57 57 98 62 42 104 67 45 110 72 48 78 77 51 84 58 54 90 63 57 96 68 42 102 73 45 108 78 48 76 59 51 82 64 54 88 69 57 94 74 42 100 79 45 106 60 48 74 65 51 80 70 54 86 75 57 92 56 42 98 61 45 104 66 48 110 71 51 78 76 54 84 57 57 90 62 42 96 67 45 102 72 48 108 77 51 76 58 54 82 63 57 88 68 42 94 73 45 100 78 48 106 59 51 74 64 54 80 69 57 86 74 42 92 79 45 98 60 48 104 65 51 110 70 54 78 75 57 84 56 42 90 61 45 96 66 48 102 71 51 108 76 54 76 57 57 82 62 42 88 67 45 94 72 48 100 77 51 106 58 54 74 63 57 80 68 42 86 73 45 92 78 48 98 59 51 104 64 54 110 69 57 78 74 42 84 79 45 90 60 48 96 65 51 102 70 54 108 75 57 76 56 42 82 61 45 88 66 48 94 71 51 100 76 54 106 57 57 74 62 42 80 67 45 86 72 48 92 77 51 98 58 54 104 63 57 110 68 42 78 73 45 84 78 48 90 59 51 96 64 54 102 69 57 108 74 42 76 79 45 82 60 48 88 65 51 94 70 54 100 75 57 106 56 42 74 61 45 80 66 48 86 71 51 92 76 54 98 57 57 104 62 42 110 67 45 78 72 48 84 77 51 90 58 54 96 63 57 102 68 42 108 73 45 76 78 48 82 59 51 88 64 54 94 69 57 100 74 42 106 79 45 74 60 48 80 65 51 86 70 54 92 75 57 98 56 42 104 61 45 110 66 48 78 71 51 84 76 54 90 57 57 96 62 42 102 67 45 108 72 48 76 77 51 82 58 54 88 63 57 94 68 42 100 73 45 106 78 48 74 59 51 80 64 54 86 69 57 92 74 42 98 79 45 104 60 48 110 65 51 78 70 54 84 75 57 90 56 42 96 61 45 102 66 48 108 71 51 76 76 54 82 57 57 88 62 42 94 67 45 100 72 48 106 77 51 74 58 54 80 63 57 86 68 42 92 73 45 98 78 48 104 59 51 110 64 54 78 69 57 84 74 42 90 79 45
81 70 50 87 75 53 93 56 56 99 61 59 105 66 44 111 71 47 79 76 50 85 57 53 91 62 56 97 67 59 103 72 44 109 77 47 77 58 50 83 63 53 89 68 56 95 73 59 101 78 44 107 59 47 75 64 50 81 69 53 87 74 56 93 79 59 99 60 44 105 65 47 111 70 50 79 75 53 85 56 56 91 61 59 97 66 44 103 71 47 109 76 50 77 57 53 83 62 56 89 67 59 95 72 44 101 77 47 107 58 50 75 63 53 81 68 56 87 73 59 93 78 44 99 59 47 105 64 50 111 69 53 79 74 56 85 79 59 91 60 44 97 65 47 103 70 50 109 75 53 77 56 56 83 61 59 89 66 44 95 71 47 101 76 50 107 57 53 75 62 56 81 67 59 87 72 44 93 77 47 99 58 50 105 63 53 111 68 56 79 73 59 85 78 44 91 59 47 97 64 50 103 69 53 109 74 56 77 79 59 83 60 44 89 65 47 95 70 50 101 75 53 107 56 56 75 61 59 81 66 44 87 71 47 93 76 50 99 57 53 105 62 56 111 67 59 79 72 44 85 77 47 91 58 50 97 63 53 103 68 56 109 73 59 77 78 44 83 59 47 89 64 50 95 69 53 101 74 56 107 79 59 75 60 44 81 65 47 87 70 50 93 75 53 99 56 56 105 61 59 111 66 44 79 71 47 85 76 50 91 57 53 97 62 56 103 67 59 109 72 44 77 77 47 83 58 50 89 63 53 95 68 56 101 73 59 107 78 44 75 59 47 81 64 50 87 69 53 93 74 56 99 79 59 105 60 44 111 65 47 79 70 50 85 75 53 91 56 56 97 61 59 103 66 44 109 71 47 77 76 50 83 57 53 89 62 56 95 67 59 101 72 44 107 77 47 75 58 50 81 63 53 87 68 56 93 73 59 99 78 44 105 59 47 111 64 50 79 69 53 85 74 56 91 79 59 97 60 44 103 65 47 109 70 50 77 75 53 83 56 56 89 61 59 95 66 44 101 71 47 107 76 50 75 57 53 81 62 56 87 67 59 93 72 44 99 77 47 105 58 50 111 63 53 79 68 56 85 73 59 91 78 44 97 59 47 103 64 50 109 69 53 77 74 56 83 79 59 89 60 44 95 65 47 101 70 50 107 75 53 75 56 56 81 61 59 87 66 44 93 71 47 99 76 50 105 57 53 111 62 56 79 67 59 85 72 44 91 77 47 97 58 50 103 63 53 109 68 56 77 73 59 83 78 44 89 59 47 95 64 50 101 69 53 107 74 56 75 79 59 81 60 44 87 65 47 93 70 50 99 75 53 105 56 56 111 61 59 79 66 44 85 71 47 91 76 50 97 57 53 103 62 56 109 67 59 77 72 44 83 77 47 89 58 50 95 63 53 101 68 56 107 73 59 75 78 44 81 59 47 87 64 50 93 69 53 99 74 56 105 79 59 111 60 44 79 65 47 85 70 50 91 75 53 97 56 56 103 61 59 109 66 44 77 71 47 83 76 50 89 57 53 95 62 56 101 67 59 107 72 44 75 77 47 81 58 50 87 63 53 93 68 56 99 73 59 105 78 44 111 59 47 79 64 50 85 69 53 91 74 56 97 79 59 103 60 44 109 65 47 77 70 50 83 75 53 89 56 56 95 61 59 101 66 44 107 71 47 75 76 50 81 57 53 87 62 56 93 67 59 99 72 44 105 77 47 111 58 50 79 63 53 85 68 56 91 73 59 97 78 44 103 59 47 109 64 50 77 69 53 83 74 56 89 79 59 95 60 44 101 65 47 107 70 50 75 75 53 81 56 56 87 61 59 93 66 44 99 71 47 105 76 50 111 57 53 79 62 56 85 67 59 91 72 44 97 77 47 103 58 50 109 63 53 77 68 56 83 73 59 89 78 44 95 59 47 101 64 50 107 69 53 75 74 56 81 79 59 87 60 44 93 65 47 99 70 50 105 75 53 111 56 56 79 61 59 85 66 44 91 71 47 97 76 50 103 57 53 109 62 56 77 67 59 83 72 44 89 77 47 95 58 50 101 63 53 107 68 56 75 73 59 81 78 44 87 59 47 93 64 50 99 69 53 105 74 56 111 79 59 79 60 44 85 65 47 91 70 50 97 75 53 103 56 56 109 61 59 77 66 44 83 71 47 89 76 50 95 57 53
86 72 58 92 77 43 98 58 46 104 63 49 110 68 52 78 73 55 84 78 58 90 59 43 96 64 46 102 69 49 108 74 52 76 79 55 82 60 58 88 65 43 94 70 46 100 75 49 106 56 52 74 61 55 80 66 58 86 71 43 92 76 46 98 57 49 104 62 52 110 67 55 78 72 58 84 77 43 90 58 46 96 63 49 102 68 52 108 73 55 76 78 58 82 59 43 88 64 46 94 69 49 100 74 52 106 79 55 74 60 58 80 65 43 86 70 46 92 75 49 98 56 52 104 61 55 110 66 58 78 71 43 84 76 46 90 57 49 96 62 52 102 67 55 108 72 58 76 77 43 82 58 46 88 63 49 94 68 52 100 73 55 106 78 58 74 59 43 80 64 46 86 69 49 92 74 52 98 79 55 104 60 58 110 65 43 78 70 46 84 75 49 90 56 52 96 61 55 102 66 58 108 71 43 76 76 46 82 57 49 88 62 52 94 67 55 100 72 58 106 77 43 74 58 46 80 63 49 86 68 52 92 73 55 98 78 58 104 59 43 110 64 46 78 69 49 84 74 52 90 79 55 96 60 58 102 65 43 108 70 46 76 75 49 82 56 52 88 61 55 94 66 58 100 71 43 106 76 46 74 57 49 80 62 52 86 67 55 92 72 58 98 77 43 104 58 46 110 63 49 78 68 52 84 73 55 90 78 58 96 59 43 102 64 46 108 69 49 76 74 52 82 79 55 88 60 58 94 65 43 100 70 46 106 75 49 74 56 52 80 61 55 86 66 58 92 71 43 98 76 46 104 57 49 110 62 52 78 67 55 84 72 58 90 77 43 96 58 46 102 63 49 108 68 52 76 73 55 82 78 58 88 59 43 94 64 46 100 69 49 106 74 52 74 79 55 80 60 58 86 65 43 92 70 46 98 75 49 104 56 52 110 61 55 78 66 58 84 71 43 90 76 46 96 57 49 102 62 52 108 67 55 76 72 58 82 77 43 88 58 46 94 63 49 100 68 52 106 73 55 74 78 58 80 59 43 86 64 46 92 69 49 98 74 52 104 79 55 110 60 58 78 65 43 84 70 46 90 75 49 96 56 52 102 61 55 108 66 58 76 71 43 82 76 46 88 57 49 94 62 52 100 67 55 106 72 58 74 77 43 80 58 46 86 63 49 92 68 52 98 73 55 104 78 58 110 59 43 78 64 46 84 69 49 90 74 52 96 79 55 102 60 58 108 65 43 76 70 46 82 75 49 88 56 52 94 61 55 100 66 58 106 71 43 74 76 46 80 57 49 86 62 52 92 67 55 98 72 58 104 77 43 110 58 46 78 63 49 84 68 52 90 73 55 96 78 58 102 59 43 108 64 46 76 69 49 82 74 52 88 79 55 94 60 58 100 65 43 106 70 46 74 75 49 80 56 52 86 61 55 92 66 58 98 71 43 104 76 46 110 57 49 78 62 52 84 67 55 90 72 58 96 77 43 102 58 46 108 63 49 76 68 52 82 73 55 88 78 58 94 59 43 100 64 46 106 69 49 74 74 52 80 79 55 86 60 58 92 65 43 98 70 46 104 75 49 110 56 52 78 61 55 84 66 58 90 71 43 96 76 46 102 57 49 108 62 52 76 67 55 82 72 58 88 77 43 94 58 46 100 63 49 106 68 52 74 73 55 80 78 58 86 59 43 92 64 46 98 69 49 104 74 52 110 79 55 78 60 58 84 65 43 90 70 46 96 75 49 102 56 52 108 61 55 76 66 58 82 71 43 88 76 46 94 57 49 100 62 52 106 67 55 74 72 58 80 77 43 86 58 46 92 63 49 98 68 52 104 73 55 110 78 58 78 59 43 84 64 46 90 69 49 96 74 52 102 79 55 108 60 58 76 65 43 82 70 46 88 75 49 94 56 52 100 61 55 106 66 58 74 71 43 80 76 46 86 57 49 92 62 52 98 67 55 104 72 58 110 77 43 78 58 46 84 63 49 90 68 52 96 73 55 102 78 58 108 59 43 76 64 46 82 69 49 88 74 52 94 79 55 100 60 58 106 65 43 74 70 46 80 75 49 86 56 52 92 61 55 98 66 58 104 71 43 110 76 46 78 57 49 84 62 52 90 67 55 96 72 58 102 77 43 108 58 46 76 63 49 82 68 52 88 73 55 94 78 58 100 59 43
91 74 48 97 79 51 103 60 54 109 65 57 77 70 42 83 75 45 89 56 48 95 61 51 101 66 54 107 71 57 75 76 42 81 57 45 87 62 48 93 67 51 99 72 54 105 77 57 111 58 42 79 63 45 85 68 48 91 73 51 97 78 54 103 59 57 109 64 42 77 69 45 83 74 48 89 79 51 95 60 54 101 65 57 107 70 42 75 75 45 81 56 48 87 61 51 93 66 54 99 71 57 105 76 42 111 57 45 79 62 48 85 67 51 91 72 54 97 77 57 103 58 42 109 63 45 77 68 48 83 73 51 89 78 54 95 59 57 101 64 42 107 69 45 75 74 48 81 79 51 87 60 54 93 65 57 99 70 42 105 75 45 111 56 48 79 61 51 85 66 54 91 71 57 97 76 42 103 57 45 109 62 48 77 67 51 83 72 54 89 77 57 95 58 42 101 63 45 107 68 48 75 73 51 81 78 54 87 59 57 93 64 42 99 69 45 105 74 48 111 79 51 79 60 54 85 65 57 91 70 42 97 75 45 103 56 48 109 61 51 77 66 54 83 71 57 89 76 42 95 57 45 101 62 48 107 67 51 75 72 54 81 77 57 87 58 42 93 63 45 99 68 48 105 73 51 111 78 54 79 59 57 85 64 42 91 69 45 97 74 48 103 79 51 109 60 54 77 65 57 83 70 42 89 75 45 95 56 48 101 61 51 107 66 54 75 71 57 81 76 42 87 57 45 93 62 48 99 67 51 105 72 54 111 77 57 79 58 42 85 63 45 91 68 48 97 73 51 103 78 54 109 59 57 77 64 42 83 69 45 89 74 48 95 79 51 101 60 54 107 65 57 75 70 42 81 75 45 87 56 48 93 61 51 99 66 54 105 71 57 111 76 42 79 57 45 85 62 48 91 67 51 97 72 54 103 77 57 109 58 42 77 63 45 83 68 48 89 73 51 95 78 54 101 59 57 107 64 42 75 69 45 81 74 48 87 79 51 93 60 54 99 65 57 105 70 42 111 75 45 79 56 48 85 61 51 91 66 54 97 71 57 103 76 42 109 57 45 77 62 48 83 67 51 89 72 54 95 77 57 101 58 42 107 63 45 75 68 48 81 73 51 87 78 54 93 59 57 99 64 42 105 69 45 111 74 48 79 79 51 85 60 54 91 65 57 97 70 42 103 75 45 109 56 48 77 61 51 83 66 54 89 71 57 95 76 42 101 57 45 107 62 48 75 67 51 81 72 54 87 77 57 93 58 42 99 63 45 105 68 48 111 73 51 79 78 54 85 59 57 91 64 42 97 69 45 103 74 48 109 79 51 77 60 54 83 65 57 89 70 42 95 75 45 101 56 48 107 61 51 75 66 54 81 71 57 87 76 42 93 57 45 99 62 48 105 67 51 111 72 54 79 77 57 85 58 42 91 63 45 97 68 48 103 73 51 109 78 54 77 59 57 83 64 42 89 69 45 95 74 48 101 79 51 107 60 54 75 65 57 81 70 42 87 75 45 93 56 48 99 61 51 105 66 54 111 71 57 79 76 42 85 57 45 91 62 48 97 67 51 103 72 54 109 77 57 77 58 42 83 63 45 89 68 48 95 73 51 101 78 54 107 59 57 75 64 42 81 69 45 87 74 48 93 79 51 99 60 54 105 65 57 111 70 42 79 75 45 85 56 48 91 61 51 97 66 54 103 71 57 109 76 42 77 57 45 83 62 48 89 67 51 95 72 54 101 77 57 107 58 42 75 63 45 81 68 48 87 73 51 93 78 54 99 59 57 105 64 42 111 69 45 79 74 48 85 79 51 91 60 54 97 65 57 103 70 42 109 75 45 77 56 48 83 61 51 89 66 54 95 71 57 101 76 42 107 57 45 75 62 48 81 67 51 87 72 54 93 77 57 99 58 42 105 63 45 111 68 48 79 73 51 85 78 54 91 59 57 97 64 42 103 69 45 109 74 48 77 79 51 83 60 54 89 65 57 95 70 42 101 75 45 107 56 48 75 61 51 81 66 54 87 71 57 93 76 42 99 57 45 105 62 48 111 67 51 79 72 54 85 77 57 91 58 42 97 63 45 103 68 48 109 73 51 77 78 54 83 59 57 89 64 42 95 69 45 101 74 48 107 79 51 75 60 54 81 65 57 87 70 42 93 75 45 99 56 48 105 61 51
96 76 56 102 57 59 108 62 44 76 67 47 82 72 50 88 77 53 94 58 56 100 63 59 106 68 44 74 73 47 80 78 50 86 59 53 92 64 56 98 69 59 104 74 44 110 79 47 78 60 50 84 65 53 90 70 56 96 75 59 102 56 44 108 61 47 76 66 50 82 71 53 88 76 56 94 57 59 100 62 44 106 67 47 74 72 50 80 77 53 86 58 56 92 63 59 98 68 44 104 73 47 110 78 50 78 59 53 84 64 56 90 69 59 96 74 44 102 79 47 108 60 50 76 65 53 82 70 56 88 75 59 94 56 44 100 61 47 106 66 50 74 71 53 80 76 56 86 57 59 92 62 44 98 67 47 104 72 50 110 77 53 78 58 56 84 63 59 90 68 44 96 73 47 102 78 50 108 59 53 76 64 56 82 69 59 88 74 44 94 79 47 100 60 50 106 65 53 74 70 56 80 75 59 86 56 44 92 61 47 98 66 50 104 71 53 110 76 56 78 57 59 84 62 44 90 67 47 96 72 50 102 77 53 108 58 56 76 63 59 82 68 44 88 73 47 94 78 50 100 59 53 106 64 56 74 69 59 80 74 44 86 79 47 92 60 50 98 65 53 104 70 56 110 75 59 78 56 44 84 61 47 90 66 50 96 71 53 102 76 56 108 57 59 76 62 44 82 67 47 88 72 50 94 77 53 100 58 56 106 63 59 74 68 44 80 73 47 86 78 50 92 59 53 98 64 56 104 69 59 110 74 44 78 79 47 84 60 50 90 65 53 96 70 56 102 75 59 108 56 44 76 61 47 82 66 50 88 71 53 94 76 56 100 57 59 106 62 44 74 67 47 80 72 50 86 77 53 92 58 56 98 63 59 104 68 44 110 73 47 78 78 50 84 59 53 90 64 56 96 69 59 102 74 44 108 79 47 76 60 50 82 65 53 88 70 56 94 75 59 100 56 44 106 61 47 74 66 50 80 71 53 86 76 56 92 57 59 98 62 44 104 67 47 110 72 50 78 77 53 84 58 56 90 63 59 96 68 44 102 73 47 108 78 50 76 59 53 82 64 56 88 69 59 94 74 44 100 79 47 106 60 50 74 65 53 80 70 56 86 75 59 92 56 44 98 61 47 104 66 50 110 71 53 78 76 56 84 57 59 90 62 44 96 67 47 102 72 50 108 77 53 76 58 56 82 63 59 88 68 44 94 73 47 100 78 50 106 59 53 74 64 56 80 69 59 86 74 44 92 79 47 98 60 50 104 65 53 110 70 56 78 75 59 84 56 44 90 61 47 96 66 50 102 71 53 108 76 56 76 57 59 82 62 44 88 67 47 94 72 50 100 77 53 106 58 56 74 63 59 80 68 44 86 73 47 92 78 50 98 59 53 104 64 56 110 69 59 78 74 44 84 79 47 90 60 50 96 65 53 102 70 56 108 75 59 76 56 44 82 61 47 88 66 50 94 71 53 100 76 56 106 57 59 74 62 44 80 67 47 86 72 50 92 77 53 98 58 56 104 63 59 110 68 44 78 73 47 84 78 50 90 59 53 96 64 56 102 69 59 108 74 44 76 79 47 82 60 50 88 65 53 94 70 56 100 75 59 106 56 44 74 61 47 80 66 50 86 71 53 92 76 56 98 57 59 104 62 44 110 67 47 78 72 50 84 77 53 90 58 56 96 63 59 102 68 44 108 73 47 76 78 50 82 59 53 88 64 56 94 69 59 100 74 44 106 79 47 74 60 50 80 65 53 86 70 56 92 75 59 98 56 44 104 61 47 110 66 50 78 71 53 84 76 56 90 57 59 96 62 44 102 67 47 108 72 50 76 77 53 82 58 56 88 63 59 94 68 44 100 73 47 106 78 50 74 59 53 80 64 56 86 69 59 92 74 44 98 79 47 104 60 50 110 65 53 78 70 56 84 75 59 90 56 44 96 61 47 102 66 50 108 71 53 76 76 56 82 57 59 88 62 44 94 67 47 100 72 50 106 77 53 74 58 56 80 63 59 86 68 44 92 73 47 98 78 50 104 59 53 110 64 56 78 69 59 84 74 44 90 79 47 96 60 50 102 65 53 108 70 56 76 75 59 82 56 44 88 61 47 94 66 50 100 71 53 106 76 56 74 57 59 80 62 44 86 67 47 92 72 50 98 77 53 104 58 56 110 63 59
101 78 46 107 59 49 75 64 52 81 69 55 87 74 58 93 79 43 99 60 46 105 65 49 111 70 52 79 75 55 85 56 58 91 61 43 97 66 46 103 71 49 109 76 52 77 57 55 83 62 58 89 67 43 95 72 46 101 77 49 107 58 52 75 63 55 81 68 58 87 73 43 93 78 46 99 59 49 105 64 52 111 69 55 79 74 58 85 79 43 91 60 46 97 65 49 103 70 52 109 75 55 77 56 58 83 61 43 89 66 46 95 71 49 101 76 52 107 57 55 75 62 58 81 67 43 87 72 46 93 77 49 99 58 52 105 63 55 111 68 58 79 73 43 85 78 46 91 59 49 97 64 52 103 69 55 109 74 58 77 79 43 83 60 46 89 65 49 95 70 52 101 75 55 107 56 58 75 61 43 81 66 46 87 71 49 93 76 52 99 57 55 105 62 58 111 67 43 79 72 46 85 77 49 91 58 52 97 63 55 103 68 58 109 73 43 77 78 46 83 59 49 89 64 52 95 69 55 101 74 58 107 79 43 75 60 46 81 65 49 87 70 52 93 75 55 99 56 58 105 61 43 111 66 46 79 71 49 85 76 52 91 57 55 97 62 58 103 67 43 109 72 46 77 77 49 83 58 52 89 63 55 95 68 58 101 73 43 107 78 46 75 59 49 81 64 52 87 69 55 93 74 58 99 79 43 105 60 46 111 65 49 79 70 52 85 75 55 91 56 58 97 61 43 103 66 46 109 71 49 77 76 52 83 57 55 89 62 58 95 67 43 101 72 46 107 77 49 75 58 52 81 63 55 87 68 58 93 73 43 99 78 46 105 59 49 111 64 52 79 69 55 85 74 58 91 79 43 97 60 46 103 65 49 109 70 52 77 75 55 83 56 58 89 61 43 95 66 46 101 71 49 107 76 52 75 57 55 81 62 58 87 67 43 93 72 46 99 77 49 105 58 52 111 63 55 79 68 58 85 73 43 91 78 46 97 59 49 103 64 52 109 69 55 77 74 58 83 79 43 89 60 46 95 65 49 101 70 52 107 75 55 75 56 58 81 61 43 87 66 46 93 71 49 99 76 52 105 57 55 111 62 58 79 67 43 85 72 46 91 77 49 97 58 52 103 63 55 109 68 58 77 73 43 83 78 46 89 59 49 95 64 52 101 69 55 107 74 58 75 79 43 81 60 46 87 65 49 93 70 52 99 75 55 105 56 58 111 61 43 79 66 46 85 71 49 91 76 52 97 57 55 103 62 58 109 67 43 77 72 46 83 77 49 89 58 52 95 63 55 101 68 58 107 73 43 75 78 46 81 59 49 87 64 52 93 69 55 99 74 58 105 79 43 111 60 46 79 65 49 85 70 52 91 75 55 97 56 58 103 61 43 109 66 46 77 71 49 83 76 52 89 57 55 95 62 58 101 67 43 107 72 46 75 77 49 81 58 52 87 63 55 93 68 58 99 73 43 105 78 46 111 59 49 79 64 52 85 69 55 91 74 58 97 79 43 103 60 46 109 65 49 77 70 52 83 75 55 89 56 58 95 61 43 101 66 46 107 71 49 75 76 52 81 57 55 87 62 58 93 67 43 99 72 46 105 77 49 111 58 52 79 63 55 85 68 58 91 73 43 97 78 46 103 59 49 109 64 52 77 69 55 83 74 58 89 79 43 95 60 46 101 65 49 107 70 52 75 75 55 81 56 58 87 61 43 93 66 46 99 71 49 105 76 52 111 57 55 79 62 58 85 67 43 91 72 46 97 77 49 103 58 52 109 63 55 77 68 58 83 73 43 89 78 46 95 59 49 101 64 52 107 69 55 75 74 58 81 79 43 87 60 46 93 65 49 99 70 52 105 75 55 111 56 58 79 61 43 85 66 46 91 71 49 97 76 52 103 57 55 109 62 58 77 67 43 83 72 46 89 77 49 95 58 52 101 63 55 107 68 58 75 73 43 81 78 46 87 59 49 93 64 52 99 69 55 105 74 58 111 79 43 79 60 46 85 65 49 91 70 52 97 75 55 103 56 58 109 61 43 77 66 46 83 71 49 89 76 52 95 57 55 101 62 58 107 67 43 75 72 46 81 77 49 87 58 52 93 63 55 99 68 58 105 73 43 111 78 46 79 59 49 85 64 52 91 69 55 97 74 58 103 79 43 109 60 46 77 65 49
106 56 54 74 61 57 80 66 42 86 71 45 92 76 48 98 57 51 104 62 54 110 67 57 78 72 42 84 77 45 90 58 48 96 63 51 102 68 54 108 73 57 76 78 42 82 59 45 88 64 48 94 69 51 100 74 54 106 79 57 74 60 42 80 65 45 86 70 48 92 75 51 98 56 54 104 61 57 110 66 42 78 71 45 84 76 48 90 57 51 96 62 54 102 67 57 108 72 42 76 77 45 82 58 48 88 63 51 94 68 54 100 73 57 106 78 42 74 59 45 80 64 48 86 69 51 92 74 54 98 79 57 104 60 42 110 65 45 78 70 48 84 75 51 90 56 54 96 61 57 102 66 42 108 71 45 76 76 48 82 57 51 88 62 54 94 67 57 100 72 42 106 77 45 74 58 48 80 63 51 86 68 54 92 73 57 98 78 42 104 59 45 110 64 48 78 69 51 84 74 54 90 79 57 96 60 42 102 65 45 108 70 48 76 75 51 82 56 54 88 61 57 94 66 42 100 71 45 106 76 48 74 57 51 80 62 54 86 67 57 92 72 42 98 77 45 104 58 48 110 63 51 78 68 54 84 73 57 90 78 42 96 59 45 102 64 48 108 69 51 76 74 54 82 79 57 88 60 42 94 65 45 100 70 48 106 75 51 74 56 54 80 61 57 86 66 42 92 71 45 98 76 48 104 57 51 110 62 54 78 67 57 84 72 42 90 77 45 96 58 48 102 63 51 108 68 54 76 73 57 82 78 42 88 59 45 94 64 48 100 69 51 106 74 54 74 79 57 80 60 42 86 65 45 92 70 48 98 75 51 104 56 54 110 61 57 78 66 42 84 71 45 90 76 48 96 57 51 102 62 54 108 67 57 76 72 42 82 77 45 88 58 48 94 63 51 100 68 54 106 73 57 74 78 42 80 59 45 86 64 48 92 69 51 98 74 54 104 79 57 110 60 42 78 65 45 84 70 48 90 75 51 96 56 54 102 61 57 108 66 42 76 71 45 82 76 48 88 57 51 94 62 54 100 67 57 106 72 42 74 77 45 80 58 48 86 63 51 92 68 54 98 73 57 104 78 42 110 59 45 78 64 48 84 69 51 90 74 54 96 79 57 102 60 42 108 65 45 76 70 48 82 75 51 88 56 54 94 61 57 100 66 42 106 71 45 74 76 48 80 57 51 86 62 54 92 67 57 98 72 42 104 77 45 110 58 48 78 63 51 84 68 54 90 73 57 96 78 42 102 59 45 108 64 48 76 69 51 82 74 54 88 79 57 94 60 42 100 65 45 106 70 48 74 75 51 80 56 54 86 61 57 92 66 42 98 71 45 104 76 48 110 57 51 78 62 54 84 67 57 90 72 42 96 77 45 102 58 48 108 63 51 76 68 54 82 73 57 88 78 42 94 59 45 100 64 48 106 69 51 74 74 54 80 79 57 86 60 42 92 65 45 98 70 48 104 75 51 110 56 54 78 61 57 84 66 42 90 71 45 96 76 48 102 57 51 108 62 54 76 67 57 82 72 42 88 77 45 94 58 48 100 63 51 106 68 54 74 73 57 80 78 42 86 59 45 92 64 48 98 69 51 104 74 54 110 79 57 78 60 42 84 65 45 90 70 48 96 75 51 102 56 54 108 61 57 76 66 42 82 71 45 88 76 48 94 57 51 100 62 54 106 67 57 74 72 42 80 77 45 86 58 48 92 63 51 98 68 54 104 73 57 110 78 42 78 59 45 84 64 48 90 69 51 96 74 54 102 79 57 108 60 42 76 65 45 82 70 48 88 75 51 94 56 54 100 61 57 106 66 42 74 71 45 80 76 48 86 57 51 92 62 54 98 67 57 104 72 42 110 77 45 78 58 48 84 63 51 90 68 54 96 73 57 102 78 42 108 59 45 76 64 48 82 69 51 88 74 54 94 79 57 100 60 42 106 65 45 74 70 48 80 75 51 86 56 54 92 61 57 98 66 42 104 71 45 110 76 48 78 57 51 84 62 54 90 67 57 96 72 42 102 77 45 108 58 48 76 63 51 82 68 54 88 73 57 94 78 42 100 59 45 106 64 48 74 69 51 80 74 54 86 79 57 92 60 42 98 65 45 104 70 48 110 75 51 78 56 54 84 61 57 90 66 42 96 71 45 102 76 48 108 57 51 76 62 54 82 67 57
111 58 44 79 63 47 85 68 50 91 73 53 97 78 56 103 59 59 109 64 44 77 69 47 83 74 50 89 79 53 95 60 56 101 65 59 107 70 44 75 75 47 81 56 50 87 61 53 93 66 56 99 71 59 105 76 44 111 57 47 79 62 50 85 67 53 91 72 56 97 77 59 103 58 44 109 63 47 77 68 50 83 73 53 89 78 56 95 59 59 101 64 44 107 69 47 75 74 50 81 79 53 87 60 56 93 65 59 99 70 44 105 75 47 111 56 50 79 61 53 85 66 56 91 71 59 97 76 44 103 57 47 109 62 50 77 67 53 83 72 56 89 77 59 95 58 44 101 63 47 107 68 50 75 73 53 81 78 56 87 59 59 93 64 44 99 69 47 105 74 50 111 79 53 79 60 56 85 65 59 91 70 44 97 75 47 103 56 50 109 61 53 77 66 56 83 71 59 89 76 44 95 57 47 101 62 50 107 67 53 75 72 56 81 77 59 87 58 44 93 63 47 99 68 50 105 73 53 111 78 56 79 59 59 85 64 44 91 69 47 97 74 50 103 79 53 109 60 56 77 65 59 83 70 44 89 75 47 95 56 50 101 61 53 107 66 56 75 71 59 81 76 44 87 57 47 93 62 50 99 67 53 105 72 56 111 77 59 79 58 44 85 63 47 91 68 50 97 73 53 103 78 56 109 59 59 77 64 44 83 69 47 89 74 50 95 79 53 101 60 56 107 65 59 75 70 44 81 75 47 87 56 50 93 61 53 99 66 56 105 71 59 111 76 44 79 57 47 85 62 50 91 67 53 97 72 56 103 77 59 109 58 44 77 63 47 83 68 50 89 73 53 95 78 56 101 59 59 107 64 44 75 69 47 81 74 50 87 79 53 93 60 56 99 65 59 105 70 44 111 75 47 79 56 50 85 61 53 91 66 56 97 71 59 103 76 44 109 57 47 77 62 50 83 67 53 89 72 56 95 77 59 101 58 44 107 63 47 75 68 50 81 73 53 87 78 56 93 59 59 99 64 44 105 69 47 111 74 50 79 79 53 85 60 56 91 65 59 97 70 44 103 75 47 109 56 50 77 61 53 83 66 56 89 71 59 95 76 44 101 57 47 107 62 50 75 67 53 81 72 56 87 77 59 93 58 44 99 63 47 105 68 50 111 73 53 79 78 56 85 59 59 91 64 44 97 69 47 103 74 50 109 79 53 77 60 56 83 65 59 89 70 44 95 75 47 101 56 50 107 61 53 75 66 56 81 71 59 87 76 44 93 57 47 99 62 50 105 67 53 111 72 56 79 77 59 85 58 44 91 63 47 97 68 50 103 73 53 109 78 56 77 59 59 83 64 44 89 69 47 95 74 50 101 79 53 107 60 56 75 65 59 81 70 44 87 75 47 93 56 50 99 61 53 105 66 56 111 71 59 79 76 44 85 57 47 91 62 50 97 67 53 103 72 56 109 77 59 77 58 44 83 63 47 89 68 50 95 73 53 101 78 56 107 59 59 75 64 44 81 69 47 87 74 50 93 79 53 99 60 56 105 65 59 111 70 44 79 75 47 85 56 50 91 61 53 97 66 56 103 71 59 109 76 44 77 57 47 83 62 50 89 67 53 95 72 56 101 77 59 107 58 44 75 63 47 81 68 50 87 73 53 93 78 56 99 59 59 105 64 44 111 69 47 79 74 50 85 79 53 91 60 56 97 65 59 103 70 44 109 75 47 77 56 50 83 61 53 89 66 56 95 71 59 101 76 44 107 57 47 75 62 50 81 67 53 87 72 56 93 77 59 99 58 44 105 63 47 111 68 50 79 73 53 85 78 56 91 59 59 97 64 44 103 69 47 109 74 50 77 79 53 83 60 56 89 65 59 95 70 44 101 75 47 107 56 50 75 61 53 81 66 56 87 71 59 93 76 44 99 57 47 105 62 50 111 67 53 79 72 56 85 77 59 91 58 44 97 63 47 103 68 50 109 73 53 77 78 56 83 59 59 89 64 44 95 69 47 101 74 50 107 79 53 75 60 56 81 65 59 87 70 44 93 75 47 99 56 50 105 61 53 111 66 56 79 71 59 85 76 44 91 57 47 97 62 50 103 67 53 109 72 56 77 77 59 83 58 44 89 63 47 95 68 50 101 73 53 107 78 56 75 59 59 81 64 44 87 69 47
78 60 52 84 65 55 90 70 58 96 75 43 102 56 46 108 61 49 76 66 52 82 71 55 88 76 58 94 57 43 100 62 46 106 67 49 74 72 52 80 77 55 86 58 58 92 63 43 98 68 46 104 73 49 110 78 52 78 59 55 84 64 58 90 69 43 96 74 46 102 79 49 108 60 52 76 65 55 82 70 58 88 75 43 94 56 46 100 61 49 106 66 52 74 71 55 80 76 58 86 57 43 92 62 46 98 67 49 104 72 52 110 77 55 78 58 58 84 63 43 90 68 46 96 73 49 102 78 52 108 59 55 76 64 58 82 69 43 88 74 46 94 79 49 100 60 52 106 65 55 74 70 58 80 75 43 86 56 46 92 61 49 98 66 52 104 71 55 110 76 58 78 57 43 84 62 46 90 67 49 96 72 52 102 77 55 108 58 58 76 63 43 82 68 46 88 73 49 94 78 52 100 59 55 106 64 58 74 69 43 80 74 46 86 79 49 92 60 52 98 65 55 104 70 58 110 75 43 78 56 46 84 61 49 90 66 52 96 71 55 102 76 58 108 57 43 76 62 46 82 67 49 88 72 52 94 77 55 100 58 58 106 63 43 74 68 46 80 73 49 86 78 52 92 59 55 98 64 58 104 69 43 110 74 46 78 79 49 84 60 52 90 65 55 96 70 58 102 75 43 108 56 46 76 61 49 82 66 52 88 71 55 94 76 58 100 57 43 106 62 46 74 67 49 80 72 52 86 77 55 92 58 58 98 63 43 104 68 46 110 73 49 78 78 52 84 59 55 90 64 58 96 69 43 102 74 46 108 79 49 76 60 52 82 65 55 88 70 58 94 75 43 100 56 46 106 61 49 74 66 52 80 71 55 86 76 58 92 57 43 98 62 46 104 67 49 110 72 52 78 77 55 84 58 58 90 63 43 96 68 46 102 73 49 108 78 52 76 59 55 82 64 58 88 69 43 94 74 46 100 79 49 106 60 52 74 65 55 80 70 58 86 75 43 92 56 46 98 61 49 104 66 52 110 71 55 78 76 58 84 57 43 90 62 46 96 67 49 102 72 52 108 77 55 76 58 58 82 63 43 88 68 46 94 73 49 100 78 52 106 59 55 74 64 58 80 69 43 86 74 46 92 79 49 98 60 52 104 65 55 110 70 58 78 75 43 84 56 46 90 61 49 96 66 52 102 71 55 108 76 58 76 57 43 82 62 46 88 67 49 94 72 52 100 77 55 106 58 58 74 63 43 80 68 46 86 73 49 92 78 52 98 59 55 104 64 58 110 69 43 78 74 46 84 79 49 90 60 52 96 65 55 102 70 58 108 75 43 76 56 46 82 61 49 88 66 52 94 71 55 100 76 58 106 57 43 74 62 46 80 67 49 86 72 52 92 77 55 98 58 58 104 63 43 110 68 46 78 73 49 84 78 52 90 59 55 96 64 58 102 69 43 108 74 46 76 79 49 82 60 52 88 65 55 94 70 58 100 75 43 106 56 46 74 61 49 80 66 52 86 71 55 92 76 58 98 57 43 104 62 46 110 67 49 78 72 52 84 77 55 90 58 58 96 63 43 102 68 46 108 73 49 76 78 52 82 59 55 88 64 58 94 69 43 100 74 46 106 79 49 74 60 52 80 65 55 86 70 58 92 75 43 98 56 46 104 61 49 110 66 52 78 71 55 84 76 58 90 57 43 96 62 46 102 67 49 108 72 52 76 77 55 82 58 58 88 63 43 94 68 46 100 73 49 106 78 52 74 59 55 80 64 58 86 69 43 92 74 46 98 79 49 104 60 52 110 65 55 78 70 58 84 75 43 90 56 46 96 61 49 102 66 52 108 71 55 76 76 58 82 57 43 88 62 46 94 67 49 100 72 52 106 77 55 74 58 58 80 63 43 86 68 46 92 73 49 98 78 52 104 59 55 110 64 58 78 69 43 84 74 46 90 79 49 96 60 52 102 65 55 108 70 58 76 75 43 82 56 46 88 61 49 94 66 52 100 71 55 106 76 58 74 57 43 80 62 46 86 67 49 92 72 52 98 77 55 104 58 58 110 63 43 78 68 46 84 73 49 90 78 52 96 59 55 102 64 58 108 69 43 76 74 46 82 79 49 88 60 52 94 65 55 100 70 58 106 75 43 74 56 46 80 61 49 86 66 52 92 71 55
83 62 42 89 67 45 95 72 48 101 77 51 107 58 54 75 63 57 81 68 42 87 73 45 93 78 48 99 59 51 105 64 54 111 69 57 79 74 42 85 79 45 91 60 48 97 65 51 103 70 54 109 75 57 77 56 42 83 61 45 89 66 48 95 71 51 101 76 54 107 57 57 75 62 42 81 67 45 87 72 48 93 77 51 99 58 54 105 63 57 111 68 42 79 73 45 85 78 48 91 59 51 97 64 54 103 69 57 109 74 42 77 79 45 83 60 48 89 65 51 95 70 54 101 75 57 107 56 42 75 61 45 81 66 48 87 71 51 93 76 54 99 57 57 105 62 42 111 67 45 79 72 48 85 77 51 91 58 54 97 63 57 103 68 42 109 73 45 77 78 48 83 59 51 89 64 54 95 69 57 101 74 42 107 79 45 75 60 48 81 65 51 87 70 54 93 75 57 99 56 42 105 61 45 111 66 48 79 71 51 85 76 54 91 57 57 97 62 42 103 67 45 109 72 48 77 77 51 83 58 54 89 63 57 95 68 42 101 73 45 107 78 48 75 59 51 81 64 54 87 69 57 93 74 42 99 79 45 105 60 48 111 65 51 79 70 54 85 75 57 91 56 42 97 61 45 103 66 48 109 71 51 77 76 54 83 57 57 89 62 42 95 67 45 101 72 48 107 77 51 75 58 54 81 63 57 87 68 42 93 73 45 99 78 48 105 59 51 111 64 54 79 69 57 85 74 42 91 79 45 97 60 48 103 65 51 109 70 54 77 75 57 83 56 42 89 61 45 95 66 48 101 71 51 107 76 54 75 57 57 81 62 42 87 67 45 93 72 48 99 77 51 105 58 54 111 63 57 79 68 42 85 73 45 91 78 48 97 59 51 103 64 54 109 69 57 77 74 42 83 79 45 89 60 48 95 65 51 101 70 54 107 75 57 75 56 42 81 61 45 87 66 48 93 71 51 99 76 54 105 57 57 111 62 42 79 67 45 85 72 48 91 77 51 97 58 54 103 63 57 109 68 42 77 73 45 83 78 48 89 59 51 95 64 54 101 69 57 107 74 42 75 79 45 81 60 48 87 65 51 93 70 54 99 75 57 105 56 42 111 61 45 79 66 48 85 71 51 91 76 54 97 57 57 103 62 42 109 67 45 77 72 48 83 77 51 89 58 54 95 63 57 101 68 42 107 73 45 75 78 48 81 59 51 87 64 54 93 69 57 99 74 42 105 79 45 111 60 48 79 65 51 85 70 54 91 75 57 97 56 42 103 61 45 109 66 48 77 71 51 83 76 54 89 57 57 95 62 42 101 67 45 107 72 48 75 77 51 81 58 54 87 63 57 93 68 42 99 73 45 105 78 48 111 59 51 79 64 54 85 69 57 91 74 42 97 79 45 103 60 48 109 65 51 77 70 54 83 75 57 89 56 42 95 61 45 101 66 48 107 71 51 75 76 54 81 57 57 87 62 42 93 67 45 99 72 48 105 77 51 111 58 54 79 63 57 85 68 42 91 73 45 97 78 48 103 59 51 109 64 54 77 69 57 83 74 42 89 79 45 95 60 48 101 65 51 107 70 54 75 75 57 81 56 42 87 61 45 93 66 48 99 71 51 105 76 54 111 57 57 79 62 42 85 67 45 91 72 48 97 77 51 103 58 54 109 63 57 77 68 42 83 73 45 89 78 48 95 59 51 101 64 54 107 69 57 75 74 42 81 79 45 87 60 48 93 65 51 99 70 54 105 75 57 111 56 42 79 61 45 85 66 48 91 71 51 97 76 54 103 57 57 109 62 42 77 67 45 83 72 48 89 77 51 95 58 54 101 63 57 107 68 42 75 73 45 81 78 48 87 59 51 93 64 54 99 69 57 105 74 42 111 79 45 79 60 48 85 65 51 91 70 54 97 75 57 103 56 42 109 61 45 77 66 48 83 71 51 89 76 54 95 57 57 101 62 42 107 67 45 75 72 48 81 77 51 87 58 54 93 63 57 99 68 42 105 73 45 111 78 48 79 59 51 85 64 54 91 69 57 97 74 42 103 79 45 109 60 48 77 65 51 83 70 54 89 75 57 95 56 42 101 61 45 107 66 48 75 71 51 81 76 54 87 57 57 93 62 42 99 67 45 105 72 48 111 77 51 79 58 54 85 63 57 91 68 42 97 73 45
88 64 50 94 69 53 100 74 56 106 79 59 74 60 44 80 65 47 86 70 50 92 75 53 98 56 56 104 61 59 110 66 44 78 71 47 84 76 50 90 57 53 96 62 56 102 67 59 108 72 44 76 77 47 82 58 50 88 63 53 94 68 56 100 73 59 106 78 44 74 59 47 80 64 50 86 69 53 92 74 56 98 79 59 104 60 44 110 65 47 78 70 50 84 75 53 90 56 56 96 61 59 102 66 44 108 71 47 76 76 50 82 57 53 88 62 56 94 67 59 100 72 44 106 77 47 74 58 50 80 63 53 86 68 56 92 73 59 98 78 44 104 59 47 110 64 50 78 69 53 84 74 56 90 79 59 96 60 44 102 65 47 108 70 50 76 75 53 82 56 56 88 61 59 94 66 44 100 71 47 106 76 50 74 57 53 80 62 56 86 67 59 92 72 44 98 77 47 104 58 50 110 63 53 78 68 56 84 73 59 90 78 44 96 59 47 102 64 50 108 69 53 76 74 56 82 79 59 88 60 44 94 65 47 100 70 50 106 75 53 74 56 56 80 61 59 86 66 44 92 71 47 98 76 50 104 57 53 110 62 56 78 67 59 84 72 44 90 77 47 96 58 50 102 63 53 108 68 56 76 73 59 82 78 44 88 59 47 94 64 50 100 69 53 106 74 56 74 79 59 80 60 44 86 65 47 92 70 50 98 75 53 104 56 56 110 61 59 78 66 44 84 71 47 90 76 50 96 57 53 102 62 56 108 67 59 76 72 44 82 77 47 88 58 50 94 63 53 100 68 56 106 73 59 74 78 44 80 59 47 86 64 50 92 69 53 98 74 56 104 79 59 110 60 44 78 65 47 84 70 50 90 75 53 96 56 56 102 61 59 108 66 44 76 71 47 82 76 50 88 57 53 94 62 56 100 67 59 106 72 44 74 77 47 80 58 50 86 63 53 92 68 56 98 73 59 104 78 44 110 59 47 78 64 50 84 69 53 90 74 56 96 79 59 102 60 44 108 65 47 76 70 50 82 75 53 88 56 56 94 61 59 100 66 44 106 71 47 74 76 50 80 57 53 86 62 56 92 67 59 98 72 44 104 77 47 110 58 50 78 63 53 84 68 56 90 73 59 96 78 44 102 59 47 108 64 50 76 69 53 82 74 56 88 79 59 94 60 44 100 65 47 106 70 50 74 75 53 80 56 56 86 61 59 92 66 44 98 71 47 104 76 50 110 57 53 78 62 56 84 67 59 90 72 44 96 77 47 102 58 50 108 63 53 76 68 56 82 73 59 88 78 44 94 59 47 100 64 50 106 69 53 74 74 56 80 79 59 86 60 44 92 65 47 98 70 50 104 75 53 110 56 56 78 61 59 84 66 44 90 71 47 96 76 50 102 57 53 108 62 56 76 67 59 82 72 44 88 77 47 94 58 50 100 63 53 106 68 56 74 73 59 80 78 44 86 59 47 92 64 50 98 69 53 104 74 56 110 79 59 78 60 44 84 65 47 90 70 50 96 75 53 102 56 56 108 61 59 76 66 44 82 71 47 88 76 50 94 57 53 100 62 56 106 67 59 74 72 44 80 77 47 86 58 50 92 63 53 98 68 56 104 73 59 110 78 44 78 59 47 84 64 50 90 69 53 96 74 56 102 79 59 108 60 44 76 65 47 82 70 50 88 75 53 94 56 56 100 61 59 106 66 44 74 71 47 80 76 50 86 57 53 92 62 56 98 67 59 104 72 44 110 77 47 78 58 50 84 63 53 90 68 56 96 73 59 102 78 44 108 59 47 76 64 50 82 69 53 88 74 56 94 79 59 100 60 44 106 65 47 74 70 50 80 75 53 86 56 56 92 61 59 98 66 44 104 71 47 110 76 50 78 57 53 84 62 56 90 67 59 96 72 44 102 77 47 108 58 50 76 63 53 82 68 56 88 73 59 94 78 44 100 59 47 106 64 50 74 69 53 80 74 56 86 79 59 92 60 44 98 65 47 104 70 50 110 75 53 78 56 56 84 61 59 90 66 44 96 71 47 102 76 50 108 57 53 76 62 56 82 67 59 88 72 44 94 77 47 100 58 50 106 63 53 74 68 56 80 73 59 86 78 44 92 59 47 98 64 50 104 69 53 110 74 56 78 79 59 84 60 44 90 65 47 96 70 50 102 75 53
93 66 58 99 71 43 105 76 46 111 57 49 79 62 52 85 67 55 91 72 58 97 77 43 103 58 46 109 63 49 77 68 52 83 73 55 89 78 58 95 59 43 101 64 46 107 69 49 75 74 52 81 79 55 87 60 58 93 65 43 99 70 46 105 75 49 111 56 52 79 61 55 85 66 58 91 71 43 97 76 46 103 57 49 109 62 52 77 67 55 83 72 58 89 77 43 95 58 46 101 63 49 107 68 52 75 73 55 81 78 58 87 59 43 93 64 46 99 69 49 105 74 52 111 79 55 79 60 58 85 65 43 91 70 46 97 75 49 103 56 52 109 61 55 77 66 58 83 71 43 89 76 46 95 57 49 101 62 52 107 67 55 75 72 58 81 77 43 87 58 46 93 63 49 99 68 52 105 73 55 111 78 58 79 59 43 85 64 46 91 69 49 97 74 52 103 79 55 109 60 58 77 65 43 83 70 46 89 75 49 95 56 52 101 61 55 107 66 58 75 71 43 81 76 46 87 57 49 93 62 52 99 67 55 105 72 58 111 77 43 79 58 46 85 63 49 91 68 52 97 73 55 103 78 58 109 59 43 77 64 46 83 69 49 89 74 52 95 79 55 101 60 58 107 65 43 75 70 46 81 75 49 87 56 52 93 61 55 99 66 58 105 71 43 111 76 46 79 57 49 85 62 52 91 67 55 97 72 58 103 77 43 109 58 46 77 63 49 83 68 52 89 73 55 95 78 58 101 59 43 107 64 46 75 69 49 81 74 52 87 79 55 93 60 58 99 65 43 105 70 46 111 75 49 79 56 52 85 61 55 91 66 58 97 71 43 103 76 46 109 57 49 77 62 52 83 67 55 89 72 58 95 77 43 101 58 46 107 63 49 75 68 52 81 73 55 87 78 58 93 59 43 99 64 46 105 69 49 111 74 52 79 79 55 85 60 58 91 65 43 97 70 46 103 75 49 109 56 52 77 61 55 83 66 58 89 71 43 95 76 46 101 57 49 107 62 52 75 67 55 81 72 58 87 77 43 93 58 46 99 63 49 105 68 52 111 73 55 79 78 58 85 59 43 91 64 46 97 69 49 103 74 52 109 79 55 77 60 58 83 65 43 89 70 46 95 75 49 101 56 52 107 61 55 75 66 58 81 71 43 87 76 46 93 57 49 99 62 52 105 67 55 111 72 58 79 77 43 85 58 46 91 63 49 97 68 52 103 73 55 109 78 58 77 59 43 83 64 46 89 69 49 95 74 52 101 79 55 107 60 58 75 65 43 81 70 46 87 75 49 93 56 52 99 61 55 105 66 58 111 71 43 79 76 46 85 57 49 91 62 52 97 67 55 103 72 58 109 77 43 77 58 46 83 63 49 89 68 52 95 73 55 101 78 58 107 59 43 75 64 46 81 69 49 87 74 52 93 79 55 99 60 58 105 65 43 111 70 46 79 75 49 85 56 52 91 61 55 97 66 58 103 71 43 109 76 46 77 57 49 83 62 52 89 67 55 95 72 58 101 77 43 107 58 46 75 63 49 81 68 52 87 73 55 93 78 58 99 59 43 105 64 46 111 69 49 79 74 52 85 79 55 91 60 58 97 65 43 103 70 46 109 75 49 77 56 52 83 61 55 89 66 58 95 71 43 101 76 46 107 57 49 75 62 52 81 67 55 87 72 58 93 77 43 99 58 46 105 63 49 111 68 52 79 73 55 85 78 58 91 59 43 97 64 46 103 69 49 109 74 52 77 79 55 83 60 58 89 65 43 95 70 46 101 75 49 107 56 52 75 61 55 81 66 58 87 71 43 93 76 46 99 57 49 105 62 52 111 67 55 79 72 58 85 77 43 91 58 46 97 63 49 103 68 52 109 73 55 77 78 58 83 59 43 89 64 46 95 69 49 101 74 52 107 79 55 75 60 58 81 65 43 87 70 46 93 75 49 99 56 52 105 61 55 111 66 58 79 71 43 85 76 46 91 57 49 97 62 52 103 67 55 109 72 58 77 77 43 83 58 46 89 63 49 95 68 52 101 73 55 107 78 58 75 59 43 81 64 46 87 69 49 93 74 52 99 79 55 105 60 58 111 65 43 79 70 46 85 75 49 91 56 52 97 61 55 103 66 58 109 71 43 77 76 46 83 57 49 89 62 52 95 67 55 101 72 58 107 77 43
98 68 48 104 73 51 110 78 54 78 59 57 84 64 42 90 69 45 96 74 48 102 79 51 108 60 54 76 65 57 82 70 42 88 75 45 94 56 48 100 61 51 106 66 54 74 71 57 80 76 42 86 57 45 92 62 48 98 67 51 104 72 54 110 77 57 78 58 42 84 63 45 90 68 48 96 73 51 102 78 54 108 59 57 76 64 42 82 69 45 88 74 48 94 79 51 100 60 54 106 65 57 74 70 42 80 75 45 86 56 48 92 61 51 98 66 54 104 71 57 110 76 42 78 57 45 84 62 48 90 67 51 96 72 54 102 77 57 108 58 42 76 63 45 82 68 48 88 73 51 94 78 54 100 59 57 106 64 42 74 69 45 80 74 48 86 79 51 92 60 54 98 65 57 104 70 42 110 75 45 78 56 48 84 61 51 90 66 54 96 71 57 102 76 42 108 57 45 76 62 48 82 67 51 88 72 54 94 77 57 100 58 42 106 63 45 74 68 48 80 73 51 86 78 54 92 59 57 98 64 42 104 69 45 110 74 48 78 79 51 84 60 54 90 65 57 96 70 42 102 75 45 108 56 48 76 61 51 82 66 54 88 71 57 94 76 42 100 57 45 106 62 48 74 67 51 80 72 54 86 77 57 92 58 42 98 63 45 104 68 48 110 73 51 78 78 54 84 59 57 90 64 42 96 69 45 102 74 48 108 79 51 76 60 54 82 65 57 88 70 42 94 75 45 100 56 48 106 61 51 74 66 54 80 71 57 86 76 42 92 57 45 98 62 48 104 67 51 110 72 54 78 77 57 84 58 42 90 63 45 96 68 48 102 73 51 108 78 54 76 59 57 82 64 42 88 69 45 94 74 48 100 79 51 106 60 54 74 65 57 80 70 42 86 75 45 92 56 48 98 61 51 104 66 54 110 71 57 78 76 42 84 57 45 90 62 48 96 67 51 102 72 54 108 77 57 76 58 42 82 63 45 88 68 48 94 73 51 100 78 54 106 59 57 74 64 42 80 69 45 86 74 48 92 79 51 98 60 54 104 65 57 110 70 42 78 75 45 84 56 48 90 61 51 96 66 54 102 71 57 108 76 42 76 57 45 82 62 48 88 67 51 94 72 54 100 77 57 106 58 42 74 63 45 80 68 48 86 73 51 92 78 54 98 59 57 104 64 42 110 69 45 78 74 48 84 79 51 90 60 54 96 65 57 102 70 42 108 75 45 76 56 48 82 61 51 88 66 54 94 71 57 100 76 42 106 57 45 74 62 48 80 67 51 86 72 54 92 77 57 98 58 42 104 63 45 110 68 48 78 73 51 84 78 54 90 59 57 96 64 42 102 69 45 108 74 48 76 79 51 82 60 54 88 65 57 94 70 42 100 75 45 106 56 48 74 61 51 80 66 54 86 71 57 92 76 42 98 57 45 104 62 48 110 67 51 78 72 54 84 77 57 90 58 42 96 63 45 102 68 48 108 73 51 76 78 54 82 59 57 88 64 42 94 69 45 100 74 48 106 79 51 74 60 54 80 65 57 86 70 42 92 75 45 98 56 48 104 61 51 110 66 54 78 71 57 84 76 42 90 57 45 96 62 48 102 67 51 108 72 54 76 77 57 82 58 42 88 63 45 94 68 48 100 73 51 106 78 54 74 59 57 80 64 42 86 69 45 92 74 48 98 79 51 104 60 54 110 65 57 78 70 42 84 75 45 90 56 48 96 61 51 102 66 54 108 71 57 76 76 42 82 57 45 88 62 48 94 67 51 100 72 54 106 77 57 74 58 42 80 63 45 86 68 48 92 73 51 98 78 54 104 59 57 110 64 42 78 69 45 84 74 48 90 79 51 96 60 54 102 65 57 108 70 42 76 75 45 82 56 48 88 61 51 94 66 54 100 71 57 106 76 42 74 57 45 80 62 48 86 67 51 92 72 54 98 77 57 104 58 42 110 63 45 78 68 48 84 73 51 90 78 54 96 59 57 102 64 42 108 69 45 76 74 48 82 79 51 88 60 54 94 65 57 100 70 42 106 75 45 74 56 48 80 61 51 86 66 54 92 71 57 98 76 42 104 57 45 110 62 48 78 67 51 84 72 54 90 77 57 96 58 42 102 63 45 108 68 48 76 73 51 82 78 54 88 59 57 94 64 42 100 69 45 106 74 48 74 79 51
103 70 56 109 75 59 77 56 44 83 61 47 89 66 50 95 71 53 101 76 56 107 57 59 75 62 44 81 67 47 87 72 50 93 77 53 99 58 56 105 63 59 111 68 44 79 73 47 85 78 50 91 59 53 97 64 56 103 69 59 109 74 44 77 79 47 83 60 50 89 65 53 95 70 56 101 75 59 107 56 44 75 61 47 81 66 50 87 71 53 93 76 56 99 57 59 105 62 44 111 67 47 79 72 50 85 77 53 91 58 56 97 63 59 103 68 44 109 73 47 77 78 50 83 59 53 89 64 56 95 69 59 101 74 44 107 79 47 75 60 50 81 65 53 87 70 56 93 75 59 99 56 44 105 61 47 111 66 50 79 71 53 85 76 56 91 57 59 97 62 44 103 67 47 109 72 50 77 77 53 83 58 56 89 63 59 95 68 44 101 73 47 107 78 50 75 59 53 81 64 56 87 69 59 93 74 44 99 79 47 105 60 50 111 65 53 79 70 56 85 75 59 91 56 44 97 61 47 103 66 50 109 71 53 77 76 56 83 57 59 89 62 44 95 67 47 101 72 50 107 77 53 75 58 56 81 63 59 87 68 44 93 73 47 99 78 50 105 59 53 111 64 56 79 69 59 85 74 44 91 79 47 97 60 50 103 65 53 109 70 56 77 75 59 83 56 44 89 61 47 95 66 50 101 71 53 107 76 56 75 57 59 81 62 44 87 67 47 93 72 50 99 77 53 105 58 56 111 63 59 79 68 44 85 73 47 91 78 50 97 59 53 103 64 56 109 69 59 77 74 44 83 79 47 89 60 50 95 65 53 101 70 56 107 75 59 75 56 44 81 61 47 87 66 50 93 71 53 99 76 56 105 57 59 111 62 44 79 67 47 85 72 50 91 77 53 97 58 56 103 63 59 109 68 44 77 73 47 83 78 50 89 59 53 95 64 56 101 69 59 107 74 44 75 79 47 81 60 50 87 65 53 93 70 56 99 75 59 105 56 44 111 61 47 79 66 50 85 71 53 91 76 56 97 57 59 103 62 44 109 67 47 77 72 50 83 77 53 89 58 56 95 63 59 101 68 44 107 73 47 75 78 50 81 59 53 87 64 56 93 69 59 99 74 44 105 79 47 111 60 50 79 65 53 85 70 56 91 75 59 97 56 44 103 61 47 109 66 50 77 71 53 83 76 56 89 57 59 95 62 44 101 67 47 107 72 50 75 77 53 81 58 56 87 63 59 93 68 44 99 73 47 105 78 50 111 59 53 79 64 56 85 69 59 91 74 44 97 79 47 103 60 50 109 65 53 77 70 56 83 75 59 89 56 44 95 61 47 101 66 50 107 71 53 75 76 56 81 57 59 87 62 44 93 67 47 99 72 50 105 77 53 111 58 56 79 63 59 85 68 44 91 73 47 97 78 50 103 59 53 109 64 56 77 69 59 83 74 44 89 79 47 95 60 50 101 65 53 107 70 56 75 75 59 81 56 44 87 61 47 93 66 50 99 71 53 105 76 56 111 57 59 79 62 44 85 67 47 91 72 50 97 77 53 103 58 56 109 63 59 77 68 44 83 73 47 89 78 50 95 59 53 101 64 56 107 69 59 75 74 44 81 79 47 87 60 50 93 65 53 99 70 56 105 75 59 111 56 44 79 61 47 85 66 50 91 71 53 97 76 56 103 57 59 109 62 44 77 67 47 83 72 50 89 77 53 95 58 56 101 63 59 107 68 44 75 73 47 81 78 50 87 59 53 93 64 56 99 69 59 105 74 44 111 79 47 79 60 50 85 65 53 91 70 56 97 75 59 103 56 44 109 61 47 77 66 50 83 71 53 89 76 56 95 57 59 101 62 44 107 67 47 75 72 50 81 77 53 87 58 56 93 63 59 99 68 44 105 73 47 111 78 50 79 59 53 85 64 56 91 69 59 97 74 44 103 79 47 109 60 50 77 65 53 83 70 56 89 75 59 95 56 44 101 61 47 107 66 50 75 71 53 81 76 56 87 57 59 93 62 44 99 67 47 105 72 50 111 77 53 79 58 56 85 63 59 91 68 44 97 73 47 103 78 50 109 59 53 77 64 56 83 69 59 89 74 44 95 79 47 101 60 50 107 65 53 75 70 56 81 75 59 87 56 44 93 61 47 99 66 50 105 71 53 111 76 56 79 57 59
108 72 46 76 77 49 82 58 52 88 63 55 94 68 58 100 73 43 106 78 46 74 59 49 80 64 52 86 69 55 92 74 58 98 79 43 104 60 46 110 65 49 78 70 52 84 75 55 90 56 58 96 61 43 102 66 46 108 71 49 76 76 52 82 57 55 88 62 58 94 67 43 100 72 46 106 77 49 74 58 52 80 63 55 86 68 58 92 73 43 98 78 46 104 59 49 110 64 52 78 69 55 84 74 58 90 79 43 96 60 46 102 65 49 108 70 52 76 75 55 82 56 58 88 61 43 94 66 46 100 71 49 106 76 52 74 57 55 80 62 58 86 67 43 92 72 46 98 77 49 104 58 52 110 63 55 78 68 58 84 73 43 90 78 46 96 59 49 102 64 52 108 69 55 76 74 58 82 79 43 88 60 46 94 65 49 100 70 52 106 75 55 74 56 58 80 61 43 86 66 46 92 71 49 98 76 52 104 57 55 110 62 58 78 67 43 84 72 46 90 77 49 96 58 52 102 63 55 108 68 58 76 73 43 82 78 46 88 59 49 94 64 52 100 69 55 106 74 58 74 79 43 80 60 46 86 65 49 92 70 52 98 75 55 104 56 58 110 61 43 78 66 46 84 71 49 90 76 52 96 57 55 102 62 58 108 67 43 76 72 46 82 77 49 88 58 52 94 63 55 100 68 58 106 73 43 74 78 46 80 59 49 86 64 52 92 69 55 98 74 58 104 79 43 110 60 46 78 65 49 84 70 52 90 75 55 96 56 58 102 61 43 108 66 46 76 71 49 82 76 52 88 57 55 94 62 58 100 67 43 106 72 46 74 77 49 80 58 52 86 63 55 92 68 58 98 73 43 104 78 46 110 59 49 78 64 52 84 69 55 90 74 58 96 79 43 102 60 46 108 65 49 76 70 52 82 75 55 88 56 58 94 61 43 100 66 46 106 71 49 74 76 52 80 57 55 86 62 58 92 67 43 98 72 46 104 77 49 110 58 52 78 63 55 84 68 58 90 73 43 96 78 46 102 59 49 108 64 52 76 69 55 82 74 58 88 79 43 94 60 46 100 65 49 106 70 52 74 75 55 80 56 58 86 61 43 92 66 46 98 71 49 104 76 52 110 57 55 78 62 58 84 67 43 90 72 46 96 77 49 102 58 52 108 63 55 76 68 58 82 73 43 88 78 46 94 59 49 100 64 52 106 69 55 74 74 58 80 79 43 86 60 46 92 65 49 98 70 52 104 75 55 110 56 58 78 61 43 84 66 46 90 71 49 96 76 52 102 57 55 108 62 58 76 67 43 82 72 46 88 77 49 94 58 52 100 63 55 106 68 58 74 73 43 80 78 46 86 59 49 92 64 52 98 69 55 104 74 58 110 79 43 78 60 46 84 65 49 90 70 52 96 75 55 102 56 58 108 61 43 76 66 46 82 71 49 88 76 52 94 57 55 100 62 58 106 67 43 74 72 46 80 77 49 86 58 52 92 63 55 98 68 58 104 73 43 110 78 46 78 59 49 84 64 52 90 69 55 96 74 58 102 79 43 108 60 46 76 65 49 82 70 52 88 75 55 94 56 58 100 61 43 106 66 46 74 71 49 80 76 52 86 57 55 92 62 58 98 67 43 104 72 46 110 77 49 78 58 52 84 63 55 90 68 58 96 73 43 102 78 46 108 59 49 76 64 52 82 69 55 88 74 58 94 79 43 100 60 46 106 65 49 74 70 52 80 75 55 86 56 58 92 61 43 98 66 46 104 71 49 110 76 52 78 57 55 84 62 58 90 67 43 96 72 46 102 77 49 108 58 52 76 63 55 82 68 58 88 73 43 94 78 46 100 59 49 106 64 52 74 69 55 80 74 58 86 79 43 92 60 46 98 65 49 104 70 52 110 75 55 78 56 58 84 61 43 90 66 46 96 71 49 102 76 52 108 57 55 76 62 58 82 67 43 88 72 46 94 77 49 100 58 52 106 63 55 74 68 58 80 73 43 86 78 46 92 59 49 98 64 52 104 69 55 110 74 58 78 79 43 84 60 46 90 65 49 96 70 52 102 75 55 108 56 58 76 61 43 82 66 46 88 71 49 94 76 52 100 57 55 106 62 58 74 67 43 80 72 46 86 77 49 92 58 52 98 63 55 104 68 58 110 73 43 78 78 46 84 59 49
75 74 54 81 79 57 87 60 42 93 65 45 99 70 48 105 75 51 111 56 54 79 61 57 85 66 42 91 71 45 97 76 48 103 57 51 109 62 54 77 67 57 83 72 42 89 77 45 95 58 48 101 63 51 107 68 54 75 73 57 81 78 42 87 59 45 93 64 48 99 69 51 105 74 54 111 79 57 79 60 42 85 65 45 91 70 48 97 75 51 103 56 54 109 61 57 77 66 42 83 71 45 89 76 48 95 57 51 101 62 54 107 67 57 75 72 42 81 77 45 87 58 48 93 63 51 99 68 54 105 73 57 111 78 42 79 59 45 85 64 48 91 69 51 97 74 54 103 79 57 109 60 42 77 65 45 83 70 48 89 75 51 95 56 54 101 61 57 107 66 42 75 71 45 81 76 48 87 57 51 93 62 54 99 67 57 105 72 42 111 77 45 79 58 48 85 63 51 91 68 54 97 73 57 103 78 42 109 59 45 77 64 48 83 69 51 89 74 54 95 79 57 101 60 42 107 65 45 75 70 48 81 75 51 87 56 54 93 61 57 99 66 42 105 71 45 111 76 48 79 57 51 85 62 54 91 67 57 97 72 42 103 77 45 109 58 48 77 63 51 83 68 54 89 73 57 95 78 42 101 59 45 107 64 48 75 69 51 81 74 54 87 79 57 93 60 42 99 65 45 105 70 48 111 75 51 79 56 54 85 61 57 91 66 42 97 71 45 103 76 48 109 57 51 77 62 54 83 67 57 89 72 42 95 77 45 101 58 48 107 63 51 75 68 54 81 73 57 87 78 42 93 59 45 99 64 48 105 69 51 111 74 54 79 79 57 85 60 42 91 65 45 97 70 48 103 75 51 109 56 54 77 61 57 83 66 42 89 71 45 95 76 48 101 57 51 107 62 54 75 67 57 81 72 42 87 77 45 93 58 48 99 63 51 105 68 54 111 73 57 79 78 42 85 59 45 91 64 48 97 69 51 103 74 54 109 79 57 77 60 42 83 65 45 89 70 48 95 75 51 101 56 54 107 61 57 75 66 42 81 71 45 87 76 48 93 57 51 99 62 54 105 67 57 111 72 42 79 77 45 85 58 48 91 63 51 97 68 54 103 73 57 109 78 42 77 59 45 83 64 48 89 69 51 95 74 54 101 79 57 107 60 42 75 65 45 81 70 48 87 75 51 93 56 54 99 61 57 105 66 42 111 71 45 79 76 48 85 57 51 91 62 54 97 67 57 103 72 42 109 77 45 77 58 48 83 63 51 89 68 54 95 73 57 101 78 42 107 59 45 75 64 48 81 69 51 87 74 54 93 79 57 99 60 42 105 65 45 111 70 48 79 75 51 85 56 54 91 61 57 97 66 42 103 71 45 109 76 48 77 57 51 83 62 54 89 67 57 95 72 42 101 77 45 107 58 48 75 63 51 81 68 54 87 73 57 93 78 42 99 59 45 105 64 48 111 69 51 79 74 54 85 79 57 91 60 42 97 65 45 103 70 48 109 75 51 77 56 54 83 61 57 89 66 42 95 71 45 101 76 48 107 57 51 75 62 54 81 67 57 87 72 42 93 77 45 99 58 48 105 63 51 111 68 54 79 73 57 85 78 42 91 59 45 97 64 48 103 69 51 109 74 54 77 79 57 83 60 42 89 65 45 95 70 48 101 75 51 107 56 54 75 61 57 81 66 42 87 71 45 93 76 48 99 57 51 105 62 54 111 67 57 79 72 42 85 77 45 91 58 48 97 63 51 103 68 54 109 73 57 77 78 42 83 59 45 89 64 48 95 69 51 101 74 54 107 79 57 75 60 42 81 65 45 87 70 48 93 75 51 99 56 54 105 61 57 111 66 42 79 71 45 85 76 48 91 57 51 97 62 54 103 67 57 109 72 42 77 77 45 83 58 48 89 63 51 95 68 54 101 73 57 107 78 42 75 59 45 81 64 48 87 69 51 93 74 54 99 79 57 105 60 42 111 65 45 79 70 48 85 75 51 91 56 54 97 61 57 103 66 42 109 71 45 77 76 48 83 57 51 89 62 54 95 67 57 101 72 42 107 77 45 75 58 48 81 63 51 87 68 54 93 73 57 99 78 42 105 59 45 111 64 48 79 69 51 85 74 54 91 79 57 97 60 42 103 65 45 109 70 48 77 75 51 83 56 54 89 61 57
80 76 44 86 57 47 92 62 50 98 67 53 104 72 56 110 77 59 78 58 44 84 63 47 90 68 50 96 73 53 102 78 56 108 59 59 76 64 44 82 69 47 88 74 50 94 79 53 100 60 56 106 65 59 74 70 44 80 75 47 86 56 50 92 61 53 98 66 56 104 71 59 110 76 44 78 57 47 84 62 50 90 67 53 96 72 56 102 77 59 108 58 44 76 63 47 82 68 50 88 73 53 94 78 56 100 59 59 106 64 44 74 69 47 80 74 50 86 79 53 92 60 56 98 65 59 104 70 44 110 75 47 78 56 50 84 61 53 90 66 56 96 71 59 102 76 44 108 57 47 76 62 50 82 67 53 88 72 56 94 77 59 100 58 44 106 63 47 74 68 50 80 73 53 86 78 56 92 59 59 98 64 44 104 69 47 110 74 50 78 79 53 84 60 56 90 65 59 96 70 44 102 75 47 108 56 50 76 61 53 82 66 56 88 71 59 94 76 44 100 57 47 106 62 50 74 67 53 80 72 56 86 77 59 92 58 44 98 63 47 104 68 50 110 73 53 78 78 56 84 59 59 90 64 44 96 69 47 102 74 50 108 79 53 76 60 56 82 65 59 88 70 44 94 75 47 100 56 50 106 61 53 74 66 56 80 71 59 86 76 44 92 57 47 98 62 50 104 67 53 110 72 56 78 77 59 84 58 44 90 63 47 96 68 50 102 73 53 108 78 56 76 59 59 82 64 44 88 69 47 94 74 50 100 79 53 106 60 56 74 65 59 80 70 44 86 75 47 92 56 50 98 61 53 104 66 56 110 71 59 78 76 44 84 57 47 90 62 50 96 67 53 102 72 56 108 77 59 76 58 44 82 63 47 88 68 50 94 73 53 100 78 56 106 59 59 74 64 44 80 69 47 86 74 50 92 79 53 98 60 56 104 65 59 110 70 44 78 75 47 84 56 50 90 61 53 96 66 56 102 71 59 108 76 44 76 57 47 82 62 50 88 67 53 94 72 56 100 77 59 106 58 44 74 63 47 80 68 50 86 73 53 92 78 56 98 59 59 104 64 44 110 69 47 78 74 50 84 79 53 90 60 56 96 65 59 102 70 44 108 75 47 76 56 50 82 61 53 88 66 56 94 71 59 100 76 44 106 57 47 74 62 50 80 67 53 86 72 56 92 77 59 98 58 44 104 63 47 110 68 50 78 73 53 84 78 56 90 59 59 96 64 44 102 69 47 108 74 50 76 79 53 82 60 56 88 65 59 94 70 44 100 75 47 106 56 50 74 61 53 80 66 56 86 71 59 92 76 44 98 57 47 104 62 50 110 67 53 78 72 56 84 77 59 90 58 44 96 63 47 102 68 50 108 73 53 76 78 56 82 59 59 88 64 44 94 69 47 100 74 50 106 79 53 74 60 56 80 65 59 86 70 44 92 75 47 98 56 50 104 61 53 110 66 56 78 71 59 84 76 44 90 57 47 96 62 50 102 67 53 108 72 56 76 77 59 82 58 44 88 63 47 94 68 50 100 73 53 106 78 56 74 59 59 80 64 44 86 69 47 92 74 50 98 79 53 104 60 56 110 65 59 78 70 44 84 75 47 90 56 50 96 61 53 102 66 56 108 71 59 76 76 44 82 57 47 88 62 50 94 67 53 100 72 56 106 77 59 74 58 44 80 63 47 86 68 50 92 73 53 98 78 56 104 59 59 110 64 44 78 69 47 84 74 50 90 79 53 96 60 56 102 65 59 108 70 44 76 75 47 82 56 50 88 61 53 94 66 56 100 71 59 106 76 44 74 57 47 80 62 50 86 67 53 92 72 56 98 77 59 104 58 44 110 63 47 78 68 50 84 73 53 90 78 56 96 59 59 102 64 44 108 69 47 76 74 50 82 79 53 88 60 56 94 65 59 100 70 44 106 75 47 74 56 50 80 61 53 86 66 56 92 71 59 98 76 44 104 57 47 110 62 50 78 67 53 84 72 56 90 77 59 96 58 44 102 63 47 108 68 50 76 73 53 82 78 56 88 59 59 94 64 44 100 69 47 106 74 50 74 79 53 80 60 56 86 65 59 92 70 44 98 75 47 104 56 50 110 61 53 78 66 56 84 71 59 90 76 44 96 57 47 102 62 50 108 67 53 76 72 56 82 77 59 88 58 44 94 63 47
85 78 52 91 59 55 97 64 58 103 69 43 109 74 46 77 79 49 83 60 52 89 65 55 95 70 58 101 75 43 107 56 46 75 61 49 81 66 52 87 71 55 93 76 58 99 57 43 105 62 46 111 67 49 79 72 52 85 77 55 91 58 58 97 63 43 103 68 46 109 73 49 77 78 52 83 59 55 89 64 58 95 69 43 101 74 46 107 79 49 75 60 52 81 65 55 87 70 58 93 75 43 99 56 46 105 61 49 111 66 52 79 71 55 85 76 58 91 57 43 97 62 46 103 67 49 109 72 52 77 77 55 83 58 58 89 63 43 95 68 46 101 73 49 107 78 52 75 59 55 81 64 58 87 69 43 93 74 46 99 79 49 105 60 52 111 65 55 79 70 58 85 75 43 91 56 46 97 61 49 103 66 52 109 71 55 77 76 58 83 57 43 89 62 46 95 67 49 101 72 52 107 77 55 75 58 58 81 63 43 87 68 46 93 73 49 99 78 52 105 59 55 111 64 58 79 69 43 85 74 46 91 79 49 97 60 52 103 65 55 109 70 58 77 75 43 83 56 46 89 61 49 95 66 52 101 71 55 107 76 58 75 57 43 81 62 46 87 67 49 93 72 52 99 77 55 105 58 58 111 63 43 79 68 46 85 73 49 91 78 52 97 59 55 103 64 58 109 69 43 77 74 46 83 79 49 89 60 52 95 65 55 101 70 58 107 75 43 75 56 46 81 61 49 87 66 52 93 71 55 99 76 58 105 57 43 111 62 46 79 67 49 85 72 52 91 77 55 97 58 58 103 63 43 109 68 46 77 73 49 83 78 52 89 59 55 95 64 58 101 69 43 107 74 46 75 79 49 81 60 52 87 65 55 93 70 58 99 75 43 105 56 46 111 61 49 79 66 52 85 71 55 91 76 58 97 57 43 103 62 46 109 67 49 77 72 52 83 77 55 89 58 58 95 63 43 101 68 46 107 73 49 75 78 52 81 59 55 87 64 58 93 69 43 99 74 46 105 79 49 111 60 52 79 65 55 85 70 58 91 75 43 97 56 46 103 61 49 109 66 52 77 71 55 83 76 58 89 57 43 95 62 46 101 67 49 107 72 52 75 77 55 81 58 58 87 63 43 93 68 46 99 73 49 105 78 52 111 59 55 79 64 58 85 69 43 91 74 46 97 79 49 103 60 52 109 65 55 77 70 58 83 75 43 89 56 46 95 61 49 101 66 52 107 71 55 75 76 58 81 57 43 87 62 46 93 67 49 99 72 52 105 77 55 111 58 58 79 63 43 85 68 46 91 73 49 97 78 52 103 59 55 109 64 58 77 69 43 83 74 46 89 79 49 95 60 52 101 65 55 107 70 58 75 75 43 81 56 46 87 61 49 93 66 52 99 71 55 105 76 58 111 57 43 79 62 46 85 67 49 91 72 52 97 77 55 103 58 58 109 63 43 77 68 46 83 73 49 89 78 52 95 59 55 101 64 58 107 69 43 75 74 46 81 79 49 87 60 52 93 65 55 99 70 58 105 75 43 111 56 46 79 61 49 85 66 52 91 71 55 97 76 58 103 57 43 109 62 46 77 67 49 83 72 52 89 77 55 95 58 58 101 63 43 107 68 46 75 73 49 81 78 52 87 59 55 93 64 58 99 69 43 105 74 46 111 79 49 79 60 52 85 65 55 91 70 58 97 75 43 103 56 46 109 61 49 77 66 52 83 71 55 89 76 58 95 57 43 101 62 46 107 67 49 75 72 52 81 77 55 87 58 58 93 63 43 99 68 46 105 73 49 111 78 52 79 59 55 85 64 58 91 69 43 97 74 46 103 79 49 109 60 52 77 65 55 83 70 58 89 75 43 95 56 46 101 61 49 107 66 52 75 71 55 81 76 58 87 57 43 93 62 46 99 67 49 105 72 52 111 77 55 79 58 58 85 63 43 91 68 46 97 73 49 103 78 52 109 59 55 77 64 58 83 69 43 89 74 46 95 79 49 101 60 52 107 65 55 75 70 58 81 75 43 87 56 46 93 61 49 99 66 52 105 71 55 111 76 58 79 57 43 85 62 46 91 67 49 97 72 52 103 77 55 109 58 58 77 63 43 83 68 46 89 73 49 95 78 52 101 59 55 107 64 58 75 69 43 81 74 46 87 79 49 93 60 52 99 65 55
90 56 42 96 61 45 102 66 48 108 71 51 76 76 54 82 57 57 88 62 42 94 67 45 100 72 48 106 77 51 74 58 54 80 63 57 86 68 42 92 73 45 98 78 48 104 59 51 110 64 54 78 69 57 84 74 42 90 79 45 96 60 48 102 65 51 108 70 54 76 75 57 82 56 42 88 61 45 94 66 48 100 71 51 106 76 54 74 57 57 80 62 42 86 67 45 92 72 48 98 77 51 104 58 54 110 63 57 78 68 42 84 73 45 90 78 48 96 59 51 102 64 54 108 69 57 76 74 42 82 79 45 88 60 48 94 65 51 100 70 54 106 75 57 74 56 42 80 61 45 86 66 48 92 71 51 98 76 54 104 57 57 110 62 42 78 67 45 84 72 48 90 77 51 96 58 54 102 63 57 108 68 42 76 73 45 82 78 48 88 59 51 94 64 54 100 69 57 106 74 42 74 79 45 80 60 48 86 65 51 92 70 54 98 75 57 104 56 42 110 61 45 78 66 48 84 71 51 90 76 54 96 57 57 102 62 42 108 67 45 76 72 48 82 77 51 88 58 54 94 63 57 100 68 42 106 73 45 74 78 48 80 59 51 86 64 54 92 69 57 98 74 42 104 79 45 110 60 48 78 65 51 84 70 54 90 75 57 96 56 42 102 61 45 108 66 48 76 71 51 82 76 54 88 57 57 94 62 42 100 67 45 106 72 48 74 77 51 80 58 54 86 63 57 92 68 42 98 73 45 104 78 48 110 59 51 78 64 54 84 69 57 90 74 42 96 79 45 102 60 48 108 65 51 76 70 54 82 75 57 88 56 42 94 61 45 100 66 48 106 71 51 74 76 54 80 57 57 86 62 42 92 67 45 98 72 48 104 77 51 110 58 54 78 63 57 84 68 42 90 73 45 96 78 48 102 59 51 108 64 54 76 69 57 82 74 42 88 79 45 94 60 48 100 65 51 106 70 54 74 75 57 80 56 42 86 61 45 92 66 48 98 71 51 104 76 54 110 57 57 78 62 42 84 67 45 90 72 48 96 77 51 102 58 54 108 63 57 76 68 42 82 73 45 88 78 48 94 59 51 100 64 54 106 69 57 74 74 42 80 79 45 86 60 48 92 65 51 98 70 54 104 75 57 110 56 42 78 61 45 84 66 48 90 71 51 96 76 54 102 57 57 108 62 42 76 67 45 82 72 48 88 77 51 94 58 54 100 63 57 106 68 42 74 73 45 80 78 48 86 59 51 92 64 54 98 69 57 104 74 42 110 79 45 78 60 48 84 65 51 90 70 54 96 75 57 102 56 42 108 61 45 76 66 48 82 71 51 88 76 54 94 57 57 100 62 42 106 67 45 74 72 48 80 77 51 86 58 54 92 63 57 98 68 42 104 73 45 110 78 48 78 59 51 84 64 54 90 69 57 96 74 42 102 79 45 108 60 48 76 65 51 82 70 54 88 75 57 94 56 42 100 61 45 106 66 48 74 71 51 80 76 54 86 57 57 92 62 42 98 67 45 104 72 48 110 77 51 78 58 54 84 63 57 90 68 42 96 73 45 102 78 48 108 59 51 76 64 54 82 69 57 88 74 42 94 79 45 100 60 48 106 65 51 74 70 54 80 75 57 86 56 42 92 61 45 98 66 48 104 71 51 110 76 54 78 57 57 84 62 42 90 67 45 96 72 48 102 77 51 108 58 54 76 63 57 82 68 42 88 73 45 94 78 48 100 59 51 106 64 54 74 69 57 80 74 42 86 79 45 92 60 48 98 65 51 104 70 54 110 75 57 78 56 42 84 61 45 90 66 48 96 71 51 102 76 54 108 57 57 76 62 42 82 67 45 88 72 48 94 77 51 100 58 54 106 63 57 74 68 42 80 73 45 86 78 48 92 59 51 98 64 54 104 69 57 110 74 42 78 79 45 84 60 48 90 65 51 96 70 54 102 75 57 108 56 42 76 61 45 82 66 48 88 71 51 94 76 54 100 57 57 106 62 42 74 67 45 80 72 48 86 77 51 92 58 54 98 63 57 104 68 42 110 73 45 78 78 48 84 59 51 90 64 54 96 69 57 102 74 42 108 79 45 76 60 48 82 65 51 88 70 54 94 75 57 100 56 42 106 61 45 74 66 48 80 71 51 86 76 54 92 57 57 98 62 42 104 67 45
95 58 50 101 63 53 107 68 56 75 73 59 81 78 44 87 59 47 93 64 50 99 69 53 105 74 56 111 79 59 79 60 44 85 65 47 91 70 50 97 75 53 103 56 56 109 61 59 77 66 44 83 71 47 89 76 50 95 57 53 101 62 56 107 67 59 75 72 44 81 77 47 87 58 50 93 63 53 99 68 56 105 73 59 111 78 44 79 59 47 85 64 50 91 69 53 97 74 56 103 79 59 109 60 44 77 65 47 83 70 50 89 75 53 95 56 56 101 61 59 107 66 44 75 71 47 81 76 50 87 57 53 93 62 56 99 67 59 105 72 44 111 77 47 79 58 50 85 63 53 91 68 56 97 73 59 103 78 44 109 59 47 77 64 50 83 69 53 89 74 56 95 79 59 101 60 44 107 65 47 75 70 50 81 75 53 87 56 56 93 61 59 99 66 44 105 71 47 111 76 50 79 57 53 85 62 56 91 67 59 97 72 44 103 77 47 109 58 50 77 63 53 83 68 56 89 73 59 95 78 44 101 59 47 107 64 50 75 69 53 81 74 56 87 79 59 93 60 44 99 65 47 105 70 50 111 75 53 79 56 56 85 61 59 91 66 44 97 71 47 103 76 50 109 57 53 77 62 56 83 67 59 89 72 44 95 77 47 101 58 50 107 63 53 75 68 56 81 73 59 87 78 44 93 59 47 99 64 50 105 69 53 111 74 56 79 79 59 85 60 44 91 65 47 97 70 50 103 75 53 109 56 56 77 61 59 83 66 44 89 71 47 95 76 50 101 57 53 107 62 56 75 67 59 81 72 44 87 77 47 93 58 50 99 63 53 105 68 56 111 73 59 79 78 44 85 59 47 91 64 50 97 69 53 103 74 56 109 79 59 77 60 44 83 65 47 89 70 50 95 75 53 101 56 56 107 61 59 75 66 44 81 71 47 87 76 50 93 57 53 99 62 56 105 67 59 111 72 44 79 77 47 85 58 50 91 63 53 97 68 56 103 73 59 109 78 44 77 59 47 83 64 50 89 69 53 95 74 56 101 79 59 107 60 44 75 65 47 81 70 50 87 75 53 93 56 56 99 61 59 105 66 44 111 71 47 79 76 50 85 57 53 91 62 56 97 67 59 103 72 44 109 77 47 77 58 50 83 63 53 89 68 56 95 73 59 101 78 44 107 59 47 75 64 50 81 69 53 87 74 56 93 79 59 99 60 44 105 65 47 111 70 50 79 75 53 85 56 56 91 61 59 97 66 44 103 71 47 109 76 50 77 57 53 83 62 56 89 67 59 95 72 44 101 77 47 107 58 50 75 63 53 81 68 56 87 73 59 93 78 44 99 59 47 105 64 50 111 69 53 79 74 56 85 79 59 91 60 44 97 65 47 103 70 50 109 75 53 77 56 56 83 61 59 89 66 44 95 71 47 101 76 50 107 57 53 75 62 56 81 67 59 87 72 44 93 77 47 99 58 50 105 63 53 111 68 56 79 73 59 85 78 44 91 59 47 97 64 50 103 69 53 109 74 56 77 79 59 83 60 44 89 65 47 95 70 50 101 75 53 107 56 56 75 61 59 81 66 44 87 71 47 93 76 50 99 57 53 105 62 56 111 67 59 79 72 44 85 77 47 91 58 50 97 63 53 103 68 56 109 73 59 77 78 44 83 59 47 89 64 50 95 69 53 101 74 56 107 79 59 75 60 44 81 65 47 87 70 50 93 75 53 99 56 56 105 61 59 111 66 44 79 71 47 85 76 50 91 57 53 97 62 56 103 67 59 109 72 44 77 77 47 83 58 50 89 63 53 95 68 56 101 73 59 107 78 44 75 59 47 81 64 50 87 69 53 93 74 56 99 79 59 105 60 44 111 65 47 79 70 50 85 75 53 91 56 56 97 61 59 103 66 44 109 71 47 77 76 50 83 57 53 89 62 56 95 67 59 101 72 44 107 77 47 75 58 50 81 63 53 87 68 56 93 73 59 99 78 44 105 59 47 111 64 50 79 69 53 85 74 56 91 79 59 97 60 44 103 65 47 109 70 50 77 75 53 83 56 56 89 61 59 95 66 44 101 71 47 107 76 50 75 57 53 81 62 56 87 67 59 93 72 44 99 77 47 105 58 50 111 63 53 79 68 56 85 73 59 91 78 44 97 59 47 103 64 50 109 69 53
100 60 58 106 65 43 74 70 46 80 75 49 86 56 52 92 61 55 98 66 58 104 71 43 110 76 46 78 57 49 84 62 52 90 67 55 96 72 58 102 77 43 108 58 46 76 63 49 82 68 52 88 73 55 94 78 58 100 59 43 106 64 46 74 69 49 80 74 52 86 79 55 92 60 58 98 65 43 104 70 46 110 75 49 78 56 52 84 61 55 90 66 58 96 71 43 102 76 46 108 57 49 76 62 52 82 67 55 88 72 58 94 77 43 100 58 46 106 63 49 74 68 52 80 73 55 86 78 58 92 59 43 98 64 46 104 69 49 110 74 52 78 79 55 84 60 58 90 65 43 96 70 46 102 75 49 108 56 52 76 61 55 82 66 58 88 71 43 94 76 46 100 57 49 106 62 52 74 67 55 80 72 58 86 77 43 92 58 46 98 63 49 104 68 52 110 73 55 78 78 58 84 59 43 90 64 46 96 69 49 102 74 52 108 79 55 76 60 58 82 65 43 88 70 46 94 75 49 100 56 52 106 61 55 74 66 58 80 71 43 86 76 46 92 57 49 98 62 52 104 67 55 110 72 58 78 77 43 84 58 46 90 63 49 96 68 52 102 73 55 108 78 58 76 59 43 82 64 46 88 69 49 94 74 52 100 79 55 106 60 58 74 65 43 80 70 46 86 75 49 92 56 52 98 61 55 104 66 58 110 71 43 78 76 46 84 57 49 90 62 52 96 67 55 102 72 58 108 77 43 76 58 46 82 63 49 88 68 52 94 73 55 100 78 58 106 59 43 74 64 46 80 69 49 86 74 52 92 79 55 98 60 58 104 65 43 110 70 46 78 75 49 84 56 52 90 61 55 96 66 58 102 71 43 108 76 46 76 57 49 82 62 52 88 67 55 94 72 58 100 77 43 106 58 46 74 63 49 80 68 52 86 73 55 92 78 58 98 59 43 104 64 46 110 69 49 78 74 52 84 79 55 90 60 58 96 65 43 102 70 46 108 75 49 76 56 52 82 61 55 88 66 58 94 71 43 100 76 46 106 57 49 74 62 52 80 67 55 86 72 58 92 77 43 98 58 46 104 63 49 110 68 52 78 73 55 84 78 58 90 59 43 96 64 46 102 69 49 108 74 52 76 79 55 82 60 58 88 65 43 94 70 46 100 75 49 106 56 52 74 61 55 80 66 58 86 71 43 92 76 46 98 57 49 104 62 52 110 67 55 78 72 58 84 77 43 90 58 46 96 63 49 102 68 52 108 73 55 76 78 58 82 59 43 88 64 46 94 69 49 100 74 52 106 79 55 74 60 58 80 65 43 86 70 46 92 75 49 98 56 52 104 61 55 110 66 58 78 71 43 84 76 46 90 57 49 96 62 52 102 67 55 108 72 58 76 77 43 82 58 46 88 63 49 94 68 52 100 73 55 106 78 58 74 59 43 80 64 46 86 69 49 92 74 52 98 79 55 104 60 58 110 65 43 78 70 46 84 75 49 90 56 52 96 61 55 102 66 58 108 71 43 76 76 46 82 57 49 88 62 52 94 67 55 100 72 58 106 77 43 74 58 46 80 63 49 86 68 52 92 73 55 98 78 58 104 59 43 110 64 46 78 69 49 84 74 52 90 79 55 96 60 58 102 65 43 108 70 46 76 75 49 82 56 52 88 61 55 94 66 58 100 71 43 106 76 46 74 57 49 80 62 52 86 67 55 92 72 58 98 77 43 104 58 46 110 63 49 78 68 52 84 73 55 90 78 58 96 59 43 102 64 46 108 69 49 76 74 52 82 79 55 88 60 58 94 65 43 100 70 46 106 75 49 74 56 52 80 61 55 86 66 58 92 71 43 98 76 46 104 57 49 110 62 52 78 67 55 84 72 58 90 77 43 96 58 46 102 63 49 108 68 52 76 73 55 82 78 58 88 59 43 94 64 46 100 69 49 106 74 52 74 79 55 80 60 58 86 65 43 92 70 46 98 75 49 104 56 52 110 61 55 78 66 58 84 71 43 90 76 46 96 57 49 102 62 52 108 67 55 76 72 58 82 77 43 88 58 46 94 63 49 100 68 52 106 73 55 74 78 58 80 59 43 86 64 46 92 69 49 98 74 52 104 79 55 110 60 58 78 65 43 84 70 46 90 75 49 96 56 52 102 61 55 108 66 58 76 71 43
105 62 48 111 67 51 79 72 54 85 77 57 91 58 42 97 63 45 103 68 48 109 73 51 77 78 54 83 59 57 89 64 42 95 69 45 101 74 48 107 79 51 75 60 54 81 65 57 87 70 42 93 75 45 99 56 48 105 61 51 111 66 54 79 71 57 85 76 42 91 57 45 97 62 48 103 67 51 109 72 54 77 77 57 83 58 42 89 63 45 95 68 48 101 73 51 107 78 54 75 59 57 81 64 42 87 69 45 93 74 48 99 79 51 105 60 54 111 65 57 79 70 42 85 75 45 91 56 48 97 61 51 103 66 54 109 71 57 77 76 42 83 57 45 89 62 48 95 67 51 101 72 54 107 77 57 75 58 42 81 63 45 87 68 48 93 73 51 99 78 54 105 59 57 111 64 42 79 69 45 85 74 48 91 79 51 97 60 54 103 65 57 109 70 42 77 75 45 83 56 48 89 61 51 95 66 54 101 71 57 107 76 42 75 57 45 81 62 48 87 67 51 93 72 54 99 77 57 105 58 42 111 63 45 79 68 48 85 73 51 91 78 54 97 59 57 103 64 42 109 69 45 77 74 48 83 79 51 89 60 54 95 65 57 101 70 42 107 75 45 75 56 48 81 61 51 87 66 54 93 71 57 99 76 42 105 57 45 111 62 48 79 67 51 85 72 54 91 77 57 97 58 42 103 63 45 109 68 48 77 73 51 83 78 54 89 59 57 95 64 42 101 69 45 107 74 48 75 79 51 81 60 54 87 65 57 93 70 42 99 75 45 105 56 48 111 61 51 79 66 54 85 71 57 91 76 42 97 57 45 103 62 48 109 67 51 77 72 54 83 77 57 89 58 42 95 63 45 101 68 48 107 73 51 75 78 54 81 59 57 87 64 42 93 69 45 99 74 48 105 79 51 111 60 54 79 65 57 85 70 42 91 75 45 97 56 48 103 61 51 109 66 54 77 71 57 83 76 42 89 57 45 95 62 48 101 67 51 107 72 54 75 77 57 81 58 42 87 63 45 93 68 48 99 73 51 105 78 54 111 59 57 79 64 42 85 69 45 91 74 48 97 79 51 103 60 54 109 65 57 77 70 42 83 75 45 89 56 48 95 61 51 101 66 54 107 71 57 75 76 42 81 57 45 87 62 48 93 67 51 99 72 54 105 77 57 111 58 42 79 63 45 85 68 48 91 73 51 97 78 54 103 59 57 109 64 42 77 69 45 83 74 48 89 79 51 95 60 54 101 65 57 107 70 42 75 75 45 81 56 48 87 61 51 93 66 54 99 71 57 105 76 42 111 57 45 79 62 48 85 67 51 91 72 54 97 77 57 103 58 42 109 63 45 77 68 48 83 73 51 89 78 54 95 59 57 101 64 42 107 69 45 75 74 48 81 79 51 87 60 54 93 65 57 99 70 42 105 75 45 111 56 48 79 61 51 85 66 54 91 71 57 97 76 42 103 57 45 109 62 48 77 67 51 83 72 54 89 77 57 95 58 42 101 63 45 107 68 48 75 73 51 81 78 54 87 59 57 93 64 42 99 69 45 105 74 48 111 79 51 79 60 54 85 65 57 91 70 42 97 75 45 103 56 48 109 61 51 77 66 54 83 71 57 89 76 42 95 57 45 101 62 48 107 67 51 75 72 54 81 77 57 87 58 42 93 63 45 99 68 48 105 73 51 111 78 54 79 59 57 85 64 42 91 69 45 97 74 48 103 79 51 109 60 54 77 65 57 83 70 42 89 75 45 95 56 48 101 61 51 107 66 54 75 71 57 81 76 42 87 57 45 93 62 48 99 67 51 105 72 54 111 77 57 79 58 42 85 63 45 91 68 48 97 73 51 103 78 54 109 59 57 77 64 42 83 69 45 89 74 48 95 79 51 101 60 54 107 65 57 75 70 42 81 75 45 87 56 48 93 61 51 99 66 54 105 71 57 111 76 42 79 57 45 85 62 48 91 67 51 97 72 54 103 77 57 109 58 42 77 63 45 83 68 48 89 73 51 95 78 54 101 59 57 107 64 42 75 69 45 81 74 48 87 79 51 93 60 54 99 65 57 105 70 42 111 75 45 79 56 48 85 61 51 91 66 54 97 71 57 103 76 42 109 57 45 77 62 48 83 67 51 89 72 54 95 77 57 101 58 42 107 63 45 75 68 48 81 73 51
110 64 56 78 69 59 84 74 44 90 79 47 96 60 50 102 65 53 108 70 56 76 75 59 82 56 44 88 61 47 94 66 50 100 71 53 106 76 56 74 57 59 80 62 44 86 67 47 92 72 50 98 77 53 104 58 56 110 63 59 78 68 44 84 73 47 90 78 50 96 59 53 102 64 56 108 69 59 76 74 44 82 79 47 88 60 50 94 65 53 100 70 56 106 75 59 74 56 44 80 61 47 86 66 50 92 71 53 98 76 56 104 57 59 110 62 44 78 67 47 84 72 50 90 77 53 96 58 56 102 63 59 108 68 44 76 73 47 82 78 50 88 59 53 94 64 56 100 69 59 106 74 44 74 79 47 80 60 50 86 65 53 92 70 56 98 75 59 104 56 44 110 61 47 78 66 50 84 71 53 90 76 56 96 57 59 102 62 44 108 67 47 76 72 50 82 77 53 88 58 56 94 63 59 100 68 44 106 73 47 74 78 50 80 59 53 86 64 56 92 69 59 98 74 44 104 79 47 110 60 50 78 65 53 84 70 56 90 75 59 96 56 44 102 61 47 108 66 50 76 71 53 82 76 56 88 57 59 94 62 44 100 67 47 106 72 50 74 77 53 80 58 56 86 63 59 92 68 44 98 73 47 104 78 50 110 59 53 78 64 56 84 69 59 90 74 44 96 79 47 102 60 50 108 65 53 76 70 56 82 75 59 88 56 44 94 61 47 100 66 50 106 71 53 74 76 56 80 57 59 86 62 44 92 67 47 98 72 50 104 77 53 110 58 56 78 63 59 84 68 44 90 73 47 96 78 50 102 59 53 108 64 56 76 69 59 82 74 44 88 79 47 94 60 50 100 65 53 106 70 56 74 75 59 80 56 44 86 61 47 92 66 50 98 71 53 104 76 56 110 57 59 78 62 44 84 67 47 90 72 50 96 77 53 102 58 56 108 63 59 76 68 44 82 73 47 88 78 50 94 59 53 100 64 56 106 69 59 74 74 44 80 79 47 86 60 50 92 65 53 98 70 56 104 75 59 110 56 44 78 61 47 84 66 50 90 71 53 96 76 56 102 57 59 108 62 44 76 67 47 82 72 50 88 77 53 94 58 56 100 63 59 106 68 44 74 73 47 80 78 50 86 59 53 92 64 56 98 69 59 104 74 44 110 79 47 78 60 50 84 65 53 90 70 56 96 75 59 102 56 44 108 61 47 76 66 50 82 71 53 88 76 56 94 57 59 100 62 44 106 67 47 74 72 50 80 77 53 86 58 56 92 63 59 98 68 44 104 73 47 110 78 50 78 59 53 84 64 56 90 69 59 96 74 44 102 79 47 108 60 50 76 65 53 82 70 56 88 75 59 94 56 44 100 61 47 106 66 50 74 71 53 80 76 56 86 57 59 92 62 44 98 67 47 104 72 50 110 77 53 78 58 56 84 63 59 90 68 44 96 73 47 102 78 50 108 59 53 76 64 56 82 69 59 88 74 44 94 79 47 100 60 50 106 65 53 74 70 56 80 75 59 86 56 44 92 61 47 98 66 50 104 71 53 110 76 56 78 57 59 84 62 44 90 67 47 96 72 50 102 77 53 108 58 56 76 63 59 82 68 44 88 73 47 94 78 50 100 59 53 106 64 56 74 69 59 80 74 44 86 79 47 92 60 50 98 65 53 104 70 56 110 75 59 78 56 44 84 61 47 90 66 50 96 71 53 102 76 56 108 57 59 76 62 44 82 67 47 88 72 50 94 77 53 100 58 56 106 63 59 74 68 44 80 73 47 86 78 50 92 59 53 98 64 56 104 69 59 110 74 44 78 79 47 84 60 50 90 65 53 96 70 56 102 75 59 108 56 44 76 61 47 82 66 50 88 71 53 94 76 56 100 57 59 106 62 44 74 67 47 80 72 50 86 77 53 92 58 56 98 63 59 104 68 44 110 73 47 78 78 50 84 59 53 90 64 56 96 69 59 102 74 44 108 79 47 76 60 50 82 65 53 88 70 56 94 75 59 100 56 44 106 61 47 74 66 50 80 71 53 86 76 56 92 57 59 98 62 44 104 67 47 110 72 50 78 77 53 84 58 56 90 63 59 96 68 44 102 73 47 108 78 50 76 59 53 82 64 56 88 69 59 94 74 44 100 79 47 106 60 50 74 65 53 80 70 56 86 75 59
77 66 46 83 71 49 89 76 52 95 57 55 101 62 58 107 67 43 75 72 46 81 77 49 87 58 52 93 63 55 99 68 58 105 73 43 111 78 46 79 59 49 85 64 52 91 69 55 97 74 58 103 79 43 109 60 46 77 65 49 83 70 52 89 75 55 95 56 58 101 61 43 107 66 46 75 71 49 81 76 52 87 57 55 93 62 58 99 67 43 105 72 46 111 77 49 79 58 52 85 63 55 91 68 58 97 73 43 103 78 46 109 59 49 77 64 52 83 69 55 89 74 58 95 79 43 101 60 46 107 65 49 75 70 52 81 75 55 87 56 58 93 61 43 99 66 46 105 71 49 111 76 52 79 57 55 85 62 58 91 67 43 97 72 46 103 77 49 109 58 52 77 63 55 83 68 58 89 73 43 95 78 46 101 59 49 107 64 52 75 69 55 81 74 58 87 79 43 93 60 46 99 65 49 105 70 52 111 75 55 79 56 58 85 61 43 91 66 46 97 71 49 103 76 52 109 57 55 77 62 58 83 67 43 89 72 46 95 77 49 101 58 52 107 63 55 75 68 58 81 73 43 87 78 46 93 59 49 99 64 52 105 69 55 111 74 58 79 79 43 85 60 46 91 65 49 97 70 52 103 75 55 109 56 58 77 61 43 83 66 46 89 71 49 95 76 52 101 57 55 107 62 58 75 67 43 81 72 46 87 77 49 93 58 52 99 63 55 105 68 58 111 73 43 79 78 46 85 59 49 91 64 52 97 69 55 103 74 58 109 79 43 77 60 46 83 65 49 89 70 52 95 75 55 101 56 58 107 61 43 75 66 46 81 71 49 87 76 52 93 57 55 99 62 58 105 67 43 111 72 46 79 77 49 85 58 52 91 63 55 97 68 58 103 73 43 109 78 46 77 59 49 83 64 52 89 69 55 95 74 58 101 79 43 107 60 46 75 65 49 81 70 52 87 75 55 93 56 58 99 61 43 105 66 46 111 71 49 79 76 52 85 57 55 91 62 58 97 67 43 103 72 46 109 77 49 77 58 52 83 63 55 89 68 58 95 73 43 101 78 46 107 59 49 75 64 52 81 69 55 87 74 58 93 79 43 99 60 46 105 65 49 111 70 52 79 75 55 85 56 58 91 61 43 97 66 46 103 71 49 109 76 52 77 57 55 83 62 58 89 67 43 95 72 46 101 77 49 107 58 52 75 63 55 81 68 58 87 73 43 93 78 46 99 59 49 105 64 52 111 69 55 79 74 58 85 79 43 91 60 46 97 65 49 103 70 52 109 75 55 77 56 58 83 61 43 89 66 46 95 71 49 101 76 52 107 57 55 75 62 58 81 67 43 87 72 46 93 77 49 99 58 52 105 63 55 111 68 58 79 73 43 85 78 46 91 59 49 97 64 52 103 69 55 109 74 58 77 79 43 83 60 46 89 65 49 95 70 52 101 75 55 107 56 58 75 61 43 81 66 46 87 71 49 93 76 52 99 57 55 105 62 58 111 67 43 79 72 46 85 77 49 91 58 52 97 63 55 103 68 58 109 73 43 77 78 46 83 59 49 89 64 52 95 69 55 101 74 58 107 79 43 75 60 46 81 65 49 87 70 52 93 75 55 99 56 58 105 61 43 111 66 46 79 71 49 85 76 52 91 57 55 97 62 58 103 67 43 109 72 46 77 77 49 83 58 52 89 63 55 95 68 58 101 73 43 107 78 46 75 59 49 81 64 52 87 69 55 93 74 58 99 79 43 105 60 46 111 65 49 79 70 52 85 75 55 91 56 58 97 61 43 103 66 46 109 71 49 77 76 52 83 57 55 89 62 58 95 67 43 101 72 46 107 77 49 75 58 52 81 63 55 87 68 58 93 73 43 99 78 46 105 59 49 111 64 52 79 69 55 85 74 58 91 79 43 97 60 46 103 65 49 109 70 52 77 75 55 83 56 58 89 61 43 95 66 46 101 71 49 107 76 52 75 57 55 81 62 58 87 67 43 93 72 46 99 77 49 105 58 52 111 63 55 79 68 58 85 73 43 91 78 46 97 59 49 103 64 52 109 69 55 77 74 58 83 79 43 89 60 46 95 65 49 101 70 52 107 75 55 75 56 58 81 61 43 87 66 46 93 71 49 99 76 52 105 57 55 111 62 58 79 67 43 85 72 46 91 77 49
82 68 54 88 73 57 94 78 42 100 59 45 106 64 48 74 69 51 80 74 54 86 79 57 92 60 42 98 65 45 104 70 48 110 75 51 78 56 54 84 61 57 90 66 42 96 71 45 102 76 48 108 57 51 76 62 54 82 67 57 88 72 42 94 77 45 100 58 48 106 63 51 74 68 54 80 73 57 86 78 42 92 59 45 98 64 48 104 69 51 110 74 54 78 79 57 84 60 42 90 65 45 96 70 48 102 75 51 108 56 54 76 61 57 82 66 42 88 71 45 94 76 48 100 57 51 106 62 54 74 67 57 80 72 42 86 77 45 92 58 48 98 63 51 104 68 54 110 73 57 78 78 42 84 59 45 90 64 48 96 69 51 102 74 54 108 79 57 76 60 42 82 65 45 88 70 48 94 75 51 100 56 54 106 61 57 74 66 42 80 71 45 86 76 48 92 57 51 98 62 54 104 67 57 110 72 42 78 77 45 84 58 48 90 63 51 96 68 54 102 73 57 108 78 42 76 59 45 82 64 48 88 69 51 94 74 54 100 79 57 106 60 42 74 65 45 80 70 48 86 75 51 92 56 54 98 61 57 104 66 42 110 71 45 78 76 48 84 57 51 90 62 54 96 67 57 102 72 42 108 77 45 76 58 48 82 63 51 88 68 54 94 73 57 100 78 42 106 59 45 74 64 48 80 69 51 86 74 54 92 79 57 98 60 42 104 65 45 110 70 48 78 75 51 84 56 54 90 61 57 96 66 42 102 71 45 108 76 48 76 57 51 82 62 54 88 67 57 94 72 42 100 77 45 106 58 48 74 63 51 80 68 54 86 73 57 92 78 42 98 59 45 104 64 48 110 69 51 78 74 54 84 79 57 90 60 42 96 65 45 102 70 48 108 75 51 76 56 54 82 61 57 88 66 42 94 71 45 100 76 48 106 57 51 74 62 54 80 67 57 86 72 42 92 77 45 98 58 48 104 63 51 110 68 54 78 73 57 84 78 42 90 59 45 96 64 48 102 69 51 108 74 54 76 79 57 82 60 42 88 65 45 94 70 48 100 75 51 106 56 54 74 61 57 80 66 42 86 71 45 92 76 48 98 57 51 104 62 54 110 67 57 78 72 42 84 77 45 90 58 48 96 63 51 102 68 54 108 73 57 76 78 42 82 59 45 88 64 48 94 69 51 100 74 54 106 79 57 74 60 42 80 65 45 86 70 48 92 75 51 98 56 54 104 61 57 110 66 42 78 71 45 84 76 48 90 57 51 96 62 54 102 67 57 108 72 42 76 77 45 82 58 48 88 63 51 94 68 54 100 73 57 106 78 42 74 59 45 80 64 48 86 69 51 92 74 54 98 79 57 104 60 42 110 65 45 78 70 48 84 75 51 90 56 54 96 61 57 102 66 42 108 71 45 76 76 48 82 57 51 88 62 54 94 67 57 100 72 42 106 77 45 74 58 48 80 63 51 86 68 54 92 73 57 98 78 42 104 59 45 110 64 48 78 69 51 84 74 54 90 79 57 96 60 42 102 65 45 108 70 48 76 75 51 82 56 54 88 61 57 94 66 42 100 71 45 106 76 48 74 57 51 80 62 54 86 67 57 92 72 42 98 77 45 104 58 48 110 63 51 78 68 54 84 73 57 90 78 42 96 59 45 102 64 48 108 69 51 76 74 54 82 79 57 88 60 42 94 65 45 100 70 48 106 75 51 74 56 54 80 61 57 86 66 42 92 71 45 98 76 48 104 57 51 110 62 54 78 67 57 84 72 42 90 77 45 96 58 48 102 63 51 108 68 54 76 73 57 82 78 42 88 59 45 94 64 48 100 69 51 106 74 54 74 79 57 80 60 42 86 65 45 92 70 48 98 75 51 104 56 54 110 61 57 78 66 42 84 71 45 90 76 48 96 57 51 102 62 54 108 67 57 76 72 42 82 77 45 88 58 48 94 63 51 100 68 54 106 73 57 74 78 42 80 59 45 86 64 48 92 69 51 98 74 54 104 79 57 110 60 42 78 65 45 84 70 48 90 75 51 96 56 54 102 61 57 108 66 42 76 71 45 82 76 48 88 57 51 94 62 54 100 67 57 106 72 42 74 77 45 80 58 48 86 63 51 92 68 54 98 73 57 104 78 42 110 59 45 78 64 48 84 69 51 90 74 54 96 79 57
87 70 44 93 75 47 99 56 50 105 61 53 111 66 56 79 71 59 85 76 44 91 57 47 97 62 50 103 67 53 109 72 56 77 77 59 83 58 44 89 63 47 95 68 50 101 73 53 107 78 56 75 59 59 81 64 44 87 69 47 93 74 50 99 79 53 105 60 56 111 65 59 79 70 44 85 75 47 91 56 50 97 61 53 103 66 56 109 71 59 77 76 44 83 57 47 89 62 50 95 67 53 101 72 56 107 77 59 75 58 44 81 63 47 87 68 50 93 73 53 99 78 56 105 59 59 111 64 44 79 69 47 85 74 50 91 79 53 97 60 56 103 65 59 109 70 44 77 75 47 83 56 50 89 61 53 95 66 56 101 71 59 107 76 44 75 57 47 81 62 50 87 67 53 93 72 56 99 77 59 105 58 44 111 63 47 79 68 50 85 73 53 91 78 56 97 59 59 103 64 44 109 69 47 77 74 50 83 79 53 89 60 56 95 65 59 101 70 44 107 75 47 75 56 50 81 61 53 87 66 56 93 71 59 99 76 44 105 57 47 111 62 50 79 67 53 85 72 56 91 77 59 97 58 44 103 63 47 109 68 50 77 73 53 83 78 56 89 59 59 95 64 44 101 69 47 107 74 50 75 79 53 81 60 56 87 65 59 93 70 44 99 75 47 105 56 50 111 61 53 79 66 56 85 71 59 91 76 44 97 57 47 103 62 50 109 67 53 77 72 56 83 77 59 89 58 44 95 63 47 101 68 50 107 73 53 75 78 56 81 59 59 87 64 44 93 69 47 99 74 50 105 79 53 111 60 56 79 65 59 85 70 44 91 75 47 97 56 50 103 61 53 109 66 56 77 71 59 83 76 44 89 57 47 95 62 50 101 67 53 107 72 56 75 77 59 81 58 44 87 63 47 93 68 50 99 73 53 105 78 56 111 59 59 79 64 44 85 69 47 91 74 50 97 79 53 103 60 56 109 65 59 77 70 44 83 75 47 89 56 50 95 61 53 101 66 56 107 71 59 75 76 44 81 57 47 87 62 50 93 67 53 99 72 56 105 77 59 111 58 44 79 63 47 85 68 50 91 73 53 97 78 56 103 59 59 109 64 44 77 69 47 83 74 50 89 79 53 95 60 56 101 65 59 107 70 44 75 75 47 81 56 50 87 61 53 93 66 56 99 71 59 105 76 44 111 57 47 79 62 50 85 67 53 91 72 56 97 77 59 103 58 44 109 63 47 77 68 50 83 73 53 89 78 56 95 59 59 101 64 44 107 69 47 75 74 50 81 79 53 87 60 56 93 65 59 99 70 44 105 75 47 111 56 50 79 61 53 85 66 56 91 71 59 97 76 44 103 57 47 109 62 50 77 67 53 83 72 56 89 77 59 95 58 44 101 63 47 107 68 50 75 73 53 81 78 56 87 59 59 93 64 44 99 69 47 105 74 50 111 79 53 79 60 56 85 65 59 91 70 44 97 75 47 103 56 50 109 61 53 77 66 56 83 71 59 89 76 44 95 57 47 101 62 50 107 67 53 75 72 56 81 77 59 87 58 44 93 63 47 99 68 50 105 73 53 111 78 56 79 59 59 85 64 44 91 69 47 97 74 50 103 79 53 109 60 56 77 65 59 83 70 44 89 75 47 95 56 50 101 61 53 107 66 56 75 71 59 81 76 44 87 57 47 93 62 50 99 67 53 105 72 56 111 77 59 79 58 44 85 63 47 91 68 50 97 73 53 103 78 56 109 59 59 77 64 44 83 69 47 89 74 50 95 79 53 101 60 56 107 65 59 75 70 44 81 75 47 87 56 50 93 61 53 99 66 56 105 71 59 111 76 44 79 57 47 85 62 50 91 67 53 97 72 56 103 77 59 109 58 44 77 63 47 83 68 50 89 73 53 95 78 56 101 59 59 107 64 44 75 69 47 81 74 50 87 79 53 93 60 56 99 65 59 105 70 44 111 75 47 79 56 50 85 61 53 91 66 56 97 71 59 103 76 44 109 57 47 77 62 50 83 67 53 89 72 56 95 77 59 101 58 44 107 63 47 75 68 50 81 73 53 87 78 56 93 59 59 99 64 44 105 69 47 111 74 50 79 79 53 85 60 56 91 65 59 97 70 44 103 75 47 109 56 50 77 61 53 83 66 56 89 71 59 95 76 44 101 57 47
92 72 52 98 77 55 104 58 58 110 63 43 78 68 46 84 73 49 90 78 52 96 59 55 102 64 58 108 69 43 76 74 46 82 79 49 88 60 52 94 65 55 100 70 58 106 75 43 74 56 46 80 61 49 86 66 52 92 71 55 98 76 58 104 57 43 110 62 46 78 67 49 84 72 52 90 77 55 96 58 58 102 63 43 108 68 46 76 73 49 82 78 52 88 59 55 94 64 58 100 69 43 106 74 46 74 79 49 80 60 52 86 65 55 92 70 58 98 75 43 104 56 46 110 61 49 78 66 52 84 71 55 90 76 58 96 57 43 102 62 46 108 67 49 76 72 52 82 77 55 88 58 58 94 63 43 100 68 46 106 73 49 74 78 52 80 59 55 86 64 58 92 69 43 98 74 46 104 79 49 110 60 52 78 65 55 84 70 58 90 75 43 96 56 46 102 61 49 108 66 52 76 71 55 82 76 58 88 57 43 94 62 46 100 67 49 106 72 52 74 77 55 80 58 58 86 63 43 92 68 46 98 73 49 104 78 52 110 59 55 78 64 58 84 69 43 90 74 46 96 79 49 102 60 52 108 65 55 76 70 58 82 75 43 88 56 46 94 61 49 100 66 52 106 71 55 74 76 58 80 57 43 86 62 46 92 67 49 98 72 52 104 77 55 110 58 58 78 63 43 84 68 46 90 73 49 96 78 52 102 59 55 108 64 58 76 69 43 82 74 46 88 79 49 94 60 52 100 65 55 106 70 58 74 75 43 80 56 46 86 61 49 92 66 52 98 71 55 104 76 58 110 57 43 78 62 46 84 67 49 90 72 52 96 77 55 102 58 58 108 63 43 76 68 46 82 73 49 88 78 52 94 59 55 100 64 58 106 69 43 74 74 46 80 79 49 86 60 52 92 65 55 98 70 58 104 75 43 110 56 46 78 61 49 84 66 52 90 71 55 96 76 58 102 57 43 108 62 46 76 67 49 82 72 52 88 77 55 94 58 58 100 63 43 106 68 46 74 73 49 80 78 52 86 59 55 92 64 58 98 69 43 104 74 46 110 79 49 78 60 52 84 65 55 90 70 58 96 75 43 102 56 46 108 61 49 76 66 52 82 71 55 88 76 58 94 57 43 100 62 46 106 67 49 74 72 52 80 77 55 86 58 58 92 63 43 98 68 46 104 73 49 110 78 52 78 59 55 84 64 58 90 69 43 96 74 46 102 79 49 108 60 52 76 65 55 82 70 58 88 75 43 94 56 46 100 61 49 106 66 52 74 71 55 80 76 58 86 57 43 92 62 46 98 67 49 104 72 52 110 77 55 78 58 58 84 63 43 90 68 46 96 73 49 102 78 52 108 59 55 76 64 58 82 69 43 88 74 46 94 79 49 100 60 52 106 65 55 74 70 58 80 75 43 86 56 46 92 61 49 98 66 52 104 71 55 110 76 58 78 57 43 84 62 46 90 67 49 96 72 52 102 77 55 108 58 58 76 63 43 82 68 46 88 73 49 94 78 52 100 59 55 106 64 58 74 69 43 80 74 46 86 79 49 92 60 52 98 65 55 104 70 58 110 75 43 78 56 46 84 61 49 90 66 52 96 71 55 102 76 58 108 57 43 76 62 46 82 67 49 88 72 52 94 77 55 100 58 58 106 63 43 74 68 46 80 73 49 86 78 52 92 59 55 98 64 58 104 69 43 110 74 46 78 79 49 84 60 52 90 65 55 96 70 58 102 75 43 108 56 46 76 61 49 82 66 52 88 71 55 94 76 58 100 57 43 106 62 46 74 67 49 80 72 52 86 77 55 92 58 58 98 63 43 104 68 46 110 73 49 78 78 52 84 59 55 90 64 58 96 69 43 102 74 46 108 79 49 76 60 52 82 65 55 88 70 58 94 75 43 100 56 46 106 61 49 74 66 52 80 71 55 86 76 58 92 57 43 98 62 46 104 67 49 110 72 52 78 77 55 84 58 58 90 63 43 96 68 46 102 73 49 108 78 52 76 59 55 82 64 58 88 69 43 94 74 46 100 79 49 106 60 52 74 65 55 80 70 58 86 75 43 92 56 46 98 61 49 104 66 52 110 71 55 78 76 58 84 57 43 90 62 46 96 67 49 102 72 52 108 77 55 76 58 58 82 63 43 88 68 46 94 73 49 100 78 52 106 59 55
97 74 42 103 79 45 109 60 48 77 65 51 83 70 54 89 75 57 95 56 42 101 61 45 107 66 48 75 71 51 81 76 54 87 57 57 93 62 42 99 67 45 105 72 48 111 77 51 79 58 54 85 63 57 91 68 42 97 73 45 103 78 48 109 59 51 77 64 54 83 69 57 89 74 42 95 79 45 101 60 48 107 65 51 75 70 54 81 75 57 87 56 42 93 61 45 99 66 48 105 71 51 111 76 54 79 57 57 85 62 42 91 67 45 97 72 48 103 77 51 109 58 54 77 63 57 83 68 42 89 73 45 95 78 48 101 59 51 107 64 54 75 69 57 81 74 42 87 79 45 93 60 48 99 65 51 105 70 54 111 75 57 79 56 42 85 61 45 91 66 48 97 71 51 103 76 54 109 57 57 77 62 42 83 67 45 89 72 48 95 77 51 101 58 54 107 63 57 75 68 42 81 73 45 87 78 48 93 59 51 99 64 54 105 69 57 111 74 42 79 79 45 85 60 48 91 65 51 97 70 54 103 75 57 109 56 42 77 61 45 83 66 48 89 71 51 95 76 54 101 57 57 107 62 42 75 67 45 81 72 48 87 77 51 93 58 54 99 63 57 105 68 42 111 73 45 79 78 48 85 59 51 91 64 54 97 69 57 103 74 42 109 79 45 77 60 48 83 65 51 89 70 54 95 75 57 101 56 42 107 61 45 75 66 48 81 71 51 87 76 54 93 57 57 99 62 42 105 67 45 111 72 48 79 77 51 85 58 54 91 63 57 97 68 42 103 73 45 109 78 48 77 59 51 83 64 54 89 69 57 95 74 42 101 79 45 107 60 48 75 65 51 81 70 54 87 75 57 93 56 42 99 61 45 105 66 48 111 71 51 79 76 54 85 57 57 91 62 42 97 67 45 103 72 48 109 77 51 77 58 54 83 63 57 89 68 42 95 73 45 101 78 48 107 59 51 75 64 54 81 69 57 87 74 42 93 79 45 99 60 48 105 65 51 111 70 54 79 75 57 85 56 42 91 61 45 97 66 48 103 71 51 109 76 54 77 57 57 83 62 42 89 67 45 95 72 48 101 77 51 107 58 54 75 63 57 81 68 42 87 73 45 93 78 48 99 59 51 105 64 54 111 69 57 79 74 42 85 79 45 91 60 48 97 65 51 103 70 54 109 75 57 77 56 42 83 61 45 89 66 48 95 71 51 101 76 54 107 57 57 75 62 42 81 67 45 87 72 48 93 77 51 99 58 54 105 63 57 111 68 42 79 73 45 85 78 48 91 59 51 97 64 54 103 69 57 109 74 42 77 79 45 83 60 48 89 65 51 95 70 54 101 75 57 107 56 42 75 61 45 81 66 48 87 71 51 93 76 54 99 57 57 105 62 42 111 67 45 79 72 48 85 77 51 91 58 54 97 63 57 103 68 42 109 73 45 77 78 48 83 59 51 89 64 54 95 69 57 101 74 42 107 79 45 75 60 48 81 65 51 87 70 54 93 75 57 99 56 42 105 61 45 111 66 48 79 71 51 85 76 54 91 57 57 97 62 42 103 67 45 109 72 48 77 77 51 83 58 54 89 63 57 95 68 42 101 73 45 107 78 48 75 59 51 81 64 54 87 69 57 93 74 42 99 79 45 105 60 48 111 65 51 79 70 54 85 75 57 91 56 42 97 61 45 103 66 48 109 71 51 77 76 54 83 57 57 89 62 42 95 67 45 101 72 48 107 77 51 75 58 54 81 63 57 87 68 42 93 73 45 99 78 48 105 59 51 111 64 54 79 69 57 85 74 42 91 79 45 97 60 48 103 65 51 109 70 54 77 75 57 83 56 42 89 61 45 95 66 48 101 71 51 107 76 54 75 57 57 81 62 42 87 67 45 93 72 48 99 77 51 105 58 54 111 63 57 79 68 42 85 73 45 91 78 48 97 59 51 103 64 54 109 69 57 77 74 42 83 79 45 89 60 48 95 65 51 101 70 54 107 75 57 75 56 42 81 61 45 87 66 48 93 71 51 99 76 54 105 57 57 111 62 42 79 67 45 85 72 48 91 77 51 97 58 54 103 63 57 109 68 42 77 73 45 83 78 48 89 59 51 95 64 54 101 69 57 107 74 42 75 79 45 81 60 48 87 65 51 93 70 54 99 75 57 105 56 42 111 61 45
102 76 50 108 57 53 76 62 56 82 67 59 88 72 44 94 77 47 100 58 50 106 63 53 74 68 56 80 73 59 86 78 44 92 59 47 98 64 50 104 69 53 110 74 56 78 79 59 84 60 44 90 65 47 96 70 50 102 75 53 108 56 56 76 61 59 82 66 44 88 71 47 94 76 50 100 57 53 106 62 56 74 67 59 80 72 44 86 77 47 92 58 50 98 63 53 104 68 56 110 73 59 78 78 44 84 59 47 90 64 50 96 69 53 102 74 56 108 79 59 76 60 44 82 65 47 88 70 50 94 75 53 100 56 56 106 61 59 74 66 44 80 71 47 86 76 50 92 57 53 98 62 56 104 67 59 110 72 44 78 77 47 84 58 50 90 63 53 96 68 56 102 73 59 108 78 44 76 59 47 82 64 50 88 69 53 94 74 56 100 79 59 106 60 44 74 65 47 80 70 50 86 75 53 92 56 56 98 61 59 104 66 44 110 71 47 78 76 50 84 57 53 90 62 56 96 67 59 102 72 44 108 77 47 76 58 50 82 63 53 88 68 56 94 73 59 100 78 44 106 59 47 74 64 50 80 69 53 86 74 56 92 79 59 98 60 44 104 65 47 110 70 50 78 75 53 84 56 56 90 61 59 96 66 44 102 71 47 108 76 50 76 57 53 82 62 56 88 67 59 94 72 44 100 77 47 106 58 50 74 63 53 80 68 56 86 73 59 92 78 44 98 59 47 104 64 50 110 69 53 78 74 56 84 79 59 90 60 44 96 65 47 102 70 50 108 75 53 76 56 56 82 61 59 88 66 44 94 71 47 100 76 50 106 57 53 74 62 56 80 67 59 86 72 44 92 77 47 98 58 50 104 63 53 110 68 56 78 73 59 84 78 44 90 59 47 96 64 50 102 69 53 108 74 56 76 79 59 82 60 44 88 65 47 94 70 50 100 75 53 106 56 56 74 61 59 80 66 44 86 71 47 92 76 50 98 57 53 104 62 56 110 67 59 78 72 44 84 77 47 90 58 50 96 63 53 102 68 56 108 73 59 76 78 44 82 59 47 88 64 50 94 69 53 100 74 56 106 79 59 74 60 44 80 65 47 86 70 50 92 75 53 98 56 56 104 61 59 110 66 44 78 71 47 84 76 50 90 57 53 96 62 56 102 67 59 108 72 44 76 77 47 82 58 50 88 63 53 94 68 56 100 73 59 106 78 44 74 59 47 80 64 50 86 69 53 92 74 56 98 79 59 104 60 44 110 65 47 78 70 50 84 75 53 90 56 56 96 61 59 102 66 44 108 71 47 76 76 50 82 57 53 88 62 56 94 67 59 100 72 44 106 77 47 74 58 50 80 63 53 86 68 56 92 73 59 98 78 44 104 59 47 110 64 50 78 69 53 84 74 56 90 79 59 96 60 44 102 65 47 108 70 50 76 75 53 82 56 56 88 61 59 94 66 44 100 71 47 106 76 50 74 57 53 80 62 56 86 67 59 92 72 44 98 77 47 104 58 50 110 63 53 78 68 56 84 73 59 90 78 44 96 59 47 102 64 50 108 69 53 76 74 56 82 79 59 88 60 44 94 65 47 100 70 50 106 75 53 74 56 56 80 61 59 86 66 44 92 71 47 98 76 50 104 57 53 110 62 56 78 67 59 84 72 44 90 77 47 96 58 50 102 63 53 108 68 56 76 73 59 82 78 44 88 59 47 94 64 50 100 69 53 106 74 56 74 79 59 80 60 44 86 65 47 92 70 50 98 75 53 104 56 56 110 61 59 78 66 44 84 71 47 90 76 50 96 57 53 102 62 56 108 67 59 76 72 44 82 77 47 88 58 50 94 63 53 100 68 56 106 73 59 74 78 44 80 59 47 86 64 50 92 69 53 98 74 56 104 79 59 110 60 44 78 65 47 84 70 50 90 75 53 96 56 56 102 61 59 108 66 44 76 71 47 82 76 50 88 57 53 94 62 56 100 67 59 106 72 44 74 77 47 80 58 50 86 63 53 92 68 56 98 73 59 104 78 44 110 59 47 78 64 50 84 69 53 90 74 56 96 79 59 102 60 44 108 65 47 76 70 50 82 75 53 88 56 56 94 61 59 100 66 44 106 71 47 74 76 50 80 57 53 86 62 56 92 67 59 98 72 44 104 77 47 110 58 50 78 63 53
107 78 58 75 59 43 81 64 46 87 69 49 93 74 52 99 79 55 105 60 58 111 65 43 79 70 46 85 75 49 91 56 52 97 61 55 103 66 58 109 71 43 77 76 46 83 57 49 89 62 52 95 67 55 101 72 58 107 77 43 75 58 46 81 63 49 87 68 52 93 73 55 99 78 58 105 59 43 111 64 46 79 69 49 85 74 52 91 79 55 97 60 58 103 65 43 109 70 46 77 75 49 83 56 52 89 61 55 95 66 58 101 71 43 107 76 46 75 57 49 81 62 52 87 67 55 93 72 58 99 77 43 105 58 46 111 63 49 79 68 52 85 73 55 91 78 58 97 59 43 103 64 46 109 69 49 77 74 52 83 79 55 89 60 58 95 65 43 101 70 46 107 75 49 75 56 52 81 61 55 87 66 58 93 71 43 99 76 46 105 57 49 111 62 52 79 67 55 85 72 58 91 77 43 97 58 46 103 63 49 109 68 52 77 73 55 83 78 58 89 59 43 95 64 46 101 69 49 107 74 52 75 79 55 81 60 58 87 65 43 93 70 46 99 75 49 105 56 52 111 61 55 79 66 58 85 71 43 91 76 46 97 57 49 103 62 52 109 67 55 77 72 58 83 77 43 89 58 46 95 63 49 101 68 52 107 73 55 75 78 58 81 59 43 87 64 46 93 69 49 99 74 52 105 79 55 111 60 58 79 65 43 85 70 46 91 75 49 97 56 52 103 61 55 109 66 58 77 71 43 83 76 46 89 57 49 95 62 52 101 67 55 107 72 58 75 77 43 81 58 46 87 63 49 93 68 52 99 73 55 105 78 58 111 59 43 79 64 46 85 69 49 91 74 52 97 79 55 103 60 58 109 65 43 77 70 46 83 75 49 89 56 52 95 61 55 101 66 58 107 71 43 75 76 46 81 57 49 87 62 52 93 67 55 99 72 58 105 77 43 111 58 46 79 63 49 85 68 52 91 73 55 97 78 58 103 59 43 109 64 46 77 69 49 83 74 52 89 79 55 95 60 58 101 65 43 107 70 46 75 75 49 81 56 52 87 61 55 93 66 58 99 71 43 105 76 46 111 57 49 79 62 52 85 67 55 91 72 58 97 77 43 103 58 46 109 63 49 77 68 52 83 73 55 89 78 58 95 59 43 101 64 46 107 69 49 75 74 52 81 79 55 87 60 58 93 65 43 99 70 46 105 75 49 111 56 52 79 61 55 85 66 58 91 71 43 97 76 46 103 57 49 109 62 52 77 67 55 83 72 58 89 77 43 95 58 46 101 63 49 107 68 52 75 73 55 81 78 58 87 59 43 93 64 46 99 69 49 105 74 52 111 79 55 79 60 58 85 65 43 91 70 46 97 75 49 103 56 52 109 61 55 77 66 58 83 71 43 89 76 46 95 57 49 101 62 52 107 67 55 75 72 58 81 77 43 87 58 46 93 63 49 99 68 52 105 73 55 111 78 58 79 59 43 85 64 46 91 69 49 97 74 52 103 79 55 109 60 58 77 65 43 83 70 46 89 75 49 95 56 52 101 61 55 107 66 58 75 71 43 81 76 46 87 57 49 93 62 52 99 67 55 105 72 58 111 77 43 79 58 46 85 63 49 91 68 52 97 73 55 103 78 58 109 59 43 77 64 46 83 69 49 89 74 52 95 79 55 101 60 58 107 65 43 75 70 46 81 75 49 87 56 52 93 61 55 99 66 58 105 71 43 111 76 46 79 57 49 85 62 52 91 67 55 97 72 58 103 77 43 109 58 46 77 63 49 83 68 52 89 73 55 95 78 58 101 59 43 107 64 46 75 69 49 81 74 52 87 79 55 93 60 58 99 65 43 105 70 46 111 75 49 79 56 52 85 61 55 91 66 58 97 71 43 103 76 46 109 57 49 77 62 52 83 67 55 89 72 58 95 77 43 101 58 46 107 63 49 75 68 52 81 73 55 87 78 58 93 59 43 99 64 46 105 69 49 111 74 52 79 79 55 85 60 58 91 65 43 97 70 46 103 75 49 109 56 52 77 61 55 83 66 58 89 71 43 95 76 46 101 57 49 107 62 52 75 67 55 81 72 58 87 77 43 93 58 46 99 63 49 105 68 52 111 73 55 79 78 58 85 59 43 91 64 46 97 69 49 103 74 52 109 79 55 77 60 58 83 65 43
74 56 48 80 61 51 86 66 54 92 71 57 98 76 42 104 57 45 110 62 48 78 67 51 84 72 54 90 77 57 96 58 42 102 63 45 108 68 48 76 73 51 82 78 54 88 59 57 94 64 42 100 69 45 106 74 48 74 79 51 80 60 54 86 65 57 92 70 42 98 75 45 104 56 48 110 61 51 78 66 54 84 71 57 90 76 42 96 57 45 102 62 48 108 67 51 76 72 54 82 77 57 88 58 42 94 63 45 100 68 48 106 73 51 74 78 54 80 59 57 86 64 42 92 69 45 98 74 48 104 79 51 110 60 54 78 65 57 84 70 42 90 75 45 96 56 48 102 61 51 108 66 54 76 71 57 82 76 42 88 57 45 94 62 48 100 67 51 106 72 54 74 77 57 80 58 42 86 63 45 92 68 48 98 73 51 104 78 54 110 59 57 78 64 42 84 69 45 90 74 48 96 79 51 102 60 54 108 65 57 76 70 42 82 75 45 88 56 48 94 61 51 100 66 54 106 71 57 74 76 42 80 57 45 86 62 48 92 67 51 98 72 54 104 77 57 110 58 42 78 63 45 84 68 48 90 73 51 96 78 54 102 59 57 108 64 42 76 69 45 82 74 48 88 79 51 94 60 54 100 65 57 106 70 42 74 75 45 80 56 48 86 61 51 92 66 54 98 71 57 104 76 42 110 57 45 78 62 48 84 67 51 90 72 54 96 77 57 102 58 42 108 63 45 76 68 48 82 73 51 88 78 54 94 59 57 100 64 42 106 69 45 74 74 48 80 79 51 86 60 54 92 65 57 98 70 42 104 75 45 110 56 48 78 61 51 84 66 54 90 71 57 96 76 42 102 57 45 108 62 48 76 67 51 82 72 54 88 77 57 94 58 42 100 63 45 106 68 48 74 73 51 80 78 54 86 59 57 92 64 42 98 69 45 104 74 48 110 79 51 78 60 54 84 65 57 90 70 42 96 75 45 102 56 48 108 61 51 76 66 54 82 71 57 88 76 42 94 57 45 100 62 48 106 67 51 74 72 54 80 77 57 86 58 42 92 63 45 98 68 48 104 73 51 110 78 54 78 59 57 84 64 42 90 69 45 96 74 48 102 79 51 108 60 54 76 65 57 82 70 42 88 75 45 94 56 48 100 61 51 106 66 54 74 71 57 80 76 42 86 57 45 92 62 48 98 67 51 104 72 54 110 77 57 78 58 42 84 63 45 90 68 48 96 73 51 102 78 54 108 59 57 76 64 42 82 69 45 88 74 48 94 79 51 100 60 54 106 65 57 74 70 42 80 75 45 86 56 48 92 61 51 98 66 54 104 71 57 110 76 42 78 57 45 84 62 48 90 67 51 96 72 54 102 77 57 108 58 42 76 63 45 82 68 48 88 73 51 94 78 54 100 59 57 106 64 42 74 69 45 80 74 48 86 79 51 92 60 54 98 65 57 104 70 42 110 75 45 78 56 48 84 61 51 90 66 54 96 71 57 102 76 42 108 57 45 76 62 48 82 67 51 88 72 54 94 77 57 100 58 42 106 63 45 74 68 48 80 73 51 86 78 54 92 59 57 98 64 42 104 69 45 110 74 48 78 79 51 84 60 54 90 65 57 96 70 42 102 75 45 108 56 48 76 61 51 82 66 54 88 71 57 94 76 42 100 57 45 106 62 48 74 67 51 80 72 54 86 77 57 92 58 42 98 63 45 104 68 48 110 73 51 78 78 54 84 59 57 90 64 42 96 69 45 102 74 48 108 79 51 76 60 54 82 65 57 88 70 42 94 75 45 100 56 48 106 61 51 74 66 54 80 71 57 86 76 42 92 57 45 98 62 48 104 67 51 110 72 54 78 77 57 84 58 42 90 63 45 96 68 48 102 73 51 108 78 54 76 59 57 82 64 42 88 69 45 94 74 48 100 79 51 106 60 54 74 65 57 80 70 42 86 75 45 92 56 48 98 61 51 104 66 54 110 71 57 78 76 42 84 57 45 90 62 48 96 67 51 102 72 54 108 77 57 76 58 42 82 63 45 88 68 48 94 73 51 100 78 54 106 59 57 74 64 42 80 69 45 86 74 48 92 79 51 98 60 54 104 65 57 110 70 42 78 75 45 84 56 48 90 61 51 96 66 54 102 71 57 108 76 42 76 57 45 82 62 48 88 67 51
79 58 56 85 63 59 91 68 44 97 73 47 103 78 50 109 59 53 77 64 56 83 69 59 89 74 44 95 79 47 101 60 50 107 65 53 75 70 56 81 75 59 87 56 44 93 61 47 99 66 50 105 71 53 111 76 56 79 57 59 85 62 44 91 67 47 97 72 50 103 77 53 109 58 56 77 63 59 83 68 44 89 73 47 95 78 50 101 59 53 107 64 56 75 69 59 81 74 44 87 79 47 93 60 50 99 65 53 105 70 56 111 75 59 79 56 44 85 61 47 91 66 50 97 71 53 103 76 56 109 57 59 77 62 44 83 67 47 89 72 50 95 77 53 101 58 56 107 63 59 75 68 44 81 73 47 87 78 50 93 59 53 99 64 56 105 69 59 111 74 44 79 79 47 85 60 50 91 65 53 97 70 56 103 75 59 109 56 44 77 61 47 83 66 50 89 71 53 95 76 56 101 57 59 107 62 44 75 67 47 81 72 50 87 77 53 93 58 56 99 63 59 105 68 44 111 73 47 79 78 50 85 59 53 91 64 56 97 69 59 103 74 44 109 79 47 77 60 50 83 65 53 89 70 56 95 75 59 101 56 44 107 61 47 75 66 50 81 71 53 87 76 56 93 57 59 99 62 44 105 67 47 111 72 50 79 77 53 85 58 56 91 63 59 97 68 44 103 73 47 109 78 50 77 59 53 83 64 56 89 69 59 95 74 44 101 79 47 107 60 50 75 65 53 81 70 56 87 75 59 93 56 44 99 61 47 105 66 50 111 71 53 79 76 56 85 57 59 91 62 44 97 67 47 103 72 50 109 77 53 77 58 56 83 63 59 89 68 44 95 73 47 101 78 50 107 59 53 75 64 56 81 69 59 87 74 44 93 79 47 99 60 50 105 65 53 111 70 56 79 75 59 85 56 44 91 61 47 97 66 50 103 71 53 109 76 56 77 57 59 83 62 44 89 67 47 95 72 50 101 77 53 107 58 56 75 63 59 81 68 44 87 73 47 93 78 50 99 59 53 105 64 56 111 69 59 79 74 44 85 79 47 91 60 50 97 65 53 103 70 56 109 75 59 77 56 44 83 61 47 89 66 50 95 71 53 101 76 56 107 57 59 75 62 44 81 67 47 87 72 50 93 77 53 99 58 56 105 63 59 111 68 44 79 73 47 85 78 50 91 59 53 97 64 56 103 69 59 109 74 44 77 79 47 83 60 50 89 65 53 95 70 56 101 75 59 107 56 44 75 61 47 81 66 50 87 71 53 93 76 56 99 57 59 105 62 44 111 67 47 79 72 50 85 77 53 91 58 56 97 63 59 103 68 44 109 73 47 77 78 50 83 59 53 89 64 56 95 69 59 101 74 44 107 79 47 75 60 50 81 65 53 87 70 56 93 75 59 99 56 44 105 61 47 111 66 50 79 71 53 85 76 56 91 57 59 97 62 44 103 67 47 109 72 50 77 77 53 83 58 56 89 63 59 95 68 44 101 73 47 107 78 50 75 59 53 81 64 56 87 69 59 93 74 44 99 79 47 105 60 50 111 65 53 79 70 56 85 75 59 91 56 44 97 61 47 103 66 50 109 71 53 77 76 56 83 57 59 89 62 44 95 67 47 101 72 50 107 77 53 75 58 56 81 63 59 87 68 44 93 73 47 99 78 50 105 59 53 111 64 56 79 69 59 85 74 44 91 79 47 97 60 50 103 65 53 109 70 56 77 75 59 83 56 44 89 61 47 95 66 50 101 71 53 107 76 56 75 57 59 81 62 44 87 67 47 93 72 50 99 77 53 105 58 56 111 63 59 79 68 44 85 73 47 91 78 50 97 59 53 103 64 56 109 69 59 77 74 44 83 79 47 89 60 50 95 65 53 101 70 56 107 75 59 75 56 44 81 61 47 87 66 50 93 71 53 99 76 56 105 57 59 111 62 44 79 67 47 85 72 50 91 77 53 97 58 56 103 63 59 109 68 44 77 73 47 83 78 50 89 59 53 95 64 56 101 69 59 107 74 44 75 79 47 81 60 50 87 65 53 93 70 56 99 75 59 105 56 44 111 61 47 79 66 50 85 71 53 91 76 56 97 57 59 103 62 44 109 67 47 77 72 50 83 77 53 89 58 56 95 63 59 101 68 44 107 73 47 75 78 50 81 59 53 87 64 56 93 69 59
84 60 46 90 65 49 96 70 52 102 75 55 108 56 58 76 61 43 82 66 46 88 71 49 94 76 52 100 57 55 106 62 58 74 67 43 80 72 46 86 77 49 92 58 52 98 63 55 104 68 58 110 73 43 78 78 46 84 59 49 90 64 52 96 69 55 102 74 58 108 79 43 76 60 46 82 65 49 88 70 52 94 75 55 100 56 58 106 61 43 74 66 46 80 71 49 86 76 52 92 57 55 98 62 58 104 67 43 110 72 46 78 77 49 84 58 52 90 63 55 96 68 58 102 73 43 108 78 46 76 59 49 82 64 52 88 69 55 94 74 58 100 79 43 106 60 46 74 65 49 80 70 52 86 75 55 92 56 58 98 61 43 104 66 46 110 71 49 78 76 52 84 57 55 90 62 58 96 67 43 102 72 46 108 77 49 76 58 52 82 63 55 88 68 58 94 73 43 100 78 46 106 59 49 74 64 52 80 69 55 86 74 58 92 79 43 98 60 46 104 65 49 110 70 52 78 75 55 84 56 58 90 61 43 96 66 46 102 71 49 108 76 52 76 57 55 82 62 58 88 67 43 94 72 46 100 77 49 106 58 52 74 63 55 80 68 58 86 73 43 92 78 46 98 59 49 104 64 52 110 69 55 78 74 58 84 79 43 90 60 46 96 65 49 102 70 52 108 75 55 76 56 58 82 61 43 88 66 46 94 71 49 100 76 52 106 57 55 74 62 58 80 67 43 86 72 46 92 77 49 98 58 52 104 63 55 110 68 58 78 73 43 84 78 46 90 59 49 96 64 52 102 69 55 108 74 58 76 79 43 82 60 46 88 65 49 94 70 52 100 75 55 106 56 58 74 61 43 80 66 46 86 71 49 92 76 52 98 57 55 104 62 58 110 67 43 78 72 46 84 77 49 90 58 52 96 63 55 102 68 58 108 73 43 76 78 46 82 59 49 88 64 52 94 69 55 100 74 58 106 79 43 74 60 46 80 65 49 86 70 52 92 75 55 98 56 58 104 61 43 110 66 46 78 71 49 84 76 52 90 57 55 96 62 58 102 67 43 108 72 46 76 77 49 82 58 52 88 63 55 94 68 58 100 73 43 106 78 46 74 59 49 80 64 52 86 69 55 92 74 58 98 79 43 104 60 46 110 65 49 78 70 52 84 75 55 90 56 58 96 61 43 102 66 46 108 71 49 76 76 52 82 57 55 88 62 58 94 67 43 100 72 46 106 77 49 74 58 52 80 63 55 86 68 58 92 73 43 98 78 46 104 59 49 110 64 52 78 69 55 84 74 58 90 79 43 96 60 46 102 65 49 108 70 52 76 75 55 82 56 58 88 61 43 94 66 46 100 71 49 106 76 52 74 57 55 80 62 58 86 67 43 92 72 46 98 77 49 104 58 52 110 63 55 78 68 58 84 73 43 90 78 46 96 59 49 102 64 52 108 69 55 76 74 58 82 79 43 88 60 46 94 65 49 100 70 52 106 75 55 74 56 58 80 61 43 86 66 46 92 71 49 98 76 52 104 57 55 110 62 58 78 67 43 84 72 46 90 77 49 96 58 52 102 63 55 108 68 58 76 73 43 82 78 46 88 59 49 94 64 52 100 69 55 106 74 58 74 79 43 80 60 46 86 65 49 92 70 52 98 75 55 104 56 58 110 61 43 78 66 46 84 71 49 90 76 52 96 57 55 102 62 58 108 67 43 76 72 46 82 77 49 88 58 52 94 63 55 100 68 58 106 73 43 74 78 46 80 59 49 86 64 52 92 69 55 98 74 58 104 79 43 110 60 46 78 65 49 84 70 52 90 75 55 96 56 58 102 61 43 108 66 46 76 71 49 82 76 52 88 57 55 94 62 58 100 67 43 106 72 46 74 77 49 80 58 52 86 63 55 92 68 58 98 73 43 104 78 46 110 59 49 78 64 52 84 69 55 90 74 58 96 79 43 102 60 46 108 65 49 76 70 52 82 75 55 88 56 58 94 61 43 100 66 46 106 71 49 74 76 52 80 57 55 86 62 58 92 67 43 98 72 46 104 77 49 110 58 52 78 63 55 84 68 58 90 73 43 96 78 46 102 59 49 108 64 52 76 69 55 82 74 58 88 79 43 94 60 46 100 65 49 106 70 52 74 75 55 80 56 58 86 61 43 92 66 46 98 71 49
89 62 54 95 67 57 101 72 42 107 77 45 75 58 48 81 63 51 87 68 54 93 73 57 99 78 42 105 59 45 111 64 48 79 69 51 85 74 54 91 79 57 97 60 42 103 65 45 109 70 48 77 75 51 83 56 54 89 61 57 95 66 42 101 71 45 107 76 48 75 57 51 81 62 54 87 67 57 93 72 42 99 77 45 105 58 48 111 63 51 79 68 54 85 73 57 91 78 42 97 59 45 103 64 48 109 69 51 77 74 54 83 79 57 89 60 42 95 65 45 101 70 48 107 75 51 75 56 54 81 61 57 87 66 42 93 71 45 99 76 48 105 57 51 111 62 54 79 67 57 85 72 42 91 77 45 97 58 48 103 63 51 109 68 54 77 73 57 83 78 42 89 59 45 95 64 48 101 69 51 107 74 54 75 79 57 81 60 42 87 65 45 93 70 48 99 75 51 105 56 54 111 61 57 79 66 42 85 71 45 91 76 48 97 57 51 103 62 54 109 67 57 77 72 42 83 77 45 89 58 48 95 63 51 101 68 54 107 73 57 75 78 42 81 59 45 87 64 48 93 69 51 99 74 54 105 79 57 111 60 42 79 65 45 85 70 48 91 75 51 97 56 54 103 61 57 109 66 42 77 71 45 83 76 48 89 57 51 95 62 54 101 67 57 107 72 42 75 77 45 81 58 48 87 63 51 93 68 54 99 73 57 105 78 42 111 59 45 79 64 48 85 69 51 91 74 54 97 79 57 103 60 42 109 65 45 77 70 48 83 75 51 89 56 54 95 61 57 101 66 42 107 71 45 75 76 48 81 57 51 87 62 54 93 67 57 99 72 42 105 77 45 111 58 48 79 63 51 85 68 54 91 73 57 97 78 42 103 59 45 109 64 48 77 69 51 83 74 54 89 79 57 95 60 42 101 65 45 107 70 48 75 75 51 81 56 54 87 61 57 93 66 42 99 71 45 105 76 48 111 57 51 79 62 54 85 67 57 91 72 42 97 77 45 103 58 48 109 63 51 77 68 54 83 73 57 89 78 42 95 59 45 101 64 48 107 69 51 75 74 54 81 79 57 87 60 42 93 65 45 99 70 48 105 75 51 111 56 54 79 61 57 85 66 42 91 71 45 97 76 48 103 57 51 109 62 54 77 67 57 83 72 42 89 77 45 95 58 48 101 63 51 107 68 54 75 73 57 81 78 42 87 59 45 93 64 48 99 69 51 105 74 54 111 79 57 79 60 42 85 65 45 91 70 48 97 75 51 103 56 54 109 61 57 77 66 42 83 71 45 89 76 48 95 57 51 101 62 54 107 67 57 75 72 42 81 77 45 87 58 48 93 63 51 99 68 54 105 73 57 111 78 42 79 59 45 85 64 48 91 69 51 97 74 54 103 79 57 109 60 42 77 65 45 83 70 48 89 75 51 95 56 54 101 61 57 107 66 42 75 71 45 81 76 48 87 57 51 93 62 54 99 67 57 105 72 42 111 77 45 79 58 48 85 63 51 91 68 54 97 73 57 103 78 42 109 59 45 77 64 48 83 69 51 89 74 54 95 79 57 101 60 42 107 65 45 75 70 48 81 75 51 87 56 54 93 61 57 99 66 42 105 71 45 111 76 48 79 57 51 85 62 54 91 67 57 97 72 42 103 77 45 109 58 48 77 63 51 83 68 54 89 73 57 95 78 42 101 59 45 107 64 48 75 69 51 81 74 54 87 79 57 93 60 42 99 65 45 105 70 48 111 75 51 79 56 54 85 61 57 91 66 42 97 71 45 103 76 48 109 57 51 77 62 54 83 67 57 89 72 42 95 77 45 101 58 48 107 63 51 75 68 54 81 73 57 87 78 42 93 59 45 99 64 48 105 69 51 111 74 54 79 79 57 85 60 42 91 65 45 97 70 48 103 75 51 109 56 54 77 61 57 83 66 42 89 71 45 95 76 48 101 57 51 107 62 54 75 67 57 81 72 42 87 77 45 93 58 48 99 63 51 105 68 54 111 73 57 79 78 42 85 59 45 91 64 48 97 69 51 103 74 54 109 79 57 77 60 42 83 65 45 89 70 48 95 75 51 101 56 54 107 61 57 75 66 42 81 71 45 87 76 48 93 57 51 99 62 54 105 67 57 111 72 42 79 77 45 85 58 48 91 63 51 97 68 54 103 73 57
94 64 44 100 69 47 106 74 50 74 79 53 80 60 56 86 65 59 92 70 44 98 75 47 104 56 50 110 61 53 78 66 56 84 71 59 90 76 44 96 57 47 102 62 50 108 67 53 76 72 56 82 77 59 88 58 44 94 63 47 100 68 50 106 73 53 74 78 56 80 59 59 86 64 44 92 69 47 98 74 50 104 79 53 110 60 56 78 65 59 84 70 44 90 75 47 96 56 50 102 61 53 108 66 56 76 71 59 82 76 44 88 57 47 94 62 50 100 67 53 106 72 56 74 77 59 80 58 44 86 63 47 92 68 50 98 73 53 104 78 56 110 59 59 78 64 44 84 69 47 90 74 50 96 79 53 102 60 56 108 65 59 76 70 44 82 75 47 88 56 50 94 61 53 100 66 56 106 71 59 74 76 44 80 57 47 86 62 50 92 67 53 98 72 56 104 77 59 110 58 44 78 63 47 84 68 50 90 73 53 96 78 56 102 59 59 108 64 44 76 69 47 82 74 50 88 79 53 94 60 56 100 65 59 106 70 44 74 75 47 80 56 50 86 61 53 92 66 56 98 71 59 104 76 44 110 57 47 78 62 50 84 67 53 90 72 56 96 77 59 102 58 44 108 63 47 76 68 50 82 73 53 88 78 56 94 59 59 100 64 44 106 69 47 74 74 50 80 79 53 86 60 56 92 65 59 98 70 44 104 75 47 110 56 50 78 61 53 84 66 56 90 71 59 96 76 44 102 57 47 108 62 50 76 67 53 82 72 56 88 77 59 94 58 44 100 63 47 106 68 50 74 73 53 80 78 56 86 59 59 92 64 44 98 69 47 104 74 50 110 79 53 78 60 56 84 65 59 90 70 44 96 75 47 102 56 50 108 61 53 76 66 56 82 71 59 88 76 44 94 57 47 100 62 50 106 67 53 74 72 56 80 77 59 86 58 44 92 63 47 98 68 50 104 73 53 110 78 56 78 59 59 84 64 44 90 69 47 96 74 50 102 79 53 108 60 56 76 65 59 82 70 44 88 75 47 94 56 50 100 61 53 106 66 56 74 71 59 80 76 44 86 57 47 92 62 50 98 67 53 104 72 56 110 77 59 78 58 44 84 63 47 90 68 50 96 73 53 102 78 56 108 59 59 76 64 44 82 69 47 88 74 50 94 79 53 100 60 56 106 65 59 74 70 44 80 75 47 86 56 50 92 61 53 98 66 56 104 71 59 110 76 44 78 57 47 84 62 50 90 67 53 96 72 56 102 77 59 108 58 44 76 63 47 82 68 50 88 73 53 94 78 56 100 59 59 106 64 44 74 69 47 80 74 50 86 79 53 92 60 56 98 65 59 104 70 44 110 75 47 78 56 50 84 61 53 90 66 56 96 71 59 102 76 44 108 57 47 76 62 50 82 67 53 88 72 56 94 77 59 100 58 44 106 63 47 74 68 50 80 73 53 86 78 56 92 59 59 98 64 44 104 69 47 110 74 50 78 79 53 84 60 56 90 65 59 96 70 44 102 75 47 108 56 50 76 61 53 82 66 56 88 71 59 94 76 44 100 57 47 106 62 50 74 67 53 80 72 56 86 77 59 92 58 44 98 63 47 104 68 50 110 73 53 78 78 56 84 59 59 90 64 44 96 69 47 102 74 50 108 79 53 76 60 56 82 65 59 88 70 44 94 75 47 100 56 50 106 61 53 74 66 56 80 71 59 86 76 44 92 57 47 98 62 50 104 67 53 110 72 56 78 77 59 84 58 44 90 63 47 96 68 50 102 73 53 108 78 56 76 59 59 82 64 44 88 69 47 94 74 50 100 79 53 106 60 56 74 65 59 80 70 44 86 75 47 92 56 50 98 61 53 104 66 56 110 71 59 78 76 44 84 57 47 90 62 50 96 67 53 102 72 56 108 77 59 76 58 44 82 63 47 88 68 50 94 73 53 100 78 56 106 59 59 74 64 44 80 69 47 86 74 50 92 79 53 98 60 56 104 65 59 110 70 44 78 75 47 84 56 50 90 61 53 96 66 56 102 71 59 108 76 44 76 57 47 82 62 50 88 67 53 94 72 56 100 77 59 106 58 44 74 63 47 80 68 50 86 73 53 92 78 56 98 59 59 104 64 44 110 69 47 78 74 50 84 79 53 90 60 56 96 65 59 102 70 44 108 75 47
99 66 52 105 71 55 111 76 58 79 57 43 85 62 46 91 67 49 97 72 52 103 77 55 109 58 58 77 63 43 83 68 46 89 73 49 95 78 52 101 59 55 107 64 58 75 69 43 81 74 46 87 79 49 93 60 52 99 65 55 105 70 58 111 75 43 79 56 46 85 61 49 91 66 52 97 71 55 103 76 58 109 57 43 77 62 46 83 67 49 89 72 52 95 77 55 101 58 58 107 63 43 75 68 46 81 73 49 87 78 52 93 59 55 99 64 58 105 69 43 111 74 46 79 79 49 85 60 52 91 65 55 97 70 58 103 75 43 109 56 46 77 61 49 83 66 52 89 71 55 95 76 58 101 57 43 107 62 46 75 67 49 81 72 52 87 77 55 93 58 58 99 63 43 105 68 46 111 73 49 79 78 52 85 59 55 91 64 58 97 69 43 103 74 46 109 79 49 77 60 52 83 65 55 89 70 58 95 75 43 101 56 46 107 61 49 75 66 52 81 71 55 87 76 58 93 57 43 99 62 46 105 67 49 111 72 52 79 77 55 85 58 58 91 63 43 97 68 46 103 73 49 109 78 52 77 59 55 83 64 58 89 69 43 95 74 46 101 79 49 107 60 52 75 65 55 81 70 58 87 75 43 93 56 46 99 61 49 105 66 52 111 71 55 79 76 58 85 57 43 91 62 46 97 67 49 103 72 52 109 77 55 77 58 58 83 63 43 89 68 46 95 73 49 101 78 52 107 59 55 75 64 58 81 69 43 87 74 46 93 79 49 99 60 52 105 65 55 111 70 58 79 75 43 85 56 46 91 61 49 97 66 52 103 71 55 109 76 58 77 57 43 83 62 46 89 67 49 95 72 52 101 77 55 107 58 58 75 63 43 81 68 46 87 73 49 93 78 52 99 59 55 105 64 58 111 69 43 79 74 46 85 79 49 91 60 52 97 65 55 103 70 58 109 75 43 77 56 46 83 61 49 89 66 52 95 71 55 101 76 58 107 57 43 75 62 46 81 67 49 87 72 52 93 77 55 99 58 58 105 63 43 111 68 46 79 73 49 85 78 52 91 59 55 97 64 58 103 69 43 109 74 46 77 79 49 83 60 52 89 65 55 95 70 58 101 75 43 107 56 46 75 61 49 81 66 52 87 71 55 93 76 58 99 57 43 105 62 46 111 67 49 79 72 52 85 77 55 91 58 58 97 63 43 103 68 46 109 73 49 77 78 52 83 59 55 89 64 58 95 69 43 101 74 46 107 79 49 75 60 52 81 65 55 87 70 58 93 75 43 99 56 46 105 61 49 111 66 52 79 71 55 85 76 58 91 57 43 97 62 46 103 67 49 109 72 52 77 77 55 83 58 58 89 63 43 95 68 46 101 73 49 107 78 52 75 59 55 81 64 58 87 69 43 93 74 46 99 79 49 105 60 52 111 65 55 79 70 58 85 75 43 91 56 46 97 61 49 103 66 52 109 71 55 77 76 58 83 57 43 89 62 46 95 67 49 101 72 52 107 77 55 75 58 58 81 63 43 87 68 46 93 73 49 99 78 52 105 59 55 111 64 58 79 69 43 85 74 46 91 79 49 97 60 52 103 65 55 109 70 58 77 75 43 83 56 46 89 61 49 95 66 52 101 71 55 107 76 58 75 57 43 81 62 46 87 67 49 93 72 52 99 77 55 105 58 58 111 63 43 79 68 46 85 73 49 91 78 52 97 59 55 103 64 58 109 69 43 77 74 46 83 79 49 89 60 52 95 65 55 101 70 58 107 75 43 75 56 46 81 61 49 87 66 52 93 71 55 99 76 58 105 57 43 111 62 46 79 67 49 85 72 52 91 77 55 97 58 58 103 63 43 109 68 46 77 73 49 83 78 52 89 59 55 95 64 58 101 69 43 107 74 46 75 79 49 81 60 52 87 65 55 93 70 58 99 75 43 105 56 46 111 61 49 79 66 52 85 71 55 91 76 58 97 57 43 103 62 46 109 67 49 77 72 52 83 77 55 89 58 58 95 63 43 101 68 46 107 73 49 75 78 52 81 59 55 87 64 58 93 69 43 99 74 46 105 79 49 111 60 52 79 65 55 85 70 58 91 75 43 97 56 46 103 61 49 109 66 52 77 71 55 83 76 58 89 57 43 95 62 46 101 67 49 107 72 52 75 77 55
104 68 42 110 73 45 78 78 48 84 59 51 90 64 54 96 69 57 102 74 42 108 79 45 76 60 48 82 65 51 88 70 54 94 75 57 100 56 42 106 61 45 74 66 48 80 71 51 86 76 54 92 57 57 98 62 42 104 67 45 110 72 48 78 77 51 84 58 54 90 63 57 96 68 42 102 73 45 108 78 48 76 59 51 82 64 54 88 69 57 94 74 42 100 79 45 106 60 48 74 65 51 80 70 54 86 75 57 92 56 42 98 61 45 104 66 48 110 71 51 78 76 54 84 57 57 90 62 42 96 67 45 102 72 48 108 77 51 76 58 54 82 63 57 88 68 42 94 73 45 100 78 48 106 59 51 74 64 54 80 69 57 86 74 42 92 79 45 98 60 48 104 65 51 110 70 54 78 75 57 84 56 42 90 61 45 96 66 48 102 71 51 108 76 54 76 57 57 82 62 42 88 67 45 94 72 48 100 77 51 106 58 54 74 63 57 80 68 42 86 73 45 92 78 48 98 59 51 104 64 54 110 69 57 78 74 42 84 79 45 90 60 48 96 65 51 102 70 54 108 75 57 76 56 42 82 61 45 88 66 48 94 71 51 100 76 54 106 57 57 74 62 42 80 67 45 86 72 48 92 77 51 98 58 54 104 63 57 110 68 42 78 73 45 84 78 48 90 59 51 96 64 54 102 69 57 108 74 42 76 79 45 82 60 48 88 65 51 94 70 54 100 75 57 106 56 42 74 61 45 80 66 48 86 71 51 92 76 54 98 57 57 104 62 42 110 67 45 78 72 48 84 77 51 90 58 54 96 63 57 102 68 42 108 73 45 76 78 48 82 59 51 88 64 54 94 69 57 100 74 42 106 79 45 74 60 48 80 65 51 86 70 54 92 75 57 98 56 42 104 61 45 110 66 48 78 71 51 84 76 54 90 57 57 96 62 42 102 67 45 108 72 48 76 77 51 82 58 54 88 63 57 94 68 42 100 73 45 106 78 48 74 59 51 80 64 54 86 69 57 92 74 42 98 79 45 104 60 48 110 65 51 78 70 54 84 75 57 90 56 42 96 61 45 102 66 48 108 71 51 76 76 54 82 57 57 88 62 42 94 67 45 100 72 48 106 77 51 74 58 54 80 63 57 86 68 42 92 73 45 98 78 48 104 59 51 110 64 54 78 69 57 84 74 42 90 79 45 96 60 48 102 65 51 108 70 54 76 75 57 82 56 42 88 61 45 94 66 48 100 71 51 106 76 54 74 57 57 80 62 42 86 67 45 92 72 48 98 77 51 104 58 54 110 63 57 78 68 42 84 73 45 90 78 48 96 59 51 102 64 54 108 69 57 76 74 42 82 79 45 88 60 48 94 65 51 100 70 54 106 75 57 74 56 42 80 61 45 86 66 48 92 71 51 98 76 54 104 57 57 110 62 42 78 67 45 84 72 48 90 77 51 96 58 54 102 63 57 108 68 42 76 73 45 82 78 48 88 59 51 94 64 54 100 69 57 106 74 42 74 79 45 80 60 48 86 65 51 92 70 54 98 75 57 104 56 42 110 61 45 78 66 48 84 71 51 90 76 54 96 57 57 102 62 42 108 67 45 76 72 48 82 77 51 88 58 54 94 63 57 100 68 42 106 73 45 74 78 48 80 59 51 86 64 54 92 69 57 98 74 42 104 79 45 110 60 48 78 65 51 84 70 54 90 75 57 96 56 42 102 61 45 108 66 48 76 71 51 82 76 54 88 57 57 94 62 42 100 67 45 106 72 48 74 77 51 80 58 54 86 63 57 92 68 42 98 73 45 104 78 48 110 59 51 78 64 54 84 69 57 90 74 42 96 79 45 102 60 48 108 65 51 76 70 54 82 75 57 88 56 42 94 61 45 100 66 48 106 71 51 74 76 54 80 57 57 86 62 42 92 67 45 98 72 48 104 77 51 110 58 54 78 63 57 84 68 42 90 73 45 96 78 48 102 59 51 108 64 54 76 69 57 82 74 42 88 79 45 94 60 48 100 65 51 106 70 54 74 75 57 80 56 42 86 61 45 92 66 48 98 71 51 104 76 54 110 57 57 78 62 42 84 67 45 90 72 48 96 77 51 102 58 54 108 63 57 76 68 42 82 73 45 88 78 48 94 59 51 100 64 54 106 69 57 74 74 42 80 79 45
109 70 50 77 75 53 83 56 56 89 61 59 95 66 44 101 71 47 107 76 50 75 57 53 81 62 56 87 67 59 93 72 44 99 77 47 105 58 50 111 63 53 79 68 56 85 73 59 91 78 44 97 59 47 103 64 50 109 69 53 77 74 56 83 79 59 89 60 44 95 65 47 101 70 50 107 75 53 75 56 56 81 61 59 87 66 44 93 71 47 99 76 50 105 57 53 111 62 56 79 67 59 85 72 44 91 77 47 97 58 50 103 63 53 109 68 56 77 73 59 83 78 44 89 59 47 95 64 50 101 69 53 107 74 56 75 79 59 81 60 44 87 65 47 93 70 50 99 75 53 105 56 56 111 61 59 79 66 44 85 71 47 91 76 50 97 57 53 103 62 56 109 67 59 77 72 44 83 77 47 89 58 50 95 63 53 101 68 56 107 73 59 75 78 44 81 59 47 87 64 50 93 69 53 99 74 56 105 79 59 111 60 44 79 65 47 85 70 50 91 75 53 97 56 56 103 61 59 109 66 44 77 71 47 83 76 50 89 57 53 95 62 56 101 67 59 107 72 44 75 77 47 81 58 50 87 63 53 93 68 56 99 73 59 105 78 44 111 59 47 79 64 50 85 69 53 91 74 56 97 79 59 103 60 44 109 65 47 77 70 50 83 75 53 89 56 56 95 61 59 101 66 44 107 71 47 75 76 50 81 57 53 87 62 56 93 67 59 99 72 44 105 77 47 111 58 50 79 63 53 85 68 56 91 73 59 97 78 44 103 59 47 109 64 50 77 69 53 83 74 56 89 79 59 95 60 44 101 65 47 107 70 50 75 75 53 81 56 56 87 61 59 93 66 44 99 71 47 105 76 50 111 57 53 79 62 56 85 67 59 91 72 44 97 77 47 103 58 50 109 63 53 77 68 56 83 73 59 89 78 44 95 59 47 101 64 50 107 69 53 75 74 56 81 79 59 87 60 44 93 65 47 99 70 50 105 75 53 111 56 56 79 61 59 85 66 44 91 71 47 97 76 50 103 57 53 109 62 56 77 67 59 83 72 44 89 77 47 95 58 50 101 63 53 107 68 56 75 73 59 81 78 44 87 59 47 93 64 50 99 69 53 105 74 56 111 79 59 79 60 44 85 65 47 91 70 50 97 75 53 103 56 56 109 61 59 77 66 44 83 71 47 89 76 50 95 57 53 101 62 56 107 67 59 75 72 44 81 77 47 87 58 50 93 63 53 99 68 56 105 73 59 111 78 44 79 59 47 85 64 50 91 69 53 97 74 56 103 79 59 109 60 44 77 65 47 83 70 50 89 75 53 95 56 56 101 61 59 107 66 44 75 71 47 81 76 50 87 57 53 93 62 56 99 67 59 105 72 44 111 77 47 79 58 50 85 63 53 91 68 56 97 73 59 103 78 44 109 59 47 77 64 50 83 69 53 89 74 56 95 79 59 101 60 44 107 65 47 75 70 50 81 75 53 87 56 56 93 61 59 99 66 44 105 71 47 111 76 50 79 57 53 85 62 56 91 67 59 97 72 44 103 77 47 109 58 50 77 63 53 83 68 56 89 73 59 95 78 44 101 59 47 107 64 50 75 69 53 81 74 56 87 79 59 93 60 44 99 65 47 105 70 50 111 75 53 79 56 56 85 61 59 91 66 44 97 71 47 103 76 50 109 57 53 77 62 56 83 67 59 89 72 44 95 77 47 101 58 50 107 63 53 75 68 56 81 73 59 87 78 44 93 59 47 99 64 50 105 69 53 111 74 56 79 79 59 85 60 44 91 65 47 97 70 50 103 75 53 109 56 56 77 61 59 83 66 44 89 71 47 95 76 50 101 57 53 107 62 56 75 67 59 81 72 44 87 77 47 93 58 50 99 63 53 105 68 56 111 73 59 79 78 44 85 59 47 91 64 50 97 69 53 103 74 56 109 79 59 77 60 44 83 65 47 89 70 50 95 75 53 101 56 56 107 61 59 75 66 44 81 71 47 87 76 50 93 57 53 99 62 56 105 67 59 111 72 44 79 77 47 85 58 50 91 63 53 97 68 56 103 73 59 109 78 44 77 59 47 83 64 50 89 69 53 95 74 56 101 79 59 107 60 44 75 65 47 81 70 50 87 75 53 93 56 56 99 61 59 105 66 44 111 71 47 79 76 50 85 57 53
76 72 58 82 77 43 88 58 46 94 63 49 100 68 52 106 73 55 74 78 58 80 59 43 86 64 46 92 69 49 98 74 52 104 79 55 110 60 58 78 65 43 84 70 46 90 75 49 96 56 52 102 61 55 108 66 58 76 71 43 82 76 46 88 57 49 94 62 52 100 67 55 106 72 58 74 77 43 80 58 46 86 63 49 92 68 52 98 73 55 104 78 58 110 59 43 78 64 46 84 69 49 90 74 52 96 79 55 102 60 58 108 65 43 76 70 46 82 75 49 88 56 52 94 61 55 100 66 58 106 71 43 74 76 46 80 57 49 86 62 52 92 67 55 98 72 58 104 77 43 110 58 46 78 63 49 84 68 52 90 73 55 96 78 58 102 59 43 108 64 46 76 69 49 82 74 52 88 79 55 94 60 58 100 65 43 106 70 46 74 75 49 80 56 52 86 61 55 92 66 58 98 71 43 104 76 46 110 57 49 78 62 52 84 67 55 90 72 58 96 77 43 102 58 46 108 63 49 76 68 52 82 73 55 88 78 58 94 59 43 100 64 46 106 69 49 74 74 52 80 79 55 86 60 58 92 65 43 98 70 46 104 75 49 110 56 52 78 61 55 84 66 58 90 71 43 96 76 46 102 57 49 108 62 52 76 67 55 82 72 58 88 77 43 94 58 46 100 63 49 106 68 52 74 73 55 80 78 58 86 59 43 92 64 46 98 69 49 104 74 52 110 79 55 78 60 58 84 65 43 90 70 46 96 75 49 102 56 52 108 61 55 76 66 58 82 71 43 88 76 46 94 57 49 100 62 52 106 67 55 74 72 58 80 77 43 86 58 46 92 63 49 98 68 52 104 73 55 110 78 58 78 59 43 84 64 46 90 69 49 96 74 52 102 79 55 108 60 58 76 65 43 82 70 46 88 75 49 94 56 52 100 61 55 106 66 58 74 71 43 80 76 46 86 57 49 92 62 52 98 67 55 104 72 58 110 77 43 78 58 46 84 63 49 90 68 52 96 73 55 102 78 58 108 59 43 76 64 46 82 69 49 88 74 52 94 79 55 100 60 58 106 65 43 74 70 46 80 75 49 86 56 52 92 61 55 98 66 58 104 71 43 110 76 46 78 57 49 84 62 52 90 67 55 96 72 58 102 77 43 108 58 46 76 63 49 82 68 52 88 73 55 94 78 58 100 59 43 106 64 46 74 69 49 80 74 52 86 79 55 92 60 58 98 65 43 104 70 46 110 75 49 78 56 52 84 61 55 90 66 58 96 71 43 102 76 46 108 57 49 76 62 52 82 67 55 88 72 58 94 77 43 100 58 46 106 63 49 74 68 52 80 73 55 86 78 58 92 59 43 98 64 46 104 69 49 110 74 52 78 79 55 84 60 58 90 65 43 96 70 46 102 75 49 108 56 52 76 61 55 82 66 58 88 71 43 94 76 46 100 57 49 106 62 52 74 67 55 80 72 58 86 77 43 92 58 46 98 63 49 104 68 52 110 73 55 78 78 58 84 59 43 90 64 46 96 69 49 102 74 52 108 79 55 76 60 58 82 65 43 88 70 46 94 75 49 100 56 52 106 61 55 74 66 58 80 71 43 86 76 46 92 57 49 98 62 52 104 67 55 110 72 58 78 77 43 84 58 46 90 63 49 96 68 52 102 73 55 108 78 58 76 59 43 82 64 46 88 69 49 94 74 52 100 79 55 106 60 58 74 65 43 80 70 46 86 75 49 92 56 52 98 61 55 104 66 58 110 71 43 78 76 46 84 57 49 90 62 52 96 67 55 102 72 58 108 77 43 76 58 46 82 63 49 88 68 52 94 73 55 100 78 58 106 59 43 74 64 46 80 69 49 86 74 52 92 79 55 98 60 58 104 65 43 110 70 46 78 75 49 84 56 52 90 61 55 96 66 58 102 71 43 108 76 46 76 57 49 82 62 52 88 67 55 94 72 58 100 77 43 106 58 46 74 63 49 80 68 52 86 73 55 92 78 58 98 59 43 104 64 46 110 69 49 78 74 52 84 79 55 90 60 58 96 65 43 102 70 46 108 75 49 76 56 52 82 61 55 88 66 58 94 71 43 100 76 46 106 57 49 74 62 52 80 67 55 86 72 58 92 77 43 98 58 46 104 63 49 110 68 52 78 73 55 84 78 58 90 59 43
81 74 48 87 79 51 93 60 54 99 65 57 105 70 42 111 75 45 79 56 48 85 61 51 91 66 54 97 71 57 103 76 42 109 57 45 77 62 48 83 67 51 89 72 54 95 77 57 101 58 42 107 63 45 75 68 48 81 73 51 87 78 54 93 59 57 99 64 42 105 69 45 111 74 48 79 79 51 85 60 54 91 65 57 97 70 42 103 75 45 109 56 48 77 61 51 83 66 54 89 71 57 95 76 42 101 57 45 107 62 48 75 67 51 81 72 54 87 77 57 93 58 42 99 63 45 105 68 48 111 73 51 79 78 54 85 59 57 91 64 42 97 69 45 103 74 48 109 79 51 77 60 54 83 65 57 89 70 42 95 75 45 101 56 48 107 61 51 75 66 54 81 71 57 87 76 42 93 57 45 99 62 48 105 67 51 111 72 54 79 77 57 85 58 42 91 63 45 97 68 48 103 73 51 109 78 54 77 59 57 83 64 42 89 69 45 95 74 48 101 79 51 107 60 54 75 65 57 81 70 42 87 75 45 93 56 48 99 61 51 105 66 54 111 71 57 79 76 42 85 57 45 91 62 48 97 67 51 103 72 54 109 77 57 77 58 42 83 63 45 89 68 48 95 73 51 101 78 54 107 59 57 75 64 42 81 69 45 87 74 48 93 79 51 99 60 54 105 65 57 111 70 42 79 75 45 85 56 48 91 61 51 97 66 54 103 71 57 109 76 42 77 57 45 83 62 48 89 67 51 95 72 54 101 77 57 107 58 42 75 63 45 81 68 48 87 73 51 93 78 54 99 59 57 105 64 42 111 69 45 79 74 48 85 79 51 91 60 54 97 65 57 103 70 42 109 75 45 77 56 48 83 61 51 89 66 54 95 71 57 101 76 42 107 57 45 75 62 48 81 67 51 87 72 54 93 77 57 99 58 42 105 63 45 111 68 48 79 73 51 85 78 54 91 59 57 97 64 42 103 69 45 109 74 48 77 79 51 83 60 54 89 65 57 95 70 42 101 75 45 107 56 48 75 61 51 81 66 54 87 71 57 93 76 42 99 57 45 105 62 48 111 67 51 79 72 54 85 77 57 91 58 42 97 63 45 103 68 48 109 73 51 77 78 54 83 59 57 89 64 42 95 69 45 101 74 48 107 79 51 75 60 54 81 65 57 87 70 42 93 75 45 99 56 48 105 61 51 111 66 54 79 71 57 85 76 42 91 57 45 97 62 48 103 67 51 109 72 54 77 77 57 83 58 42 89 63 45 95 68 48 101 73 51 107 78 54 75 59 57 81 64 42 87 69 45 93 74 48 99 79 51 105 60 54 111 65 57 79 70 42 85 75 45 91 56 48 97 61 51 103 66 54 109 71 57 77 76 42 83 57 45 89 62 48 95 67 51 101 72 54 107 77 57 75 58 42 81 63 45 87 68 48 93 73 51 99 78 54 105 59 57 111 64 42 79 69 45 85 74 48 91 79 51 97 60 54 103 65 57 109 70 42 77 75 45 83 56 48 89 61 51 95 66 54 101 71 57 107 76 42 75 57 45 81 62 48 87 67 51 93 72 54 99 77 57 105 58 42 111 63 45 79 68 48 85 73 51 91 78 54 97 59 57 103 64 42 109 69 45 77 74 48 83 79 51 89 60 54 95 65 57 101 70 42 107 75 45 75 56 48 81 61 51 87 66 54 93 71 57 99 76 42 105 57 45 111 62 48 79 67 51 85 72 54 91 77 57 97 58 42 103 63 45 109 68 48 77 73 51 83 78 54 89 59 57 95 64 42 101 69 45 107 74 48 75 79 51 81 60 54 87 65 57 93 70 42 99 75 45 105 56 48 111 61 51 79 66 54 85 71 57 91 76 42 97 57 45 103 62 48 109 67 51 77 72 54 83 77 57 89 58 42 95 63 45 101 68 48 107 73 51 75 78 54 81 59 57 87 64 42 93 69 45 99 74 48 105 79 51 111 60 54 79 65 57 85 70 42 91 75 45 97 56 48 103 61 51 109 66 54 77 71 57 83 76 42 89 57 45 95 62 48 101 67 51 107 72 54 75 77 57 81 58 42 87 63 45 93 68 48 99 73 51 105 78 54 111 59 57 79 64 42 85 69 45 91 74 48 97 79 51 103 60 54 109 65 57 77 70 42 83 75 45 89 56 48 95 61 51
86 76 56 92 57 59 98 62 44 104 67 47 110 72 50 78 77 53 84 58 56 90 63 59 96 68 44 102 73 47 108 78 50 76 59 53 82 64 56 88 69 59 94 74 44 100 79 47 106 60 50 74 65 53 80 70 56 86 75 59 92 56 44 98 61 47 104 66 50 110 71 53 78 76 56 84 57 59 90 62 44 96 67 47 102 72 50 108 77 53 76 58 56 82 63 59 88 68 44 94 73 47 100 78 50 106 59 53 74 64 56 80 69 59 86 74 44 92 79 47 98 60 50 104 65 53 110 70 56 78 75 59 84 56 44 90 61 47 96 66 50 102 71 53 108 76 56 76 57 59 82 62 44 88 67 47 94 72 50 100 77 53 106 58 56 74 63 59 80 68 44 86 73 47 92 78 50 98 59 53 104 64 56 110 69 59 78 74 44 84 79 47 90 60 50 96 65 53 102 70 56 108 75 59 76 56 44 82 61 47 88 66 50 94 71 53 100 76 56 106 57 59 74 62 44 80 67 47 86 72 50 92 77 53 98 58 56 104 63 59 110 68 44 78 73 47 84 78 50 90 59 53 96 64 56 102 69 59 108 74 44 76 79 47 82 60 50 88 65 53 94 70 56 100 75 59 106 56 44 74 61 47 80 66 50 86 71 53 92 76 56 98 57 59 104 62 44 110 67 47 78 72 50 84 77 53 90 58 56 96 63 59 102 68 44 108 73 47 76 78 50 82 59 53 88 64 56 94 69 59 100 74 44 106 79 47 74 60 50 80 65 53 86 70 56 92 75 59 98 56 44 104 61 47 110 66 50 78 71 53 84 76 56 90 57 59 96 62 44 102 67 47 108 72 50 76 77 53 82 58 56 88 63 59 94 68 44 100 73 47 106 78 50 74 59 53 80 64 56 86 69 59 92 74 44 98 79 47 104 60 50 110 65 53 78 70 56 84 75 59 90 56 44 96 61 47 102 66 50 108 71 53 76 76 56 82 57 59 88 62 44 94 67 47 100 72 50 106 77 53 74 58 56 80 63 59 86 68 44 92 73 47 98 78 50 104 59 53 110 64 56 78 69 59 84 74 44 90 79 47 96 60 50 102 65 53 108 70 56 76 75 59 82 56 44 88 61 47 94 66 50 100 71 53 106 76 56 74 57 59 80 62 44 86 67 47 92 72 50 98 77 53 104 58 56 110 63 59 78 68 44 84 73 47 90 78 50 96 59 53 102 64 56 108 69 59 76 74 44 82 79 47 88 60 50 94 65 53 100 70 56 106 75 59 74 56 44 80 61 47 86 66 50 92 71 53 98 76 56 104 57 59 110 62 44 78 67 47 84 72 50 90 77 53 96 58 56 102 63 59 108 68 44 76 73 47 82 78 50 88 59 53 94 64 56 100 69 59 106 74 44 74 79 47 80 60 50 86 65 53 92 70 56 98 75 59 104 56 44 110 61 47 78 66 50 84 71 53 90 76 56 96 57 59 102 62 44 108 67 47 76 72 50 82 77 53 88 58 56 94 63 59 100 68 44 106 73 47 74 78 50 80 59 53 86 64 56 92 69 59 98 74 44 104 79 47 110 60 50 78 65 53 84 70 56 90 75 59 96 56 44 102 61 47 108 66 50 76 71 53 82 76 56 88 57 59 94 62 44 100 67 47 106 72 50 74 77 53 80 58 56 86 63 59 92 68 44 98 73 47 104 78 50 110 59 53 78 64 56 84 69 59 90 74 44 96 79 47 102 60 50 108 65 53 76 70 56 82 75 59 88 56 44 94 61 47 100 66 50 106 71 53 74 76 56 80 57 59 86 62 44 92 67 47 98 72 50 104 77 53 110 58 56 78 63 59 84 68 44 90 73 47 96 78 50 102 59 53 108 64 56 76 69 59 82 74 44 88 79 47 94 60 50 100 65 53 106 70 56 74 75 59 80 56 44 86 61 47 92 66 50 98 71 53 104 76 56 110 57 59 78 62 44 84 67 47 90 72 50 96 77 53 102 58 56 108 63 59 76 68 44 82 73 47 88 78 50 94 59 53 100 64 56 106 69 59 74 74 44 80 79 47 86 60 50 92 65 53 98 70 56 104 75 59 110 56 44 78 61 47 84 66 50 90 71 53 96 76 56 102 57 59 108 62 44 76 67 47 82 72 50 88 77 53 94 58 56 100 63 59
91 78 46 97 59 49 103 64 52 109 69 55 77 74 58 83 79 43 89 60 46 95 65 49 101 70 52 107 75 55 75 56 58 81 61 43 87 66 46 93 71 49 99 76 52 105 57 55 111 62 58 79 67 43 85 72 46 91 77 49 97 58 52 103 63 55 109 68 58 77 73 43 83 78 46 89 59 49 95 64 52 101 69 55 107 74 58 75 79 43 81 60 46 87 65 49 93 70 52 99 75 55 105 56 58 111 61 43 79 66 46 85 71 49 91 76 52 97 57 55 103 62 58 109 67 43 77 72 46 83 77 49 89 58 52 95 63 55 101 68 58 107 73 43 75 78 46 81 59 49 87 64 52 93 69 55 99 74 58 105 79 43 111 60 46 79 65 49 85 70 52 91 75 55 97 56 58 103 61 43 109 66 46 77 71 49 83 76 52 89 57 55 95 62 58 101 67 43 107 72 46 75 77 49 81 58 52 87 63 55 93 68 58 99 73 43 105 78 46 111 59 49 79 64 52 85 69 55 91 74 58 97 79 43 103 60 46 109 65 49 77 70 52 83 75 55 89 56 58 95 61 43 101 66 46 107 71 49 75 76 52 81 57 55 87 62 58 93 67 43 99 72 46 105 77 49 111 58 52 79 63 55 85 68 58 91 73 43 97 78 46 103 59 49 109 64 52 77 69 55 83 74 58 89 79 43 95 60 46 101 65 49 107 70 52 75 75 55 81 56 58 87 61 43 93 66 46 99 71 49 105 76 52 111 57 55 79 62 58 85 67 43 91 72 46 97 77 49 103 58 52 109 63 55 77 68 58 83 73 43 89 78 46 95 59 49 101 64 52 107 69 55 75 74 58 81 79 43 87 60 46 93 65 49 99 70 52 105 75 55 111 56 58 79 61 43 85 66 46 91 71 49 97 76 52 103 57 55 109 62 58 77 67 43 83 72 46 89 77 49 95 58 52 101 63 55 107 68 58 75 73 43 81 78 46 87 59 49 93 64 52 99 69 55 105 74 58 111 79 43 79 60 46 85 65 49 91 70 52 97 75 55 103 56 58 109 61 43 77 66 46 83 71 49 89 76 52 95 57 55 101 62 58 107 67 43 75 72 46 81 77 49 87 58 52 93 63 55 99 68 58 105 73 43 111 78 46 79 59 49 85 64 52 91 69 55 97 74 58 103 79 43 109 60 46 77 65 49 83 70 52 89 75 55 95 56 58 101 61 43 107 66 46 75 71 49 81 76 52 87 57 55 93 62 58 99 67 43 105 72 46 111 77 49 79 58 52 85 63 55 91 68 58 97 73 43 103 78 46 109 59 49 77 64 52 83 69 55 89 74 58 95 79 43 101 60 46 107 65 49 75 70 52 81 75 55 87 56 58 93 61 43 99 66 46 105 71 49 111 76 52 79 57 55 85 62 58 91 67 43 97 72 46 103 77 49 109 58 52 77 63 55 83 68 58 89 73 43 95 78 46 101 59 49 107 64 52 75 69 55 81 74 58 87 79 43 93 60 46 99 65 49 105 70 52 111 75 55 79 56 58 85 61 43 91 66 46 97 71 49 103 76 52 109 57 55 77 62 58 83 67 43 89 72 46 95 77 49 101 58 52 107 63 55 75 68 58 81 73 43 87 78 46 93 59 49 99 64 52 105 69 55 111 74 58 79 79 43 85 60 46 91 65 49 97 70 52 103 75 55 109 56 58 77 61 43 83 66 46 89 71 49 95 76 52 101 57 55 107 62 58 75 67 43 81 72 46 87 77 49 93 58 52 99 63 55 105 68 58 111 73 43 79 78 46 85 59 49 91 64 52 97 69 55 103 74 58 109 79 43 77 60 46 83 65 49 89 70 52 95 75 55 101 56 58 107 61 43 75 66 46 81 71 49 87 76 52 93 57 55 99 62 58 105 67 43 111 72 46 79 77 49 85 58 52 91 63 55 97 68 58 103 73 43 109 78 46 77 59 49 83 64 52 89 69 55 95 74 58 101 79 43 107 60 46 75 65 49 81 70 52 87 75 55 93 56 58 99 61 43 105 66 46 111 71 49 79 76 52 85 57 55 91 62 58 97 67 43 103 72 46 109 77 49 77 58 52 83 63 55 89 68 58 95 73 43 101 78 46 107 59 49 75 64 52 81 69 55 87 74 58 93 79 43 99 60 46 105 65 49
96 56 54 102 61 57 108 66 42 76 71 45 82 76 48 88 57 51 94 62 54 100 67 57 106 72 42 74 77 45 80 58 48 86 63 51 92 68 54 98 73 57 104 78 42 110 59 45 78 64 48 84 69 51 90 74 54 96 79 57 102 60 42 108 65 45 76 70 48 82 75 51 88 56 54 94 61 57 100 66 42 106 71 45 74 76 48 80 57 51 86 62 54 92 67 57 98 72 42 104 77 45 110 58 48 78 63 51 84 68 54 90 73 57 96 78 42 102 59 45 108 64 48 76 69 51 82 74 54 88 79 57 94 60 42 100 65 45 106 70 48 74 75 51 80 56 54 86 61 57 92 66 42 98 71 45 104 76 48 110 57 51 78 62 54 84 67 57 90 72 42 96 77 45 102 58 48 108 63 51 76 68 54 82 73 57 88 78 42 94 59 45 100 64 48 106 69 51 74 74 54 80 79 57 86 60 42 92 65 45 98 70 48 104 75 51 110 56 54 78 61 57 84 66 42 90 71 45 96 76 48 102 57 51 108 62 54 76 67 57 82 72 42 88 77 45 94 58 48 100 63 51 106 68 54 74 73 57 80 78 42 86 59 45 92 64 48 98 69 51 104 74 54 110 79 57 78 60 42 84 65 45 90 70 48 96 75 51 102 56 54 108 61 57 76 66 42 82 71 45 88 76 48 94 57 51 100 62 54 106 67 57 74 72 42 80 77 45 86 58 48 92 63 51 98 68 54 104 73 57 110 78 42 78 59 45 84 64 48 90 69 51 96 74 54 102 79 57 108 60 42 76 65 45 82 70 48 88 75 51 94 56 54 100 61 57 106 66 42 74 71 45 80 76 48 86 57 51 92 62 54 98 67 57 104 72 42 110 77 45 78 58 48 84 63 51 90 68 54 96 73 57 102 78 42 108 59 45 76 64 48 82 69 51 88 74 54 94 79 57 100 60 42 106 65 45 74 70 48 80 75 51 86 56 54 92 61 57 98 66 42 104 71 45 110 76 48 78 57 51 84 62 54 90 67 57 96 72 42 102 77 45 108 58 48 76 63 51 82 68 54 88 73 57 94 78 42 100 59 45 106 64 48 74 69 51 80 74 54 86 79 57 92 60 42 98 65 45 104 70 48 110 75 51 78 56 54 84 61 57 90 66 42 96 71 45 102 76 48 108 57 51 76 62 54 82 67 57 88 72 42 94 77 45 100 58 48 106 63 51 74 68 54 80 73 57 86 78 42 92 59 45 98 64 48 104 69 51 110 74 54 78 79 57 84 60 42 90 65 45 96 70 48 102 75 51 108 56 54 76 61 57 82 66 42 88 71 45 94 76 48 100 57 51 106 62 54 74 67 57 80 72 42 86 77 45 92 58 48 98 63 51 104 68 54 110 73 57 78 78 42 84 59 45 90 64 48 96 69 51 102 74 54 108 79 57 76 60 42 82 65 45 88 70 48 94 75 51 100 56 54 106 61 57 74 66 42 80 71 45 86 76 48 92 57 51 98 62 54 104 67 57 110 72 42 78 77 45 84 58 48 90 63 51 96 68 54 102 73 57 108 78 42 76 59 45 82 64 48 88 69 51 94 74 54 100 79 57 106 60 42 74 65 45 80 70 48 86 75 51 92 56 54 98 61 57 104 66 42 110 71 45 78 76 48 84 57 51 90 62 54 96 67 57 102 72 42 108 77 45 76 58 48 82 63 51 88 68 54 94 73 57 100 78 42 106 59 45 74 64 48 80 69 51 86 74 54 92 79 57 98 60 42 104 65 45 110 70 48 78 75 51 84 56 54 90 61 57 96 66 42 102 71 45 108 76 48 76 57 51 82 62 54 88 67 57 94 72 42 100 77 45 106 58 48 74 63 51 80 68 54 86 73 57 92 78 42 98 59 45 104 64 48 110 69 51 78 74 54 84 79 57 90 60 42 96 65 45 102 70 48 108 75 51 76 56 54 82 61 57 88 66 42 94 71 45 100 76 48 106 57 51 74 62 54 80 67 57 86 72 42 92 77 45 98 58 48 104 63 51 110 68 54 78 73 57 84 78 42 90 59 45 96 64 48 102 69 51 108 74 54 76 79 57 82 60 42 88 65 45 94 70 48 100 75 51 106 56 54 74 61 57 80 66 42 86 71 45 92 76 48 98 57 51 104 62 54 110 67 57
101 58 44 107 63 47 75 68 50 81 73 53 87 78 56 93 59 59 99 64 44 105 69 47 111 74 50 79 79 53 85 60 56 91 65 59 97 70 44 103 75 47 109 56 50 77 61 53 83 66 56 89 71 59 95 76 44 101 57 47 107 62 50 75 67 53 81 72 56 87 77 59 93 58 44 99 63 47 105 68 50 111 73 53 79 78 56 85 59 59 91 64 44 97 69 47 103 74 50 109 79 53 77 60 56 83 65 59 89 70 44 95 75 47 101 56 50 107 61 53 75 66 56 81 71 59 87 76 44 93 57 47 99 62 50 105 67 53 111 72 56 79 77 59 85 58 44 91 63 47 97 68 50 103 73 53 109 78 56 77 59 59 83 64 44 89 69 47 95 74 50 101 79 53 107 60 56 75 65 59 81 70 44 87 75 47 93 56 50 99 61 53 105 66 56 111 71 59 79 76 44 85 57 47 91 62 50 97 67 53 103 72 56 109 77 59 77 58 44 83 63 47 89 68 50 95 73 53 101 78 56 107 59 59 75 64 44 81 69 47 87 74 50 93 79 53 99 60 56 105 65 59 111 70 44 79 75 47 85 56 50 91 61 53 97 66 56 103 71 59 109 76 44 77 57 47 83 62 50 89 67 53 95 72 56 101 77 59 107 58 44 75 63 47 81 68 50 87 73 53 93 78 56 99 59 59 105 64 44 111 69 47 79 74 50 85 79 53 91 60 56 97 65 59 103 70 44 109 75 47 77 56 50 83 61 53 89 66 56 95 71 59 101 76 44 107 57 47 75 62 50 81 67 53 87 72 56 93 77 59 99 58 44 105 63 47 111 68 50 79 73 53 85 78 56 91 59 59 97 64 44 103 69 47 109 74 50 77 79 53 83 60 56 89 65 59 95 70 44 101 75 47 107 56 50 75 61 53 81 66 56 87 71 59 93 76 44 99 57 47 105 62 50 111 67 53 79 72 56 85 77 59 91 58 44 97 63 47 103 68 50 109 73 53 77 78 56 83 59 59 89 64 44 95 69 47 101 74 50 107 79 53 75 60 56 81 65 59 87 70 44 93 75 47 99 56 50 105 61 53 111 66 56 79 71 59 85 76 44 91 57 47 97 62 50 103 67 53 109 72 56 77 77 59 83 58 44 89 63 47 95 68 50 101 73 53 107 78 56 75 59 59 81 64 44 87 69 47 93 74 50 99 79 53 105 60 56 111 65 59 79 70 44 85 75 47 91 56 50 97 61 53 103 66 56 109 71 59 77 76 44 83 57 47 89 62 50 95 67 53 101 72 56 107 77 59 75 58 44 81 63 47 87 68 50 93 73 53 99 78 56 105 59 59 111 64 44 79 69 47 85 74 50 91 79 53 97 60 56 103 65 59 109 70 44 77 75 47 83 56 50 89 61 53 95 66 56 101 71 59 107 76 44 75 57 47 81 62 50 87 67 53 93 72 56 99 77 59 105 58 44 111 63 47 79 68 50 85 73 53 91 78 56 97 59 59 103 64 44 109 69 47 77 74 50 83 79 53 89 60 56 95 65 59 101 70 44 107 75 47 75 56 50 81 61 53 87 66 56 93 71 59 99 76 44 105 57 47 111 62 50 79 67 53 85 72 56 91 77 59 97 58 44 103 63 47 109 68 50 77 73 53 83 78 56 89 59 59 95 64 44 101 69 47 107 74 50 75 79 53 81 60 56 87 65 59 93 70 44 99 75 47 105 56 50 111 61 53 79 66 56 85 71 59 91 76 44 97 57 47 103 62 50 109 67 53 77 72 56 83 77 59 89 58 44 95 63 47 101 68 50 107 73 53 75 78 56 81 59 59 87 64 44 93 69 47 99 74 50 105 79 53 111 60 56 79 65 59 85 70 44 91 75 47 97 56 50 103 61 53 109 66 56 77 71 59 83 76 44 89 57 47 95 62 50 101 67 53 107 72 56 75 77 59 81 58 44 87 63 47 93 68 50 99 73 53 105 78 56 111 59 59 79 64 44 85 69 47 91 74 50 97 79 53 103 60 56 109 65 59 77 70 44 83 75 47 89 56 50 95 61 53 101 66 56 107 71 59 75 76 44 81 57 47 87 62 50 93 67 53 99 72 56 105 77 59 111 58 44 79 63 47 85 68 50 91 73 53 97 78 56 103 59 59 109 64 44 77 69 47
106 60 52 74 65 55 80 70 58 86 75 43 92 56 46 98 61 49 104 66 52 110 71 55 78 76 58 84 57 43 90 62 46 96 67 49 102 72 52 108 77 55 76 58 58 82 63 43 88 68 46 94 73 49 100 78 52 106 59 55 74 64 58 80 69 43 86 74 46 92 79 49 98 60 52 104 65 55 110 70 58 78 75 43 84 56 46 90 61 49 96 66 52 102 71 55 108 76 58 76 57 43 82 62 46 88 67 49 94 72 52 100 77 55 106 58 58 74 63 43 80 68 46 86 73 49 92 78 52 98 59 55 104 64 58 110 69 43 78 74 46 84 79 49 90 60 52 96 65 55 102 70 58 108 75 43 76 56 46 82 61 49 88 66 52 94 71 55 100 76 58 106 57 43 74 62 46 80 67 49 86 72 52 92 77 55 98 58 58 104 63 43 110 68 46 78 73 49 84 78 52 90 59 55 96 64 58 102 69 43 108 74 46 76 79 49 82 60 52 88 65 55 94 70 58 100 75 43 106 56 46 74 61 49 80 66 52 86 71 55 92 76 58 98 57 43 104 62 46 110 67 49 78 72 52 84 77 55 90 58 58 96 63 43 102 68 46 108 73 49 76 78 52 82 59 55 88 64 58 94 69 43 100 74 46 106 79 49 74 60 52 80 65 55 86 70 58 92 75 43 98 56 46 104 61 49 110 66 52 78 71 55 84 76 58 90 57 43 96 62 46 102 67 49 108 72 52 76 77 55 82 58 58 88 63 43 94 68 46 100 73 49 106 78 52 74 59 55 80 64 58 86 69 43 92 74 46 98 79 49 104 60 52 110 65 55 78 70 58 84 75 43 90 56 46 96 61 49 102 66 52 108 71 55 76 76 58 82 57 43 88 62 46 94 67 49 100 72 52 106 77 55 74 58 58 80 63 43 86 68 46 92 73 49 98 78 52 104 59 55 110 64 58 78 69 43 84 74 46 90 79 49 96 60 52 102 65 55 108 70 58 76 75 43 82 56 46 88 61 49 94 66 52 100 71 55 106 76 58 74 57 43 80 62 46 86 67 49 92 72 52 98 77 55 104 58 58 110 63 43 78 68 46 84 73 49 90 78 52 96 59 55 102 64 58 108 69 43 76 74 46 82 79 49 88 60 52 94 65 55 100 70 58 106 75 43 74 56 46 80 61 49 86 66 52 92 71 55 98 76 58 104 57 43 110 62 46 78 67 49 84 72 52 90 77 55 96 58 58 102 63 43 108 68 46 76 73 49 82 78 52 88 59 55 94 64 58 100 69 43 106 74 46 74 79 49 80 60 52 86 65 55 92 70 58 98 75 43 104 56 46 110 61 49 78 66 52 84 71 55 90 76 58 96 57 43 102 62 46 108 67 49 76 72 52 82 77 55 88 58 58 94 63 43 100 68 46 106 73 49 74 78 52 80 59 55 86 64 58 92 69 43 98 74 46 104 79 49 110 60 52 78 65 55 84 70 58 90 75 43 96 56 46 102 61 49 108 66 52 76 71 55 82 76 58 88 57 43 94 62 46 100 67 49 106 72 52 74 77 55 80 58 58 86 63 43 92 68 46 98 73 49 104 78 52 110 59 55 78 64 58 84 69 43 90 74 46 96 79 49 102 60 52 108 65 55 76 70 58 82 75 43 88 56 46 94 61 49 100 66 52 106 71 55 74 76 58 80 57 43 86 62 46 92 67 49 98 72 52 104 77 55 110 58 58 78 63 43 84 68 46 90 73 49 96 78 52 102 59 55 108 64 58 76 69 43 82 74 46 88 79 49 94 60 52 100 65 55 106 70 58 74 75 43 80 56 46 86 61 49 92 66 52 98 71 55 104 76 58 110 57 43 78 62 46 84 67 49 90 72 52 96 77 55 102 58 58 108 63 43 76 68 46 82 73 49 88 78 52 94 59 55 100 64 58 106 69 43 74 74 46 80 79 49 86 60 52 92 65 55 98 70 58 104 75 43 110 56 46 78 61 49 84 66 52 90 71 55 96 76 58 102 57 43 108 62 46 76 67 49 82 72 52 88 77 55 94 58 58 100 63 43 106 68 46 74 73 49 80 78 52 86 59 55 92 64 58 98 69 43 104 74 46 110 79 49 78 60 52 84 65 55 90 70 58 96 75 43 102 56 46 108 61 49 76 66 52 82 71 55
111 62 42 79 67 45 85 72 48 91 77 51 97 58 54 103 63 57 109 68 42 77 73 45 83 78 48 89 59 51 95 64 54 101 69 57 107 74 42 75 79 45 81 60 48 87 65 51 93 70 54 99 75 57 105 56 42 111 61 45 79 66 48 85 71 51 91 76 54 97 57 57 103 62 42 109 67 45 77 72 48 83 77 51 89 58 54 95 63 57 101 68 42 107 73 45 75 78 48 81 59 51 87 64 54 93 69 57 99 74 42 105 79 45 111 60 48 79 65 51 85 70 54 91 75 57 97 56 42 103 61 45 109 66 48 77 71 51 83 76 54 89 57 57 95 62 42 101 67 45 107 72 48 75 77 51 81 58 54 87 63 57 93 68 42 99 73 45 105 78 48 111 59 51 79 64 54 85 69 57 91 74 42 97 79 45 103 60 48 109 65 51 77 70 54 83 75 57 89 56 42 95 61 45 101 66 48 107 71 51 75 76 54 81 57 57 87 62 42 93 67 45 99 72 48 105 77 51 111 58 54 79 63 57 85 68 42 91 73 45 97 78 48 103 59 51 109 64 54 77 69 57 83 74 42 89 79 45 95 60 48 101 65 51 107 70 54 75 75 57 81 56 42 87 61 45 93 66 48 99 71 51 105 76 54 111 57 57 79 62 42 85 67 45 91 72 48 97 77 51 103 58 54 109 63 57 77 68 42 83 73 45 89 78 48 95 59 51 101 64 54 107 69 57 75 74 42 81 79 45 87 60 48 93 65 51 99 70 54 105 75 57 111 56 42 79 61 45 85 66 48 91 71 51 97 76 54 103 57 57 109 62 42 77 67 45 83 72 48 89 77 51 95 58 54 101 63 57 107 68 42 75 73 45 81 78 48 87 59 51 93 64 54 99 69 57 105 74 42 111 79 45 79 60 48 85 65 51 91 70 54 97 75 57 103 56 42 109 61 45 77 66 48 83 71 51 89 76 54 95 57 57 101 62 42 107 67 45 75 72 48 81 77 51 87 58 54 93 63 57 99 68 42 105 73 45 111 78 48 79 59 51 85 64 54 91 69 57 97 74 42 103 79 45 109 60 48 77 65 51 83 70 54 89 75 57 95 56 42 101 61 45 107 66 48 75 71 51 81 76 54 87 57 57 93 62 42 99 67 45 105 72 48 111 77 51 79 58 54 85 63 57 91 68 42 97 73 45 103 78 48 109 59 51 77 64 54 83 69 57 89 74 42 95 79 45 101 60 48 107 65 51 75 70 54 81 75 57 87 56 42 93 61 45 99 66 48 105 71 51 111 76 54 79 57 57 85 62 42 91 67 45 97 72 48 103 77 51 109 58 54 77 63 57 83 68 42 89 73 45 95 78 48 101 59 51 107 64 54 75 69 57 81 74 42 87 79 45 93 60 48 99 65 51 105 70 54 111 75 57 79 56 42 85 61 45 91 66 48 97 71 51 103 76 54 109 57 57 77 62 42 83 67 45 89 72 48 95 77 51 101 58 54 107 63 57 75 68 42 81 73 45 87 78 48 93 59 51 99 64 54 105 69 57 111 74 42 79 79 45 85 60 48 91 65 51 97 70 54 103 75 57 109 56 42 77 61 45 83 66 48 89 71 51 95 76 54 101 57 57 107 62 42 75 67 45 81 72 48 87 77 51 93 58 54 99 63 57 105 68 42 111 73 45 79 78 48 85 59 51 91 64 54 97 69 57 103 74 42 109 79 45 77 60 48 83 65 51 89 70 54 95 75 57 101 56 42 107 61 45 75 66 48 81 71 51 87 76 54 93 57 57 99 62 42 105 67 45 111 72 48 79 77 51 85 58 54 91 63 57 97 68 42 103 73 45 109 78 48 77 59 51 83 64 54 89 69 57 95 74 42 101 79 45 107 60 48 75 65 51 81 70 54 87 75 57 93 56 42 99 61 45 105 66 48 111 71 51 79 76 54 85 57 57 91 62 42 97 67 45 103 72 48 109 77 51 77 58 54 83 63 57 89 68 42 95 73 45 101 78 48 107 59 51 75 64 54 81 69 57 87 74 42 93 79 45 99 60 48 105 65 51 111 70 54 79 75 57 85 56 42 91 61 45 97 66 48 103 71 51 109 76 54 77 57 57 83 62 42 89 67 45 95 72 48 101 77 51 107 58 54 75 63 57 81 68 42 87 73 45
78 64 50 84 69 53 90 74 56 96 79 59 102 60 44 108 65 47 76 70 50 82 75 53 88 56 56 94 61 59 100 66 44 106 71 47 74 76 50 80 57 53 86 62 56 92 67 59 98 72 44 104 77 47 110 58 50 78 63 53 84 68 56 90 73 59 96 78 44 102 59 47 108 64 50 76 69 53 82 74 56 88 79 59 94 60 44 100 65 47 106 70 50 74 75 53 80 56 56 86 61 59 92 66 44 98 71 47 104 76 50 110 57 53 78 62 56 84 67 59 90 72 44 96 77 47 102 58 50 108 63 53 76 68 56 82 73 59 88 78 44 94 59 47 100 64 50 106 69 53 74 74 56 80 79 59 86 60 44 92 65 47 98 70 50 104 75 53 110 56 56 78 61 59 84 66 44 90 71 47 96 76 50 102 57 53 108 62 56 76 67 59 82 72 44 88 77 47 94 58 50 100 63 53 106 68 56 74 73 59 80 78 44 86 59 47 92 64 50 98 69 53 104 74 56 110 79 59 78 60 44 84 65 47 90 70 50 96 75 53 102 56 56 108 61 59 76 66 44 82 71 47 88 76 50 94 57 53 100 62 56 106 67 59 74 72 44 80 77 47 86 58 50 92 63 53 98 68 56 104 73 59 110 78 44 78 59 47 84 64 50 90 69 53 96 74 56 102 79 59 108 60 44 76 65 47 82 70 50 88 75 53 94 56 56 100 61 59 106 66 44 74 71 47 80 76 50 86 57 53 92 62 56 98 67 59 104 72 44 110 77 47 78 58 50 84 63 53 90 68 56 96 73 59 102 78 44 108 59 47 76 64 50 82 69 53 88 74 56 94 79 59 100 60 44 106 65 47 74 70 50 80 75 53 86 56 56 92 61 59 98 66 44 104 71 47 110 76 50 78 57 53 84 62 56 90 67 59 96 72 44 102 77 47 108 58 50 76 63 53 82 68 56 88 73 59 94 78 44 100 59 47 106 64 50 74 69 53 80 74 56 86 79 59 92 60 44 98 65 47 104 70 50 110 75 53 78 56 56 84 61 59 90 66 44 96 71 47 102 76 50 108 57 53 76 62 56 82 67 59 88 72 44 94 77 47 100 58 50 106 63 53 74 68 56 80 73 59 86 78 44 92 59 47 98 64 50 104 69 53 110 74 56 78 79 59 84 60 44 90 65 47 96 70 50 102 75 53 108 56 56 76 61 59 82 66 44 88 71 47 94 76 50 100 57 53 106 62 56 74 67 59 80 72 44 86 77 47 92 58 50 98 63 53 104 68 56 110 73 59 78 78 44 84 59 47 90 64 50 96 69 53 102 74 56 108 79 59 76 60 44 82 65 47 88 70 50 94 75 53 100 56 56 106 61 59 74 66 44 80 71 47 86 76 50 92 57 53 98 62 56 104 67 59 110 72 44 78 77 47 84 58 50 90 63 53 96 68 56 102 73 59 108 78 44 76 59 47 82 64 50 88 69 53 94 74 56 100 79 59 106 60 44 74 65 47 80 70 50 86 75 53 92 56 56 98 61 59 104 66 44 110 71 47 78 76 50 84 57 53 90 62 56 96 67 59 102 72 44 108 77 47 76 58 50 82 63 53 88 68 56 94 73 59 100 78 44 106 59 47 74 64 50 80 69 53 86 74 56 92 79 59 98 60 44 104 65 47 110 70 50 78 75 53 84 56 56 90 61 59 96 66 44 102 71 47 108 76 50 76 57 53 82 62 56 88 67 59 94 72 44 100 77 47 106 58 50 74 63 53 80 68 56 86 73 59 92 78 44 98 59 47 104 64 50 110 69 53 78 74 56 84 79 59 90 60 44 96 65 47 102 70 50 108 75 53 76 56 56 82 61 59 88 66 44 94 71 47 100 76 50 106 57 53 74 62 56 80 67 59 86 72 44 92 77 47 98 58 50 104 63 53 110 68 56 78 73 59 84 78 44 90 59 47 96 64 50 102 69 53 108 74 56 76 79 59 82 60 44 88 65 47 94 70 50 100 75 53 106 56 56 74 61 59 80 66 44 86 71 47 92 76 50 98 57 53 104 62 56 110 67 59 78 72 44 84 77 47 90 58 50 96 63 53 102 68 56 108 73 59 76 78 44 82 59 47 88 64 50 94 69 53 100 74 56 106 79 59 74 60 44 80 65 47 86 70 50 92 75 53
83 66 58 89 71 43 95 76 46 101 57 49 107 62 52 75 67 55 81 72 58 87 77 43 93 58 46 99 63 49 105 68 52 111 73 55 79 78 58 85 59 43 91 64 46 97 69 49 103 74 52 109 79 55 77 60 58 83 65 43 89 70 46 95 75 49 101 56 52 107 61 55 75 66 58 81 71 43 87 76 46 93 57 49 99 62 52 105 67 55 111 72 58 79 77 43 85 58 46 91 63 49 97 68 52 103 73 55 109 78 58 77 59 43 83 64 46 89 69 49 95 74 52 101 79 55 107 60 58 75 65 43 81 70 46 87 75 49 93 56 52 99 61 55 105 66 58 111 71 43 79 76 46 85 57 49 91 62 52 97 67 55 103 72 58 109 77 43 77 58 46 83 63 49 89 68 52 95 73 55 101 78 58 107 59 43 75 64 46 81 69 49 87 74 52 93 79 55 99 60 58 105 65 43 111 70 46 79 75 49 85 56 52 91 61 55 97 66 58 103 71 43 109 76 46 77 57 49 83 62 52 89 67 55 95 72 58 101 77 43 107 58 46 75 63 49 81 68 52 87 73 55 93 78 58 99 59 43 105 64 46 111 69 49 79 74 52 85 79 55 91 60 58 97 65 43 103 70 46 109 75 49 77 56 52 83 61 55 89 66 58 95 71 43 101 76 46 107 57 49 75 62 52 81 67 55 87 72 58 93 77 43 99 58 46 105 63 49 111 68 52 79 73 55 85 78 58 91 59 43 97 64 46 103 69 49 109 74 52 77 79 55 83 60 58 89 65 43 95 70 46 101 75 49 107 56 52 75 61 55 81 66 58 87 71 43 93 76 46 99 57 49 105 62 52 111 67 55 79 72 58 85 77 43 91 58 46 97 63 49 103 68 52 109 73 55 77 78 58 83 59 43 89 64 46 95 69 49 101 74 52 107 79 55 75 60 58 81 65 43 87 70 46 93 75 49 99 56 52 105 61 55 111 66 58 79 71 43 85 76 46 91 57 49 97 62 52 103 67 55 109 72 58 77 77 43 83 58 46 89 63 49 95 68 52 101 73 55 107 78 58 75 59 43 81 64 46 87 69 49 93 74 52 99 79 55 105 60 58 111 65 43 79 70 46 85 75 49 91 56 52 97 61 55 103 66 58 109 71 43 77 76 46 83 57 49 89 62 52 95 67 55 101 72 58 107 77 43 75 58 46 81 63 49 87 68 52 93 73 55 99 78 58 105 59 43 111 64 46 79 69 49 85 74 52 91 79 55 97 60 58 103 65 43 109 70 46 77 75 49 83 56 52 89 61 55 95 66 58 101 71 43 107 76 46 75 57 49 81 62 52 87 67 55 93 72 58 99 77 43 105 58 46 111 63 49 79 68 52 85 73 55 91 78 58 97 59 43 103 64 46 109 69 49 77 74 52 83 79 55 89 60 58 95 65 43 101 70 46 107 75 49 75 56 52 81 61 55 87 66 58 93 71 43 99 76 46 105 57 49 111 62 52 79 67 55 85 72 58 91 77 43 97 58 46 103 63 49 109 68 52 77 73 55 83 78 58 89 59 43 95 64 46 101 69 49 107 74 52 75 79 55 81 60 58 87 65 43 93 70 46 99 75 49 105 56 52 111 61 55 79 66 58 85 71 43 91 76 46 97 57 49 103 62 52 109 67 55 77 72 58 83 77 43 89 58 46 95 63 49 101 68 52 107 73 55 75 78 58 81 59 43 87 64 46 93 69 49 99 74 52 105 79 55 111 60 58 79 65 43 85 70 46 91 75 49 97 56 52 103 61 55 109 66 58 77 71 43 83 76 46 89 57 49 95 62 52 101 67 55 107 72 58 75 77 43 81 58 46 87 63 49 93 68 52 99 73 55 105 78 58 111 59 43 79 64 46 85 69 49 91 74 52 97 79 55 103 60 58 109 65 43 77 70 46 83 75 49 89 56 52 95 61 55 101 66 58 107 71 43 75 76 46 81 57 49 87 62 52 93 67 55 99 72 58 105 77 43 111 58 46 79 63 49 85 68 52 91 73 55 97 78 58 103 59 43 109 64 46 77 69 49 83 74 52 89 79 55 95 60 58 101 65 43 107 70 46 75 75 49 81 56 52 87 61 55 93 66 58 99 71 43 105 76 46 111 57 49 79 62 52 85 67 55 91 72 58 97 77 43
88 68 48 94 73 51 100 78 54 106 59 57 74 64 42 80 69 45 86 74 48 92 79 51 98 60 54 104 65 57 110 70 42 78 75 45 84 56 48 90 61 51 96 66 54 102 71 57 108 76 42 76 57 45 82 62 48 88 67 51 94 72 54 100 77 57 106 58 42 74 63 45 80 68 48 86 73 51 92 78 54 98 59 57 104 64 42 110 69 45 78 74 48 84 79 51 90 60 54 96 65 57 102 70 42 108 75 45 76 56 48 82 61 51 88 66 54 94 71 57 100 76 42 106 57 45 74 62 48 80 67 51 86 72 54 92 77 57 98 58 42 104 63 45 110 68 48 78 73 51 84 78 54 90 59 57 96 64 42 102 69 45 108 74 48 76 79 51 82 60 54 88 65 57 94 70 42 100 75 45 106 56 48 74 61 51 80 66 54 86 71 57 92 76 42 98 57 45 104 62 48 110 67 51 78 72 54 84 77 57 90 58 42 96 63 45 102 68 48 108 73 51 76 78 54 82 59 57 88 64 42 94 69 45 100 74 48 106 79 51 74 60 54 80 65 57 86 70 42 92 75 45 98 56 48 104 61 51 110 66 54 78 71 57 84 76 42 90 57 45 96 62 48 102 67 51 108 72 54 76 77 57 82 58 42 88 63 45 94 68 48 100 73 51 106 78 54 74 59 57 80 64 42 86 69 45 92 74 48 98 79 51 104 60 54 110 65 57 78 70 42 84 75 45 90 56 48 96 61 51 102 66 54 108 71 57 76 76 42 82 57 45 88 62 48 94 67 51 100 72 54 106 77 57 74 58 42 80 63 45 86 68 48 92 73 51 98 78 54 104 59 57 110 64 42 78 69 45 84 74 48 90 79 51 96 60 54 102 65 57 108 70 42 76 75 45 82 56 48 88 61 51 94 66 54 100 71 57 106 76 42 74 57 45 80 62 48 86 67 51 92 72 54 98 77 57 104 58 42 110 63 45 78 68 48 84 73 51 90 78 54 96 59 57 102 64 42 108 69 45 76 74 48 82 79 51 88 60 54 94 65 57 100 70 42 106 75 45 74 56 48 80 61 51 86 66 54 92 71 57 98 76 42 104 57 45 110 62 48 78 67 51 84 72 54 90 77 57 96 58 42 102 63 45 108 68 48 76 73 51 82 78 54 88 59 57 94 64 42 100 69 45 106 74 48 74 79 51 80 60 54 86 65 57 92 70 42 98 75 45 104 56 48 110 61 51 78 66 54 84 71 57 90 76 42 96 57 45 102 62 48 108 67 51 76 72 54 82 77 57 88 58 42 94 63 45 100 68 48 106 73 51 74 78 54 80 59 57 86 64 42 92 69 45 98 74 48 104 79 51 110 60 54 78 65 57 84 70 42 90 75 45 96 56 48 102 61 51 108 66 54 76 71 57 82 76 42 88 57 45 94 62 48 100 67 51 106 72 54 74 77 57 80 58 42 86 63 45 92 68 48 98 73 51 104 78 54 110 59 57 78 64 42 84 69 45 90 74 48 96 79 51 102 60 54 108 65 57 76 70 42 82 75 45 88 56 48 94 61 51 100 66 54 106 71 57 74 76 42 80 57 45 86 62 48 92 67 51 98 72 54 104 77 57 110 58 42 78 63 45 84 68 48 90 73 51 96 78 54 102 59 57 108 64 42 76 69 45 82 74 48 88 79 51 94 60 54 100 65 57 106 70 42 74 75 45 80 56 48 86 61 51 92 66 54 98 71 57 104 76 42 110 57 45 78 62 48 84 67 51 90 72 54 96 77 57 102 58 42 108 63 45 76 68 48 82 73 51 88 78 54 94 59 57 100 64 42 106 69 45 74 74 48 80 79 51 86 60 54 92 65 57 98 70 42 104 75 45 110 56 48 78 61 51 84 66 54 90 71 57 96 76 42 102 57 45 108 62 48 76 67 51 82 72 54 88 77 57 94 58 42 100 63 45 106 68 48 74 73 51 80 78 54 86 59 57 92 64 42 98 69 45 104 74 48 110 79 51 78 60 54 84 65 57 90 70 42 96 75 45 102 56 48 108 61 51 76 66 54 82 71 57 88 76 42 94 57 45 100 62 48 106 67 51 74 72 54 80 77 57 86 58 42 92 63 45 98 68 48 104 73 51 110 78 54 78 59 57 84 64 42 90 69 45 96 74 48 102 79 51
93 70 56 99 75 59 105 56 44 111 61 47 79 66 50 85 71 53 91 76 56 97 57 59 103 62 44 109 67 47 77 72 50 83 77 53 89 58 56 95 63 59 101 68 44 107 73 47 75 78 50 81 59 53 87 64 56 93 69 59 99 74 44 105 79 47 111 60 50 79 65 53 85 70 56 91 75 59 97 56 44 103 61 47 109 66 50 77 71 53 83 76 56 89 57 59 95 62 44 101 67 47 107 72 50 75 77 53 81 58 56 87 63 59 93 68 44 99 73 47 105 78 50 111 59 53 79 64 56 85 69 59 91 74 44 97 79 47 103 60 50 109 65 53 77 70 56 83 75 59 89 56 44 95 61 47 101 66 50 107 71 53 75 76 56 81 57 59 87 62 44 93 67 47 99 72 50 105 77 53 111 58 56 79 63 59 85 68 44 91 73 47 97 78 50 103 59 53 109 64 56 77 69 59 83 74 44 89 79 47 95 60 50 101 65 53 107 70 56 75 75 59 81 56 44 87 61 47 93 66 50 99 71 53 105 76 56 111 57 59 79 62 44 85 67 47 91 72 50 97 77 53 103 58 56 109 63 59 77 68 44 83 73 47 89 78 50 95 59 53 101 64 56 107 69 59 75 74 44 81 79 47 87 60 50 93 65 53 99 70 56 105 75 59 111 56 44 79 61 47 85 66 50 91 71 53 97 76 56 103 57 59 109 62 44 77 67 47 83 72 50 89 77 53 95 58 56 101 63 59 107 68 44 75 73 47 81 78 50 87 59 53 93 64 56 99 69 59 105 74 44 111 79 47 79 60 50 85 65 53 91 70 56 97 75 59 103 56 44 109 61 47 77 66 50 83 71 53 89 76 56 95 57 59 101 62 44 107 67 47 75 72 50 81 77 53 87 58 56 93 63 59 99 68 44 105 73 47 111 78 50 79 59 53 85 64 56 91 69 59 97 74 44 103 79 47 109 60 50 77 65 53 83 70 56 89 75 59 95 56 44 101 61 47 107 66 50 75 71 53 81 76 56 87 57 59 93 62 44 99 67 47 105 72 50 111 77 53 79 58 56 85 63 59 91 68 44 97 73 47 103 78 50 109 59 53 77 64 56 83 69 59 89 74 44 95 79 47 101 60 50 107 65 53 75 70 56 81 75 59 87 56 44 93 61 47 99 66 50 105 71 53 111 76 56 79 57 59 85 62 44 91 67 47 97 72 50 103 77 53 109 58 56 77 63 59 83 68 44 89 73 47 95 78 50 101 59 53 107 64 56 75 69 59 81 74 44 87 79 47 93 60 50 99 65 53 105 70 56 111 75 59 79 56 44 85 61 47 91 66 50 97 71 53 103 76 56 109 57 59 77 62 44 83 67 47 89 72 50 95 77 53 101 58 56 107 63 59 75 68 44 81 73 47 87 78 50 93 59 53 99 64 56 105 69 59 111 74 44 79 79 47 85 60 50 91 65 53 97 70 56 103 75 59 109 56 44 77 61 47 83 66 50 89 71 53 95 76 56 101 57 59 107 62 44 75 67 47 81 72 50 87 77 53 93 58 56 99 63 59 105 68 44 111 73 47 79 78 50 85 59 53 91 64 56 97 69 59 103 74 44 109 79 47 77 60 50 83 65 53 89 70 56 95 75 59 101 56 44 107 61 47 75 66 50 81 71 53 87 76 56 93 57 59 99 62 44 105 67 47 111 72 50 79 77 53 85 58 56 91 63 59 97 68 44 103 73 47 109 78 50 77 59 53 83 64 56 89 69 59 95 74 44 101 79 47 107 60 50 75 65 53 81 70 56 87 75 59 93 56 44 99 61 47 105 66 50 111 71 53 79 76 56 85 57 59 91 62 44 97 67 47 103 72 50 109 77 53 77 58 56 83 63 59 89 68 44 95 73 47 101 78 50 107 59 53 75 64 56 81 69 59 87 74 44 93 79 47 99 60 50 105 65 53 111 70 56 79 75 59 85 56 44 91 61 47 97 66 50 103 71 53 109 76 56 77 57 59 83 62 44 89 67 47 95 72 50 101 77 53 107 58 56 75 63 59 81 68 44 87 73 47 93 78 50 99 59 53 105 64 56 111 69 59 79 74 44 85 79 47 91 60 50 97 65 53 103 70 56 109 75 59 77 56 44 83 61 47 89 66 50 95 71 53 101 76 56 107 57 59
98 72 46 104 77 49 110 58 52 78 63 55 84 68 58 90 73 43 96 78 46 102 59 49 108 64 52 76 69 55 82 74 58 88 79 43 94 60 46 100 65 49 106 70 52 74 75 55 80 56 58 86 61 43 92 66 46 98 71 49 104 76 52 110 57 55 78 62 58 84 67 43 90 72 46 96 77 49 102 58 52 108 63 55 76 68 58 82 73 43 88 78 46 94 59 49 100 64 52 106 69 55 74 74 58 80 79 43 86 60 46 92 65 49 98 70 52 104 75 55 110 56 58 78 61 43 84 66 46 90 71 49 96 76 52 102 57 55 108 62 58 76 67 43 82 72 46 88 77 49 94 58 52 100 63 55 106 68 58 74 73 43 80 78 46 86 59 49 92 64 52 98 69 55 104 74 58 110 79 43 78 60 46 84 65 49 90 70 52 96 75 55 102 56 58 108 61 43 76 66 46 82 71 49 88 76 52 94 57 55 100 62 58 106 67 43 74 72 46 80 77 49 86 58 52 92 63 55 98 68 58 104 73 43 110 78 46 78 59 49 84 64 52 90 69 55 96 74 58 102 79 43 108 60 46 76 65 49 82 70 52 88 75 55 94 56 58 100 61 43 106 66 46 74 71 49 80 76 52 86 57 55 92 62 58 98 67 43 104 72 46 110 77 49 78 58 52 84 63 55 90 68 58 96 73 43 102 78 46 108 59 49 76 64 52 82 69 55 88 74 58 94 79 43 100 60 46 106 65 49 74 70 52 80 75 55 86 56 58 92 61 43 98 66 46 104 71 49 110 76 52 78 57 55 84 62 58 90 67 43 96 72 46 102 77 49 108 58 52 76 63 55 82 68 58 88 73 43 94 78 46 100 59 49 106 64 52 74 69 55 80 74 58 86 79 43 92 60 46 98 65 49 104 70 52 110 75 55 78 56 58 84 61 43 90 66 46 96 71 49 102 76 52 108 57 55 76 62 58 82 67 43 88 72 46 94 77 49 100 58 52 106 63 55 74 68 58 80 73 43 86 78 46 92 59 49 98 64 52 104 69 55 110 74 58 78 79 43 84 60 46 90 65 49 96 70 52 102 75 55 108 56 58 76 61 43 82 66 46 88 71 49 94 76 52 100 57 55 106 62 58 74 67 43 80 72 46 86 77 49 92 58 52 98 63 55 104 68 58 110 73 43 78 78 46 84 59 49 90 64 52 96 69 55 102 74 58 108 79 43 76 60 46 82 65 49 88 70 52 94 75 55 100 56 58 106 61 43 74 66 46 80 71 49 86 76 52 92 57 55 98 62 58 104 67 43 110 72 46 78 77 49 84 58 52 90 63 55 96 68 58 102 73 43 108 78 46 76 59 49 82 64 52 88 69 55 94 74 58 100 79 43 106 60 46 74 65 49 80 70 52 86 75 55 92 56 58 98 61 43 104 66 46 110 71 49 78 76 52 84 57 55 90 62 58 96 67 43 102 72 46 108 77 49 76 58 52 82 63 55 88 68 58 94 73 43 100 78 46 106 59 49 74 64 52 80 69 55 86 74 58 92 79 43 98 60 46 104 65 49 110 70 52 78 75 55 84 56 58 90 61 43 96 66 46 102 71 49 108 76 52 76 57 55 82 62 58 88 67 43 94 72 46 100 77 49 106 58 52 74 63 55 80 68 58 86 73 43 92 78 46 98 59 49 104 64 52 110 69 55 78 74 58 84 79 43 90 60 46 96 65 49 102 70 52 108 75 55 76 56 58 82 61 43 88 66 46 94 71 49 100 76 52 106 57 55 74 62 58 80 67 43 86 72 46 92 77 49 98 58 52 104 63 55 110 68 58 78 73 43 84 78 46 90 59 49 96 64 52 102 69 55 108 74 58 76 79 43 82 60 46 88 65 49 94 70 52 100 75 55 106 56 58 74 61 43 80 66 46 86 71 49 92 76 52 98 57 55 104 62 58 110 67 43 78 72 46 84 77 49 90 58 52 96 63 55 102 68 58 108 73 43 76 78 46 82 59 49 88 64 52 94 69 55 100 74 58 106 79 43 74 60 46 80 65 49 86 70 52 92 75 55 98 56 58 104 61 43 110 66 46 78 71 49 84 76 52 90 57 55 96 62 58 102 67 43 108 72 46 76 77 49 82 58 52 88 63 55 94 68 58 100 73 43 106 78 46 74 59 49
103 74 54 109 79 57 77 60 42 83 65 45 89 70 48 95 75 51 101 56 54 107 61 57 75 66 42 81 71 45 87 76 48 93 57 51 99 62 54 105 67 57 111 72 42 79 77 45 85 58 48 91 63 51 97 68 54 103 73 57 109 78 42 77 59 45 83 64 48 89 69 51 95 74 54 101 79 57 107 60 42 75 65 45 81 70 48 87 75 51 93 56 54 99 61 57 105 66 42 111 71 45 79 76 48 85 57 51 91 62 54 97 67 57 103 72 42 109 77 45 77 58 48 83 63 51 89 68 54 95 73 57 101 78 42 107 59 45 75 64 48 81 69 51 87 74 54 93 79 57 99 60 42 105 65 45 111 70 48 79 75 51 85 56 54 91 61 57 97 66 42 103 71 45 109 76 48 77 57 51 83 62 54 89 67 57 95 72 42 101 77 45 107 58 48 75 63 51 81 68 54 87 73 57 93 78 42 99 59 45 105 64 48 111 69 51 79 74 54 85 79 57 91 60 42 97 65 45 103 70 48 109 75 51 77 56 54 83 61 57 89 66 42 95 71 45 101 76 48 107 57 51 75 62 54 81 67 57 87 72 42 93 77 45 99 58 48 105 63 51 111 68 54 79 73 57 85 78 42 91 59 45 97 64 48 103 69 51 109 74 54 77 79 57 83 60 42 89 65 45 95 70 48 101 75 51 107 56 54 75 61 57 81 66 42 87 71 45 93 76 48 99 57 51 105 62 54 111 67 57 79 72 42 85 77 45 91 58 48 97 63 51 103 68 54 109 73 57 77 78 42 83 59 45 89 64 48 95 69 51 101 74 54 107 79 57 75 60 42 81 65 45 87 70 48 93 75 51 99 56 54 105 61 57 111 66 42 79 71 45 85 76 48 91 57 51 97 62 54 103 67 57 109 72 42 77 77 45 83 58 48 89 63 51 95 68 54 101 73 57 107 78 42 75 59 45 81 64 48 87 69 51 93 74 54 99 79 57 105 60 42 111 65 45 79 70 48 85 75 51 91 56 54 97 61 57 103 66 42 109 71 45 77 76 48 83 57 51 89 62 54 95 67 57 101 72 42 107 77 45 75 58 48 81 63 51 87 68 54 93 73 57 99 78 42 105 59 45 111 64 48 79 69 51 85 74 54 91 79 57 97 60 42 103 65 45 109 70 48 77 75 51 83 56 54 89 61 57 95 66 42 101 71 45 107 76 48 75 57 51 81 62 54 87 67 57 93 72 42 99 77 45 105 58 48 111 63 51 79 68 54 85 73 57 91 78 42 97 59 45 103 64 48 109 69 51 77 74 54 83 79 57 89 60 42 95 65 45 101 70 48 107 75 51 75 56 54 81 61 57 87 66 42 93 71 45 99 76 48 105 57 51 111 62 54 79 67 57 85 72 42 91 77 45 97 58 48 103 63 51 109 68 54 77 73 57 83 78 42 89 59 45 95 64 48 101 69 51 107 74 54 75 79 57 81 60 42 87 65 45 93 70 48 99 75 51 105 56 54 111 61 57 79 66 42 85 71 45 91 76 48 97 57 51 103 62 54 109 67 57 77 72 42 83 77 45 89 58 48 95 63 51 101 68 54 107 73 57 75 78 42 81 59 45 87 64 48 93 69 51 99 74 54 105 79 57 111 60 42 79 65 45 85 70 48 91 75 51 97 56 54 103 61 57 109 66 42 77 71 45 83 76 48 89 57 51 95 62 54 101 67 57 107 72 42 75 77 45 81 58 48 87 63 51 93 68 54 99 73 57 105 78 42 111 59 45 79 64 48 85 69 51 91 74 54 97 79 57 103 60 42 109 65 45 77 70 48 83 75 51 89 56 54 95 61 57 101 66 42 107 71 45 75 76 48 81 57 51 87 62 54 93 67 57 99 72 42 105 77 45 111 58 48 79 63 51 85 68 54 91 73 57 97 78 42 103 59 45 109 64 48 77 69 51 83 74 54 89 79 57 95 60 42 101 65 45 107 70 48 75 75 51 81 56 54 87 61 57 93 66 42 99 71 45 105 76 48 111 57 51 79 62 54 85 67 57 91 72 42 97 77 45 103 58 48 109 63 51 77 68 54 83 73 57 89 78 42 95 59 45 101 64 48 107 69 51 75 74 54 81 79 57 87 60 42 93 65 45 99 70 48 105 75 51 111 56 54 79 61 57
108 76 44 76 57 47 82 62 50 88 67 53 94 72 56 100 77 59 106 58 44 74 63 47 80 68 50 86 73 53 92 78 56 98 59 59 104 64 44 110 69 47 78 74 50 84 79 53 90 60 56 96 65 59 102 70 44 108 75 47 76 56 50 82 61 53 88 66 56 94 71 59 100 76 44 106 57 47 74 62 50 80 67 53 86 72 56 92 77 59 98 58 44 104 63 47 110 68 50 78 73 53 84 78 56 90 59 59 96 64 44 102 69 47 108 74 50 76 79 53 82 60 56 88 65 59 94 70 44 100 75 47 106 56 50 74 61 53 80 66 56 86 71 59 92 76 44 98 57 47 104 62 50 110 67 53 78 72 56 84 77 59 90 58 44 96 63 47 102 68 50 108 73 53 76 78 56 82 59 59 88 64 44 94 69 47 100 74 50 106 79 53 74 60 56 80 65 59 86 70 44 92 75 47 98 56 50 104 61 53 110 66 56 78 71 59 84 76 44 90 57 47 96 62 50 102 67 53 108 72 56 76 77 59 82 58 44 88 63 47 94 68 50 100 73 53 106 78 56 74 59 59 80 64 44 86 69 47 92 74 50 98 79 53 104 60 56 110 65 59 78 70 44 84 75 47 90 56 50 96 61 53 102 66 56 108 71 59 76 76 44 82 57 47 88 62 50 94 67 53 100 72 56 106 77 59 74 58 44 80 63 47 86 68 50 92 73 53 98 78 56 104 59 59 110 64 44 78 69 47 84 74 50 90 79 53 96 60 56 102 65 59 108 70 44 76 75 47 82 56 50 88 61 53 94 66 56 100 71 59 106 76 44 74 57 47 80 62 50 86 67 53 92 72 56 98 77 59 104 58 44 110 63 47 78 68 50 84 73 53 90 78 56 96 59 59 102 64 44 108 69 47 76 74 50 82 79 53 88 60 56 94 65 59 100 70 44 106 75 47 74 56 50 80 61 53 86 66 56 92 71 59 98 76 44 104 57 47 110 62 50 78 67 53 84 72 56 90 77 59 96 58 44 102 63 47 108 68 50 76 73 53 82 78 56 88 59 59 94 64 44 100 69 47 106 74 50 74 79 53 80 60 56 86 65 59 92 70 44 98 75 47 104 56 50 110 61 53 78 66 56 84 71 59 90 76 44 96 57 47 102 62 50 108 67 53 76 72 56 82 77 59 88 58 44 94 63 47 100 68 50 106 73 53 74 78 56 80 59 59 86 64 44 92 69 47 98 74 50 104 79 53 110 60 56 78 65 59 84 70 44 90 75 47 96 56 50 102 61 53 108 66 56 76 71 59 82 76 44 88 57 47 94 62 50 100 67 53 106 72 56 74 77 59 80 58 44 86 63 47 92 68 50 98 73 53 104 78 56 110 59 59 78 64 44 84 69 47 90 74 50 96 79 53 102 60 56 108 65 59 76 70 44 82 75 47 88 56 50 94 61 53 100 66 56 106 71 59 74 76 44 80 57 47 86 62 50 92 67 53 98 72 56 104 77 59 110 58 44 78 63 47 84 68 50 90 73 53 96 78 56 102 59 59 108 64 44 76 69 47 82 74 50 88 79 53 94 60 56 100 65 59 106 70 44 74 75 47 80 56 50 86 61 53 92 66 56 98 71 59 104 76 44 110 57 47 78 62 50 84 67 53 90 72 56 96 77 59 102 58 44 108 63 47 76 68 50 82 73 53 88 78 56 94 59 59 100 64 44 106 69 47 74 74 50 80 79 53 86 60 56 92 65 59 98 70 44 104 75 47 110 56 50 78 61 53 84 66 56 90 71 59 96 76 44 102 57 47 108 62 50 76 67 53 82 72 56 88 77 59 94 58 44 100 63 47 106 68 50 74 73 53 80 78 56 86 59 59 92 64 44 98 69 47 104 74 50 110 79 53 78 60 56 84 65 59 90 70 44 96 75 47 102 56 50 108 61 53 76 66 56 82 71 59 88 76 44 94 57 47 100 62 50 106 67 53 74 72 56 80 77 59 86 58 44 92 63 47 98 68 50 104 73 53 110 78 56 78 59 59 84 64 44 90 69 47 96 74 50 102 79 53 108 60 56 76 65 59 82 70 44 88 75 47 94 56 50 100 61 53 106 66 56 74 71 59 80 76 44 86 57 47 92 62 50 98 67 53 104 72 56 110 77 59 78 58 44 84 63 47
75 78 52 81 59 55 87 64 58 93 69 43 99 74 46 105 79 49 111 60 52 79 65 55 85 70 58 91 75 43 97 56 46 103 61 49 109 66 52 77 71 55 83 76 58 89 57 43 95 62 46 101 67 49 107 72 52 75 77 55 81 58 58 87 63 43 93 68 46 99 73 49 105 78 52 111 59 55 79 64 58 85 69 43 91 74 46 97 79 49 103 60 52 109 65 55 77 70 58 83 75 43 89 56 46 95 61 49 101 66 52 107 71 55 75 76 58 81 57 43 87 62 46 93 67 49 99 72 52 105 77 55 111 58 58 79 63 43 85 68 46 91 73 49 97 78 52 103 59 55 109 64 58 77 69 43 83 74 46 89 79 49 95 60 52 101 65 55 107 70 58 75 75 43 81 56 46 87 61 49 93 66 52 99 71 55 105 76 58 111 57 43 79 62 46 85 67 49 91 72 52 97 77 55 103 58 58 109 63 43 77 68 46 83 73 49 89 78 52 95 59 55 101 64 58 107 69 43 75 74 46 81 79 49 87 60 52 93 65 55 99 70 58 105 75 43 111 56 46 79 61 49 85 66 52 91 71 55 97 76 58 103 57 43 109 62 46 77 67 49 83 72 52 89 77 55 95 58 58 101 63 43 107 68 46 75 73 49 81 78 52 87 59 55 93 64 58 99 69 43 105 74 46 111 79 49 79 60 52 85 65 55 91 70 58 97 75 43 103 56 46 109 61 49 77 66 52 83 71 55 89 76 58 95 57 43 101 62 46 107 67 49 75 72 52 81 77 55 87 58 58 93 63 43 99 68 46 105 73 49 111 78 52 79 59 55 85 64 58 91 69 43 97 74 46 103 79 49 109 60 52 77 65 55 83 70 58 89 75 43 95 56 46 101 61 49 107 66 52 75 71 55 81 76 58 87 57 43 93 62 46 99 67 49 105 72 52 111 77 55 79 58 58 85 63 43 91 68 46 97 73 49 103 78 52 109 59 55 77 64 58 83 69 43 89 74 46 95 79 49 101 60 52 107 65 55 75 70 58 81 75 43 87 56 46 93 61 49 99 66 52 105 71 55 111 76 58 79 57 43 85 62 46 91 67 49 97 72 52 103 77 55 109 58 58 77 63 43 83 68 46 89 73 49 95 78 52 101 59 55 107 64 58 75 69 43 81 74 46 87 79 49 93 60 52 99 65 55 105 70 58 111 75 43 79 56 46 85 61 49 91 66 52 97 71 55 103 76 58 109 57 43 77 62 46 83 67 49 89 72 52 95 77 55 101 58 58 107 63 43 75 68 46 81 73 49 87 78 52 93 59 55 99 64 58 105 69 43 111 74 46 79 79 49 85 60 52 91 65 55 97 70 58 103 75 43 109 56 46 77 61 49 83 66 52 89 71 55 95 76 58 101 57 43 107 62 46 75 67 49 81 72 52 87 77 55 93 58 58 99 63 43 105 68 46 111 73 49 79 78 52 85 59 55 91 64 58 97 69 43 103 74 46 109 79 49 77 60 52 83 65 55 89 70 58 95 75 43 101 56 46 107 61 49 75 66 52 81 71 55 87 76 58 93 57 43 99 62 46 105 67 49 111 72 52 79 77 55 85 58 58 91 63 43 97 68 46 103 73 49 109 78 52 77 59 55 83 64 58 89 69 43 95 74 46 101 79 49 107 60 52 75 65 55 81 70 58 87 75 43 93 56 46 99 61 49 105 66 52 111 71 55 79 76 58 85 57 43 91 62 46 97 67 49 103 72 52 109 77 55 77 58 58 83 63 43 89 68 46 95 73 49 101 78 52 107 59 55 75 64 58 81 69 43 87 74 46 93 79 49 99 60 52 105 65 55 111 70 58 79 75 43 85 56 46 91 61 49 97 66 52 103 71 55 109 76 58 77 57 43 83 62 46 89 67 49 95 72 52 101 77 55 107 58 58 75 63 43 81 68 46 87 73 49 93 78 52 99 59 55 105 64 58 111 69 43 79 74 46 85 79 49 91 60 52 97 65 55 103 70 58 109 75 43 77 56 46 83 61 49 89 66 52 95 71 55 101 76 58 107 57 43 75 62 46 81 67 49 87 72 52 93 77 55 99 58 58 105 63 43 111 68 46 79 73 49 85 78 52 91 59 55 97 64 58 103 69 43 109 74 46 77 79 49 83 60 52 89 65 55
80 56 42 86 61 45 92 66 48 98 71 51 104 76 54 110 57 57 78 62 42 84 67 45 90 72 48 96 77 51 102 58 54 108 63 57 76 68 42 82 73 45 88 78 48 94 59 51 100 64 54 106 69 57 74 74 42 80 79 45 86 60 48 92 65 51 98 70 54 104 75 57 110 56 42 78 61 45 84 66 48 90 71 51 96 76 54 102 57 57 108 62 42 76 67 45 82 72 48 88 77 51 94 58 54 100 63 57 106 68 42 74 73 45 80 78 48 86 59 51 92 64 54 98 69 57 104 74 42 110 79 45 78 60 48 84 65 51 90 70 54 96 75 57 102 56 42 108 61 45 76 66 48 82 71 51 88 76 54 94 57 57 100 62 42 106 67 45 74 72 48 80 77 51 86 58 54 92 63 57 98 68 42 104 73 45 110 78 48 78 59 51 84 64 54 90 69 57 96 74 42 102 79 45 108 60 48 76 65 51 82 70 54 88 75 57 94 56 42 100 61 45 106 66 48 74 71 51 80 76 54 86 57 57 92 62 42 98 67 45 104 72 48 110 77 51 78 58 54 84 63 57 90 68 42 96 73 45 102 78 48 108 59 51 76 64 54 82 69 57 88 74 42 94 79 45 100 60 48 106 65 51 74 70 54 80 75 57 86 56 42 92 61 45 98 66 48 104 71 51 110 76 54 78 57 57 84 62 42 90 67 45 96 72 48 102 77 51 108 58 54 76 63 57 82 68 42 88 73 45 94 78 48 100 59 51 106 64 54 74 69 57 80 74 42 86 79 45 92 60 48 98 65 51 104 70 54 110 75 57 78 56 42 84 61 45 90 66 48 96 71 51 102 76 54 108 57 57 76 62 42 82 67 45 88 72 48 94 77 51 100 58 54 106 63 57 74 68 42 80 73 45 86 78 48 92 59 51 98 64 54 104 69 57 110 74 42 78 79 45 84 60 48 90 65 51 96 70 54 102 75 57 108 56 42 76 61 45 82 66 48 88 71 51 94 76 54 100 57 57 106 62 42 74 67 45 80 72 48 86 77 51 92 58 54 98 63 57 104 68 42 110 73 45 78 78 48 84 59 51 90 64 54 96 69 57 102 74 42 108 79 45 76 60 48 82 65 51 88 70 54 94 75 57 100 56 42 106 61 45 74 66 48 80 71 51 86 76 54 92 57 57 98 62 42 104 67 45 110 72 48 78 77 51 84 58 54 90 63 57 96 68 42 102 73 45 108 78 48 76 59 51 82 64 54 88 69 57 94 74 42 100 79 45 106 60 48 74 65 51 80 70 54 86 75 57 92 56 42 98 61 45 104 66 48 110 71 51 78 76 54 84 57 57 90 62 42 96 67 45 102 72 48 108 77 51 76 58 54 82 63 57 88 68 42 94 73 45 100 78 48 106 59 51 74 64 54 80 69 57 86 74 42 92 79 45 98 60 48 104 65 51 110 70 54 78 75 57 84 56 42 90 61 45 96 66 48 102 71 51 108 76 54 76 57 57 82 62 42 88 67 45 94 72 48 100 77 51 106 58 54 74 63 57 80 68 42 86 73 45 92 78 48 98 59 51 104 64 54 110 69 57 78 74 42 84 79 45 90 60 48 96 65 51 102 70 54 108 75 57 76 56 42 82 61 45 88 66 48 94 71 51 100 76 54 106 57 57 74 62 42 80 67 45 86 72 48 92 77 51 98 58 54 104 63 57 110 68 42 78 73 45 84 78 48 90 59 51 96 64 54 102 69 57 108 74 42 76 79 45 82 60 48 88 65 51 94 70 54 100 75 57 106 56 42 74 61 45 80 66 48 86 71 51 92 76 54 98 57 57 104 62 42 110 67 45 78 72 48 84 77 51 90 58 54 96 63 57 102 68 42 108 73 45 76 78 48 82 59 51 88 64 54 94 69 57 100 74 42 106 79 45 74 60 48 80 65 51 86 70 54 92 75 57 98 56 42 104 61 45 110 66 48 78 71 51 84 76 54 90 57 57 96 62 42 102 67 45 108 72 48 76 77 51 82 58 54 88 63 57 94 68 42 100 73 45 106 78 48 74 59 51 80 64 54 86 69 57 92 74 42 98 79 45 104 60 48 110 65 51 78 70 54 84 75 57 90 56 42 96 61 45 102 66 48 108 71 51 76 76 54 82 57 57 88 62 42 94 67 45
85 58 50 91 63 53 97 68 56 103 73 59 109 78 44 77 59 47 83 64 50 89 69 53 95 74 56 101 79 59 107 60 44 75 65 47 81 70 50 87 75 53 93 56 56 99 61 59 105 66 44 111 71 47 79 76 50 85 57 53 91 62 56 97 67 59 103 72 44 109 77 47 77 58 50 83 63 53 89 68 56 95 73 59 101 78 44 107 59 47 75 64 50 81 69 53 87 74 56 93 79 59 99 60 44 105 65 47 111 70 50 79 75 53 85 56 56 91 61 59 97 66 44 103 71 47 109 76 50 77 57 53 83 62 56 89 67 59 95 72 44 101 77 47 107 58 50 75 63 53 81 68 56 87 73 59 93 78 44 99 59 47 105 64 50 111 69 53 79 74 56 85 79 59 91 60 44 97 65 47 103 70 50 109 75 53 77 56 56 83 61 59 89 66 44 95 71 47 101 76 50 107 57 53 75 62 56 81 67 59 87 72 44 93 77 47 99 58 50 105 63 53 111 68 56 79 73 59 85 78 44 91 59 47 97 64 50 103 69 53 109 74 56 77 79 59 83 60 44 89 65 47 95 70 50 101 75 53 107 56 56 75 61 59 81 66 44 87 71 47 93 76 50 99 57 53 105 62 56 111 67 59 79 72 44 85 77 47 91 58 50 97 63 53 103 68 56 109 73 59 77 78 44 83 59 47 89 64 50 95 69 53 101 74 56 107 79 59 75 60 44 81 65 47 87 70 50 93 75 53 99 56 56 105 61 59 111 66 44 79 71 47 85 76 50 91 57 53 97 62 56 103 67 59 109 72 44 77 77 47 83 58 50 89 63 53 95 68 56 101 73 59 107 78 44 75 59 47 81 64 50 87 69 53 93 74 56 99 79 59 105 60 44 111 65 47 79 70 50 85 75 53 91 56 56 97 61 59 103 66 44 109 71 47 77 76 50 83 57 53 89 62 56 95 67 59 101 72 44 107 77 47 75 58 50 81 63 53 87 68 56 93 73 59 99 78 44 105 59 47 111 64 50 79 69 53 85 74 56 91 79 59 97 60 44 103 65 47 109 70 50 77 75 53 83 56 56 89 61 59 95 66 44 101 71 47 107 76 50 75 57 53 81 62 56 87 67 59 93 72 44 99 77 47 105 58 50 111 63 53 79 68 56 85 73 59 91 78 44 97 59 47 103 64 50 109 69 53 77 74 56 83 79 59 89 60 44 95 65 47 101 70 50 107 75 53 75 56 56 81 61 59 87 66 44 93 71 47 99 76 50 105 57 53 111 62 56 79 67 59 85 72 44 91 77 47 97 58 50 103 63 53 109 68 56 77 73 59 83 78 44 89 59 47 95 64 50 101 69 53 107 74 56 75 79 59 81 60 44 87 65 47 93 70 50 99 75 53 105 56 56 111 61 59 79 66 44 85 71 47 91 76 50 97 57 53 103 62 56 109 67 59 77 72 44 83 77 47 89 58 50 95 63 53 101 68 56 107 73 59 75 78 44 81 59 47 87 64 50 93 69 53 99 74 56 105 79 59 111 60 44 79 65 47 85 70 50 91 75 53 97 56 56 103 61 59 109 66 44 77 71 47 83 76 50 89 57 53 95 62 56 101 67 59 107 72 44 75 77 47 81 58 50 87 63 53 93 68 56 99 73 59 105 78 44 111 59 47 79 64 50 85 69 53 91 74 56 97 79 59 103 60 44 109 65 47 77 70 50 83 75 53 89 56 56 95 61 59 101 66 44 107 71 47 75 76 50 81 57 53 87 62 56 93 67 59 99 72 44 105 77 47 111 58 50 79 63 53 85 68 56 91 73 59 97 78 44 103 59 47 109 64 50 77 69 53 83 74 56 89 79 59 95 60 44 101 65 47 107 70 50 75 75 53 81 56 56 87 61 59 93 66 44 99 71 47 105 76 50 111 57 53 79 62 56 85 67 59 91 72 44 97 77 47 103 58 50 109 63 53 77 68 56 83 73 59 89 78 44 95 59 47 101 64 50 107 69 53 75 74 56 81 79 59 87 60 44 93 65 47 99 70 50 105 75 53 111 56 56 79 61 59 85 66 44 91 71 47 97 76 50 103 57 53 109 62 56 77 67 59 83 72 44 89 77 47 95 58 50 101 63 53 107 68 56 75 73 59 81 78 44 87 59 47 93 64 50 99 69 53
90 60 58 96 65 43 102 70 46 108 75 49 76 56 52 82 61 55 88 66 58 94 71 43 100 76 46 106 57 49 74 62 52 80 67 55 86 72 58 92 77 43 98 58 46 104 63 49 110 68 52 78 73 55 84 78 58 90 59 43 96 64 46 102 69 49 108 74 52 76 79 55 82 60 58 88 65 43 94 70 46 100 75 49 106 56 52 74 61 55 80 66 58 86 71 43 92 76 46 98 57 49 104 62 52 110 67 55 78 72 58 84 77 43 90 58 46 96 63 49 102 68 52 108 73 55 76 78 58 82 59 43 88 64 46 94 69 49 100 74 52 106 79 55 74 60 58 80 65 43 86 70 46 92 75 49 98 56 52 104 61 55 110 66 58 78 71 43 84 76 46 90 57 49 96 62 52 102 67 55 108 72 58 76 77 43 82 58 46 88 63 49 94 68 52 100 73 55 106 78 58 74 59 43 80 64 46 86 69 49 92 74 52 98 79 55 104 60 58 110 65 43 78 70 46 84 75 49 90 56 52 96 61 55 102 66 58 108 71 43 76 76 46 82 57 49 88 62 52 94 67 55 100 72 58 106 77 43 74 58 46 80 63 49 86 68 52 92 73 55 98 78 58 104 59 43 110 64 46 78 69 49 84 74 52 90 79 55 96 60 58 102 65 43 108 70 46 76 75 49 82 56 52 88 61 55 94 66 58 100 71 43 106 76 46 74 57 49 80 62 52 86 67 55 92 72 58 98 77 43 104 58 46 110 63 49 78 68 52 84 73 55 90 78 58 96 59 43 102 64 46 108 69 49 76 74 52 82 79 55 88 60 58 94 65 43 100 70 46 106 75 49 74 56 52 80 61 55 86 66 58 92 71 43 98 76 46 104 57 49 110 62 52 78 67 55 84 72 58 90 77 43 96 58 46 102 63 49 108 68 52 76 73 55 82 78 58 88 59 43 94 64 46 100 69 49 106 74 52 74 79 55 80 60 58 86 65 43 92 70 46 98 75 49 104 56 52 110 61 55 78 66 58 84 71 43 90 76 46 96 57 49 102 62 52 108 67 55 76 72 58 82 77 43 88 58 46 94 63 49 100 68 52 106 73 55 74 78 58 80 59 43 86 64 46 92 69 49 98 74 52 104 79 55 110 60 58 78 65 43 84 70 46 90 75 49 96 56 52 102 61 55 108 66 58 76 71 43 82 76 46 88 57 49 94 62 52 100 67 55 106 72 58 74 77 43 80 58 46 86 63 49 92 68 52 98 73 55 104 78 58 110 59 43 78 64 46 84 69 49 90 74 52 96 79 55 102 60 58 108 65 43 76 70 46 82 75 49 88 56 52 94 61 55 100 66 58 106 71 43 74 76 46 80 57 49 86 62 52 92 67 55 98 72 58 104 77 43 110 58 46 78 63 49 84 68 52 90 73 55 96 78 58 102 59 43 108 64 46 76 69 49 82 74 52 88 79 55 94 60 58 100 65 43 106 70 46 74 75 49 80 56 52 86 61 55 92 66 58 98 71 43 104 76 46 110 57 49 78 62 52 84 67 55 90 72 58 96 77 43 102 58 46 108 63 49 76 68 52 82 73 55 88 78 58 94 59 43 100 64 46 106 69 49 74 74 52 80 79 55 86 60 58 92 65 43 98 70 46 104 75 49 110 56 52 78 61 55 84 66 58 90 71 43 96 76 46 102 57 49 108 62 52 76 67 55 82 72 58 88 77 43 94 58 46 100 63 49 106 68 52 74 73 55 80 78 58 86 59 43 92 64 46 98 69 49 104 74 52 110 79 55 78 60 58 84 65 43 90 70 46 96 75 49 102 56 52 108 61 55 76 66 58 82 71 43 88 76 46 94 57 49 100 62 52 106 67 55 74 72 58 80 77 43 86 58 46 92 63 49 98 68 52 104 73 55 110 78 58 78 59 43 84 64 46 90 69 49 96 74 52 102 79 55 108 60 58 76 65 43 82 70 46 88 75 49 94 56 52 100 61 55 106 66 58 74 71 43 80 76 46 86 57 49 92 62 52 98 67 55 104 72 58 110 77 43 78 58 46 84 63 49 90 68 52 96 73 55 102 78 58 108 59 43 76 64 46 82 69 49 88 74 52 94 79 55 100 60 58 106 65 43 74 70 46 80 75 49 86 56 52 92 61 55 98 66 58 104 71 43
95 62 48 101 67 51 107 72 54 75 77 57 81 58 42 87 63 45 93 68 48 99 73 51 105 78 54 111 59 57 79 64 42 85 69 45 91 74 48 97 79 51 103 60 54 109 65 57 77 70 42 83 75 45 89 56 48 95 61 51 101 66 54 107 71 57 75 76 42 81 57 45 87 62 48 93 67 51 99 72 54 105 77 57 111 58 42 79 63 45 85 68 48 91 73 51 97 78 54 103 59 57 109 64 42 77 69 45 83 74 48 89 79 51 95 60 54 101 65 57 107 70 42 75 75 45 81 56 48 87 61 51 93 66 54 99 71 57 105 76 42 111 57 45 79 62 48 85 67 51 91 72 54 97 77 57 103 58 42 109 63 45 77 68 48 83 73 51 89 78 54 95 59 57 101 64 42 107 69 45 75 74 48 81 79 51 87 60 54 93 65 57 99 70 42 105 75 45 111 56 48 79 61 51 85 66 54 91 71 57 97 76 42 103 57 45 109 62 48 77 67 51 83 72 54 89 77 57 95 58 42 101 63 45 107 68 48 75 73 51 81 78 54 87 59 57 93 64 42 99 69 45 105 74 48 111 79 51 79 60 54 85 65 57 91 70 42 97 75 45 103 56 48 109 61 51 77 66 54 83 71 57 89 76 42 95 57 45 101 62 48 107 67 51 75 72 54 81 77 57 87 58 42 93 63 45 99 68 48 105 73 51 111 78 54 79 59 57 85 64 42 91 69 45 97 74 48 103 79 51 109 60 54 77 65 57 83 70 42 89 75 45 95 56 48 101 61 51 107 66 54 75 71 57 81 76 42 87 57 45 93 62 48 99 67 51 105 72 54 111 77 57 79 58 42 85 63 45 91 68 48 97 73 51 103 78 54 109 59 57 77 64 42 83 69 45 89 74 48 95 79 51 101 60 54 107 65 57 75 70 42 81 75 45 87 56 48 93 61 51 99 66 54 105 71 57 111 76 42 79 57 45 85 62 48 91 67 51 97 72 54 103 77 57 109 58 42 77 63 45 83 68 48 89 73 51 95 78 54 101 59 57 107 64 42 75 69 45 81 74 48 87 79 51 93 60 54 99 65 57 105 70 42 111 75 45 79 56 48 85 61 51 91 66 54 97 71 57 103 76 42 109 57 45 77 62 48 83 67 51 89 72 54 95 77 57 101 58 42 107 63 45 75 68 48 81 73 51 87 78 54 93 59 57 99 64 42 105 69 45 111 74 48 79 79 51 85 60 54 91 65 57 97 70 42 103 75 45 109 56 48 77 61 51 83 66 54 89 71 57 95 76 42 101 57 45 107 62 48 75 67 51 81 72 54 87 77 57 93 58 42 99 63 45 105 68 48 111 73 51 79 78 54 85 59 57 91 64 42 97 69 45 103 74 48 109 79 51 77 60 54 83 65 57 89 70 42 95 75 45 101 56 48 107 61 51 75 66 54 81 71 57 87 76 42 93 57 45 99 62 48 105 67 51 111 72 54 79 77 57 85 58 42 91 63 45 97 68 48 103 73 51 109 78 54 77 59 57 83 64 42 89 69 45 95 74 48 101 79 51 107 60 54 75 65 57 81 70 42 87 75 45 93 56 48 99 61 51 105 66 54 111 71 57 79 76 42 85 57 45 91 62 48 97 67 51 103 72 54 109 77 57 77 58 42 83 63 45 89 68 48 95 73 51 101 78 54 107 59 57 75 64 42 81 69 45 87 74 48 93 79 51 99 60 54 105 65 57 111 70 42 79 75 45 85 56 48 91 61 51 97 66 54 103 71 57 109 76 42 77 57 45 83 62 48 89 67 51 95 72 54 101 77 57 107 58 42 75 63 45 81 68 48 87 73 51 93 78 54 99 59 57 105 64 42 111 69 45 79 74 48 85 79 51 91 60 54 97 65 57 103 70 42 109 75 45 77 56 48 83 61 51 89 66 54 95 71 57 101 76 42 107 57 45 75 62 48 81 67 51 87 72 54 93 77 57 99 58 42 105 63 45 111 68 48 79 73 51 85 78 54 91 59 57 97 64 42 103 69 45 109 74 48 77 79 51 83 60 54 89 65 57 95 70 42 101 75 45 107 56 48 75 61 51 81 66 54 87 71 57 93 76 42 99 57 45 105 62 48 111 67 51 79 72 54 85 77 57 91 58 42 97 63 45 103 68 48 109 73 51
100 64 56 106 69 59 74 74 44 80 79 47 86 60 50 92 65 53 98 70 56 104 75 59 110 56 44 78 61 47 84 66 50 90 71 53 96 76 56 102 57 59 108 62 44 76 67 47 82 72 50 88 77 53 94 58 56 100 63 59 106 68 44 74 73 47 80 78 50 86 59 53 92 64 56 98 69 59 104 74 44 110 79 47 78 60 50 84 65 53 90 70 56 96 75 59 102 56 44 108 61 47 76 66 50 82 71 53 88 76 56 94 57 59 100 62 44 106 67 47 74 72 50 80 77 53 86 58 56 92 63 59 98 68 44 104 73 47 110 78 50 78 59 53 84 64 56 90 69 59 96 74 44 102 79 47 108 60 50 76 65 53 82 70 56 88 75 59 94 56 44 100 61 47 106 66 50 74 71 53 80 76 56 86 57 59 92 62 44 98 67 47 104 72 50 110 77 53 78 58 56 84 63 59 90 68 44 96 73 47 102 78 50 108 59 53 76 64 56 82 69 59 88 74 44 94 79 47 100 60 50 106 65 53 74 70 56 80 75 59 86 56 44 92 61 47 98 66 50 104 71 53 110 76 56 78 57 59 84 62 44 90 67 47 96 72 50 102 77 53 108 58 56 76 63 59 82 68 44 88 73 47 94 78 50 100 59 53 106 64 56 74 69 59 80 74 44 86 79 47 92 60 50 98 65 53 104 70 56 110 75 59 78 56 44 84 61 47 90 66 50 96 71 53 102 76 56 108 57 59 76 62 44 82 67 47 88 72 50 94 77 53 100 58 56 106 63 59 74 68 44 80 73 47 86 78 50 92 59 53 98 64 56 104 69 59 110 74 44 78 79 47 84 60 50 90 65 53 96 70 56 102 75 59 108 56 44 76 61 47 82 66 50 88 71 53 94 76 56 100 57 59 106 62 44 74 67 47 80 72 50 86 77 53 92 58 56 98 63 59 104 68 44 110 73 47 78 78 50 84 59 53 90 64 56 96 69 59 102 74 44 108 79 47 76 60 50 82 65 53 88 70 56 94 75 59 100 56 44 106 61 47 74 66 50 80 71 53 86 76 56 92 57 59 98 62 44 104 67 47 110 72 50 78 77 53 84 58 56 90 63 59 96 68 44 102 73 47 108 78 50 76 59 53 82 64 56 88 69 59 94 74 44 100 79 47 106 60 50 74 65 53 80 70 56 86 75 59 92 56 44 98 61 47 104 66 50 110 71 53 78 76 56 84 57 59 90 62 44 96 67 47 102 72 50 108 77 53 76 58 56 82 63 59 88 68 44 94 73 47 100 78 50 106 59 53 74 64 56 80 69 59 86 74 44 92 79 47 98 60 50 104 65 53 110 70 56 78 75 59 84 56 44 90 61 47 96 66 50 102 71 53 108 76 56 76 57 59 82 62 44 88 67 47 94 72 50 100 77 53 106 58 56 74 63 59 80 68 44 86 73 47 92 78 50 98 59 53 104 64 56 110 69 59 78 74 44 84 79 47 90 60 50 96 65 53 102 70 56 108 75 59 76 56 44 82 61 47 88 66 50 94 71 53 100 76 56 106 57 59 74 62 44 80 67 47 86 72 50 92 77 53 98 58 56 104 63 59 110 68 44 78 73 47 84 78 50 90 59 53 96 64 56 102 69 59 108 74 44 76 79 47 82 60 50 88 65 53 94 70 56 100 75 59 106 56 44 74 61 47 80 66 50 86 71 53 92 76 56 98 57 59 104 62 44 110 67 47 78 72 50 84 77 53 90 58 56 96 63 59 102 68 44 108 73 47 76 78 50 82 59 53 88 64 56 94 69 59 100 74 44 106 79 47 74 60 50 80 65 53 86 70 56 92 75 59 98 56 44 104 61 47 110 66 50 78 71 53 84 76 56 90 57 59 96 62 44 102 67 47 108 72 50 76 77 53 82 58 56 88 63 59 94 68 44 100 73 47 106 78 50 74 59 53 80 64 56 86 69 59 92 74 44 98 79 47 104 60 50 110 65 53 78 70 56 84 75 59 90 56 44 96 61 47 102 66 50 108 71 53 76 76 56 82 57 59 88 62 44 94 67 47 100 72 50 106 77 53 74 58 56 80 63 59 86 68 44 92 73 47 98 78 50 104 59 53 110 64 56 78 69 59 84 74 44 90 79 47 96 60 50 102 65 53 108 70 56 76 75 59
105 66 46 111 71 49 79 76 52 85 57 55 91 62 58 97 67 43 103 72 46 109 77 49 77 58 52 83 63 55 89 68 58 95 73 43 101 78 46 107 59 49 75 64 52 81 69 55 87 74 58 93 79 43 99 60 46 105 65 49 111 70 52 79 75 55 85 56 58 91 61 43 97 66 46 103 71 49 109 76 52 77 57 55 83 62 58 89 67 43 95 72 46 101 77 49 107 58 52 75 63 55 81 68 58 87 73 43 93 78 46 99 59 49 105 64 52 111 69 55 79 74 58 85 79 43 91 60 46 97 65 49 103 70 52 109 75 55 77 56 58 83 61 43 89 66 46 95 71 49 101 76 52 107 57 55 75 62 58 81 67 43 87 72 46 93 77 49 99 58 52 105 63 55 111 68 58 79 73 43 85 78 46 91 59 49 97 64 52 103 69 55 109 74 58 77 79 43 83 60 46 89 65 49 95 70 52 101 75 55 107 56 58 75 61 43 81 66 46 87 71 49 93 76 52 99 57 55 105 62 58 111 67 43 79 72 46 85 77 49 91 58 52 97 63 55 103 68 58 109 73 43 77 78 46 83 59 49 89 64 52 95 69 55 101 74 58 107 79 43 75 60 46 81 65 49 87 70 52 93 75 55 99 56 58 105 61 43 111 66 46 79 71 49 85 76 52 91 57 55 97 62 58 103 67 43 109 72 46 77 77 49 83 58 52 89 63 55 95 68 58 101 73 43 107 78 46 75 59 49 81 64 52 87 69 55 93 74 58 99 79 43 105 60 46 111 65 49 79 70 52 85 75 55 91 56 58 97 61 43 103 66 46 109 71 49 77 76 52 83 57 55 89 62 58 95 67 43 101 72 46 107 77 49 75 58 52 81 63 55 87 68 58 93 73 43 99 78 46 105 59 49 111 64 52 79 69 55 85 74 58 91 79 43 97 60 46 103 65 49 109 70 52 77 75 55 83 56 58 89 61 43 95 66 46 101 71 49 107 76 52 75 57 55 81 62 58 87 67 43 93 72 46 99 77 49 105 58 52 111 63 55 79 68 58 85 73 43 91 78 46 97 59 49 103 64 52 109 69 55 77 74 58 83 79 43 89 60 46 95 65 49 101 70 52 107 75 55 75 56 58 81 61 43 87 66 46 93 71 49 99 76 52 105 57 55 111 62 58 79 67 43 85 72 46 91 77 49 97 58 52 103 63 55 109 68 58 77 73 43 83 78 46 89 59 49 95 64 52 101 69 55 107 74 58 75 79 43 81 60 46 87 65 49 93 70 52 99 75 55 105 56 58 111 61 43 79 66 46 85 71 49 91 76 52 97 57 55 103 62 58 109 67 43 77 72 46 83 77 49 89 58 52 95 63 55 101 68 58 107 73 43 75 78 46 81 59 49 87 64 52 93 69 55 99 74 58 105 79 43 111 60 46 79 65 49 85 70 52 91 75 55 97 56 58 103 61 43 109 66 46 77 71 49 83 76 52 89 57 55 95 62 58 101 67 43 107 72 46 75 77 49 81 58 52 87 63 55 93 68 58 99 73 43 105 78 46 111 59 49 79 64 52 85 69 55 91 74 58 97 79 43 103 60 46 109 65 49 77 70 52 83 75 55 89 56 58 95 61 43 101 66 46 107 71 49 75 76 52 81 57 55 87 62 58 93 67 43 99 72 46 105 77 49 111 58 52 79 63 55 85 68 58 91 73 43 97 78 46 103 59 49 109 64 52 77 69 55 83 74 58 89 79 43 95 60 46 101 65 49 107 70 52 75 75 55 81 56 58 87 61 43 93 66 46 99 71 49 105 76 52 111 57 55 79 62 58 85 67 43 91 72 46 97 77 49 103 58 52 109 63 55 77 68 58 83 73 43 89 78 46 95 59 49 101 64 52 107 69 55 75 74 58 81 79 43 87 60 46 93 65 49 99 70 52 105 75 55 111 56 58 79 61 43 85 66 46 91 71 49 97 76 52 103 57 55 109 62 58 77 67 43 83 72 46 89 77 49 95 58 52 101 63 55 107 68 58 75 73 43 81 78 46 87 59 49 93 64 52 99 69 55 105 74 58 111 79 43 79 60 46 85 65 49 91 70 52 97 75 55 103 56 58 109 61 43 77 66 46 83 71 49 89 76 52 95 57 55 101 62 58 107 67 43 75 72 46 81 77 49
110 68 54 78 73 57 84 78 42 90 59 45 96 64 48 102 69 51 108 74 54 76 79 57 82 60 42 88 65 45 94 70 48 100 75 51 106 56 54 74 61 57 80 66 42 86 71 45 92 76 48 98 57 51 104 62 54 110 67 57 78 72 42 84 77 45 90 58 48 96 63 51 102 68 54 108 73 57 76 78 42 82 59 45 88 64 48 94 69 51 100 74 54 106 79 57 74 60 42 80 65 45 86 70 48 92 75 51 98 56 54 104 61 57 110 66 42 78 71 45 84 76 48 90 57 51 96 62 54 102 67 57 108 72 42 76 77 45 82 58 48 88 63 51 94 68 54 100 73 57 106 78 42 74 59 45 80 64 48 86 69 51 92 74 54 98 79 57 104 60 42 110 65 45 78 70 48 84 75 51 90 56 54 96 61 57 102 66 42 108 71 45 76 76 48 82 57 51 88 62 54 94 67 57 100 72 42 106 77 45 74 58 48 80 63 51 86 68 54 92 73 57 98 78 42 104 59 45 110 64 48 78 69 51 84 74 54 90 79 57 96 60 42 102 65 45 108 70 48 76 75 51 82 56 54 88 61 57 94 66 42 100 71 45 106 76 48 74 57 51 80 62 54 86 67 57 92 72 42 98 77 45 104 58 48 110 63 51 78 68 54 84 73 57 90 78 42 96 59 45 102 64 48 108 69 51 76 74 54 82 79 57 88 60 42 94 65 45 100 70 48 106 75 51 74 56 54 80 61 57 86 66 42 92 71 45 98 76 48 104 57 51 110 62 54 78 67 57 84 72 42 90 77 45 96 58 48 102 63 51 108 68 54 76 73 57 82 78 42 88 59 45 94 64 48 100 69 51 106 74 54 74 79 57 80 60 42 86 65 45 92 70 48 98 75 51 104 56 54 110 61 57 78 66 42 84 71 45 90 76 48 96 57 51 102 62 54 108 67 57 76 72 42 82 77 45 88 58 48 94 63 51 100 68 54 106 73 57 74 78 42 80 59 45 86 64 48 92 69 51 98 74 54 104 79 57 110 60 42 78 65 45 84 70 48 90 75 51 96 56 54 102 61 57 108 66 42 76 71 45 82 76 48 88 57 51 94 62 54 100 67 57 106 72 42 74 77 45 80 58 48 86 63 51 92 68 54 98 73 57 104 78 42 110 59 45 78 64 48 84 69 51 90 74 54 96 79 57 102 60 42 108 65 45 76 70 48 82 75 51 88 56 54 94 61 57 100 66 42 106 71 45 74 76 48 80 57 51 86 62 54 92 67 57 98 72 42 104 77 45 110 58 48 78 63 51 84 68 54 90 73 57 96 78 42 102 59 45 108 64 48 76 69 51 82 74 54 88 79 57 94 60 42 100 65 45 106 70 48 74 75 51 80 56 54 86 61 57 92 66 42 98 71 45 104 76 48 110 57 51 78 62 54 84 67 57 90 72 42 96 77 45 102 58 48 108 63 51 76 68 54 82 73 57 88 78 42 94 59 45 100 64 48 106 69 51 74 74 54 80 79 57 86 60 42 92 65 45 98 70 48 104 75 51 110 56 54 78 61 57 84 66 42 90 71 45 96 76 48 102 57 51 108 62 54 76 67 57 82 72 42 88 77 45 94 58 48 100 63 51 106 68 54 74 73 57 80 78 42 86 59 45 92 64 48 98 69 51 104 74 54 110 79 57 78 60 42 84 65 45 90 70 48 96 75 51 102 56 54 108 61 57 76 66 42 82 71 45 88 76 48 94 57 51 100 62 54 106 67 57 74 72 42 80 77 45 86 58 48 92 63 51 98 68 54 104 73 57 110 78 42 78 59 45 84 64 48 90 69 51 96 74 54 102 79 57 108 60 42 76 65 45 82 70 48 88 75 51 94 56 54 100 61 57 106 66 42 74 71 45 80 76 48 86 57 51 92 62 54 98 67 57 104 72 42 110 77 45 78 58 48 84 63 51 90 68 54 96 73 57 102 78 42 108 59 45 76 64 48 82 69 51 88 74 54 94 79 57 100 60 42 106 65 45 74 70 48 80 75 51 86 56 54 92 61 57 98 66 42 104 71 45 110 76 48 78 57 51 84 62 54 90 67 57 96 72 42 102 77 45 108 58 48 76 63 51 82 68 54 88 73 57 94 78 42 100 59 45 106 64 48 74 69 51 80 74 54 86 79 57
77 70 44 83 75 47 89 56 50 95 61 53 101 66 56 107 71 59 75 76 44 81 57 47 87 62 50 93 67 53 99 72 56 105 77 59 111 58 44 79 63 47 85 68 50 91 73 53 97 78 56 103 59 59 109 64 44 77 69 47 83 74 50 89 79 53 95 60 56 101 65 59 107 70 44 75 75 47 81 56 50 87 61 53 93 66 56 99 71 59 105 76 44 111 57 47 79 62 50 85 67 53 91 72 56 97 77 59 103 58 44 109 63 47 77 68 50 83 73 53 89 78 56 95 59 59 101 64 44 107 69 47 75 74 50 81 79 53 87 60 56 93 65 59 99 70 44 105 75 47 111 56 50 79 61 53 85 66 56 91 71 59 97 76 44 103 57 47 109 62 50 77 67 53 83 72 56 89 77 59 95 58 44 101 63 47 107 68 50 75 73 53 81 78 56 87 59 59 93 64 44 99 69 47 105 74 50 111 79 53 79 60 56 85 65 59 91 70 44 97 75 47 103 56 50 109 61 53 77 66 56 83 71 59 89 76 44 95 57 47 101 62 50 107 67 53 75 72 56 81 77 59 87 58 44 93 63 47 99 68 50 105 73 53 111 78 56 79 59 59 85 64 44 91 69 47 97 74 50 103 79 53 109 60 56 77 65 59 83 70 44 89 75 47 95 56 50 101 61 53 107 66 56 75 71 59 81 76 44 87 57 47 93 62 50 99 67 53 105 72 56 111 77 59 79 58 44 85 63 47 91 68 50 97 73 53 103 78 56 109 59 59 77 64 44 83 69 47 89 74 50 95 79 53 101 60 56 107 65 59 75 70 44 81 75 47 87 56 50 93 61 53 99 66 56 105 71 59 111 76 44 79 57 47 85 62 50 91 67 53 97 72 56 103 77 59 109 58 44 77 63 47 83 68 50 89 73 53 95 78 56 101 59 59 107 64 44 75 69 47 81 74 50 87 79 53 93 60 56 99 65 59 105 70 44 111 75 47 79 56 50 85 61 53 91 66 56 97 71 59 103 76 44 109 57 47 77 62 50 83 67 53 89 72 56 95 77 59 101 58 44 107 63 47 75 68 50 81 73 53 87 78 56 93 59 59 99 64 44 105 69 47 111 74 50 79 79 53 85 60 56 91 65 59 97 70 44 103 75 47 109 56 50 77 61 53 83 66 56 89 71 59 95 76 44 101 57 47 107 62 50 75 67 53 81 72 56 87 77 59 93 58 44 99 63 47 105 68 50 111 73 53 79 78 56 85 59 59 91 64 44 97 69 47 103 74 50 109 79 53 77 60 56 83 65 59 89 70 44 95 75 47 101 56 50 107 61 53 75 66 56 81 71 59 87 76 44 93 57 47 99 62 50 105 67 53 111 72 56 79 77 59 85 58 44 91 63 47 97 68 50 103 73 53 109 78 56 77 59 59 83 64 44 89 69 47 95 74 50 101 79 53 107 60 56 75 65 59 81 70 44 87 75 47 93 56 50 99 61 53 105 66 56 111 71 59 79 76 44 85 57 47 91 62 50 97 67 53 103 72 56 109 77 59 77 58 44 83 63 47 89 68 50 95 73 53 101 78 56 107 59 59 75 64 44 81 69 47 87 74 50 93 79 53 99 60 56 105 65 59 111 70 44 79 75 47 85 56 50 91 61 53 97 66 56 103 71 59 109 76 44 77 57 47 83 62 50 89 67 53 95 72 56 101 77 59 107 58 44 75 63 47 81 68 50 87 73 53 93 78 56 99 59 59 105 64 44 111 69 47 79 74 50 85 79 53 91 60 56 97 65 59 103 70 44 109 75 47 77 56 50 83 61 53 89 66 56 95 71 59 101 76 44 107 57 47 75 62 50 81 67 53 87 72 56 93 77 59 99 58 44 105 63 47 111 68 50 79 73 53 85 78 56 91 59 59 97 64 44 103 69 47 109 74 50 77 79 53 83 60 56 89 65 59 95 70 44 101 75 47 107 56 50 75 61 53 81 66 56 87 71 59 93 76 44 99 57 47 105 62 50 111 67 53 79 72 56 85 77 59 91 58 44 97 63 47 103 68 50 109 73 53 77 78 56 83 59 59 89 64 44 95 69 47 101 74 50 107 79 53 75 60 56 81 65 59 87 70 44 93 75 47 99 56 50 105 61 53 111 66 56 79 71 59 85 76 44 91 57 47
82 72 52 88 77 55 94 58 58 100 63 43 106 68 46 74 73 49 80 78 52 86 59 55 92 64 58 98 69 43 104 74 46 110 79 49 78 60 52 84 65 55 90 70 58 96 75 43 102 56 46 108 61 49 76 66 52 82 71 55 88 76 58 94 57 43 100 62 46 106 67 49 74 72 52 80 77 55 86 58 58 92 63 43 98 68 46 104 73 49 110 78 52 78 59 55 84 64 58 90 69 43 96 74 46 102 79 49 108 60 52 76 65 55 82 70 58 88 75 43 94 56 46 100 61 49 106 66 52 74 71 55 80 76 58 86 57 43 92 62 46 98 67 49 104 72 52 110 77 55 78 58 58 84 63 43 90 68 46 96 73 49 102 78 52 108 59 55 76 64 58 82 69 43 88 74 46 94 79 49 100 60 52 106 65 55 74 70 58 80 75 43 86 56 46 92 61 49 98 66 52 104 71 55 110 76 58 78 57 43 84 62 46 90 67 49 96 72 52 102 77 55 108 58 58 76 63 43 82 68 46 88 73 49 94 78 52 100 59 55 106 64 58 74 69 43 80 74 46 86 79 49 92 60 52 98 65 55 104 70 58 110 75 43 78 56 46 84 61 49 90 66 52 96 71 55 102 76 58 108 57 43 76 62 46 82 67 49 88 72 52 94 77 55 100 58 58 106 63 43 74 68 46 80 73 49 86 78 52 92 59 55 98 64 58 104 69 43 110 74 46 78 79 49 84 60 52 90 65 55 96 70 58 102 75 43 108 56 46 76 61 49 82 66 52 88 71 55 94 76 58 100 57 43 106 62 46 74 67 49 80 72 52 86 77 55 92 58 58 98 63 43 104 68 46 110 73 49 78 78 52 84 59 55 90 64 58 96 69 43 102 74 46 108 79 49 76 60 52 82 65 55 88 70 58 94 75 43 100 56 46 106 61 49 74 66 52 80 71 55 86 76 58 92 57 43 98 62 46 104 67 49 110 72 52 78 77 55 84 58 58 90 63 43 96 68 46 102 73 49 108 78 52 76 59 55 82 64 58 88 69 43 94 74 46 100 79 49 106 60 52 74 65 55 80 70 58 86 75 43 92 56 46 98 61 49 104 66 52 110 71 55 78 76 58 84 57 43 90 62 46 96 67 49 102 72 52 108 77 55 76 58 58 82 63 43 88 68 46 94 73 49 100 78 52 106 59 55 74 64 58 80 69 43 86 74 46 92 79 49 98 60 52 104 65 55 110 70 58 78 75 43 84 56 46 90 61 49 96 66 52 102 71 55 108 76 58 76 57 43 82 62 46 88 67 49 94 72 52 100 77 55 106 58 58 74 63 43 80 68 46 86 73 49 92 78 52 98 59 55 104 64 58 110 69 43 78 74 46 84 79 49 90 60 52 96 65 55 102 70 58 108 75 43 76 56 46 82 61 49 88 66 52 94 71 55 100 76 58 106 57 43 74 62 46 80 67 49 86 72 52 92 77 55 98 58 58 104 63 43 110 68 46 78 73 49 84 78 52 90 59 55 96 64 58 102 69 43 108 74 46 76 79 49 82 60 52 88 65 55 94 70 58 100 75 43 106 56 46 74 61 49 80 66 52 86 71 55 92 76 58 98 57 43 104 62 46 110 67 49 78 72 52 84 77 55 90 58 58 96 63 43 102 68 46 108 73 49 76 78 52 82 59 55 88 64 58 94 69 43 100 74 46 106 79 49 74 60 52 80 65 55 86 70 58 92 75 43 98 56 46 104 61 49 110 66 52 78 71 55 84 76 58 90 57 43 96 62 46 102 67 49 108 72 52 76 77 55 82 58 58 88 63 43 94 68 46 100 73 49 106 78 52 74 59 55 80 64 58 86 69 43 92 74 46 98 79 49 104 60 52 110 65 55 78 70 58 84 75 43 90 56 46 96 61 49 102 66 52 108 71 55 76 76 58 82 57 43 88 62 46 94 67 49 100 72 52 106 77 55 74 58 58 80 63 43 86 68 46 92 73 49 98 78 52 104 59 55 110 64 58 78 69 43 84 74 46 90 79 49 96 60 52 102 65 55 108 70 58 76 75 43 82 56 46 88 61 49 94 66 52 100 71 55 106 76 58 74 57 43 80 62 46 86 67 49 92 72 52 98 77 55 104 58 58 110 63 43 78 68 46 84 73 49 90 78 52 96 59 55
87 74 42 93 79 45 99 60 48 105 65 51 111 70 54 79 75 57 85 56 42 91 61 45 97 66 48 103 71 51 109 76 54 77 57 57 83 62 42 89 67 45 95 72 48 101 77 51 107 58 54 75 63 57 81 68 42 87 73 45 93 78 48 99 59 51 105 64 54 111 69 57 79 74 42 85 79 45 91 60 48 97 65 51 103 70 54 109 75 57 77 56 42 83 61 45 89 66 48 95 71 51 101 76 54 107 57 57 75 62 42 81 67 45 87 72 48 93 77 51 99 58 54 105 63 57 111 68 42 79 73 45 85 78 48 91 59 51 97 64 54 103 69 57 109 74 42 77 79 45 83 60 48 89 65 51 95 70 54 101 75 57 107 56 42 75 61 45 81 66 48 87 71 51 93 76 54 99 57 57 105 62 42 111 67 45 79 72 48 85 77 51 91 58 54 97 63 57 103 68 42 109 73 45 77 78 48 83 59 51 89 64 54 95 69 57 101 74 42 107 79 45 75 60 48 81 65 51 87 70 54 93 75 57 99 56 42 105 61 45 111 66 48 79 71 51 85 76 54 91 57 57 97 62 42 103 67 45 109 72 48 77 77 51 83 58 54 89 63 57 95 68 42 101 73 45 107 78 48 75 59 51 81 64 54 87 69 57 93 74 42 99 79 45 105 60 48 111 65 51 79 70 54 85 75 57 91 56 42 97 61 45 103 66 48 109 71 51 77 76 54 83 57 57 89 62 42 95 67 45 101 72 48 107 77 51 75 58 54 81 63 57 87 68 42 93 73 45 99 78 48 105 59 51 111 64 54 79 69 57 85 74 42 91 79 45 97 60 48 103 65 51 109 70 54 77 75 57 83 56 42 89 61 45 95 66 48 101 71 51 107 76 54 75 57 57 81 62 42 87 67 45 93 72 48 99 77 51 105 58 54 111 63 57 79 68 42 85 73 45 91 78 48 97 59 51 103 64 54 109 69 57 77 74 42 83 79 45 89 60 48 95 65 51 101 70 54 107 75 57 75 56 42 81 61 45 87 66 48 93 71 51 99 76 54 105 57 57 111 62 42 79 67 45 85 72 48 91 77 51 97 58 54 103 63 57 109 68 42 77 73 45 83 78 48 89 59 51 95 64 54 101 69 57 107 74 42 75 79 45 81 60 48 87 65 51 93 70 54 99 75 57 105 56 42 111 61 45 79 66 48 85 71 51 91 76 54 97 57 57 103 62 42 109 67 45 77 72 48 83 77 51 89 58 54 95 63 57 101 68 42 107 73 45 75 78 48 81 59 51 87 64 54 93 69 57 99 74 42 105 79 45 111 60 48 79 65 51 85 70 54 91 75 57 97 56 42 103 61 45 109 66 48 77 71 51 83 76 54 89 57 57 95 62 42 101 67 45 107 72 48 75 77 51 81 58 54 87 63 57 93 68 42 99 73 45 105 78 48 111 59 51 79 64 54 85 69 57 91 74 42 97 79 45 103 60 48 109 65 51 77 70 54 83 75 57 89 56 42 95 61 45 101 66 48 107 71 51 75 76 54 81 57 57 87 62 42 93 67 45 99 72 48 105 77 51 111 58 54 79 63 57 85 68 42 91 73 45 97 78 48 103 59 51 109 64 54 77 69 57 83 74 42 89 79 45 95 60 48 101 65 51 107 70 54 75 75 57 81 56 42 87 61 45 93 66 48 99 71 51 105 76 54 111 57 57 79 62 42 85 67 45 91 72 48 97 77 51 103 58 54 109 63 57 77 68 42 83 73 45 89 78 48 95 59 51 101 64 54 107 69 57 75 74 42 81 79 45 87 60 48 93 65 51 99 70 54 105 75 57 111 56 42 79 61 45 85 66 48 91 71 51 97 76 54 103 57 57 109 62 42 77 67 45 83 72 48 89 77 51 95 58 54 101 63 57 107 68 42 75 73 45 81 78 48 87 59 51 93 64 54 99 69 57 105 74 42 111 79 45 79 60 48 85 65 51 91 70 54 97 75 57 103 56 42 109 61 45 77 66 48 83 71 51 89 76 54 95 57 57 101 62 42 107 67 45 75 72 48 81 77 51 87 58 54 93 63 57 99 68 42 105 73 45 111 78 48 79 59 51 85 64 54 91 69 57 97 74 42 103 79 45 109 60 48 77 65 51 83 70 54 89 75 57 95 56 42 101 61 45
92 76 50 98 57 53 104 62 56 110 67 59 78 72 44 84 77 47 90 58 50 96 63 53 102 68 56 108 73 59 76 78 44 82 59 47 88 64 50 94 69 53 100 74 56 106 79 59 74 60 44 80 65 47 86 70 50 92 75 53 98 56 56 104 61 59 110 66 44 78 71 47 84 76 50 90 57 53 96 62 56 102 67 59 108 72 44 76 77 47 82 58 50 88 63 53 94 68 56 100 73 59 106 78 44 74 59 47 80 64 50 86 69 53 92 74 56 98 79 59 104 60 44 110 65 47 78 70 50 84 75 53 90 56 56 96 61 59 102 66 44 108 71 47 76 76 50 82 57 53 88 62 56 94 67 59 100 72 44 106 77 47 74 58 50 80 63 53 86 68 56 92 73 59 98 78 44 104 59 47 110 64 50 78 69 53 84 74 56 90 79 59 96 60 44 102 65 47 108 70 50 76 75 53 82 56 56 88 61 59 94 66 44 100 71 47 106 76 50 74 57 53 80 62 56 86 67 59 92 72 44 98 77 47 104 58 50 110 63 53 78 68 56 84 73 59 90 78 44 96 59 47 102 64 50 108 69 53 76 74 56 82 79 59 88 60 44 94 65 47 100 70 50 106 75 53 74 56 56 80 61 59 86 66 44 92 71 47 98 76 50 104 57 53 110 62 56 78 67 59 84 72 44 90 77 47 96 58 50 102 63 53 108 68 56 76 73 59 82 78 44 88 59 47 94 64 50 100 69 53 106 74 56 74 79 59 80 60 44 86 65 47 92 70 50 98 75 53 104 56 56 110 61 59 78 66 44 84 71 47 90 76 50 96 57 53 102 62 56 108 67 59 76 72 44 82 77 47 88 58 50 94 63 53 100 68 56 106 73 59 74 78 44 80 59 47 86 64 50 92 69 53 98 74 56 104 79 59 110 60 44 78 65 47 84 70 50 90 75 53 96 56 56 102 61 59 108 66 44 76 71 47 82 76 50 88 57 53 94 62 56 100 67 59 106 72 44 74 77 47 80 58 50 86 63 53 92 68 56 98 73 59 104 78 44 110 59 47 78 64 50 84 69 53 90 74 56 96 79 59 102 60 44 108 65 47 76 70 50 82 75 53 88 56 56 94 61 59 100 66 44 106 71 47 74 76 50 80 57 53 86 62 56 92 67 59 98 72 44 104 77 47 110 58 50 78 63 53 84 68 56 90 73 59 96 78 44 102 59 47 108 64 50 76 69 53 82 74 56 88 79 59 94 60 44 100 65 47 106 70 50 74 75 53 80 56 56 86 61 59 92 66 44 98 71 47 104 76 50 110 57 53 78 62 56 84 67 59 90 72 44 96 77 47 102 58 50 108 63 53 76 68 56 82 73 59 88 78 44 94 59 47 100 64 50 106 69 53 74 74 56 80 79 59 86 60 44 92 65 47 98 70 50 104 75 53 110 56 56 78 61 59 84 66 44 90 71 47 96 76 50 102 57 53 108 62 56 76 67 59 82 72 44 88 77 47 94 58 50 100 63 53 106 68 56 74 73 59 80 78 44 86 59 47 92 64 50 98 69 53 104 74 56 110 79 59 78 60 44 84 65 47 90 70 50 96 75 53 102 56 56 108 61 59 76 66 44 82 71 47 88 76 50 94 57 53 100 62 56 106 67 59 74 72 44 80 77 47 86 58 50 92 63 53 98 68 56 104 73 59 110 78 44 78 59 47 84 64 50 90 69 53 96 74 56 102 79 59 108 60 44 76 65 47 82 70 50 88 75 53 94 56 56 100 61 59 106 66 44 74 71 47 80 76 50 86 57 53 92 62 56 98 67 59 104 72 44 110 77 47 78 58 50 84 63 53 90 68 56 96 73 59 102 78 44 108 59 47 76 64 50 82 69 53 88 74 56 94 79 59 100 60 44 106 65 47 74 70 50 80 75 53 86 56 56 92 61 59 98 66 44 104 71 47 110 76 50 78 57 53 84 62 56 90 67 59 96 72 44 102 77 47 108 58 50 76 63 53 82 68 56 88 73 59 94 78 44 100 59 47 106 64 50 74 69 53 80 74 56 86 79 59 92 60 44 98 65 47 104 70 50 110 75 53 78 56 56 84 61 59 90 66 44 96 71 47 102 76 50 108 57 53 76 62 56 82 67 59 88 72 44 94 77 47 100 58 50 106 63 53
97 78 58 103 59 43 109 64 46 77 69 49 83 74 52 89 79 55 95 60 58 101 65 43 107 70 46 75 75 49 81 56 52 87 61 55 93 66 58 99 71 43 105 76 46 111 57 49 79 62 52 85 67 55 91 72 58 97 77 43 103 58 46 109 63 49 77 68 52 83 73 55 89 78 58 95 59 43 101 64 46 107 69 49 75 74 52 81 79 55 87 60 58 93 65 43 99 70 46 105 75 49 111 56 52 79 61 55 85 66 58 91 71 43 97 76 46 103 57 49 109 62 52 77 67 55 83 72 58 89 77 43 95 58 46 101 63 49 107 68 52 75 73 55 81 78 58 87 59 43 93 64 46 99 69 49 105 74 52 111 79 55 79 60 58 85 65 43 91 70 46 97 75 49 103 56 52 109 61 55 77 66 58 83 71 43 89 76 46 95 57 49 101 62 52 107 67 55 75 72 58 81 77 43 87 58 46 93 63 49 99 68 52 105 73 55 111 78 58 79 59 43 85 64 46 91 69 49 97 74 52 103 79 55 109 60 58 77 65 43 83 70 46 89 75 49 95 56 52 101 61 55 107 66 58 75 71 43 81 76 46 87 57 49 93 62 52 99 67 55 105 72 58 111 77 43 79 58 46 85 63 49 91 68 52 97 73 55 103 78 58 109 59 43 77 64 46 83 69 49 89 74 52 95 79 55 101 60 58 107 65 43 75 70 46 81 75 49 87 56 52 93 61 55 99 66 58 105 71 43 111 76 46 79 57 49 85 62 52 91 67 55 97 72 58 103 77 43 109 58 46 77 63 49 83 68 52 89 73 55 95 78 58 101 59 43 107 64 46 75 69 49 81 74 52 87 79 55 93 60 58 99 65 43 105 70 46 111 75 49 79 56 52 85 61 55 91 66 58 97 71 43 103 76 46 109 57 49 77 62 52 83 67 55 89 72 58 95 77 43 101 58 46 107 63 49 75 68 52 81 73 55 87 78 58 93 59 43 99 64 46 105 69 49 111 74 52 79 79 55 85 60 58 91 65 43 97 70 46 103 75 49 109 56 52 77 61 55 83 66 58 89 71 43 95 76 46 101 57 49 107 62 52 75 67 55 81 72 58 87 77 43 93 58 46 99 63 49 105 68 52 111 73 55 79 78 58 85 59 43 91 64 46 97 69 49 103 74 52 109 79 55 77 60 58 83 65 43 89 70 46 95 75 49 101 56 52 107 61 55 75 66 58 81 71 43 87 76 46 93 57 49 99 62 52 105 67 55 111 72 58 79 77 43 85 58 46 91 63 49 97 68 52 103 73 55 109 78 58 77 59 43 83 64 46 89 69 49 95 74 52 101 79 55 107 60 58 75 65 43 81 70 46 87 75 49 93 56 52 99 61 55 105 66 58 111 71 43 79 76 46 85 57 49 91 62 52 97 67 55 103 72 58 109 77 43 77 58 46 83 63 49 89 68 52 95 73 55 101 78 58 107 59 43 75 64 46 81 69 49 87 74 52 93 79 55 99 60 58 105 65 43 111 70 46 79 75 49 85 56 52 91 61 55 97 66 58 103 71 43 109 76 46 77 57 49 83 62 52 89 67 55 95 72 58 101 77 43 107 58 46 75 63 49 81 68 52 87 73 55 93 78 58 99 59 43 105 64 46 111 69 49 79 74 52 85 79 55 91 60 58 97 65 43 103 70 46 109 75 49 77 56 52 83 61 55 89 66 58 95 71 43 101 76 46 107 57 49 75 62 52 81 67 55 87 72 58 93 77 43 99 58 46 105 63 49 111 68 52 79 73 55 85 78 58 91 59 43 97 64 46 103 69 49 109 74 52 77 79 55 83 60 58 89 65 43 95 70 46 101 75 49 107 56 52 75 61 55 81 66 58 87 71 43 93 76 46 99 57 49 105 62 52 111 67 55 79 72 58 85 77 43 91 58 46 97 63 49 103 68 52 109 73 55 77 78 58 83 59 43 89 64 46 95 69 49 101 74 52 107 79 55 75 60 58 81 65 43 87 70 46 93 75 49 99 56 52 105 61 55 111 66 58 79 71 43 85 76 46 91 57 49 97 62 52 103 67 55 109 72 58 77 77 43 83 58 46 89 63 49 95 68 52 101 73 55 107 78 58 75 59 43 81 64 46 87 69 49 93 74 52 99 79 55 105 60 58 111 65 43
102 56 48 108 61 51 76 66 54 82 71 57 88 76 42 94 57 45 100 62 48 106 67 51 74 72 54 80 77 57 86 58 42 92 63 45 98 68 48 104 73 51 110 78 54 78 59 57 84 64 42 90 69 45 96 74 48 102 79 51 108 60 54 76 65 57 82 70 42 88 75 45 94 56 48 100 61 51 106 66 54 74 71 57 80 76 42 86 57 45 92 62 48 98 67 51 104 72 54 110 77 57 78 58 42 84 63 45 90 68 48 96 73 51 102 78 54 108 59 57 76 64 42 82 69 45 88 74 48 94 79 51 100 60 54 106 65 57 74 70 42 80 75 45 86 56 48 92 61 51 98 66 54 104 71 57 110 76 42 78 57 45 84 62 48 90 67 51 96 72 54 102 77 57 108 58 42 76 63 45 82 68 48 88 73 51 94 78 54 100 59 57 106 64 42 74 69 45 80 74 48 86 79 51 92 60 54 98 65 57 104 70 42 110 75 45 78 56 48 84 61 51 90 66 54 96 71 57 102 76 42 108 57 45 76 62 48 82 67 51 88 72 54 94 77 57 100 58 42 106 63 45 74 68 48 80 73 51 86 78 54 92 59 57 98 64 42 104 69 45 110 74 48 78 79 51 84 60 54 90 65 57 96 70 42 102 75 45 108 56 48 76 61 51 82 66 54 88 71 57 94 76 42 100 57 45 106 62 48 74 67 51 80 72 54 86 77 57 92 58 42 98 63 45 104 68 48 110 73 51 78 78 54 84 59 57 90 64 42 96 69 45 102 74 48 108 79 51 76 60 54 82 65 57 88 70 42 94 75 45 100 56 48 106 61 51 74 66 54 80 71 57 86 76 42 92 57 45 98 62 48 104 67 51 110 72 54 78 77 57 84 58 42 90 63 45 96 68 48 102 73 51 108 78 54 76 59 57 82 64 42 88 69 45 94 74 48 100 79 51 106 60 54 74 65 57 80 70 42 86 75 45 92 56 48 98 61 51 104 66 54 110 71 57 78 76 42 84 57 45 90 62 48 96 67 51 102 72 54 108 77 57 76 58 42 82 63 45 88 68 48 94 73 51 100 78 54 106 59 57 74 64 42 80 69 45 86 74 48 92 79 51 98 60 54 104 65 57 110 70 42 78 75 45 84 56 48 90 61 51 96 66 54 102 71 57 108 76 42 76 57 45 82 62 48 88 67 51 94 72 54 100 77 57 106 58 42 74 63 45 80 68 48 86 73 51 92 78 54 98 59 57 104 64 42 110 69 45 78 74 48 84 79 51 90 60 54 96 65 57 102 70 42 108 75 45 76 56 48 82 61 51 88 66 54 94 71 57 100 76 42 106 57 45 74 62 48 80 67 51 86 72 54 92 77 57 98 58 42 104 63 45 110 68 48 78 73 51 84 78 54 90 59 57 96 64 42 102 69 45 108 74 48 76 79 51 82 60 54 88 65 57 94 70 42 100 75 45 106 56 48 74 61 51 80 66 54 86 71 57 92 76 42 98 57 45 104 62 48 110 67 51 78 72 54 84 77 57 90 58 42 96 63 45 102 68 48 108 73 51 76 78 54 82 59 57 88 64 42 94 69 45 100 74 48 106 79 51 74 60 54 80 65 57 86 70 42 92 75 45 98 56 48 104 61 51 110 66 54 78 71 57 84 76 42 90 57 45 96 62 48 102 67 51 108 72 54 76 77 57 82 58 42 88 63 45 94 68 48 100 73 51 106 78 54 74 59 57 80 64 42 86 69 45 92 74 48 98 79 51 104 60 54 110 65 57 78 70 42 84 75 45 90 56 48 96 61 51 102 66 54 108 71 57 76 76 42 82 57 45 88 62 48 94 67 51 100 72 54 106 77 57 74 58 42 80 63 45 86 68 48 92 73 51 98 78 54 104 59 57 110 64 42 78 69 45 84 74 48 90 79 51 96 60 54 102 65 57 108 70 42 76 75 45 82 56 48 88 61 51 94 66 54 100 71 57 106 76 42 74 57 45 80 62 48 86 67 51 92 72 54 98 77 57 104 58 42 110 63 45 78 68 48 84 73 51 90 78 54 96 59 57 102 64 42 108 69 45 76 74 48 82 79 51 88 60 54 94 65 57 100 70 42 106 75 45 74 56 48 80 61 51 86 66 54 92 71 57 98 76 42 104 57 45 110 62 48 78 67 51
107 58 56 75 63 59 81 68 44 87 73 47 93 78 50 99 59 53 105 64 56 111 69 59 79 74 44 85 79 47 91 60 50 97 65 53 103 70 56 109 75 59 77 56 44 83 61 47 89 66 50 95 71 53 101 76 56 107 57 59 75 62 44 81 67 47 87 72 50 93 77 53 99 58 56 105 63 59 111 68 44 79 73 47 85 78 50 91 59 53 97 64 56 103 69 59 109 74 44 77 79 47 83 60 50 89 65 53 95 70 56 101 75 59 107 56 44 75 61 47 81 66 50 87 71 53 93 76 56 99 57 59 105 62 44 111 67 47 79 72 50 85 77 53 91 58 56 97 63 59 103 68 44 109 73 47 77 78 50 83 59 53 89 64 56 95 69 59 101 74 44 107 79 47 75 60 50 81 65 53 87 70 56 93 75 59 99 56 44 105 61 47 111 66 50 79 71 53 85 76 56 91 57 59 97 62 44 103 67 47 109 72 50 77 77 53 83 58 56 89 63 59 95 68 44 101 73 47 107 78 50 75 59 53 81 64 56 87 69 59 93 74 44 99 79 47 105 60 50 111 65 53 79 70 56 85 75 59 91 56 44 97 61 47 103 66 50 109 71 53 77 76 56 83 57 59 89 62 44 95 67 47 101 72 50 107 77 53 75 58 56 81 63 59 87 68 44 93 73 47 99 78 50 105 59 53 111 64 56 79 69 59 85 74 44 91 79 47 97 60 50 103 65 53 109 70 56 77 75 59 83 56 44 89 61 47 95 66 50 101 71 53 107 76 56 75 57 59 81 62 44 87 67 47 93 72 50 99 77 53 105 58 56 111 63 59 79 68 44 85 73 47 91 78 50 97 59 53 103 64 56 109 69 59 77 74 44 83 79 47 89 60 50 95 65 53 101 70 56 107 75 59 75 56 44 81 61 47 87 66 50 93 71 53 99 76 56 105 57 59 111 62 44 79 67 47 85 72 50 91 77 53 97 58 56 103 63 59 109 68 44 77 73 47 83 78 50 89 59 53 95 64 56 101 69 59 107 74 44 75 79 47 81 60 50 87 65 53 93 70 56 99 75 59 105 56 44 111 61 47 79 66 50 85 71 53 91 76 56 97 57 59 103 62 44 109 67 47 77 72 50 83 77 53 89 58 56 95 63 59 101 68 44 107 73 47 75 78 50 81 59 53 87 64 56 93 69 59 99 74 44 105 79 47 111 60 50 79 65 53 85 70 56 91 75 59 97 56 44 103 61 47 109 66 50 77 71 53 83 76 56 89 57 59 95 62 44 101 67 47 107 72 50 75 77 53 81 58 56 87 63 59 93 68 44 99 73 47 105 78 50 111 59 53 79 64 56 85 69 59 91 74 44 97 79 47 103 60 50 109 65 53 77 70 56 83 75 59 89 56 44 95 61 47 101 66 50 107 71 53 75 76 56 81 57 59 87 62 44 93 67 47 99 72 50 105 77 53 111 58 56 79 63 59 85 68 44 91 73 47 97 78 50 103 59 53 109 64 56 77 69 59 83 74 44 89 79 47 95 60 50 101 65 53 107 70 56 75 75 59 81 56 44 87 61 47 93 66 50 99 71 53 105 76 56 111 57 59 79 62 44 85 67 47 91 72 50 97 77 53 103 58 56 109 63 59 77 68 44 83 73 47 89 78 50 95 59 53 101 64 56 107 69 59 75 74 44 81 79 47 87 60 50 93 65 53 99 70 56 105 75 59 111 56 44 79 61 47 85 66 50 91 71 53 97 76 56 103 57 59 109 62 44 77 67 47 83 72 50 89 77 53 95 58 56 101 63 59 107 68 44 75 73 47 81 78 50 87 59 53 93 64 56 99 69 59 105 74 44 111 79 47 79 60 50 85 65 53 91 70 56 97 75 59 103 56 44 109 61 47 77 66 50 83 71 53 89 76 56 95 57 59 101 62 44 107 67 47 75 72 50 81 77 53 87 58 56 93 63 59 99 68 44 105 73 47 111 78 50 79 59 53 85 64 56 91 69 59 97 74 44 103 79 47 109 60 50 77 65 53 83 70 56 89 75 59 95 56 44 101 61 47 107 66 50 75 71 53 81 76 56 87 57 59 93 62 44 99 67 47 105 72 50 111 77 53 79 58 56 85 63 59 91 68 44 97 73 47 103 78 50 109 59 53 77 64 56 83 69 59
74 60 46 80 65 49 86 70 52 92 75 55 98 56 58 104 61 43 110 66 46 78 71 49 84 76 52 90 57 55 96 62 58 102 67 43 108 72 46 76 77 49 82 58 52 88 63 55 94 68 58 100 73 43 106 78 46 74 59 49 80 64 52 86 69 55 92 74 58 98 79 43 104 60 46 110 65 49 78 70 52 84 75 55 90 56 58 96 61 43 102 66 46 108 71 49 76 76 52 82 57 55 88 62 58 94 67 43 100 72 46 106 77 49 74 58 52 80 63 55 86 68 58 92 73 43 98 78 46 104 59 49 110 64 52 78 69 55 84 74 58 90 79 43 96 60 46 102 65 49 108 70 52 76 75 55 82 56 58 88 61 43 94 66 46 100 71 49 106 76 52 74 57 55 80 62 58 86 67 43 92 72 46 98 77 49 104 58 52 110 63 55 78 68 58 84 73 43 90 78 46 96 59 49 102 64 52 108 69 55 76 74 58 82 79 43 88 60 46 94 65 49 100 70 52 106 75 55 74 56 58 80 61 43 86 66 46 92 71 49 98 76 52 104 57 55 110 62 58 78 67 43 84 72 46 90 77 49 96 58 52 102 63 55 108 68 58 76 73 43 82 78 46 88 59 49 94 64 52 100 69 55 106 74 58 74 79 43 80 60 46 86 65 49 92 70 52 98 75 55 104 56 58 110 61 43 78 66 46 84 71 49 90 76 52 96 57 55 102 62 58 108 67 43 76 72 46 82 77 49 88 58 52 94 63 55 100 68 58 106 73 43 74 78 46 80 59 49 86 64 52 92 69 55 98 74 58 104 79 43 110 60 46 78 65 49 84 70 52 90 75 55 96 56 58 102 61 43 108 66 46 76 71 49 82 76 52 88 57 55 94 62 58 100 67 43 106 72 46 74 77 49 80 58 52 86 63 55 92 68 58 98 73 43 104 78 46 110 59 49 78 64 52 84 69 55 90 74 58 96 79 43 102 60 46 108 65 49 76 70 52 82 75 55 88 56 58 94 61 43 100 66 46 106 71 49 74 76 52 80 57 55 86 62 58 92 67 43 98 72 46 104 77 49 110 58 52 78 63 55 84 68 58 90 73 43 96 78 46 102 59 49 108 64 52 76 69 55 82 74 58 88 79 43 94 60 46 100 65 49 106 70 52 74 75 55 80 56 58 86 61 43 92 66 46 98 71 49 104 76 52 110 57 55 78 62 58 84 67 43 90 72 46 96 77 49 102 58 52 108 63 55 76 68 58 82 73 43 88 78 46 94 59 49 100 64 52 106 69 55 74 74 58 80 79 43 86 60 46 92 65 49 98 70 52 104 75 55 110 56 58 78 61 43 84 66 46 90 71 49 96 76 52 102 57 55 108 62 58 76 67 43 82 72 46 88 77 49 94 58 52 100 63 55 106 68 58 74 73 43 80 78 46 86 59 49 92 64 52 98 69 55 104 74 58 110 79 43 78 60 46 84 65 49 90 70 52 96 75 55 102 56 58 108 61 43 76 66 46 82 71 49 88 76 52 94 57 55 100 62 58 106 67 43 74 72 46 80 77 49 86 58 52 92 63 55 98 68 58 104 73 43 110 78 46 78 59 49 84 64 52 90 69 55 96 74 58 102 79 43 108 60 46 76 65 49 82 70 52 88 75 55 94 56 58 100 61 43 106 66 46 74 71 49 80 76 52 86 57 55 92 62 58 98 67 43 104 72 46 110 77 49 78 58 52 84 63 55 90 68 58 96 73 43 102 78 46 108 59 49 76 64 52 82 69 55 88 74 58 94 79 43 100 60 46 106 65 49 74 70 52 80 75 55 86 56 58 92 61 43 98 66 46 104 71 49 110 76 52 78 57 55 84 62 58 90 67 43 96 72 46 102 77 49 108 58 52 76 63 55 82 68 58 88 73 43 94 78 46 100 59 49 106 64 52 74 69 55 80 74 58 86 79 43 92 60 46 98 65 49 104 70 52 110 75 55 78 56 58 84 61 43 90 66 46 96 71 49 102 76 52 108 57 55 76 62 58 82 67 43 88 72 46 94 77 49 100 58 52 106 63 55 74 68 58 80 73 43 86 78 46 92 59 49 98 64 52 104 69 55 110 74 58 78 79 43 84 60 46 90 65 49 96 70 52 102 75 55 108 56 58 76 61 43 82 66 46 88 71 49
79 62 54 85 67 57 91 72 42 97 77 45 103 58 48 109 63 51 77 68 54 83 73 57 89 78 42 95 59 45 101 64 48 107 69 51 75 74 54 81 79 57 87 60 42 93 65 45 99 70 48 105 75 51 111 56 54 79 61 57 85 66 42 91 71 45 97 76 48 103 57 51 109 62 54 77 67 57 83 72 42 89 77 45 95 58 48 101 63 51 107 68 54 75 73 57 81 78 42 87 59 45 93 64 48 99 69 51 105 74 54 111 79 57 79 60 42 85 65 45 91 70 48 97 75 51 103 56 54 109 61 57 77 66 42 83 71 45 89 76 48 95 57 51 101 62 54 107 67 57 75 72 42 81 77 45 87 58 48 93 63 51 99 68 54 105 73 57 111 78 42 79 59 45 85 64 48 91 69 51 97 74 54 103 79 57 109 60 42 77 65 45 83 70 48 89 75 51 95 56 54 101 61 57 107 66 42 75 71 45 81 76 48 87 57 51 93 62 54 99 67 57 105 72 42 111 77 45 79 58 48 85 63 51 91 68 54 97 73 57 103 78 42 109 59 45 77 64 48 83 69 51 89 74 54 95 79 57 101 60 42 107 65 45 75 70 48 81 75 51 87 56 54 93 61 57 99 66 42 105 71 45 111 76 48 79 57 51 85 62 54 91 67 57 97 72 42 103 77 45 109 58 48 77 63 51 83 68 54 89 73 57 95 78 42 101 59 45 107 64 48 75 69 51 81 74 54 87 79 57 93 60 42 99 65 45 105 70 48 111 75 51 79 56 54 85 61 57 91 66 42 97 71 45 103 76 48 109 57 51 77 62 54 83 67 57 89 72 42 95 77 45 101 58 48 107 63 51 75 68 54 81 73 57 87 78 42 93 59 45 99 64 48 105 69 51 111 74 54 79 79 57 85 60 42 91 65 45 97 70 48 103 75 51 109 56 54 77 61 57 83 66 42 89 71 45 95 76 48 101 57 51 107 62 54 75 67 57 81 72 42 87 77 45 93 58 48 99 63 51 105 68 54 111 73 57 79 78 42 85 59 45 91 64 48 97 69 51 103 74 54 109 79 57 77 60 42 83 65 45 89 70 48 95 75 51 101 56 54 107 61 57 75 66 42 81 71 45 87 76 48 93 57 51 99 62 54 105 67 57 111 72 42 79 77 45 85 58 48 91 63 51 97 68 54 103 73 57 109 78 42 77 59 45 83 64 48 89 69 51 95 74 54 101 79 57 107 60 42 75 65 45 81 70 48 87 75 51 93 56 54 99 61 57 105 66 42 111 71 45 79 76 48 85 57 51 91 62 54 97 67 57 103 72 42 109 77 45 77 58 48 83 63 51 89 68 54 95 73 57 101 78 42 107 59 45 75 64 48 81 69 51 87 74 54 93 79 57 99 60 42 105 65 45 111 70 48 79 75 51 85 56 54 91 61 57 97 66 42 103 71 45 109 76 48 77 57 51 83 62 54 89 67 57 95 72 42 101 77 45 107 58 48 75 63 51 81 68 54 87 73 57 93 78 42 99 59 45 105 64 48 111 69 51 79 74 54 85 79 57 91 60 42 97 65 45 103 70 48 109 75 51 77 56 54 83 61 57 89 66 42 95 71 45 101 76 48 107 57 51 75 62 54 81 67 57 87 72 42 93 77 45 99 58 48 105 63 51 111 68 54 79 73 57 85 78 42 91 59 45 97 64 48 103 69 51 109 74 54 77 79 57 83 60 42 89 65 45 95 70 48 101 75 51 107 56 54 75 61 57 81 66 42 87 71 45 93 76 48 99 57 51 105 62 54 111 67 57 79 72 42 85 77 45 91 58 48 97 63 51 103 68 54 109 73 57 77 78 42 83 59 45 89 64 48 95 69 51 101 74 54 107 79 57 75 60 42 81 65 45 87 70 48 93 75 51 99 56 54 105 61 57 111 66 42 79 71 45 85 76 48 91 57 51 97 62 54 103 67 57 109 72 42 77 77 45 83 58 48 89 63 51 95 68 54 101 73 57 107 78 42 75 59 45 81 64 48 87 69 51 93 74 54 99 79 57 105 60 42 111 65 45 79 70 48 85 75 51 91 56 54 97 61 57 103 66 42 109 71 45 77 76 48 83 57 51 89 62 54 95 67 57 101 72 42 107 77 45 75 58 48 81 63 51 87 68 54 93 73 57
84 64 44 90 69 47 96 74 50 102 79 53 108 60 56 76 65 59 82 70 44 88 75 47 94 56 50 100 61 53 106 66 56 74 71 59 80 76 44 86 57 47 92 62 50 98 67 53 104 72 56 110 77 59 78 58 44 84 63 47 90 68 50 96 73 53 102 78 56 108 59 59 76 64 44 82 69 47 88 74 50 94 79 53 100 60 56 106 65 59 74 70 44 80 75 47 86 56 50 92 61 53 98 66 56 104 71 59 110 76 44 78 57 47 84 62 50 90 67 53 96 72 56 102 77 59 108 58 44 76 63 47 82 68 50 88 73 53 94 78 56 100 59 59 106 64 44 74 69 47 80 74 50 86 79 53 92 60 56 98 65 59 104 70 44 110 75 47 78 56 50 84 61 53 90 66 56 96 71 59 102 76 44 108 57 47 76 62 50 82 67 53 88 72 56 94 77 59 100 58 44 106 63 47 74 68 50 80 73 53 86 78 56 92 59 59 98 64 44 104 69 47 110 74 50 78 79 53 84 60 56 90 65 59 96 70 44 102 75 47 108 56 50 76 61 53 82 66 56 88 71 59 94 76 44 100 57 47 106 62 50 74 67 53 80 72 56 86 77 59 92 58 44 98 63 47 104 68 50 110 73 53 78 78 56 84 59 59 90 64 44 96 69 47 102 74 50 108 79 53 76 60 56 82 65 59 88 70 44 94 75 47 100 56 50 106 61 53 74 66 56 80 71 59 86 76 44 92 57 47 98 62 50 104 67 53 110 72 56 78 77 59 84 58 44 90 63 47 96 68 50 102 73 53 108 78 56 76 59 59 82 64 44 88 69 47 94 74 50 100 79 53 106 60 56 74 65 59 80 70 44 86 75 47 92 56 50 98 61 53 104 66 56 110 71 59 78 76 44 84 57 47 90 62 50 96 67 53 102 72 56 108 77 59 76 58 44 82 63 47 88 68 50 94 73 53 100 78 56 106 59 59 74 64 44 80 69 47 86 74 50 92 79 53 98 60 56 104 65 59 110 70 44 78 75 47 84 56 50 90 61 53 96 66 56 102 71 59 108 76 44 76 57 47 82 62 50 88 67 53 94 72 56 100 77 59 106 58 44 74 63 47 80 68 50 86 73 53 92 78 56 98 59 59 104 64 44 110 69 47 78 74 50 84 79 53 90 60 56 96 65 59 102 70 44 108 75 47 76 56 50 82 61 53 88 66 56 94 71 59 100 76 44 106 57 47 74 62 50 80 67 53 86 72 56 92 77 59 98 58 44 104 63 47 110 68 50 78 73 53 84 78 56 90 59 59 96 64 44 102 69 47 108 74 50 76 79 53 82 60 56 88 65 59 94 70 44 100 75 47 106 56 50 74 61 53 80 66 56 86 71 59 92 76 44 98 57 47 104 62 50 110 67 53 78 72 56 84 77 59 90 58 44 96 63 47 102 68 50 108 73 53 76 78 56 82 59 59 88 64 44 94 69 47 100 74 50 106 79 53 74 60 56 80 65 59 86 70 44 92 75 47 98 56 50 104 61 53 110 66 56 78 71 59 84 76 44 90 57 47 96 62 50 102 67 53 108 72 56 76 77 59 82 58 44 88 63 47 94 68 50 100 73 53 106 78 56 74 59 59 80 64 44 86 69 47 92 74 50 98 79 53 104 60 56 110 65 59 78 70 44 84 75 47 90 56 50 96 61 53 102 66 56 108 71 59 76 76 44 82 57 47 88 62 50 94 67 53 100 72 56 106 77 59 74 58 44 80 63 47 86 68 50 92 73 53 98 78 56 104 59 59 110 64 44 78 69 47 84 74 50 90 79 53 96 60 56 102 65 59 108 70 44 76 75 47 82 56 50 88 61 53 94 66 56 100 71 59 106 76 44 74 57 47 80 62 50 86 67 53 92 72 56 98 77 59 104 58 44 110 63 47 78 68 50 84 73 53 90 78 56 96 59 59 102 64 44 108 69 47 76 74 50 82 79 53 88 60 56 94 65 59 100 70 44 106 75 47 74 56 50 80 61 53 86 66 56 92 71 59 98 76 44 104 57 47 110 62 50 78 67 53 84 72 56 90 77 59 96 58 44 102 63 47 108 68 50 76 73 53 82 78 56 88 59 59 94 64 44 100 69 47 106 74 50 74 79 53 80 60 56 86 65 59 92 70 44 98 75 47
89 66 52 95 71 55 101 76 58 107 57 43 75 62 46 81 67 49 87 72 52 93 77 55 99 58 58 105 63 43 111 68 46 79 73 49 85 78 52 91 59 55 97 64 58 103 69 43 109 74 46 77 79 49 83 60 52 89 65 55 95 70 58 101 75 43 107 56 46 75 61 49 81 66 52 87 71 55 93 76 58 99 57 43 105 62 46 111 67 49 79 72 52 85 77 55 91 58 58 97 63 43 103 68 46 109 73 49 77 78 52 83 59 55 89 64 58 95 69 43 101 74 46 107 79 49 75 60 52 81 65 55 87 70 58 93 75 43 99 56 46 105 61 49 111 66 52 79 71 55 85 76 58 91 57 43 97 62 46 103 67 49 109 72 52 77 77 55 83 58 58 89 63 43 95 68 46 101 73 49 107 78 52 75 59 55 81 64 58 87 69 43 93 74 46 99 79 49 105 60 52 111 65 55 79 70 58 85 75 43 91 56 46 97 61 49 103 66 52 109 71 55 77 76 58 83 57 43 89 62 46 95 67 49 101 72 52 107 77 55 75 58 58 81 63 43 87 68 46 93 73 49 99 78 52 105 59 55 111 64 58 79 69 43 85 74 46 91 79 49 97 60 52 103 65 55 109 70 58 77 75 43 83 56 46 89 61 49 95 66 52 101 71 55 107 76 58 75 57 43 81 62 46 87 67 49 93 72 52 99 77 55 105 58 58 111 63 43 79 68 46 85 73 49 91 78 52 97 59 55 103 64 58 109 69 43 77 74 46 83 79 49 89 60 52 95 65 55 101 70 58 107 75 43 75 56 46 81 61 49 87 66 52 93 71 55 99 76 58 105 57 43 111 62 46 79 67 49 85 72 52 91 77 55 97 58 58 103 63 43 109 68 46 77 73 49 83 78 52 89 59 55 95 64 58 101 69 43 107 74 46 75 79 49 81 60 52 87 65 55 93 70 58 99 75 43 105 56 46 111 61 49 79 66 52 85 71 55 91 76 58 97 57 43 103 62 46 109 67 49 77 72 52 83 77 55 89 58 58 95 63 43 101 68 46 107 73 49 75 78 52 81 59 55 87 64 58 93 69 43 99 74 46 105 79 49 111 60 52 79 65 55 85 70 58 91 75 43 97 56 46 103 61 49 109 66 52 77 71 55 83 76 58 89 57 43 95 62 46 101 67 49 107 72 52 75 77 55 81 58 58 87 63 43 93 68 46 99 73 49 105 78 52 111 59 55 79 64 58 85 69 43 91 74 46 97 79 49 103 60 52 109 65 55 77 70 58 83 75 43 89 56 46 95 61 49 101 66 52 107 71 55 75 76 58 81 57 43 87 62 46 93 67 49 99 72 52 105 77 55 111 58 58 79 63 43 85 68 46 91 73 49 97 78 52 103 59 55 109 64 58 77 69 43 83 74 46 89 79 49 95 60 52 101 65 55 107 70 58 75 75 43 81 56 46 87 61 49 93 66 52 99 71 55 105 76 58 111 57 43 79 62 46 85 67 49 91 72 52 97 77 55 103 58 58 109 63 43 77 68 46 83 73 49 89 78 52 95 59 55 101 64 58 107 69 43 75 74 46 81 79 49 87 60 52 93 65 55 99 70 58 105 75 43 111 56 46 79 61 49 85 66 52 91 71 55 97 76 58 103 57 43 109 62 46 77 67 49 83 72 52 89 77 55 95 58 58 101 63 43 107 68 46 75 73 49 81 78 52 87 59 55 93 64 58 99 69 43 105 74 46 111 79 49 79 60 52 85 65 55 91 70 58 97 75 43 103 56 46 109 61 49 77 66 52 83 71 55 89 76 58 95 57 43 101 62 46 107 67 49 75 72 52 81 77 55 87 58 58 93 63 43 99 68 46 105 73 49 111 78 52 79 59 55 85 64 58 91 69 43 97 74 46 103 79 49 109 60 52 77 65 55 83 70 58 89 75 43 95 56 46 101 61 49 107 66 52 75 71 55 81 76 58 87 57 43 93 62 46 99 67 49 105 72 52 111 77 55 79 58 58 85 63 43 91 68 46 97 73 49 103 78 52 109 59 55 77 64 58 83 69 43 89 74 46 95 79 49 101 60 52 107 65 55 75 70 58 81 75 43 87 56 46 93 61 49 99 66 52 105 71 55 111 76 58 79 57 43 85 62 46 91 67 49 97 72 52 103 77 55
94 68 42 100 73 45 106 78 48 74 59 51 80 64 54 86 69 57 92 74 42 98 79 45 104 60 48 110 65 51 78 70 54 84 75 57 90 56 42 96 61 45 102 66 48 108 71 51 76 76 54 82 57 57 88 62 42 94 67 45 100 72 48 106 77 51 74 58 54 80 63 57 86 68 42 92 73 45 98 78 48 104 59 51 110 64 54 78 69 57 84 74 42 90 79 45 96 60 48 102 65 51 108 70 54 76 75 57 82 56 42 88 61 45 94 66 48 100 71 51 106 76 54 74 57 57 80 62 42 86 67 45 92 72 48 98 77 51 104 58 54 110 63 57 78 68 42 84 73 45 90 78 48 96 59 51 102 64 54 108 69 57 76 74 42 82 79 45 88 60 48 94 65 51 100 70 54 106 75 57 74 56 42 80 61 45 86 66 48 92 71 51 98 76 54 104 57 57 110 62 42 78 67 45 84 72 48 90 77 51 96 58 54 102 63 57 108 68 42 76 73 45 82 78 48 88 59 51 94 64 54 100 69 57 106 74 42 74 79 45 80 60 48 86 65 51 92 70 54 98 75 57 104 56 42 110 61 45 78 66 48 84 71 51 90 76 54 96 57 57 102 62 42 108 67 45 76 72 48 82 77 51 88 58 54 94 63 57 100 68 42 106 73 45 74 78 48 80 59 51 86 64 54 92 69 57 98 74 42 104 79 45 110 60 48 78 65 51 84 70 54 90 75 57 96 56 42 102 61 45 108 66 48 76 71 51 82 76 54 88 57 57 94 62 42 100 67 45 106 72 48 74 77 51 80 58 54 86 63 57 92 68 42 98 73 45 104 78 48 110 59 51 78 64 54 84 69 57 90 74 42 96 79 45 102 60 48 108 65 51 76 70 54 82 75 57 88 56 42 94 61 45 100 66 48 106 71 51 74 76 54 80 57 57 86 62 42 92 67 45 98 72 48 104 77 51 110 58 54 78 63 57 84 68 42 90 73 45 96 78 48 102 59 51 108 64 54 76 69 57 82 74 42 88 79 45 94 60 48 100 65 51 106 70 54 74 75 57 80 56 42 86 61 45 92 66 48 98 71 51 104 76 54 110 57 57 78 62 42 84 67 45 90 72 48 96 77 51 102 58 54 108 63 57 76 68 42 82 73 45 88 78 48 94 59 51 100 64 54 106 69 57 74 74 42 80 79 45 86 60 48 92 65 51 98 70 54 104 75 57 110 56 42 78 61 45 84 66 48 90 71 51 96 76 54 102 57 57 108 62 42 76 67 45 82 72 48 88 77 51 94 58 54 100 63 57 106 68 42 74 73 45 80 78 48 86 59 51 92 64 54 98 69 57 104 74 42 110 79 45 78 60 48 84 65 51 90 70 54 96 75 57 102 56 42 108 61 45 76 66 48 82 71 51 88 76 54 94 57 57 100 62 42 106 67 45 74 72 48 80 77 51 86 58 54 92 63 57 98 68 42 104 73 45 110 78 48 78 59 51 84 64 54 90 69 57 96 74 42 102 79 45 108 60 48 76 65 51 82 70 54 88 75 57 94 56 42 100 61 45 106 66 48 74 71 51 80 76 54 86 57 57 92 62 42 98 67 45 104 72 48 110 77 51 78 58 54 84 63 57 90 68 42 96 73 45 102 78 48 108 59 51 76 64 54 82 69 57 88 74 42 94 79 45 100 60 48 106 65 51 74 70 54 80 75 57 86 56 42 92 61 45 98 66 48 104 71 51 110 76 54 78 57 57 84 62 42 90 67 45 96 72 48 102 77 51 108 58 54 76 63 57 82 68 42 88 73 45 94 78 48 100 59 51 106 64 54 74 69 57 80 74 42 86 79 45 92 60 48 98 65 51 104 70 54 110 75 57 78 56 42 84 61 45 90 66 48 96 71 51 102 76 54 108 57 57 76 62 42 82 67 45 88 72 48 94 77 51 100 58 54 106 63 57 74 68 42 80 73 45 86 78 48 92 59 51 98 64 54 104 69 57 110 74 42 78 79 45 84 60 48 90 65 51 96 70 54 102 75 57 108 56 42 76 61 45 82 66 48 88 71 51 94 76 54 100 57 57 106 62 42 74 67 45 80 72 48 86 77 51 92 58 54 98 63 57 104 68 42 110 73 45 78 78 48 84 59 51 90 64 54 96 69 57 102 74 42 108 79 45
99 70 50 105 75 53 111 56 56 79 61 59 85 66 44 91 71 47 97 76 50 103 57 53 109 62 56 77 67 59 83 72 44 89 77 47 95 58 50 101 63 53 107 68 56 75 73 59 81 78 44 87 59 47 93 64 50 99 69 53 105 74 56 111 79 59 79 60 44 85 65 47 91 70 50 97 75 53 103 56 56 109 61 59 77 66 44 83 71 47 89 76 50 95 57 53 101 62 56 107 67 59 75 72 44 81 77 47 87 58 50 93 63 53 99 68 56 105 73 59 111 78 44 79 59 47 85 64 50 91 69 53 97 74 56 103 79 59 109 60 44 77 65 47 83 70 50 89 75 53 95 56 56 101 61 59 107 66 44 75 71 47 81 76 50 87 57 53 93 62 56 99 67 59 105 72 44 111 77 47 79 58 50 85 63 53 91 68 56 97 73 59 103 78 44 109 59 47 77 64 50 83 69 53 89 74 56 95 79 59 101 60 44 107 65 47 75 70 50 81 75 53 87 56 56 93 61 59 99 66 44 105 71 47 111 76 50 79 57 53 85 62 56 91 67 59 97 72 44 103 77 47 109 58 50 77 63 53 83 68 56 89 73 59 95 78 44 101 59 47 107 64 50 75 69 53 81 74 56 87 79 59 93 60 44 99 65 47 105 70 50 111 75 53 79 56 56 85 61 59 91 66 44 97 71 47 103 76 50 109 57 53 77 62 56 83 67 59 89 72 44 95 77 47 101 58 50 107 63 53 75 68 56 81 73 59 87 78 44 93 59 47 99 64 50 105 69 53 111 74 56 79 79 59 85 60 44 91 65 47 97 70 50 103 75 53 109 56 56 77 61 59 83 66 44 89 71 47 95 76 50 101 57 53 107 62 56 75 67 59 81 72 44 87 77 47 93 58 50 99 63 53 105 68 56 111 73 59 79 78 44 85 59 47 91 64 50 97 69 53 103 74 56 109 79 59 77 60 44 83 65 47 89 70 50 95 75 53 101 56 56 107 61 59 75 66 44 81 71 47 87 76 50 93 57 53 99 62 56 105 67 59 111 72 44 79 77 47 85 58 50 91 63 53 97 68 56 103 73 59 109 78 44 77 59 47 83 64 50 89 69 53 95 74 56 101 79 59 107 60 44 75 65 47 81 70 50 87 75 53 93 56 56 99 61 59 105 66 44 111 71 47 79 76 50 85 57 53 91 62 56 97 67 59 103 72 44 109 77 47 77 58 50 83 63 53 89 68 56 95 73 59 101 78 44 107 59 47 75 64 50 81 69 53 87 74 56 93 79 59 99 60 44 105 65 47 111 70 50 79 75 53 85 56 56 91 61 59 97 66 44 103 71 47 109 76 50 77 57 53 83 62 56 89 67 59 95 72 44 101 77 47 107 58 50 75 63 53 81 68 56 87 73 59 93 78 44 99 59 47 105 64 50 111 69 53 79 74 56 85 79 59 91 60 44 97 65 47 103 70 50 109 75 53 77 56 56 83 61 59 89 66 44 95 71 47 101 76 50 107 57 53 75 62 56 81 67 59 87 72 44 93 77 47 99 58 50 105 63 53 111 68 56 79 73 59 85 78 44 91 59 47 97 64 50 103 69 53 109 74 56 77 79 59 83 60 44 89 65 47 95 70 50 101 75 53 107 56 56 75 61 59 81 66 44 87 71 47 93 76 50 99 57 53 105 62 56 111 67 59 79 72 44 85 77 47 91 58 50 97 63 53 103 68 56 109 73 59 77 78 44 83 59 47 89 64 50 95 69 53 101 74 56 107 79 59 75 60 44 81 65 47 87 70 50 93 75 53 99 56 56 105 61 59 111 66 44 79 71 47 85 76 50 91 57 53 97 62 56 103 67 59 109 72 44 77 77 47 83 58 50 89 63 53 95 68 56 101 73 59 107 78 44 75 59 47 81 64 50 87 69 53 93 74 56 99 79 59 105 60 44 111 65 47 79 70 50 85 75 53 91 56 56 97 61 59 103 66 44 109 71 47 77 76 50 83 57 53 89 62 56 95 67 59 101 72 44 107 77 47 75 58 50 81 63 53 87 68 56 93 73 59 99 78 44 105 59 47 111 64 50 79 69 53 85 74 56 91 79 59 97 60 44 103 65 47 109 70 50 77 75 53 83 56 56 89 61 59 95 66 44 101 71 47 107 76 50 75 57 53
104 72 58 110 77 43 78 58 46 84 63 49 90 68 52 96 73 55 102 78 58 108 59 43 76 64 46 82 69 49 88 74 52 94 79 55 100 60 58 106 65 43 74 70 46 80 75 49 86 56 52 92 61 55 98 66 58 104 71 43 110 76 46 78 57 49 84 62 52 90 67 55 96 72 58 102 77 43 108 58 46 76 63 49 82 68 52 88 73 55 94 78 58 100 59 43 106 64 46 74 69 49 80 74 52 86 79 55 92 60 58 98 65 43 104 70 46 110 75 49 78 56 52 84 61 55 90 66 58 96 71 43 102 76 46 108 57 49 76 62 52 82 67 55 88 72 58 94 77 43 100 58 46 106 63 49 74 68 52 80 73 55 86 78 58 92 59 43 98 64 46 104 69 49 110 74 52 78 79 55 84 60 58 90 65 43 96 70 46 102 75 49 108 56 52 76 61 55 82 66 58 88 71 43 94 76 46 100 57 49 106 62 52 74 67 55 80 72 58 86 77 43 92 58 46 98 63 49 104 68 52 110 73 55 78 78 58 84 59 43 90 64 46 96 69 49 102 74 52 108 79 55 76 60 58 82 65 43 88 70 46 94 75 49 100 56 52 106 61 55 74 66 58 80 71 43 86 76 46 92 57 49 98 62 52 104 67 55 110 72 58 78 77 43 84 58 46 90 63 49 96 68 52 102 73 55 108 78 58 76 59 43 82 64 46 88 69 49 94 74 52 100 79 55 106 60 58 74 65 43 80 70 46 86 75 49 92 56 52 98 61 55 104 66 58 110 71 43 78 76 46 84 57 49 90 62 52 96 67 55 102 72 58 108 77 43 76 58 46 82 63 49 88 68 52 94 73 55 100 78 58 106 59 43 74 64 46 80 69 49 86 74 52 92 79 55 98 60 58 104 65 43 110 70 46 78 75 49 84 56 52 90 61 55 96 66 58 102 71 43 108 76 46 76 57 49 82 62 52 88 67 55 94 72 58 100 77 43 106 58 46 74 63 49 80 68 52 86 73 55 92 78 58 98 59 43 104 64 46 110 69 49 78 74 52 84 79 55 90 60 58 96 65 43 102 70 46 108 75 49 76 56 52 82 61 55 88 66 58 94 71 43 100 76 46 106 57 49 74 62 52 80 67 55 86 72 58 92 77 43 98 58 46 104 63 49 110 68 52 78 73 55 84 78 58 90 59 43 96 64 46 102 69 49 108 74 52 76 79 55 82 60 58 88 65 43 94 70 46 100 75 49 106 56 52 74 61 55 80 66 58 86 71 43 92 76 46 98 57 49 104 62 52 110 67 55 78 72 58 84 77 43 90 58 46 96 63 49 102 68 52 108 73 55 76 78 58 82 59 43 88 64 46 94 69 49 100 74 52 106 79 55 74 60 58 80 65 43 86 70 46 92 75 49 98 56 52 104 61 55 110 66 58 78 71 43 84 76 46 90 57 49 96 62 52 102 67 55 108 72 58 76 77 43 82 58 46 88 63 49 94 68 52 100 73 55 106 78 58 74 59 43 80 64 46 86 69 49 92 74 52 98 79 55 104 60 58 110 65 43 78 70 46 84 75 49 90 56 52 96 61 55 102 66 58 108 71 43 76 76 46 82 57 49 88 62 52 94 67 55 100 72 58 106 77 43 74 58 46 80 63 49 86 68 52 92 73 55 98 78 58 104 59 43 110 64 46 78 69 49 84 74 52 90 79 55 96 60 58 102 65 43 108 70 46 76 75 49 82 56 52 88 61 55 94 66 58 100 71 43 106 76 46 74 57 49 80 62 52 86 67 55 92 72 58 98 77 43 104 58 46 110 63 49 78 68 52 84 73 55 90 78 58 96 59 43 102 64 46 108 69 49 76 74 52 82 79 55 88 60 58 94 65 43 100 70 46 106 75 49 74 56 52 80 61 55 86 66 58 92 71 43 98 76 46 104 57 49 110 62 52 78 67 55 84 72 58 90 77 43 96 58 46 102 63 49 108 68 52 76 73 55 82 78 58 88 59 43 94 64 46 100 69 49 106 74 52 74 79 55 80 60 58 86 65 43 92 70 46 98 75 49 104 56 52 110 61 55 78 66 58 84 71 43 90 76 46 96 57 49 102 62 52 108 67 55 76 72 58 82 77 43 88 58 46 94 63 49 100 68 52 106 73 55 74 78 58 80 59 43
109 74 48 77 79 51 83 60 54 89 65 57 95 70 42 101 75 45 107 56 48 75 61 51 81 66 54 87 71 57 93 76 42 99 57 45 105 62 48 111 67 51 79 72 54 85 77 57 91 58 42 97 63 45 103 68 48 109 73 51 77 78 54 83 59 57 89 64 42 95 69 45 101 74 48 107 79 51 75 60 54 81 65 57 87 70 42 93 75 45 99 56 48 105 61 51 111 66 54 79 71 57 85 76 42 91 57 45 97 62 48 103 67 51 109 72 54 77 77 57 83 58 42 89 63 45 95 68 48 101 73 51 107 78 54 75 59 57 81 64 42 87 69 45 93 74 48 99 79 51 105 60 54 111 65 57 79 70 42 85 75 45 91 56 48 97 61 51 103 66 54 109 71 57 77 76 42 83 57 45 89 62 48 95 67 51 101 72 54 107 77 57 75 58 42 81 63 45 87 68 48 93 73 51 99 78 54 105 59 57 111 64 42 79 69 45 85 74 48 91 79 51 97 60 54 103 65 57 109 70 42 77 75 45 83 56 48 89 61 51 95 66 54 101 71 57 107 76 42 75 57 45 81 62 48 87 67 51 93 72 54 99 77 57 105 58 42 111 63 45 79 68 48 85 73 51 91 78 54 97 59 57 103 64 42 109 69 45 77 74 48 83 79 51 89 60 54 95 65 57 101 70 42 107 75 45 75 56 48 81 61 51 87 66 54 93 71 57 99 76 42 105 57 45 111 62 48 79 67 51 85 72 54 91 77 57 97 58 42 103 63 45 109 68 48 77 73 51 83 78 54 89 59 57 95 64 42 101 69 45 107 74 48 75 79 51 81 60 54 87 65 57 93 70 42 99 75 45 105 56 48 111 61 51 79 66 54 85 71 57 91 76 42 97 57 45 103 62 48 109 67 51 77 72 54 83 77 57 89 58 42 95 63 45 101 68 48 107 73 51 75 78 54 81 59 57 87 64 42 93 69 45 99 74 48 105 79 51 111 60 54 79 65 57 85 70 42 91 75 45 97 56 48 103 61 51 109 66 54 77 71 57 83 76 42 89 57 45 95 62 48 101 67 51 107 72 54 75 77 57 81 58 42 87 63 45 93 68 48 99 73 51 105 78 54 111 59 57 79 64 42 85 69 45 91 74 48 97 79 51 103 60 54 109 65 57 77 70 42 83 75 45 89 56 48 95 61 51 101 66 54 107 71 57 75 76 42 81 57 45 87 62 48 93 67 51 99 72 54 105 77 57 111 58 42 79 63 45 85 68 48 91 73 51 97 78 54 103 59 57 109 64 42 77 69 45 83 74 48 89 79 51 95 60 54 101 65 57 107 70 42 75 75 45 81 56 48 87 61 51 93 66 54 99 71 57 105 76 42 111 57 45 79 62 48 85 67 51 91 72 54 97 77 57 103 58 42 109 63 45 77 68 48 83 73 51 89 78 54 95 59 57 101 64 42 107 69 45 75 74 48 81 79 51 87 60 54 93 65 57 99 70 42 105 75 45 111 56 48 79 61 51 85 66 54 91 71 57 97 76 42 103 57 45 109 62 48 77 67 51 83 72 54 89 77 57 95 58 42 101 63 45 107 68 48 75 73 51 81 78 54 87 59 57 93 64 42 99 69 45 105 74 48 111 79 51 79 60 54 85 65 57 91 70 42 97 75 45 103 56 48 109 61 51 77 66 54 83 71 57 89 76 42 95 57 45 101 62 48 107 67 51 75 72 54 81 77 57 87 58 42 93 63 45 99 68 48 105 73 51 111 78 54 79 59 57 85 64 42 91 69 45 97 74 48 103 79 51 109 60 54 77 65 57 83 70 42 89 75 45 95 56 48 101 61 51 107 66 54 75 71 57 81 76 42 87 57 45 93 62 48 99 67 51 105 72 54 111 77 57 79 58 42 85 63 45 91 68 48 97 73 51 103 78 54 109 59 57 77 64 42 83 69 45 89 74 48 95 79 51 101 60 54 107 65 57 75 70 42 81 75 45 87 56 48 93 61 51 99 66 54 105 71 57 111 76 42 79 57 45 85 62 48 91 67 51 97 72 54 103 77 57 109 58 42 77 63 45 83 68 48 89 73 51 95 78 54 101 59 57 107 64 42 75 69 45 81 74 48 87 79 51 93 60 54 99 65 57 105 70 42 111 75 45 79 56 48 85 61 51
76 76 56 82 57 59 88 62 44 94 67 47 100 72 50 106 77 53 74 58 56 80 63 59 86 68 44 92 73 47 98 78 50 104 59 53 110 64 56 78 69 59 84 74 44 90 79 47 96 60 50 102 65 53 108 70 56 76 75 59 82 56 44 88 61 47 94 66 50 100 71 53 106 76 56 74 57 59 80 62 44 86 67 47 92 72 50 98 77 53 104 58 56 110 63 59 78 68 44 84 73 47 90 78 50 96 59 53 102 64 56 108 69 59 76 74 44 82 79 47 88 60 50 94 65 53 100 70 56 106 75 59 74 56 44 80 61 47 86 66 50 92 71 53 98 76 56 104 57 59 110 62 44 78 67 47 84 72 50 90 77 53 96 58 56 102 63 59 108 68 44 76 73 47 82 78 50 88 59 53 94 64 56 100 69 59 106 74 44 74 79 47 80 60 50 86 65 53 92 70 56 98 75 59 104 56 44 110 61 47 78 66 50 84 71 53 90 76 56 96 57 59 102 62 44 108 67 47 76 72 50 82 77 53 88 58 56 94 63 59 100 68 44 106 73 47 74 78 50 80 59 53 86 64 56 92 69 59 98 74 44 104 79 47 110 60 50 78 65 53 84 70 56 90 75 59 96 56 44 102 61 47 108 66 50 76 71 53 82 76 56 88 57 59 94 62 44 100 67 47 106 72 50 74 77 53 80 58 56 86 63 59 92 68 44 98 73 47 104 78 50 110 59 53 78 64 56 84 69 59 90 74 44 96 79 47 102 60 50 108 65 53 76 70 56 82 75 59 88 56 44 94 61 47 100 66 50 106 71 53 74 76 56 80 57 59 86 62 44 92 67 47 98 72 50 104 77 53 110 58 56 78 63 59 84 68 44 90 73 47 96 78 50 102 59 53 108 64 56 76 69 59 82 74 44 88 79 47 94 60 50 100 65 53 106 70 56 74 75 59 80 56 44 86 61 47 92 66 50 98 71 53 104 76 56 110 57 59 78 62 44 84 67 47 90 72 50 96 77 53 102 58 56 108 63 59 76 68 44 82 73 47 88 78 50 94 59 53 100 64 56 106 69 59 74 74 44 80 79 47 86 60 50 92 65 53 98 70 56 104 75 59 110 56 44 78 61 47 84 66 50 90 71 53 96 76 56 102 57 59 108 62 44 76 67 47 82 72 50 88 77 53 94 58 56 100 63 59 106 68 44 74 73 47 80 78 50 86 59 53 92 64 56 98 69 59 104 74 44 110 79 47 78 60 50 84 65 53 90 70 56 96 75 59 102 56 44 108 61 47 76 66 50 82 71 53 88 76 56 94 57 59 100 62 44 106 67 47 74 72 50 80 77 53 86 58 56 92 63 59 98 68 44 104 73 47 110 78 50 78 59 53 84 64 56 90 69 59 96 74 44 102 79 47 108 60 50 76 65 53 82 70 56 88 75 59 94 56 44 100 61 47 106 66 50 74 71 53 80 76 56 86 57 59 92 62 44 98 67 47 104 72 50 110 77 53 78 58 56 84 63 59 90 68 44 96 73 47 102 78 50 108 59 53 76 64 56 82 69 59 88 74 44 94 79 47 100 60 50 106 65 53 74 70 56 80 75 59 86 56 44 92 61 47 98 66 50 104 71 53 110 76 56 78 57 59 84 62 44 90 67 47 96 72 50 102 77 53 108 58 56 76 63 59 82 68 44 88 73 47 94 78 50 100 59 53 106 64 56 74 69 59 80 74 44 86 79 47 92 60 50 98 65 53 104 70 56 110 75 59 78 56 44 84 61 47 90 66 50 96 71 53 102 76 56 108 57 59 76 62 44 82 67 47 88 72 50 94 77 53 100 58 56 106 63 59 74 68 44 80 73 47 86 78 50 92 59 53 98 64 56 104 69 59 110 74 44 78 79 47 84 60 50 90 65 53 96 70 56 102 75 59 108 56 44 76 61 47 82 66 50 88 71 53 94 76 56 100 57 59 106 62 44 74 67 47 80 72 50 86 77 53 92 58 56 98 63 59 104 68 44 110 73 47 78 78 50 84 59 53 90 64 56 96 69 59 102 74 44 108 79 47 76 60 50 82 65 53 88 70 56 94 75 59 100 56 44 106 61 47 74 66 50 80 71 53 86 76 56 92 57 59 98 62 44 104 67 47 110 72 50 78 77 53 84 58 56 90 63 59
81 78 46 87 59 49 93 64 52 99 69 55 105 74 58 111 79 43 79 60 46 85 65 49 91 70 52 97 75 55 103 56 58 109 61 43 77 66 46 83 71 49 89 76 52 95 57 55 101 62 58 107 67 43 75 72 46 81 77 49 87 58 52 93 63 55 99 68 58 105 73 43 111 78 46 79 59 49 85 64 52 91 69 55 97 74 58 103 79 43 109 60 46 77 65 49 83 70 52 89 75 55 95 56 58 101 61 43 107 66 46 75 71 49 81 76 52 87 57 55 93 62 58 99 67 43 105 72 46 111 77 49 79 58 52 85 63 55 91 68 58 97 73 43 103 78 46 109 59 49 77 64 52 83 69 55 89 74 58 95 79 43 101 60 46 107 65 49 75 70 52 81 75 55 87 56 58 93 61 43 99 66 46 105 71 49 111 76 52 79 57 55 85 62 58 91 67 43 97 72 46 103 77 49 109 58 52 77 63 55 83 68 58 89 73 43 95 78 46 101 59 49 107 64 52 75 69 55 81 74 58 87 79 43 93 60 46 99 65 49 105 70 52 111 75 55 79 56 58 85 61 43 91 66 46 97 71 49 103 76 52 109 57 55 77 62 58 83 67 43 89 72 46 95 77 49 101 58 52 107 63 55 75 68 58 81 73 43 87 78 46 93 59 49 99 64 52 105 69 55 111 74 58 79 79 43 85 60 46 91 65 49 97 70 52 103 75 55 109 56 58 77 61 43 83 66 46 89 71 49 95 76 52 101 57 55 107 62 58 75 67 43 81 72 46 87 77 49 93 58 52 99 63 55 105 68 58 111 73 43 79 78 46 85 59 49 91 64 52 97 69 55 103 74 58 109 79 43 77 60 46 83 65 49 89 70 52 95 75 55 101 56 58 107 61 43 75 66 46 81 71 49 87 76 52 93 57 55 99 62 58 105 67 43 111 72 46 79 77 49 85 58 52 91 63 55 97 68 58 103 73 43 109 78 46 77 59 49 83 64 52 89 69 55 95 74 58 101 79 43 107 60 46 75 65 49 81 70 52 87 75 55 93 56 58 99 61 43 105 66 46 111 71 49 79 76 52 85 57 55 91 62 58 97 67 43 103 72 46 109 77 49 77 58 52 83 63 55 89 68 58 95 73 43 101 78 46 107 59 49 75 64 52 81 69 55 87 74 58 93 79 43 99 60 46 105 65 49 111 70 52 79 75 55 85 56 58 91 61 43 97 66 46 103 71 49 109 76 52 77 57 55 83 62 58 89 67 43 95 72 46 101 77 49 107 58 52 75 63 55 81 68 58 87 73 43 93 78 46 99 59 49 105 64 52 111 69 55 79 74 58 85 79 43 91 60 46 97 65 49 103 70 52 109 75 55 77 56 58 83 61 43 89 66 46 95 71 49 101 76 52 107 57 55 75 62 58 81 67 43 87 72 46 93 77 49 99 58 52 105 63 55 111 68 58 79 73 43 85 78 46 91 59 49 97 64 52 103 69 55 109 74 58 77 79 43 83 60 46 89 65 49 95 70 52 101 75 55 107 56 58 75 61 43 81 66 46 87 71 49 93 76 52 99 57 55 105 62 58 111 67 43 79 72 46 85 77 49 91 58 52 97 63 55 103 68 58 109 73 43 77 78 46 83 59 49 89 64 52 95 69 55 101 74 58 107 79 43 75 60 46 81 65 49 87 70 52 93 75 55 99 56 58 105 61 43 111 66 46 79 71 49 85 76 52 91 57 55 97 62 58 103 67 43 109 72 46 77 77 49 83 58 52 89 63 55 95 68 58 101 73 43 107 78 46 75 59 49 81 64 52 87 69 55 93 74 58 99 79 43 105 60 46 111 65 49 79 70 52 85 75 55 91 56 58 97 61 43 103 66 46 109 71 49 77 76 52 83 57 55 89 62 58 95 67 43 101 72 46 107 77 49 75 58 52 81 63 55 87 68 58 93 73 43 99 78 46 105 59 49 111 64 52 79 69 55 85 74 58 91 79 43 97 60 46 103 65 49 109 70 52 77 75 55 83 56 58 89 61 43 95 66 46 101 71 49 107 76 52 75 57 55 81 62 58 87 67 43 93 72 46 99 77 49 105 58 52 111 63 55 79 68 58 85 73 43 91 78 46 97 59 49 103 64 52 109 69 55 77 74 58 83 79 43 89 60 46 95 65 49
86 56 54 92 61 57 98 66 42 104 71 45 110 76 48 78 57 51 84 62 54 90 67 57 96 72 42 102 77 45 108 58 48 76 63 51 82 68 54 88 73 57 94 78 42 100 59 45 106 64 48 74 69 51 80 74 54 86 79 57 92 60 42 98 65 45 104 70 48 110 75 51 78 56 54 84 61 57 90 66 42 96 71 45 102 76 48 108 57 51 76 62 54 82 67 57 88 72 42 94 77 45 100 58 48 106 63 51 74 68 54 80 73 57 86 78 42 92 59 45 98 64 48 104 69 51 110 74 54 78 79 57 84 60 42 90 65 45 96 70 48 102 75 51 108 56 54 76 61 57 82 66 42 88 71 45 94 76 48 100 57 51 106 62 54 74 67 57 80 72 42 86 77 45 92 58 48 98 63 51 104 68 54 110 73 57 78 78 42 84 59 45 90 64 48 96 69 51 102 74 54 108 79 57 76 60 42 82 65 45 88 70 48 94 75 51 100 56 54 106 61 57 74 66 42 80 71 45 86 76 48 92 57 51 98 62 54 104 67 57 110 72 42 78 77 45 84 58 48 90 63 51 96 68 54 102 73 57 108 78 42 76 59 45 82 64 48 88 69 51 94 74 54 100 79 57 106 60 42 74 65 45 80 70 48 86 75 51 92 56 54 98 61 57 104 66 42 110 71 45 78 76 48 84 57 51 90 62 54 96 67 57 102 72 42 108 77 45 76 58 48 82 63 51 88 68 54 94 73 57 100 78 42 106 59 45 74 64 48 80 69 51 86 74 54 92 79 57 98 60 42 104 65 45 110 70 48 78 75 51 84 56 54 90 61 57 96 66 42 102 71 45 108 76 48 76 57 51 82 62 54 88 67 57 94 72 42 100 77 45 106 58 48 74 63 51 80 68 54 86 73 57 92 78 42 98 59 45 104 64 48 110 69 51 78 74 54 84 79 57 90 60 42 96 65 45 102 70 48 108 75 51 76 56 54 82 61 57 88 66 42 94 71 45 100 76 48 106 57 51 74 62 54 80 67 57 86 72 42 92 77 45 98 58 48 104 63 51 110 68 54 78 73 57 84 78 42 90 59 45 96 64 48 102 69 51 108 74 54 76 79 57 82 60 42 88 65 45 94 70 48 100 75 51 106 56 54 74 61 57 80 66 42 86 71 45 92 76 48 98 57 51 104 62 54 110 67 57 78 72 42 84 77 45 90 58 48 96 63 51 102 68 54 108 73 57 76 78 42 82 59 45 88 64 48 94 69 51 100 74 54 106 79 57 74 60 42 80 65 45 86 70 48 92 75 51 98 56 54 104 61 57 110 66 42 78 71 45 84 76 48 90 57 51 96 62 54 102 67 57 108 72 42 76 77 45 82 58 48 88 63 51 94 68 54 100 73 57 106 78 42 74 59 45 80 64 48 86 69 51 92 74 54 98 79 57 104 60 42 110 65 45 78 70 48 84 75 51 90 56 54 96 61 57 102 66 42 108 71 45 76 76 48 82 57 51 88 62 54 94 67 57 100 72 42 106 77 45 74 58 48 80 63 51 86 68 54 92 73 57 98 78 42 104 59 45 110 64 48 78 69 51 84 74 54 90 79 57 96 60 42 102 65 45 108 70 48 76 75 51 82 56 54 88 61 57 94 66 42 100 71 45 106 76 48 74 57 51 80 62 54 86 67 57 92 72 42 98 77 45 104 58 48 110 63 51 78 68 54 84 73 57 90 78 42 96 59 45 102 64 48 108 69 51 76 74 54 82 79 57 88 60 42 94 65 45 100 70 48 106 75 51 74 56 54 80 61 57 86 66 42 92 71 45 98 76 48 104 57 51 110 62 54 78 67 57 84 72 42 90 77 45 96 58 48 102 63 51 108 68 54 76 73 57 82 78 42 88 59 45 94 64 48 100 69 51 106 74 54 74 79 57 80 60 42 86 65 45 92 70 48 98 75 51 104 56 54 110 61 57 78 66 42 84 71 45 90 76 48 96 57 51 102 62 54 108 67 57 76 72 42 82 77 45 88 58 48 94 63 51 100 68 54 106 73 57 74 78 42 80 59 45 86 64 48 92 69 51 98 74 54 104 79 57 110 60 42 78 65 45 84 70 48 90 75 51 96 56 54 102 61 57 108 66 42 76 71 45 82 76 48 88 57 51 94 62 54 100 67 57
91 58 44 97 63 47 103 68 50 109 73 53 77 78 56 83 59 59 89 64 44 95 69 47 101 74 50 107 79 53 75 60 56 81 65 59 87 70 44 93 75 47 99 56 50 105 61 53 111 66 56 79 71 59 85 76 44 91 57 47 97 62 50 103 67 53 109 72 56 77 77 59 83 58 44 89 63 47 95 68 50 101 73 53 107 78 56 75 59 59 81 64 44 87 69 47 93 74 50 99 79 53 105 60 56 111 65 59 79 70 44 85 75 47 91 56 50 97 61 53 103 66 56 109 71 59 77 76 44 83 57 47 89 62 50 95 67 53 101 72 56 107 77 59 75 58 44 81 63 47 87 68 50 93 73 53 99 78 56 105 59 59 111 64 44 79 69 47 85 74 50 91 79 53 97 60 56 103 65 59 109 70 44 77 75 47 83 56 50 89 61 53 95 66 56 101 71 59 107 76 44 75 57 47 81 62 50 87 67 53 93 72 56 99 77 59 105 58 44 111 63 47 79 68 50 85 73 53 91 78 56 97 59 59 103 64 44 109 69 47 77 74 50 83 79 53 89 60 56 95 65 59 101 70 44 107 75 47 75 56 50 81 61 53 87 66 56 93 71 59 99 76 44 105 57 47 111 62 50 79 67 53 85 72 56 91 77 59 97 58 44 103 63 47 109 68 50 77 73 53 83 78 56 89 59 59 95 64 44 101 69 47 107 74 50 75 79 53 81 60 56 87 65 59 93 70 44 99 75 47 105 56 50 111 61 53 79 66 56 85 71 59 91 76 44 97 57 47 103 62 50 109 67 53 77 72 56 83 77 59 89 58 44 95 63 47 101 68 50 107 73 53 75 78 56 81 59 59 87 64 44 93 69 47 99 74 50 105 79 53 111 60 56 79 65 59 85 70 44 91 75 47 97 56 50 103 61 53 109 66 56 77 71 59 83 76 44 89 57 47 95 62 50 101 67 53 107 72 56 75 77 59 81 58 44 87 63 47 93 68 50 99 73 53 105 78 56 111 59 59 79 64 44 85 69 47 91 74 50 97 79 53 103 60 56 109 65 59 77 70 44 83 75 47 89 56 50 95 61 53 101 66 56 107 71 59 75 76 44 81 57 47 87 62 50 93 67 53 99 72 56 105 77 59 111 58 44 79 63 47 85 68 50 91 73 53 97 78 56 103 59 59 109 64 44 77 69 47 83 74 50 89 79 53 95 60 56 101 65 59 107 70 44 75 75 47 81 56 50 87 61 53 93 66 56 99 71 59 105 76 44 111 57 47 79 62 50 85 67 53 91 72 56 97 77 59 103 58 44 109 63 47 77 68 50 83 73 53 89 78 56 95 59 59 101 64 44 107 69 47 75 74 50 81 79 53 87 60 56 93 65 59 99 70 44 105 75 47 111 56 50 79 61 53 85 66 56 91 71 59 97 76 44 103 57 47 109 62 50 77 67 53 83 72 56 89 77 59 95 58 44 101 63 47 107 68 50 75 73 53 81 78 56 87 59 59 93 64 44 99 69 47 105 74 50 111 79 53 79 60 56 85 65 59 91 70 44 97 75 47 103 56 50 109 61 53 77 66 56 83 71 59 89 76 44 95 57 47 101 62 50 107 67 53 75 72 56 81 77 59 87 58 44 93 63 47 99 68 50 105 73 53 111 78 56 79 59 59 85 64 44 91 69 47 97 74 50 103 79 53 109 60 56 77 65 59 83 70 44 89 75 47 95 56 50 101 61 53 107 66 56 75 71 59 81 76 44 87 57 47 93 62 50 99 67 53 105 72 56 111 77 59 79 58 44 85 63 47 91 68 50 97 73 53 103 78 56 109 59 59 77 64 44 83 69 47 89 74 50 95 79 53 101 60 56 107 65 59 75 70 44 81 75 47 87 56 50 93 61 53 99 66 56 105 71 59 111 76 44 79 57 47 85 62 50 91 67 53 97 72 56 103 77 59 109 58 44 77 63 47 83 68 50 89 73 53 95 78 56 101 59 59 107 64 44 75 69 47 81 74 50 87 79 53 93 60 56 99 65 59 105 70 44 111 75 47 79 56 50 85 61 53 91 66 56 97 71 59 103 76 44 109 57 47 77 62 50 83 67 53 89 72 56 95 77 59 101 58 44 107 63 47 75 68 50 81 73 53 87 78 56 93 59 59 99 64 44 105 69 47
96 60 52 102 65 55 108 70 58 76 75 43 82 56 46 88 61 49 94 66 52 100 71 55 106 76 58 74 57 43 80 62 46 86 67 49 92 72 52 98 77 55 104 58 58 110 63 43 78 68 46 84 73 49 90 78 52 96 59 55 102 64 58 108 69 43 76 74 46 82 79 49 88 60 52 94 65 55 100 70 58 106 75 43 74 56 46 80 61 49 86 66 52 92 71 55 98 76 58 104 57 43 110 62 46 78 67 49 84 72 52 90 77 55 96 58 58 102 63 43 108 68 46 76 73 49 82 78 52 88 59 55 94 64 58 100 69 43 106 74 46 74 79 49 80 60 52 86 65 55 92 70 58 98 75 43 104 56 46 110 61 49 78 66 52 84 71 55 90 76 58 96 57 43 102 62 46 108 67 49 76 72 52 82 77 55 88 58 58 94 63 43 100 68 46 106 73 49 74 78 52 80 59 55 86 64 58 92 69 43 98 74 46 104 79 49 110 60 52 78 65 55 84 70 58 90 75 43 96 56 46 102 61 49 108 66 52 76 71 55 82 76 58 88 57 43 94 62 46 100 67 49 106 72 52 74 77 55 80 58 58 86 63 43 92 68 46 98 73 49 104 78 52 110 59 55 78 64 58 84 69 43 90 74 46 96 79 49 102 60 52 108 65 55 76 70 58 82 75 43 88 56 46 94 61 49 100 66 52 106 71 55 74 76 58 80 57 43 86 62 46 92 67 49 98 72 52 104 77 55 110 58 58 78 63 43 84 68 46 90 73 49 96 78 52 102 59 55 108 64 58 76 69 43 82 74 46 88 79 49 94 60 52 100 65 55 106 70 58 74 75 43 80 56 46 86 61 49 92 66 52 98 71 55 104 76 58 110 57 43 78 62 46 84 67 49 90 72 52 96 77 55 102 58 58 108 63 43 76 68 46 82 73 49 88 78 52 94 59 55 100 64 58 106 69 43 74 74 46 80 79 49 86 60 52 92 65 55 98 70 58 104 75 43 110 56 46 78 61 49 84 66 52 90 71 55 96 76 58 102 57 43 108 62 46 76 67 49 82 72 52 88 77 55 94 58 58 100 63 43 106 68 46 74 73 49 80 78 52 86 59 55 92 64 58 98 69 43 104 74 46 110 79 49 78 60 52 84 65 55 90 70 58 96 75 43 102 56 46 108 61 49 76 66 52 82 71 55 88 76 58 94 57 43 100 62 46 106 67 49 74 72 52 80 77 55 86 58 58 92 63 43 98 68 46 104 73 49 110 78 52 78 59 55 84 64 58 90 69 43 96 74 46 102 79 49 108 60 52 76 65 55 82 70 58 88 75 43 94 56 46 100 61 49 106 66 52 74 71 55 80 76 58 86 57 43 92 62 46 98 67 49 104 72 52 110 77 55 78 58 58 84 63 43 90 68 46 96 73 49 102 78 52 108 59 55 76 64 58 82 69 43 88 74 46 94 79 49 100 60 52 106 65 55 74 70 58 80 75 43 86 56 46 92 61 49 98 66 52 104 71 55 110 76 58 78 57 43 84 62 46 90 67 49 96 72 52 102 77 55 108 58 58 76 63 43 82 68 46 88 73 49 94 78 52 100 59 55 106 64 58 74 69 43 80 74 46 86 79 49 92 60 52 98 65 55 104 70 58 110 75 43 78 56 46 84 61 49 90 66 52 96 71 55 102 76 58 108 57 43 76 62 46 82 67 49 88 72 52 94 77 55 100 58 58 106 63 43 74 68 46 80 73 49 86 78 52 92 59 55 98 64 58 104 69 43 110 74 46 78 79 49 84 60 52 90 65 55 96 70 58 102 75 43 108 56 46 76 61 49 82 66 52 88 71 55 94 76 58 100 57 43 106 62 46 74 67 49 80 72 52 86 77 55 92 58 58 98 63 43 104 68 46 110 73 49 78 78 52 84 59 55 90 64 58 96 69 43 102 74 46 108 79 49 76 60 52 82 65 55 88 70 58 94 75 43 100 56 46 106 61 49 74 66 52 80 71 55 86 76 58 92 57 43 98 62 46 104 67 49 110 72 52 78 77 55 84 58 58 90 63 43 96 68 46 102 73 49 108 78 52 76 59 55 82 64 58 88 69 43 94 74 46 100 79 49 106 60 52 74 65 55 80 70 58 86 75 43 92 56 46 98 61 49 104 66 52 110 71 55
101 62 42 107 67 45 75 72 48 81 77 51 87 58 54 93 63 57 99 68 42 105 73 45 111 78 48 79 59 51 85 64 54 91 69 57 97 74 42 103 79 45 109 60 48 77 65 51 83 70 54 89 75 57 95 56 42 101 61 45 107 66 48 75 71 51 81 76 54 87 57 57 93 62 42 99 67 45 105 72 48 111 77 51 79 58 54 85 63 57 91 68 42 97 73 45 103 78 48 109 59 51 77 64 54 83 69 57 89 74 42 95 79 45 101 60 48 107 65 51 75 70 54 81 75 57 87 56 42 93 61 45 99 66 48 105 71 51 111 76 54 79 57 57 85 62 42 91 67 45 97 72 48 103 77 51 109 58 54 77 63 57 83 68 42 89 73 45 95 78 48 101 59 51 107 64 54 75 69 57 81 74 42 87 79 45 93 60 48 99 65 51 105 70 54 111 75 57 79 56 42 85 61 45 91 66 48 97 71 51 103 76 54 109 57 57 77 62 42 83 67 45 89 72 48 95 77 51 101 58 54 107 63 57 75 68 42 81 73 45 87 78 48 93 59 51 99 64 54 105 69 57 111 74 42 79 79 45 85 60 48 91 65 51 97 70 54 103 75 57 109 56 42 77 61 45 83 66 48 89 71 51 95 76 54 101 57 57 107 62 42 75 67 45 81 72 48 87 77 51 93 58 54 99 63 57 105 68 42 111 73 45 79 78 48 85 59 51 91 64 54 97 69 57 103 74 42 109 79 45 77 60 48 83 65 51 89 70 54 95 75 57 101 56 42 107 61 45 75 66 48 81 71 51 87 76 54 93 57 57 99 62 42 105 67 45 111 72 48 79 77 51 85 58 54 91 63 57 97 68 42 103 73 45 109 78 48 77 59 51 83 64 54 89 69 57 95 74 42 101 79 45 107 60 48 75 65 51 81 70 54 87 75 57 93 56 42 99 61 45 105 66 48 111 71 51 79 76 54 85 57 57 91 62 42 97 67 45 103 72 48 109 77 51 77 58 54 83 63 57 89 68 42 95 73 45 101 78 48 107 59 51 75 64 54 81 69 57 87 74 42 93 79 45 99 60 48 105 65 51 111 70 54 79 75 57 85 56 42 91 61 45 97 66 48 103 71 51 109 76 54 77 57 57 83 62 42 89 67 45 95 72 48 101 77 51 107 58 54 75 63 57 81 68 42 87 73 45 93 78 48 99 59 51 105 64 54 111 69 57 79 74 42 85 79 45 91 60 48 97 65 51 103 70 54 109 75 57 77 56 42 83 61 45 89 66 48 95 71 51 101 76 54 107 57 57 75 62 42 81 67 45 87 72 48 93 77 51 99 58 54 105 63 57 111 68 42 79 73 45 85 78 48 91 59 51 97 64 54 103 69 57 109 74 42 77 79 45 83 60 48 89 65 51 95 70 54 101 75 57 107 56 42 75 61 45 81 66 48 87 71 51 93 76 54 99 57 57 105 62 42 111 67 45 79 72 48 85 77 51 91 58 54 97 63 57 103 68 42 109 73 45 77 78 48 83 59 51 89 64 54 95 69 57 101 74 42 107 79 45 75 60 48 81 65 51 87 70 54 93 75 57 99 56 42 105 61 45 111 66 48 79 71 51 85 76 54 91 57 57 97 62 42 103 67 45 109 72 48 77 77 51 83 58 54 89 63 57 95 68 42 101 73 45 107 78 48 75 59 51 81 64 54 87 69 57 93 74 42 99 79 45 105 60 48 111 65 51 79 70 54 85 75 57 91 56 42 97 61 45 103 66 48 109 71 51 77 76 54 83 57 57 89 62 42 95 67 45 101 72 48 107 77 51 75 58 54 81 63 57 87 68 42 93 73 45 99 78 48 105 59 51 111 64 54 79 69 57 85 74 42 91 79 45 97 60 48 103 65 51 109 70 54 77 75 57 83 56 42 89 61 45 95 66 48 101 71 51 107 76 54 75 57 57 81 62 42 87 67 45 93 72 48 99 77 51 105 58 54 111 63 57 79 68 42 85 73 45 91 78 48 97 59 51 103 64 54 109 69 57 77 74 42 83 79 45 89 60 48 95 65 51 101 70 54 107 75 57 75 56 42 81 61 45 87 66 48 93 71 51 99 76 54 105 57 57 111 62 42 79 67 45 85 72 48 91 77 51 97 58 54 103 63 57 109 68 42 77 73 45
106 64 50 74 69 53 80 74 56 86 79 59 92 60 44 98 65 47 104 70 50 110 75 53 78 56 56 84 61 59 90 66 44 96 71 47 102 76 50 108 57 53 76 62 56 82 67 59 88 72 44 94 77 47 100 58 50 106 63 53 74 68 56 80 73 59 86 78 44 92 59 47 98 64 50 104 69 53 110 74 56 78 79 59 84 60 44 90 65 47 96 70 50 102 75 53 108 56 56 76 61 59 82 66 44 88 71 47 94 76 50 100 57 53 106 62 56 74 67 59 80 72 44 86 77 47 92 58 50 98 63 53 104 68 56 110 73 59 78 78 44 84 59 47 90 64 50 96 69 53 102 74 56 108 79 59 76 60 44 82 65 47 88 70 50 94 75 53 100 56 56 106 61 59 74 66 44 80 71 47 86 76 50 92 57 53 98 62 56 104 67 59 110 72 44 78 77 47 84 58 50 90 63 53 96 68 56 102 73 59 108 78 44 76 59 47 82 64 50 88 69 53 94 74 56 100 79 59 106 60 44 74 65 47 80 70 50 86 75 53 92 56 56 98 61 59 104 66 44 110 71 47 78 76 50 84 57 53 90 62 56 96 67 59 102 72 44 108 77 47 76 58 50 82 63 53 88 68 56 94 73 59 100 78 44 106 59 47 74 64 50 80 69 53 86 74 56 92 79 59 98 60 44 104 65 47 110 70 50 78 75 53 84 56 56 90 61 59 96 66 44 102 71 47 108 76 50 76 57 53 82 62 56 88 67 59 94 72 44 100 77 47 106 58 50 74 63 53 80 68 56 86 73 59 92 78 44 98 59 47 104 64 50 110 69 53 78 74 56 84 79 59 90 60 44 96 65 47 102 70 50 108 75 53 76 56 56 82 61 59 88 66 44 94 71 47 100 76 50 106 57 53 74 62 56 80 67 59 86 72 44 92 77 47 98 58 50 104 63 53 110 68 56 78 73 59 84 78 44 90 59 47 96 64 50 102 69 53 108 74 56 76 79 59 82 60 44 88 65 47 94 70 50 100 75 53 106 56 56 74 61 59 80 66 44 86 71 47 92 76 50 98 57 53 104 62 56 110 67 59 78 72 44 84 77 47 90 58 50 96 63 53 102 68 56 108 73 59 76 78 44 82 59 47 88 64 50 94 69 53 100 74 56 106 79 59 74 60 44 80 65 47 86 70 50 92 75 53 98 56 56 104 61 59 110 66 44 78 71 47 84 76 50 90 57 53 96 62 56 102 67 59 108 72 44 76 77 47 82 58 50 88 63 53 94 68 56 100 73 59 106 78 44 74 59 47 80 64 50 86 69 53 92 74 56 98 79 59 104 60 44 110 65 47 78 70 50 84 75 53 90 56 56 96 61 59 102 66 44 108 71 47 76 76 50 82 57 53 88 62 56 94 67 59 100 72 44 106 77 47 74 58 50 80 63 53 86 68 56 92 73 59 98 78 44 104 59 47 110 64 50 78 69 53 84 74 56 90 79 59 96 60 44 102 65 47 108 70 50 76 75 53 82 56 56 88 61 59 94 66 44 100 71 47 106 76 50 74 57 53 80 62 56 86 67 59 92 72 44 98 77 47 104 58 50 110 63 53 78 68 56 84 73 59 90 78 44 96 59 47 102 64 50 108 69 53 76 74 56 82 79 59 88 60 44 94 65 47 100 70 50 106 75 53 74 56 56 80 61 59 86 66 44 92 71 47 98 76 50 104 57 53 110 62 56 78 67 59 84 72 44 90 77 47 96 58 50 102 63 53 108 68 56 76 73 59 82 78 44 88 59 47 94 64 50 100 69 53 106 74 56 74 79 59 80 60 44 86 65 47 92 70 50 98 75 53 104 56 56 110 61 59 78 66 44 84 71 47 90 76 50 96 57 53 102 62 56 108 67 59 76 72 44 82 77 47 88 58 50 94 63 53 100 68 56 106 73 59 74 78 44 80 59 47 86 64 50 92 69 53 98 74 56 104 79 59 110 60 44 78 65 47 84 70 50 90 75 53 96 56 56 102 61 59 108 66 44 76 71 47 82 76 50 88 57 53 94 62 56 100 67 59 106 72 44 74 77 47 80 58 50 86 63 53 92 68 56 98 73 59 104 78 44 110 59 47 78 64 50 84 69 53 90 74 56 96 79 59 102 60 44 108 65 47 76 70 50 82 75 53
111 66 58 79 71 43 85 76 46 91 57 49 97 62 52 103 67 55 109 72 58 77 77 43 83 58 46 89 63 49 95 68 52 101 73 55 107 78 58 75 59 43 81 64 46 87 69 49 93 74 52 99 79 55 105 60 58 111 65 43 79 70 46 85 75 49 91 56 52 97 61 55 103 66 58 109 71 43 77 76 46 83 57 49 89 62 52 95 67 55 101 72 58 107 77 43 75 58 46 81 63 49 87 68 52 93 73 55 99 78 58 105 59 43 111 64 46 79 69 49 85 74 52 91 79 55 97 60 58 103 65 43 109 70 46 77 75 49 83 56 52 89 61 55 95 66 58 101 71 43 107 76 46 75 57 49 81 62 52 87 67 55 93 72 58 99 77 43 105 58 46 111 63 49 79 68 52 85 73 55 91 78 58 97 59 43 103 64 46 109 69 49 77 74 52 83 79 55 89 60 58 95 65 43 101 70 46 107 75 49 75 56 52 81 61 55 87 66 58 93 71 43 99 76 46 105 57 49 111 62 52 79 67 55 85 72 58 91 77 43 97 58 46 103 63 49 109 68 52 77 73 55 83 78 58 89 59 43 95 64 46 101 69 49 107 74 52 75 79 55 81 60 58 87 65 43 93 70 46 99 75 49 105 56 52 111 61 55 79 66 58 85 71 43 91 76 46 97 57 49 103 62 52 109 67 55 77 72 58 83 77 43 89 58 46 95 63 49 101 68 52 107 73 55 75 78 58 81 59 43 87 64 46 93 69 49 99 74 52 105 79 55 111 60 58 79 65 43 85 70 46 91 75 49 97 56 52 103 61 55 109 66 58 77 71 43 83 76 46 89 57 49 95 62 52 101 67 55 107 72 58 75 77 43 81 58 46 87 63 49 93 68 52 99 73 55 105 78 58 111 59 43 79 64 46 85 69 49 91 74 52 97 79 55 103 60 58 109 65 43 77 70 46 83 75 49 89 56 52 95 61 55 101 66 58 107 71 43 75 76 46 81 57 49 87 62 52 93 67 55 99 72 58 105 77 43 111 58 46 79 63 49 85 68 52 91 73 55 97 78 58 103 59 43 109 64 46 77 69 49 83 74 52 89 79 55 95 60 58 101 65 43 107 70 46 75 75 49 81 56 52 87 61 55 93 66 58 99 71 43 105 76 46 111 57 49 79 62 52 85 67 55 91 72 58 97 77 43 103 58 46 109 63 49 77 68 52 83 73 55 89 78 58 95 59 43 101 64 46 107 69 49 75 74 52 81 79 55 87 60 58 93 65 43 99 70 46 105 75 49 111 56 52 79 61 55 85 66 58 91 71 43 97 76 46 103 57 49 109 62 52 77 67 55 83 72 58 89 77 43 95 58 46 101 63 49 107 68 52 75 73 55 81 78 58 87 59 43 93 64 46 99 69 49 105 74 52 111 79 55 79 60 58 85 65 43 91 70 46 97 75 49 103 56 52 109 61 55 77 66 58 83 71 43 89 76 46 95 57 49 101 62 52 107 67 55 75 72 58 81 77 43 87 58 46 93 63 49 99 68 52 105 73 55 111 78 58 79 59 43 85 64 46 91 69 49 97 74 52 103 79 55 109 60 58 77 65 43 83 70 46 89 75 49 95 56 52 101 61 55 107 66 58 75 71 43 81 76 46 87 57 49 93 62 52 99 67 55 105 72 58 111 77 43 79 58 46 85 63 49 91 68 52 97 73 55 103 78 58 109 59 43 77 64 46 83 69 49 89 74 52 95 79 55 101 60 58 107 65 43 75 70 46 81 75 49 87 56 52 93 61 55 99 66 58 105 71 43 111 76 46 79 57 49 85 62 52 91 67 55 97 72 58 103 77 43 109 58 46 77 63 49 83 68 52 89 73 55 95 78 58 101 59 43 107 64 46 75 69 49 81 74 52 87 79 55 93 60 58 99 65 43 105 70 46 111 75 49 79 56 52 85 61 55 91 66 58 97 71 43 103 76 46 109 57 49 77 62 52 83 67 55 89 72 58 95 77 43 101 58 46 107 63 49 75 68 52 81 73 55 87 78 58 93 59 43 99 64 46 105 69 49 111 74 52 79 79 55 85 60 58 91 65 43 97 70 46 103 75 49 109 56 52 77 61 55 83 66 58 89 71 43 95 76 46 101 57 49 107 62 52 75 67 55 81 72 58 87 77 43
78 68 48 84 73 51 90 78 54 96 59 57 102 64 42 108 69 45 76 74 48 82 79 51 88 60 54 94 65 57 100 70 42 106 75 45 74 56 48 80 61 51 86 66 54 92 71 57 98 76 42 104 57 45 110 62 48 78 67 51 84 72 54 90 77 57 96 58 42 102 63 45 108 68 48 76 73 51 82 78 54 88 59 57 94 64 42 100 69 45 106 74 48 74 79 51 80 60 54 86 65 57 92 70 42 98 75 45 104 56 48 110 61 51 78 66 54 84 71 57 90 76 42 96 57 45 102 62 48 108 67 51 76 72 54 82 77 57 88 58 42 94 63 45 100 68 48 106 73 51 74 78 54 80 59 57 86 64 42 92 69 45 98 74 48 104 79 51 110 60 54 78 65 57 84 70 42 90 75 45 96 56 48 102 61 51 108 66 54 76 71 57 82 76 42 88 57 45 94 62 48 100 67 51 106 72 54 74 77 57 80 58 42 86 63 45 92 68 48 98 73 51 104 78 54 110 59 57 78 64 42 84 69 45 90 74 48 96 79 51 102 60 54 108 65 57 76 70 42 82 75 45 88 56 48 94 61 51 100 66 54 106 71 57 74 76 42 80 57 45 86 62 48 92 67 51 98 72 54 104 77 57 110 58 42 78 63 45 84 68 48 90 73 51 96 78 54 102 59 57 108 64 42 76 69 45 82 74 48 88 79 51 94 60 54 100 65 57 106 70 42 74 75 45 80 56 48 86 61 51 92 66 54 98 71 57 104 76 42 110 57 45 78 62 48 84 67 51 90 72 54 96 77 57 102 58 42 108 63 45 76 68 48 82 73 51 88 78 54 94 59 57 100 64 42 106 69 45 74 74 48 80 79 51 86 60 54 92 65 57 98 70 42 104 75 45 110 56 48 78 61 51 84 66 54 90 71 57 96 76 42 102 57 45 108 62 48 76 67 51 82 72 54 88 77 57 94 58 42 100 63 45 106 68 48 74 73 51 80 78 54 86 59 57 92 64 42 98 69 45 104 74 48 110 79 51 78 60 54 84 65 57 90 70 42 96 75 45 102 56 48 108 61 51 76 66 54 82 71 57 88 76 42 94 57 45 100 62 48 106 67 51 74 72 54 80 77 57 86 58 42 92 63 45 98 68 48 104 73 51 110 78 54 78 59 57 84 64 42 90 69 45 96 74 48 102 79 51 108 60 54 76 65 57 82 70 42 88 75 45 94 56 48 100 61 51 106 66 54 74 71 57 80 76 42 86 57 45 92 62 48 98 67 51 104 72 54 110 77 57 78 58 42 84 63 45 90 68 48 96 73 51 102 78 54 108 59 57 76 64 42 82 69 45 88 74 48 94 79 51 100 60 54 106 65 57 74 70 42 80 75 45 86 56 48 92 61 51 98 66 54 104 71 57 110 76 42 78 57 45 84 62 48 90 67 51 96 72 54 102 77 57 108 58 42 76 63 45 82 68 48 88 73 51 94 78 54 100 59 57 106 64 42 74 69 45 80 74 48 86 79 51 92 60 54 98 65 57 104 70 42 110 75 45 78 56 48 84 61 51 90 66 54 96 71 57 102 76 42 108 57 45 76 62 48 82 67 51 88 72 54 94 77 57 100 58 42 106 63 45 74 68 48 80 73 51 86 78 54 92 59 57 98 64 42 104 69 45 110 74 48 78 79 51 84 60 54 90 65 57 96 70 42 102 75 45 108 56 48 76 61 51 82 66 54 88 71 57 94 76 42 100 57 45 106 62 48 74 67 51 80 72 54 86 77 57 92 58 42 98 63 45 104 68 48 110 73 51 78 78 54 84 59 57 90 64 42 96 69 45 102 74 48 108 79 51 76 60 54 82 65 57 88 70 42 94 75 45 100 56 48 106 61 51 74 66 54 80 71 57 86 76 42 92 57 45 98 62 48 104 67 51 110 72 54 78 77 57 84 58 42 90 63 45 96 68 48 102 73 51 108 78 54 76 59 57 82 64 42 88 69 45 94 74 48 100 79 51 106 60 54 74 65 57 80 70 42 86 75 45 92 56 48 98 61 51 104 66 54 110 71 57 78 76 42 84 57 45 90 62 48 96 67 51 102 72 54 108 77 57 76 58 42 82 63 45 88 68 48 94 73 51 100 78 54 106 59 57 74 64 42 80 69 45 86 74 48 92 79 51
83 70 56 89 75 59 95 56 44 101 61 47 107 66 50 75 71 53 81 76 56 87 57 59 93 62 44 99 67 47 105 72 50 111 77 53 79 58 56 85 63 59 91 68 44 97 73 47 103 78 50 109 59 53 77 64 56 83 69 59 89 74 44 95 79 47 101 60 50 107 65 53 75 70 56 81 75 59 87 56 44 93 61 47 99 66 50 105 71 53 111 76 56 79 57 59 85 62 44 91 67 47 97 72 50 103 77 53 109 58 56 77 63 59 83 68 44 89 73 47 95 78 50 101 59 53 107 64 56 75 69 59 81 74 44 87 79 47 93 60 50 99 65 53 105 70 56 111 75 59 79 56 44 85 61 47 91 66 50 97 71 53 103 76 56 109 57 59 77 62 44 83 67 47 89 72 50 95 77 53 101 58 56 107 63 59 75 68 44 81 73 47 87 78 50 93 59 53 99 64 56 105 69 59 111 74 44 79 79 47 85 60 50 91 65 53 97 70 56 103 75 59 109 56 44 77 61 47 83 66 50 89 71 53 95 76 56 101 57 59 107 62 44 75 67 47 81 72 50 87 77 53 93 58 56 99 63 59 105 68 44 111 73 47 79 78 50 85 59 53 91 64 56 97 69 59 103 74 44 109 79 47 77 60 50 83 65 53 89 70 56 95 75 59 101 56 44 107 61 47 75 66 50 81 71 53 87 76 56 93 57 59 99 62 44 105 67 47 111 72 50 79 77 53 85 58 56 91 63 59 97 68 44 103 73 47 109 78 50 77 59 53 83 64 56 89 69 59 95 74 44 101 79 47 107 60 50 75 65 53 81 70 56 87 75 59 93 56 44 99 61 47 105 66 50 111 71 53 79 76 56 85 57 59 91 62 44 97 67 47 103 72 50 109 77 53 77 58 56 83 63 59 89 68 44 95 73 47 101 78 50 107 59 53 75 64 56 81 69 59 87 74 44 93 79 47 99 60 50 105 65 53 111 70 56 79 75 59 85 56 44 91 61 47 97 66 50 103 71 53 109 76 56 77 57 59 83 62 44 89 67 47 95 72 50 101 77 53 107 58 56 75 63 59 81 68 44 87 73 47 93 78 50 99 59 53 105 64 56 111 69 59 79 74 44 85 79 47 91 60 50 97 65 53 103 70 56 109 75 59 77 56 44 83 61 47 89 66 50 95 71 53 101 76 56 107 57 59 75 62 44 81 67 47 87 72 50 93 77 53 99 58 56 105 63 59 111 68 44 79 73 47 85 78 50 91 59 53 97 64 56 103 69 59 109 74 44 77 79 47 83 60 50 89 65 53 95 70 56 101 75 59 107 56 44 75 61 47 81 66 50 87 71 53 93 76 56 99 57 59 105 62 44 111 67 47 79 72 50 85 77 53 91 58 56 97 63 59 103 68 44 109 73 47 77 78 50 83 59 53 89 64 56 95 69 59 101 74 44 107 79 47 75 60 50 81 65 53 87 70 56 93 75 59 99 56 44 105 61 47 111 66 50 79 71 53 85 76 56 91 57 59 97 62 44 103 67 47 109 72 50 77 77 53 83 58 56 89 63 59 95 68 44 101 73 47 107 78 50 75 59 53 81 64 56 87 69 59 93 74 44 99 79 47 105 60 50 111 65 53 79 70 56 85 75 59 91 56 44 97 61 47 103 66 50 109 71 53 77 76 56 83 57 59 89 62 44 95 67 47 101 72 50 107 77 53 75 58 56 81 63 59 87 68 44 93 73 47 99 78 50 105 59 53 111 64 56 79 69 59 85 74 44 91 79 47 97 60 50 103 65 53 109 70 56 77 75 59 83 56 44 89 61 47 95 66 50 101 71 53 107 76 56 75 57 59 81 62 44 87 67 47 93 72 50 99 77 53 105 58 56 111 63 59 79 68 44 85 73 47 91 78 50 97 59 53 103 64 56 109 69 59 77 74 44 83 79 47 89 60 50 95 65 53 101 70 56 107 75 59 75 56 44 81 61 47 87 66 50 93 71 53 99 76 56 105 57 59 111 62 44 79 67 47 85 72 50 91 77 53 97 58 56 103 63 59 109 68 44 77 73 47 83 78 50 89 59 53 95 64 56 101 69 59 107 74 44 75 79 47 81 60 50 87 65 53 93 70 56 99 75 59 105 56 44 111 61 47 79 66 50 85 71 53 91 76 56 97 57 59
88 72 46 94 77 49 100 58 52 106 63 55 74 68 58 80 73 43 86 78 46 92 59 49 98 64 52 104 69 55 110 74 58 78 79 43 84 60 46 90 65 49 96 70 52 102 75 55 108 56 58 76 61 43 82 66 46 88 71 49 94 76 52 100 57 55 106 62 58 74 67 43 80 72 46 86 77 49 92 58 52 98 63 55 104 68 58 110 73 43 78 78 46 84 59 49 90 64 52 96 69 55 102 74 58 108 79 43 76 60 46 82 65 49 88 70 52 94 75 55 100 56 58 106 61 43 74 66 46 80 71 49 86 76 52 92 57 55 98 62 58 104 67 43 110 72 46 78 77 49 84 58 52 90 63 55 96 68 58 102 73 43 108 78 46 76 59 49 82 64 52 88 69 55 94 74 58 100 79 43 106 60 46 74 65 49 80 70 52 86 75 55 92 56 58 98 61 43 104 66 46 110 71 49 78 76 52 84 57 55 90 62 58 96 67 43 102 72 46 108 77 49 76 58 52 82 63 55 88 68 58 94 73 43 100 78 46 106 59 49 74 64 52 80 69 55 86 74 58 92 79 43 98 60 46 104 65 49 110 70 52 78 75 55 84 56 58 90 61 43 96 66 46 102 71 49 108 76 52 76 57 55 82 62 58 88 67 43 94 72 46 100 77 49 106 58 52 74 63 55 80 68 58 86 73 43 92 78 46 98 59 49 104 64 52 110 69 55 78 74 58 84 79 43 90 60 46 96 65 49 102 70 52 108 75 55 76 56 58 82 61 43 88 66 46 94 71 49 100 76 52 106 57 55 74 62 58 80 67 43 86 72 46 92 77 49 98 58 52 104 63 55 110 68 58 78 73 43 84 78 46 90 59 49 96 64 52 102 69 55 108 74 58 76 79 43 82 60 46 88 65 49 94 70 52 100 75 55 106 56 58 74 61 43 80 66 46 86 71 49 92 76 52 98 57 55 104 62 58 110 67 43 78 72 46 84 77 49 90 58 52 96 63 55 102 68 58 108 73 43 76 78 46 82 59 49 88 64 52 94 69 55 100 74 58 106 79 43 74 60 46 80 65 49 86 70 52 92 75 55 98 56 58 104 61 43 110 66 46 78 71 49 84 76 52 90 57 55 96 62 58 102 67 43 108 72 46 76 77 49 82 58 52 88 63 55 94 68 58 100 73 43 106 78 46 74 59 49 80 64 52 86 69 55 92 74 58 98 79 43 104 60 46 110 65 49 78 70 52 84 75 55 90 56 58 96 61 43 102 66 46 108 71 49 76 76 52 82 57 55 88 62 58 94 67 43 100 72 46 106 77 49 74 58 52 80 63 55 86 68 58 92 73 43 98 78 46 104 59 49 110 64 52 78 69 55 84 74 58 90 79 43 96 60 46 102 65 49 108 70 52 76 75 55 82 56 58 88 61 43 94 66 46 100 71 49 106 76 52 74 57 55 80 62 58 86 67 43 92 72 46 98 77 49 104 58 52 110 63 55 78 68 58 84 73 43 90 78 46 96 59 49 102 64 52 108 69 55 76 74 58 82 79 43 88 60 46 94 65 49 100 70 52 106 75 55 74 56 58 80 61 43 86 66 46 92 71 49 98 76 52 104 57 55 110 62 58 78 67 43 84 72 46 90 77 49 96 58 52 102 63 55 108 68 58 76 73 43 82 78 46 88 59 49 94 64 52 100 69 55 106 74 58 74 79 43 80 60 46 86 65 49 92 70 52 98 75 55 104 56 58 110 61 43 78 66 46 84 71 49 90 76 52 96 57 55 102 62 58 108 67 43 76 72 46 82 77 49 88 58 52 94 63 55 100 68 58 106 73 43 74 78 46 80 59 49 86 64 52 92 69 55 98 74 58 104 79 43 110 60 46 78 65 49 84 70 52 90 75 55 96 56 58 102 61 43 108 66 46 76 71 49 82 76 52 88 57 55 94 62 58 100 67 43 106 72 46 74 77 49 80 58 52 86 63 55 92 68 58 98 73 43 104 78 46 110 59 49 78 64 52 84 69 55 90 74 58 96 79 43 102 60 46 108 65 49 76 70 52 82 75 55 88 56 58 94 61 43 100 66 46 106 71 49 74 76 52 80 57 55 86 62 58 92 67 43 98 72 46 104 77 49 110 58 52 78 63 55 84 68 58 90 73 43 96 78 46 102 59 49
93 74 54 99 79 57 105 60 42 111 65 45 79 70 48 85 75 51 91 56 54 97 61 57 103 66 42 109 71 45 77 76 48 83 57 51 89 62 54 95 67 57 101 72 42 107 77 45 75 58 48 81 63 51 87 68 54 93 73 57 99 78 42 105 59 45 111 64 48 79 69 51 85 74 54 91 79 57 97 60 42 103 65 45 109 70 48 77 75 51 83 56 54 89 61 57 95 66 42 101 71 45 107 76 48 75 57 51 81 62 54 87 67 57 93 72 42 99 77 45 105 58 48 111 63 51 79 68 54 85 73 57 91 78 42 97 59 45 103 64 48 109 69 51 77 74 54 83 79 57 89 60 42 95 65 45 101 70 48 107 75 51 75 56 54 81 61 57 87 66 42 93 71 45 99 76 48 105 57 51 111 62 54 79 67 57 85 72 42 91 77 45 97 58 48 103 63 51 109 68 54 77 73 57 83 78 42 89 59 45 95 64 48 101 69 51 107 74 54 75 79 57 81 60 42 87 65 45 93 70 48 99 75 51 105 56 54 111 61 57 79 66 42 85 71 45 91 76 48 97 57 51 103 62 54 109 67 57 77 72 42 83 77 45 89 58 48 95 63 51 101 68 54 107 73 57 75 78 42 81 59 45 87 64 48 93 69 51 99 74 54 105 79 57 111 60 42 79 65 45 85 70 48 91 75 51 97 56 54 103 61 57 109 66 42 77 71 45 83 76 48 89 57 51 95 62 54 101 67 57 107 72 42 75 77 45 81 58 48 87 63 51 93 68 54 99 73 57 105 78 42 111 59 45 79 64 48 85 69 51 91 74 54 97 79 57 103 60 42 109 65 45 77 70 48 83 75 51 89 56 54 95 61 57 101 66 42 107 71 45 75 76 48 81 57 51 87 62 54 93 67 57 99 72 42 105 77 45 111 58 48 79 63 51 85 68 54 91 73 57 97 78 42 103 59 45 109 64 48 77 69 51 83 74 54 89 79 57 95 60 42 101 65 45 107 70 48 75 75 51 81 56 54 87 61 57 93 66 42 99 71 45 105 76 48 111 57 51 79 62 54 85 67 57 91 72 42 97 77 45 103 58 48 109 63 51 77 68 54 83 73 57 89 78 42 95 59 45 101 64 48 107 69 51 75 74 54 81 79 57 87 60 42 93 65 45 99 70 48 105 75 51 111 56 54 79 61 57 85 66 42 91 71 45 97 76 48 103 57 51 109 62 54 77 67 57 83 72 42 89 77 45 95 58 48 101 63 51 107 68 54 75 73 57 81 78 42 87 59 45 93 64 48 99 69 51 105 74 54 111 79 57 79 60 42 85 65 45 91 70 48 97 75 51 103 56 54 109 61 57 77 66 42 83 71 45 89 76 48 95 57 51 101 62 54 107 67 57 75 72 42 81 77 45 87 58 48 93 63 51 99 68 54 105 73 57 111 78 42 79 59 45 85 64 48 91 69 51 97 74 54 103 79 57 109 60 42 77 65 45 83 70 48 89 75 51 95 56 54 101 61 57 107 66 42 75 71 45 81 76 48 87 57 51 93 62 54 99 67 57 105 72 42 111 77 45 79 58 48 85 63 51 91 68 54 97 73 57 103 78 42 109 59 45 77 64 48 83 69 51 89 74 54 95 79 57 101 60 42 107 65 45 75 70 48 81 75 51 87 56 54 93 61 57 99 66 42 105 71 45 111 76 48 79 57 51 85 62 54 91 67 57 97 72 42 103 77 45 109 58 48 77 63 51 83 68 54 89 73 57 95 78 42 101 59 45 107 64 48 75 69 51 81 74 54 87 79 57 93 60 42 99 65 45 105 70 48 111 75 51 79 56 54 85 61 57 91 66 42 97 71 45 103 76 48 109 57 51 77 62 54 83 67 57 89 72 42 95 77 45 101 58 48 107 63 51 75 68 54 81 73 57 87 78 42 93 59 45 99 64 48 105 69 51 111 74 54 79 79 57 85 60 42 91 65 45 97 70 48 103 75 51 109 56 54 77 61 57 83 66 42 89 71 45 95 76 48 101 57 51 107 62 54 75 67 57 81 72 42 87 77 45 93 58 48 99 63 51 105 68 54 111 73 57 79 78 42 85 59 45 91 64 48 97 69 51 103 74 54 109 79 57 77 60 42 83 65 45 89 70 48 95 75 51 101 56 54 107 61 57
98 76 44 104 57 47 110 62 50 78 67 53 84 72 56 90 77 59 96 58 44 102 63 47 108 68 50 76 73 53 82 78 56 88 59 59 94 64 44 100 69 47 106 74 50 74 79 53 80 60 56 86 65 59 92 70 44 98 75 47 104 56 50 110 61 53 78 66 56 84 71 59 90 76 44 96 57 47 102 62 50 108 67 53 76 72 56 82 77 59 88 58 44 94 63 47 100 68 50 106 73 53 74 78 56 80 59 59 86 64 44 92 69 47 98 74 50 104 79 53 110 60 56 78 65 59 84 70 44 90 75 47 96 56 50 102 61 53 108 66 56 76 71 59 82 76 44 88 57 47 94 62 50 100 67 53 106 72 56 74 77 59 80 58 44 86 63 47 92 68 50 98 73 53 104 78 56 110 59 59 78 64 44 84 69 47 90 74 50 96 79 53 102 60 56 108 65 59 76 70 44 82 75 47 88 56 50 94 61 53 100 66 56 106 71 59 74 76 44 80 57 47 86 62 50 92 67 53 98 72 56 104 77 59 110 58 44 78 63 47 84 68 50 90 73 53 96 78 56 102 59 59 108 64 44 76 69 47 82 74 50 88 79 53 94 60 56 100 65 59 106 70 44 74 75 47 80 56 50 86 61 53 92 66 56 98 71 59 104 76 44 110 57 47 78 62 50 84 67 53 90 72 56 96 77 59 102 58 44 108 63 47 76 68 50 82 73 53 88 78 56 94 59 59 100 64 44 106 69 47 74 74 50 80 79 53 86 60 56 92 65 59 98 70 44 104 75 47 110 56 50 78 61 53 84 66 56 90 71 59 96 76 44 102 57 47 108 62 50 76 67 53 82 72 56 88 77 59 94 58 44 100 63 47 106 68 50 74 73 53 80 78 56 86 59 59 92 64 44 98 69 47 104 74 50 110 79 53 78 60 56 84 65 59 90 70 44 96 75 47 102 56 50 108 61 53 76 66 56 82 71 59 88 76 44 94 57 47 100 62 50 106 67 53 74 72 56 80 77 59 86 58 44 92 63 47 98 68 50 104 73 53 110 78 56 78 59 59 84 64 44 90 69 47 96 74 50 102 79 53 108 60 56 76 65 59 82 70 44 88 75 47 94 56 50 100 61 53 106 66 56 74 71 59 80 76 44 86 57 47 92 62 50 98 67 53 104 72 56 110 77 59 78 58 44 84 63 47 90 68 50 96 73 53 102 78 56 108 59 59 76 64 44 82 69 47 88 74 50 94 79 53 100 60 56 106 65 59 74 70 44 80 75 47 86 56 50 92 61 53 98 66 56 104 71 59 110 76 44 78 57 47 84 62 50 90 67 53 96 72 56 102 77 59 108 58 44 76 63 47 82 68 50 88 73 53 94 78 56 100 59 59 106 64 44 74 69 47 80 74 50 86 79 53 92 60 56 98 65 59 104 70 44 110 75 47 78 56 50 84 61 53 90 66 56 96 71 59 102 76 44 108 57 47 76 62 50 82 67 53 88 72 56 94 77 59 100 58 44 106 63 47 74 68 50 80 73 53 86 78 56 92 59 59 98 64 44 104 69 47 110 74 50 78 79 53 84 60 56 90 65 59 96 70 44 102 75 47 108 56 50 76 61 53 82 66 56 88 71 59 94 76 44 100 57 47 106 62 50 74 67 53 80 72 56 86 77 59 92 58 44 98 63 47 104 68 50 110 73 53 78 78 56 84 59 59 90 64 44 96 69 47 102 74 50 108 79 53 76 60 56 82 65 59 88 70 44 94 75 47 100 56 50 106 61 53 74 66 56 80 71 59 86 76 44 92 57 47 98 62 50 104 67 53 110 72 56 78 77 59 84 58 44 90 63 47 96 68 50 102 73 53 108 78 56 76 59 59 82 64 44 88 69 47 94 74 50 100 79 53 106 60 56 74 65 59 80 70 44 86 75 47 92 56 50 98 61 53 104 66 56 110 71 59 78 76 44 84 57 47 90 62 50 96 67 53 102 72 56 108 77 59 76 58 44 82 63 47 88 68 50 94 73 53 100 78 56 106 59 59 74 64 44 80 69 47 86 74 50 92 79 53 98 60 56 104 65 59 110 70 44 78 75 47 84 56 50 90 61 53 96 66 56 102 71 59 108 76 44 76 57 47 82 62 50 88 67 53 94 72 56 100 77 59 106 58 44 74 63 47
103 78 52 109 59 55 77 64 58 83 69 43 89 74 46 95 79 49 101 60 52 107 65 55 75 70 58 81 75 43 87 56 46 93 61 49 99 66 52 105 71 55 111 76 58 79 57 43 85 62 46 91 67 49 97 72 52 103 77 55 109 58 58 77 63 43 83 68 46 89 73 49 95 78 52 101 59 55 107 64 58 75 69 43 81 74 46 87 79 49 93 60 52 99 65 55 105 70 58 111 75 43 79 56 46 85 61 49 91 66 52 97 71 55 103 76 58 109 57 43 77 62 46 83 67 49 89 72 52 95 77 55 101 58 58 107 63 43 75 68 46 81 73 49 87 78 52 93 59 55 99 64 58 105 69 43 111 74 46 79 79 49 85 60 52 91 65 55 97 70 58 103 75 43 109 56 46 77 61 49 83 66 52 89 71 55 95 76 58 101 57 43 107 62 46 75 67 49 81 72 52 87 77 55 93 58 58 99 63 43 105 68 46 111 73 49 79 78 52 85 59 55 91 64 58 97 69 43 103 74 46 109 79 49 77 60 52 83 65 55 89 70 58 95 75 43 101 56 46 107 61 49 75 66 52 81 71 55 87 76 58 93 57 43 99 62 46 105 67 49 111 72 52 79 77 55 85 58 58 91 63 43 97 68 46 103 73 49 109 78 52 77 59 55 83 64 58 89 69 43 95 74 46 101 79 49 107 60 52 75 65 55 81 70 58 87 75 43 93 56 46 99 61 49 105 66 52 111 71 55 79 76 58 85 57 43 91 62 46 97 67 49 103 72 52 109 77 55 77 58 58 83 63 43 89 68 46 95 73 49 101 78 52 107 59 55 75 64 58 81 69 43 87 74 46 93 79 49 99 60 52 105 65 55 111 70 58 79 75 43 85 56 46 91 61 49 97 66 52 103 71 55 109 76 58 77 57 43 83 62 46 89 67 49 95 72 52 101 77 55 107 58 58 75 63 43 81 68 46 87 73 49 93 78 52 99 59 55 105 64 58 111 69 43 79 74 46 85 79 49 91 60 52 97 65 55 103 70 58 109 75 43 77 56 46 83 61 49 89 66 52 95 71 55 101 76 58 107 57 43 75 62 46 81 67 49 87 72 52 93 77 55 99 58 58 105 63 43 111 68 46 79 73 49 85 78 52 91 59 55 97 64 58 103 69 43 109 74 46 77 79 49 83 60 52 89 65 55 95 70 58 101 75 43 107 56 46 75 61 49 81 66 52 87 71 55 93 76 58 99 57 43 105 62 46 111 67 49 79 72 52 85 77 55 91 58 58 97 63 43 103 68 46 109 73 49 77 78 52 83 59 55 89 64 58 95 69 43 101 74 46 107 79 49 75 60 52 81 65 55 87 70 58 93 75 43 99 56 46 105 61 49 111 66 52 79 71 55 85 76 58 91 57 43 97 62 46 103 67 49 109 72 52 77 77 55 83 58 58 89 63 43 95 68 46 101 73 49 107 78 52 75 59 55 81 64 58 87 69 43 93 74 46 99 79 49 105 60 52 111 65 55 79 70 58 85 75 43 91 56 46 97 61 49 103 66 52 109 71 55 77 76 58 83 57 43 89 62 46 95 67 49 101 72 52 107 77 55 75 58 58 81 63 43 87 68 46 93 73 49 99 78 52 105 59 55 111 64 58 79 69 43 85 74 46 91 79 49 97 60 52 103 65 55 109 70 58 77 75 43 83 56 46 89 61 49 95 66 52 101 71 55 107 76 58 75 57 43 81 62 46 87 67 49 93 72 52 99 77 55 105 58 58 111 63 43 79 68 46 85 73 49 91 78 52 97 59 55 103 64 58 109 69 43 77 74 46 83 79 49 89 60 52 95 65 55 101 70 58 107 75 43 75 56 46 81 61 49 87 66 52 93 71 55 99 76 58 105 57 43 111 62 46 79 67 49 85 72 52 91 77 55 97 58 58 103 63 43 109 68 46 77 73 49 83 78 52 89 59 55 95 64 58 101 69 43 107 74 46 75 79 49 81 60 52 87 65 55 93 70 58 99 75 43 105 56 46 111 61 49 79 66 52 85 71 55 91 76 58 97 57 43 103 62 46 109 67 49 77 72 52 83 77 55 89 58 58 95 63 43 101 68 46 107 73 49 75 78 52 81 59 55 87 64 58 93 69 43 99 74 46 105 79 49 111 60 52 79 65 55
108 56 42 76 61 45 82 66 48 88 71 51 94 76 54 100 57 57 106 62 42 74 67 45 80 72 48 86 77 51 92 58 54 98 63 57 104 68 42 110 73 45 78 78 48 84 59 51 90 64 54 96 69 57 102 74 42 108 79 45 76 60 48 82 65 51 88 70 54 94 75 57 100 56 42 106 61 45 74 66 48 80 71 51 86 76 54 92 57 57 98 62 42 104 67 45 110 72 48 78 77 51 84 58 54 90 63 57 96 68 42 102 73 45 108 78 48 76 59 51 82 64 54 88 69 57 94 74 42 100 79 45 106 60 48 74 65 51 80 70 54 86 75 57 92 56 42 98 61 45 104 66 48 110 71 51 78 76 54 84 57 57 90 62 42 96 67 45 102 72 48 108 77 51 76 58 54 82 63 57 88 68 42 94 73 45 100 78 48 106 59 51 74 64 54 80 69 57 86 74 42 92 79 45 98 60 48 104 65 51 110 70 54 78 75 57 84 56 42 90 61 45 96 66 48 102 71 51 108 76 54 76 57 57 82 62 42 88 67 45 94 72 48 100 77 51 106 58 54 74 63 57 80 68 42 86 73 45 92 78 48 98 59 51 104 64 54 110 69 57 78 74 42 84 79 45 90 60 48 96 65 51 102 70 54 108 75 57 76 56 42 82 61 45 88 66 48 94 71 51 100 76 54 106 57 57 74 62 42 80 67 45 86 72 48 92 77 51 98 58 54 104 63 57 110 68 42 78 73 45 84 78 48 90 59 51 96 64 54 102 69 57 108 74 42 76 79 45 82 60 48 88 65 51 94 70 54 100 75 57 106 56 42 74 61 45 80 66 48 86 71 51 92 76 54 98 57 57 104 62 42 110 67 45 78 72 48 84 77 51 90 58 54 96 63 57 102 68 42 108 73 45 76 78 48 82 59 51 88 64 54 94 69 57 100 74 42 106 79 45 74 60 48 80 65 51 86 70 54 92 75 57 98 56 42 104 61 45 110 66 48 78 71 51 84 76 54 90 57 57 96 62 42 102 67 45 108 72 48 76 77 51 82 58 54 88 63 57 94 68 42 100 73 45 106 78 48 74 59 51 80 64 54 86 69 57 92 74 42 98 79 45 104 60 48 110 65 51 78 70 54 84 75 57 90 56 42 96 61 45 102 66 48 108 71 51 76 76 54 82 57 57 88 62 42 94 67 45 100 72 48 106 77 51 74 58 54 80 63 57 86 68 42 92 73 45 98 78 48 104 59 51 110 64 54 78 69 57 84 74 42 90 79 45 96 60 48 102 65 51 108 70 54 76 75 57 82 56 42 88 61 45 94 66 48 100 71 51 106 76 54 74 57 57 80 62 42 86 67 45 92 72 48 98 77 51 104 58 54 110 63 57 78 68 42 84 73 45 90 78 48 96 59 51 102 64 54 108 69 57 76 74 42 82 79 45 88 60 48 94 65 51 100 70 54 106 75 57 74 56 42 80 61 45 86 66 48 92 71 51 98 76 54 104 57 57 110 62 42 78 67 45 84 72 48 90 77 51 96 58 54 102 63 57 108 68 42 76 73 45 82 78 48 88 59 51 94 64 54 100 69 57 106 74 42 74 79 45 80 60 48 86 65 51 92 70 54 98 75 57 104 56 42 110 61 45 78 66 48 84 71 51 90 76 54 96 57 57 102 62 42 108 67 45 76 72 48 82 77 51 88 58 54 94 63 57 100 68 42 106 73 45 74 78 48 80 59 51 86 64 54 92 69 57 98 74 42 104 79 45 110 60 48 78 65 51 84 70 54 90 75 57 96 56 42 102 61 45 108 66 48 76 71 51 82 76 54 88 57 57 94 62 42 100 67 45 106 72 48 74 77 51 80 58 54 86 63 57 92 68 42 98 73 45 104 78 48 110 59 51 78 64 54 84 69 57 90 74 42 96 79 45 102 60 48 108 65 51 76 70 54 82 75 57 88 56 42 94 61 45 100 66 48 106 71 51 74 76 54 80 57 57 86 62 42 92 67 45 98 72 48 104 77 51 110 58 54 78 63 57 84 68 42 90 73 45 96 78 48 102 59 51 108 64 54 76 69 57 82 74 42 88 79 45 94 60 48 100 65 51 106 70 54 74 75 57 80 56 42 86 61 45 92 66 48 98 71 51 104 76 54 110 57 57 78 62 42 84 67 45
75 58 50 81 63 53 87 68 56 93 73 59 99 78 44 105 59 47 111 64 50 79 69 53 85 74 56 91 79 59 97 60 44 103 65 47 109 70 50 77 75 53 83 56 56 89 61 59 95 66 44 101 71 47 107 76 50 75 57 53 81 62 56 87 67 59 93 72 44 99 77 47 105 58 50 111 63 53 79 68 56 85 73 59 91 78 44 97 59 47 103 64 50 109 69 53 77 74 56 83 79 59 89 60 44 95 65 47 101 70 50 107 75 53 75 56 56 81 61 59 87 66 44 93 71 47 99 76 50 105 57 53 111 62 56 79 67 59 85 72 44 91 77 47 97 58 50 103 63 53 109 68 56 77 73 59 83 78 44 89 59 47 95 64 50 101 69 53 107 74 56 75 79 59 81 60 44 87 65 47 93 70 50 99 75 53 105 56 56 111 61 59 79 66 44 85 71 47 91 76 50 97 57 53 103 62 56 109 67 59 77 72 44 83 77 47 89 58 50 95 63 53 101 68 56 107 73 59 75 78 44 81 59 47 87 64 50 93 69 53 99 74 56 105 79 59 111 60 44 79 65 47 85 70 50 91 75 53 97 56 56 103 61 59 109 66 44 77 71 47 83 76 50 89 57 53 95 62 56 101 67 59 107 72 44 75 77 47 81 58 50 87 63 53 93 68 56 99 73 59 105 78 44 111 59 47 79 64 50 85 69 53 91 74 56 97 79 59 103 60 44 109 65 47 77 70 50 83 75 53 89 56 56 95 61 59 101 66 44 107 71 47 75 76 50 81 57 53 87 62 56 93 67 59 99 72 44 105 77 47 111 58 50 79 63 53 85 68 56 91 73 59 97 78 44 103 59 47 109 64 50 77 69 53 83 74 56 89 79 59 95 60 44 101 65 47 107 70 50 75 75 53 81 56 56 87 61 59 93 66 44 99 71 47 105 76 50 111 57 53 79 62 56 85 67 59 91 72 44 97 77 47 103 58 50 109 63 53 77 68 56 83 73 59 89 78 44 95 59 47 101 64 50 107 69 53 75 74 56 81 79 59 87 60 44 93 65 47 99 70 50 105 75 53 111 56 56 79 61 59 85 66 44 91 71 47 97 76 50 103 57 53 109 62 56 77 67 59 83 72 44 89 77 47 95 58 50 101 63 53 107 68 56 75 73 59 81 78 44 87 59 47 93 64 50 99 69 53 105 74 56 111 79 59 79 60 44 85 65 47 91 70 50 97 75 53 103 56 56 109 61 59 77 66 44 83 71 47 89 76 50 95 57 53 101 62 56 107 67 59 75 72 44 81 77 47 87 58 50 93 63 53 99 68 56 105 73 59 111 78 44 79 59 47 85 64 50 91 69 53 97 74 56 103 79 59 109 60 44 77 65 47 83 70 50 89 75 53 95 56 56 101 61 59 107 66 44 75 71 47 81 76 50 87 57 53 93 62 56 99 67 59 105 72 44 111 77 47 79 58 50 85 63 53 91 68 56 97 73 59 103 78 44 109 59 47 77 64 50 83 69 53 89 74 56 95 79 59 101 60 44 107 65 47 75 70 50 81 75 53 87 56 56 93 61 59 99 66 44 105 71 47 111 76 50 79 57 53 85 62 56 91 67 59 97 72 44 103 77 47 109 58 50 77 63 53 83 68 56 89 73 59 95 78 44 101 59 47 107 64 50 75 69 53 81 74 56 87 79 59 93 60 44 99 65 47 105 70 50 111 75 53 79 56 56 85 61 59 91 66 44 97 71 47 103 76 50 109 57 53 77 62 56 83 67 59 89 72 44 95 77 47 101 58 50 107 63 53 75 68 56 81 73 59 87 78 44 93 59 47 99 64 50 105 69 53 111 74 56 79 79 59 85 60 44 91 65 47 97 70 50 103 75 53 109 56 56 77 61 59 83 66 44 89 71 47 95 76 50 101 57 53 107 62 56 75 67 59 81 72 44 87 77 47 93 58 50 99 63 53 105 68 56 111 73 59 79 78 44 85 59 47 91 64 50 97 69 53 103 74 56 109 79 59 77 60 44 83 65 47 89 70 50 95 75 53 101 56 56 107 61 59 75 66 44 81 71 47 87 76 50 93 57 53 99 62 56 105 67 59 111 72 44 79 77 47 85 58 50 91 63 53 97 68 56 103 73 59 109 78 44 77 59 47 83 64 50 89 69 53
80 60 58 86 65 43 92 70 46 98 75 49 104 56 52 110 61 55 78 66 58 84 71 43 90 76 46 96 57 49 102 62 52 108 67 55 76 72 58 82 77 43 88 58 46 94 63 49 100 68 52 106 73 55 74 78 58 80 59 43 86 64 46 92 69 49 98 74 52 104 79 55 110 60 58 78 65 43 84 70 46 90 75 49 96 56 52 102 61 55 108 66 58 76 71 43 82 76 46 88 57 49 94 62 52 100 67 55 106 72 58 74 77 43 80 58 46 86 63 49 92 68 52 98 73 55 104 78 58 110 59 43 78 64 46 84 69 49 90 74 52 96 79 55 102 60 58 108 65 43 76 70 46 82 75 49 88 56 52 94 61 55 100 66 58 106 71 43 74 76 46 80 57 49 86 62 52 92 67 55 98 72 58 104 77 43 110 58 46 78 63 49 84 68 52 90 73 55 96 78 58 102 59 43 108 64 46 76 69 49 82 74 52 88 79 55 94 60 58 100 65 43 106 70 46 74 75 49 80 56 52 86 61 55 92 66 58 98 71 43 104 76 46 110 57 49 78 62 52 84 67 55 90 72 58 96 77 43 102 58 46 108 63 49 76 68 52 82 73 55 88 78 58 94 59 43 100 64 46 106 69 49 74 74 52 80 79 55 86 60 58 92 65 43 98 70 46 104 75 49 110 56 52 78 61 55 84 66 58 90 71 43 96 76 46 102 57 49 108 62 52 76 67 55 82 72 58 88 77 43 94 58 46 100 63 49 106 68 52 74 73 55 80 78 58 86 59 43 92 64 46 98 69 49 104 74 52 110 79 55 78 60 58 84 65 43 90 70 46 96 75 49 102 56 52 108 61 55 76 66 58 82 71 43 88 76 46 94 57 49 100 62 52 106 67 55 74 72 58 80 77 43 86 58 46 92 63 49 98 68 52 104 73 55 110 78 58 78 59 43 84 64 46 90 69 49 96 74 52 102 79 55 108 60 58 76 65 43 82 70 46 88 75 49 94 56 52 100 61 55 106 66 58 74 71 43 80 76 46 86 57 49 92 62 52 98 67 55 104 72 58 110 77 43 78 58 46 84 63 49 90 68 52 96 73 55 102 78 58 108 59 43 76 64 46 82 69 49 88 74 52 94 79 55 100 60 58 106 65 43 74 70 46 80 75 49 86 56 52 92 61 55 98 66 58 104 71 43 110 76 46 78 57 49 84 62 52 90 67 55 96 72 58 102 77 43 108 58 46 76 63 49 82 68 52 88 73 55 94 78 58 100 59 43 106 64 46 74 69 49 80 74 52 86 79 55 92 60 58 98 65 43 104 70 46 110 75 49 78 56 52 84 61 55 90 66 58 96 71 43 102 76 46 108 57 49 76 62 52 82 67 55 88 72 58 94 77 43 100 58 46 106 63 49 74 68 52 80 73 55 86 78 58 92 59 43 98 64 46 104 69 49 110 74 52 78 79 55 84 60 58 90 65 43 96 70 46 102 75 49 108 56 52 76 61 55 82 66 58 88 71 43 94 76 46 100 57 49 106 62 52 74 67 55 80 72 58 86 77 43 92 58 46 98 63 49 104 68 52 110 73 55 78 78 58 84 59 43 90 64 46 96 69 49 102 74 52 108 79 55 76 60 58 82 65 43 88 70 46 94 75 49 100 56 52 106 61 55 74 66 58 80 71 43 86 76 46 92 57 49 98 62 52 104 67 55 110 72 58 78 77 43 84 58 46 90 63 49 96 68 52 102 73 55 108 78 58 76 59 43 82 64 46 88 69 49 94 74 52 100 79 55 106 60 58 74 65 43 80 70 46 86 75 49 92 56 52 98 61 55 104 66 58 110 71 43 78 76 46 84 57 49 90 62 52 96 67 55 102 72 58 108 77 43 76 58 46 82 63 49 88 68 52 94 73 55 100 78 58 106 59 43 74 64 46 80 69 49 86 74 52 92 79 55 98 60 58 104 65 43 110 70 46 78 75 49 84 56 52 90 61 55 96 66 58 102 71 43 108 76 46 76 57 49 82 62 52 88 67 55 94 72 58 100 77 43 106 58 46 74 63 49 80 68 52 86 73 55 92 78 58 98 59 43 104 64 46 110 69 49 78 74 52 84 79 55 90 60 58 96 65 43 102 70 46 108 75 49 76 56 52 82 61 55 88 66 58 94 71 43
85 62 48 91 67 51 97 72 54 103 77 57 109 58 42 77 63 45 83 68 48 89 73 51 95 78 54 101 59 57 107 64 42 75 69 45 81 74 48 87 79 51 93 60 54 99 65 57 105 70 42 111 75 45 79 56 48 85 61 51 91 66 54 97 71 57 103 76 42 109 57 45 77 62 48 83 67 51 89 72 54 95 77 57 101 58 42 107 63 45 75 68 48 81 73 51 87 78 54 93 59 57 99 64 42 105 69 45 111 74 48 79 79 51 85 60 54 91 65 57 97 70 42 103 75 45 109 56 48 77 61 51 83 66 54 89 71 57 95 76 42 101 57 45 107 62 48 75 67 51 81 72 54 87 77 57 93 58 42 99 63 45 105 68 48 111 73 51 79 78 54 85 59 57 91 64 42 97 69 45 103 74 48 109 79 51 77 60 54 83 65 57 89 70 42 95 75 45 101 56 48 107 61 51 75 66 54 81 71 57 87 76 42 93 57 45 99 62 48 105 67 51 111 72 54 79 77 57 85 58 42 91 63 45 97 68 48 103 73 51 109 78 54 77 59 57 83 64 42 89 69 45 95 74 48 101 79 51 107 60 54 75 65 57 81 70 42 87 75 45 93 56 48 99 61 51 105 66 54 111 71 57 79 76 42 85 57 45 91 62 48 97 67 51 103 72 54 109 77 57 77 58 42 83 63 45 89 68 48 95 73 51 101 78 54 107 59 57 75 64 42 81 69 45 87 74 48 93 79 51 99 60 54 105 65 57 111 70 42 79 75 45 85 56 48 91 61 51 97 66 54 103 71 57 109 76 42 77 57 45 83 62 48 89 67 51 95 72 54 101 77 57 107 58 42 75 63 45 81 68 48 87 73 51 93 78 54 99 59 57 105 64 42 111 69 45 79 74 48 85 79 51 91 60 54 97 65 57 103 70 42 109 75 45 77 56 48 83 61 51 89 66 54 95 71 57 101 76 42 107 57 45 75 62 48 81 67 51 87 72 54 93 77 57 99 58 42 105 63 45 111 68 48 79 73 51 85 78 54 91 59 57 97 64 42 103 69 45 109 74 48 77 79 51 83 60 54 89 65 57 95 70 42 101 75 45 107 56 48 75 61 51 81 66 54 87 71 57 93 76 42 99 57 45 105 62 48 111 67 51 79 72 54 85 77 57 91 58 42 97 63 45 103 68 48 109 73 51 77 78 54 83 59 57 89 64 42 95 69 45 101 74 48 107 79 51 75 60 54 81 65 57 87 70 42 93 75 45 99 56 48 105 61 51 111 66 54 79 71 57 85 76 42 91 57 45 97 62 48 103 67 51 109 72 54 77 77 57 83 58 42 89 63 45 95 68 48 101 73 51 107 78 54 75 59 57 81 64 42 87 69 45 93 74 48 99 79 51 105 60 54 111 65 57 79 70 42 85 75 45 91 56 48 97 61 51 103 66 54 109 71 57 77 76 42 83 57 45 89 62 48 95 67 51 101 72 54 107 77 57 75 58 42 81 63 45 87 68 48 93 73 51 99 78 54 105 59 57 111 64 42 79 69 45 85 74 48 91 79 51 97 60 54 103 65 57 109 70 42 77 75 45 83 56 48 89 61 51 95 66 54 101 71 57 107 76 42 75 57 45 81 62 48 87 67 51 93 72 54 99 77 57 105 58 42 111 63 45 79 68 48 85 73 51 91 78 54 97 59 57 103 64 42 109 69 45 77 74 48 83 79 51 89 60 54 95 65 57 101 70 42 107 75 45 75 56 48 81 61 51 87 66 54 93 71 57 99 76 42 105 57 45 111 62 48 79 67 51 85 72 54 91 77 57 97 58 42 103 63 45 109 68 48 77 73 51 83 78 54 89 59 57 95 64 42 101 69 45 107 74 48 75 79 51 81 60 54 87 65 57 93 70 42 99 75 45 105 56 48 111 61 51 79 66 54 85 71 57 91 76 42 97 57 45 103 62 48 109 67 51 77 72 54 83 77 57 89 58 42 95 63 45 101 68 48 107 73 51 75 78 54 81 59 57 87 64 42 93 69 45 99 74 48 105 79 51 111 60 54 79 65 57 85 70 42 91 75 45 97 56 48 103 61 51 109 66 54 77 71 57 83 76 42 89 57 45 95 62 48 101 67 51 107 72 54 75 77 57 81 58 42 87 63 45 93 68 48 99 73 51
90 64 56 96 69 59 102 74 44 108 79 47 76 60 50 82 65 53 88 70 56 94 75 59 100 56 44 106 61 47 74 66 50 80 71 53 86 76 56 92 57 59 98 62 44 104 67 47 110 72 50 78 77 53 84 58 56 90 63 59 96 68 44 102 73 47 108 78 50 76 59 53 82 64 56 88 69 59 94 74 44 100 79 47 106 60 50 74 65 53 80 70 56 86 75 59 92 56 44 98 61 47 104 66 50 110 71 53 78 76 56 84 57 59 90 62 44 96 67 47 102 72 50 108 77 53 76 58 56 82 63 59 88 68 44 94 73 47 100 78 50 106 59 53 74 64 56 80 69 59 86 74 44 92 79 47 98 60 50 104 65 53 110 70 56 78 75 59 84 56 44 90 61 47 96 66 50 102 71 53 108 76 56 76 57 59 82 62 44 88 67 47 94 72 50 100 77 53 106 58 56 74 63 59 80 68 44 86 73 47 92 78 50 98 59 53 104 64 56 110 69 59 78 74 44 84 79 47 90 60 50 96 65 53 102 70 56 108 75 59 76 56 44 82 61 47 88 66 50 94 71 53 100 76 56 106 57 59 74 62 44 80 67 47 86 72 50 92 77 53 98 58 56 104 63 59 110 68 44 78 73 47 84 78 50 90 59 53 96 64 56 102 69 59 108 74 44 76 79 47 82 60 50 88 65 53 94 70 56 100 75 59 106 56 44 74 61 47 80 66 50 86 71 53 92 76 56 98 57 59 104 62 44 110 67 47 78 72 50 84 77 53 90 58 56 96 63 59 102 68 44 108 73 47 76 78 50 82 59 53 88 64 56 94 69 59 100 74 44 106 79 47 74 60 50 80 65 53 86 70 56 92 75 59 98 56 44 104 61 47 110 66 50 78 71 53 84 76 56 90 57 59 96 62 44 102 67 47 108 72 50 76 77 53 82 58 56 88 63 59 94 68 44 100 73 47 106 78 50 74 59 53 80 64 56 86 69 59 92 74 44 98 79 47 104 60 50 110 65 53 78 70 56 84 75 59 90 56 44 96 61 47 102 66 50 108 71 53 76 76 56 82 57 59 88 62 44 94 67 47 100 72 50 106 77 53 74 58 56 80 63 59 86 68 44 92 73 47 98 78 50 104 59 53 110 64 56 78 69 59 84 74 44 90 79 47 96 60 50 102 65 53 108 70 56 76 75 59 82 56 44 88 61 47 94 66 50 100 71 53 106 76 56 74 57 59 80 62 44 86 67 47 92 72 50 98 77 53 104 58 56 110 63 59 78 68 44 84 73 47 90 78 50 96 59 53 102 64 56 108 69 59 76 74 44 82 79 47 88 60 50 94 65 53 100 70 56 106 75 59 74 56 44 80 61 47 86 66 50 92 71 53 98 76 56 104 57 59 110 62 44 78 67 47 84 72 50 90 77 53 96 58 56 102 63 59 108 68 44 76 73 47 82 78 50 88 59 53 94 64 56 100 69 59 106 74 44 74 79 47 80 60 50 86 65 53 92 70 56 98 75 59 104 56 44 110 61 47 78 66 50 84 71 53 90 76 56 96 57 59 102 62 44 108 67 47 76 72 50 82 77 53 88 58 56 94 63 59 100 68 44 106 73 47 74 78 50 80 59 53 86 64 56 92 69 59 98 74 44 104 79 47 110 60 50 78 65 53 84 70 56 90 75 59 96 56 44 102 61 47 108 66 50 76 71 53 82 76 56 88 57 59 94 62 44 100 67 47 106 72 50 74 77 53 80 58 56 86 63 59 92 68 44 98 73 47 104 78 50 110 59 53 78 64 56 84 69 59 90 74 44 96 79 47 102 60 50 108 65 53 76 70 56 82 75 59 88 56 44 94 61 47 100 66 50 106 71 53 74 76 56 80 57 59 86 62 44 92 67 47 98 72 50 104 77 53 110 58 56 78 63 59 84 68 44 90 73 47 96 78 50 102 59 53 108 64 56 76 69 59 82 74 44 88 79 47 94 60 50 100 65 53 106 70 56 74 75 59 80 56 44 86 61 47 92 66 50 98 71 53 104 76 56 110 57 59 78 62 44 84 67 47 90 72 50 96 77 53 102 58 56 108 63 59 76 68 44 82 73 47 88 78 50 94 59 53 100 64 56 106 69 59 74 74 44 80 79 47 86 60 50 92 65 53 98 70 56 104 75 59
95 66 46 101 71 49 107 76 52 75 57 55 81 62 58 87 67 43 93 72 46 99 77 49 105 58 52 111 63 55 79 68 58 85 73 43 91 78 46 97 59 49 103 64 52 109 69 55 77 74 58 83 79 43 89 60 46 95 65 49 101 70 52 107 75 55 75 56 58 81 61 43 87 66 46 93 71 49 99 76 52 105 57 55 111 62 58 79 67 43 85 72 46 91 77 49 97 58 52 103 63 55 109 68 58 77 73 43 83 78 46 89 59 49 95 64 52 101 69 55 107 74 58 75 79 43 81 60 46 87 65 49 93 70 52 99 75 55 105 56 58 111 61 43 79 66 46 85 71 49 91 76 52 97 57 55 103 62 58 109 67 43 77 72 46 83 77 49 89 58 52 95 63 55 101 68 58 107 73 43 75 78 46 81 59 49 87 64 52 93 69 55 99 74 58 105 79 43 111 60 46 79 65 49 85 70 52 91 75 55 97 56 58 103 61 43 109 66 46 77 71 49 83 76 52 89 57 55 95 62 58 101 67 43 107 72 46 75 77 49 81 58 52 87 63 55 93 68 58 99 73 43 105 78 46 111 59 49 79 64 52 85 69 55 91 74 58 97 79 43 103 60 46 109 65 49 77 70 52 83 75 55 89 56 58 95 61 43 101 66 46 107 71 49 75 76 52 81 57 55 87 62 58 93 67 43 99 72 46 105 77 49 111 58 52 79 63 55 85 68 58 91 73 43 97 78 46 103 59 49 109 64 52 77 69 55 83 74 58 89 79 43 95 60 46 101 65 49 107 70 52 75 75 55 81 56 58 87 61 43 93 66 46 99 71 49 105 76 52 111 57 55 79 62 58 85 67 43 91 72 46 97 77 49 103 58 52 109 63 55 77 68 58 83 73 43 89 78 46 95 59 49 101 64 52 107 69 55 75 74 58 81 79 43 87 60 46 93 65 49 99 70 52 105 75 55 111 56 58 79 61 43 85 66 46 91 71 49 97 76 52 103 57 55 109 62 58 77 67 43 83 72 46 89 77 49 95 58 52 101 63 55 107 68 58 75 73 43 81 78 46 87 59 49 93 64 52 99 69 55 105 74 58 111 79 43 79 60 46 85 65 49 91 70 52 97 75 55 103 56 58 109 61 43 77 66 46 83 71 49 89 76 52 95 57 55 101 62 58 107 67 43 75 72 46 81 77 49 87 58 52 93 63 55 99 68 58 105 73 43 111 78 46 79 59 49 85 64 52 91 69 55 97 74 58 103 79 43 109 60 46 77 65 49 83 70 52 89 75 55 95 56 58 101 61 43 107 66 46 75 71 49 81 76 52 87 57 55 93 62 58 99 67 43 105 72 46 111 77 49 79 58 52 85 63 55 91 68 58 97 73 43 103 78 46 109 59 49 77 64 52 83 69 55 89 74 58 95 79 43 101 60 46 107 65 49 75 70 52 81 75 55 87 56 58 93 61 43 99 66 46 105 71 49 111 76 52 79 57 55 85 62 58 91 67 43 97 72 46 103 77 49 109 58 52 77 63 55 83 68 58 89 73 43 95 78 46 101 59 49 107 64 52 75 69 55 81 74 58 87 79 43 93 60 46 99 65 49 105 70 52 111 75 55 79 56 58 85 61 43 91 66 46 97 71 49 103 76 52 109 57 55 77 62 58 83 67 43 89 72 46 95 77 49 101 58 52 107 63 55 75 68 58 81 73 43 87 78 46 93 59 49 99 64 52 105 69 55 111 74 58 79 79 43 85 60 46 91 65 49 97 70 52 103 75 55 109 56 58 77 61 43 83 66 46 89 71 49 95 76 52 101 57 55 107 62 58 75 67 43 81 72 46 87 77 49 93 58 52 99 63 55 105 68 58 111 73 43 79 78 46 85 59 49 91 64 52 97 69 55 103 74 58 109 79 43 77 60 46 83 65 49 89 70 52 95 75 55 101 56 58 107 61 43 75 66 46 81 71 49 87 76 52 93 57 55 99 62 58 105 67 43 111 72 46 79 77 49 85 58 52 91 63 55 97 68 58 103 73 43 109 78 46 77 59 49 83 64 52 89 69 55 95 74 58 101 79 43 107 60 46 75 65 49 81 70 52 87 75 55 93 56 58 99 61 43 105 66 46 111 71 49 79 76 52 85 57 55 91 62 58 97 67 43 103 72 46 109 77 49
100 68 54 106 73 57 74 78 42 80 59 45 86 64 48 92 69 51 98 74 54 104 79 57 110 60 42 78 65 45 84 70 48 90 75 51 96 56 54 102 61 57 108 66 42 76 71 45 82 76 48 88 57 51 94 62 54 100 67 57 106 72 42 74 77 45 80 58 48 86 63 51 92 68 54 98 73 57 104 78 42 110 59 45 78 64 48 84 69 51 90 74 54 96 79 57 102 60 42 108 65 45 76 70 48 82 75 51 88 56 54 94 61 57 100 66 42 106 71 45 74 76 48 80 57 51 86 62 54 92 67 57 98 72 42 104 77 45 110 58 48 78 63 51 84 68 54 90 73 57 96 78 42 102 59 45 108 64 48 76 69 51 82 74 54 88 79 57 94 60 42 100 65 45 106 70 48 74 75 51 80 56 54 86 61 57 92 66 42 98 71 45 104 76 48 110 57 51 78 62 54 84 67 57 90 72 42 96 77 45 102 58 48 108 63 51 76 68 54 82 73 57 88 78 42 94 59 45 100 64 48 106 69 51 74 74 54 80 79 57 86 60 42 92 65 45 98 70 48 104 75 51 110 56 54 78 61 57 84 66 42 90 71 45 96 76 48 102 57 51 108 62 54 76 67 57 82 72 42 88 77 45 94 58 48 100 63 51 106 68 54 74 73 57 80 78 42 86 59 45 92 64 48 98 69 51 104 74 54 110 79 57 78 60 42 84 65 45 90 70 48 96 75 51 102 56 54 108 61 57 76 66 42 82 71 45 88 76 48 94 57 51 100 62 54 106 67 57 74 72 42 80 77 45 86 58 48 92 63 51 98 68 54 104 73 57 110 78 42 78 59 45 84 64 48 90 69 51 96 74 54 102 79 57 108 60 42 76 65 45 82 70 48 88 75 51 94 56 54 100 61 57 106 66 42 74 71 45 80 76 48 86 57 51 92 62 54 98 67 57 104 72 42 110 77 45 78 58 48 84 63 51 90 68 54 96 73 57 102 78 42 108 59 45 76 64 48 82 69 51 88 74 54 94 79 57 100 60 42 106 65 45 74 70 48 80 75 51 86 56 54 92 61 57 98 66 42 104 71 45 110 76 48 78 57 51 84 62 54 90 67 57 96 72 42 102 77 45 108 58 48 76 63 51 82 68 54 88 73 57 94 78 42 100 59 45 106 64 48 74 69 51 80 74 54 86 79 57 92 60 42 98 65 45 104 70 48 110 75 51 78 56 54 84 61 57 90 66 42 96 71 45 102 76 48 108 57 51 76 62 54 82 67 57 88 72 42 94 77 45 100 58 48 106 63 51 74 68 54 80 73 57 86 78 42 92 59 45 98 64 48 104 69 51 110 74 54 78 79 57 84 60 42 90 65 45 96 70 48 102 75 51 108 56 54 76 61 57 82 66 42 88 71 45 94 76 48 100 57 51 106 62 54 74 67 57 80 72 42 86 77 45 92 58 48 98 63 51 104 68 54 110 73 57 78 78 42 84 59 45 90 64 48 96 69 51 102 74 54 108 79 57 76 60 42 82 65 45 88 70 48 94 75 51 100 56 54 106 61 57 74 66 42 80 71 45 86 76 48 92 57 51 98 62 54 104 67 57 110 72 42 78 77 45 84 58 48 90 63 51 96 68 54 102 73 57 108 78 42 76 59 45 82 64 48 88 69 51 94 74 54 100 79 57 106 60 42 74 65 45 80 70 48 86 75 51 92 56 54 98 61 57 104 66 42 110 71 45 78 76 48 84 57 51 90 62 54 96 67 57 102 72 42 108 77 45 76 58 48 82 63 51 88 68 54 94 73 57 100 78 42 106 59 45 74 64 48 80 69 51 86 74 54 92 79 57 98 60 42 104 65 45 110 70 48 78 75 51 84 56 54 90 61 57 96 66 42 102 71 45 108 76 48 76 57 51 82 62 54 88 67 57 94 72 42 100 77 45 106 58 48 74 63 51 80 68 54 86 73 57 92 78 42 98 59 45 104 64 48 110 69 51 78 74 54 84 79 57 90 60 42 96 65 45 102 70 48 108 75 51 76 56 54 82 61 57 88 66 42 94 71 45 100 76 48 106 57 51 74 62 54 80 67 57 86 72 42 92 77 45 98 58 48 104 63 51 110 68 54 78 73 57 84 78 42 90 59 45 96 64 48 102 69 51 108 74 54 76 79 57
105 70 44 111 75 47 79 56 50 85 61 53 91 66 56 97 71 59 103 76 44 109 57 47 77 62 50 83 67 53 89 72 56 95 77 59 101 58 44 107 63 47 75 68 50 81 73 53 87 78 56 93 59 59 99 64 44 105 69 47 111 74 50 79 79 53 85 60 56 91 65 59 97 70 44 103 75 47 109 56 50 77 61 53 83 66 56 89 71 59 95 76 44 101 57 47 107 62 50 75 67 53 81 72 56 87 77 59 93 58 44 99 63 47 105 68 50 111 73 53 79 78 56 85 59 59 91 64 44 97 69 47 103 74 50 109 79 53 77 60 56 83 65 59 89 70 44 95 75 47 101 56 50 107 61 53 75 66 56 81 71 59 87 76 44 93 57 47 99 62 50 105 67 53 111 72 56 79 77 59 85 58 44 91 63 47 97 68 50 103 73 53 109 78 56 77 59 59 83 64 44 89 69 47 95 74 50 101 79 53 107 60 56 75 65 59 81 70 44 87 75 47 93 56 50 99 61 53 105 66 56 111 71 59 79 76 44 85 57 47 91 62 50 97 67 53 103 72 56 109 77 59 77 58 44 83 63 47 89 68 50 95 73 53 101 78 56 107 59 59 75 64 44 81 69 47 87 74 50 93 79 53 99 60 56 105 65 59 111 70 44 79 75 47 85 56 50 91 61 53 97 66 56 103 71 59 109 76 44 77 57 47 83 62 50 89 67 53 95 72 56 101 77 59 107 58 44 75 63 47 81 68 50 87 73 53 93 78 56 99 59 59 105 64 44 111 69 47 79 74 50 85 79 53 91 60 56 97 65 59 103 70 44 109 75 47 77 56 50 83 61 53 89 66 56 95 71 59 101 76 44 107 57 47 75 62 50 81 67 53 87 72 56 93 77 59 99 58 44 105 63 47 111 68 50 79 73 53 85 78 56 91 59 59 97 64 44 103 69 47 109 74 50 77 79 53 83 60 56 89 65 59 95 70 44 101 75 47 107 56 50 75 61 53 81 66 56 87 71 59 93 76 44 99 57 47 105 62 50 111 67 53 79 72 56 85 77 59 91 58 44 97 63 47 103 68 50 109 73 53 77 78 56 83 59 59 89 64 44 95 69 47 101 74 50 107 79 53 75 60 56 81 65 59 87 70 44 93 75 47 99 56 50 105 61 53 111 66 56 79 71 59 85 76 44 91 57 47 97 62 50 103 67 53 109 72 56 77 77 59 83 58 44 89 63 47 95 68 50 101 73 53 107 78 56 75 59 59 81 64 44 87 69 47 93 74 50 99 79 53 105 60 56 111 65 59 79 70 44 85 75 47 91 56 50 97 61 53 103 66 56 109 71 59 77 76 44 83 57 47 89 62 50 95 67 53 101 72 56 107 77 59 75 58 44 81 63 47 87 68 50 93 73 53 99 78 56 105 59 59 111 64 44 79 69 47 85 74 50 91 79 53 97 60 56 103 65 59 109 70 44 77 75 47 83 56 50 89 61 53 95 66 56 101 71 59 107 76 44 75 57 47 81 62 50 87 67 53 93 72 56 99 77 59 105 58 44 111 63 47 79 68 50 85 73 53 91 78 56 97 59 59 103 64 44 109 69 47 77 74 50 83 79 53 89 60 56 95 65 59 101 70 44 107 75 47 75 56 50 81 61 53 87 66 56 93 71 59 99 76 44 105 57 47 111 62 50 79 67 53 85 72 56 91 77 59 97 58 44 103 63 47 109 68 50 77 73 53 83 78 56 89 59 59 95 64 44 101 69 47 107 74 50 75 79 53 81 60 56 87 65 59 93 70 44 99 75 47 105 56 50 111 61 53 79 66 56 85 71 59 91 76 44 97 57 47 103 62 50 109 67 53 77 72 56 83 77 59 89 58 44 95 63 47 101 68 50 107 73 53 75 78 56 81 59 59 87 64 44 93 69 47 99 74 50 105 79 53 111 60 56 79 65 59 85 70 44 91 75 47 97 56 50 103 61 53 109 66 56 77 71 59 83 76 44 89 57 47 95 62 50 101 67 53 107 72 56 75 77 59 81 58 44 87 63 47 93 68 50 99 73 53 105 78 56 111 59 59 79 64 44 85 69 47 91 74 50 97 79 53 103 60 56 109 65 59 77 70 44 83 75 47 89 56 50 95 61 53 101 66 56 107 71 59 75 76 44 81 57 47
110 72 52 78 77 55 84 58 58 90 63 43 96 68 46 102 73 49 108 78 52 76 59 55 82 64 58 88 69 43 94 74 46 100 79 49 106 60 52 74 65 55 80 70 58 86 75 43 92 56 46 98 61 49 104 66 52 110 71 55 78 76 58 84 57 43 90 62 46 96 67 49 102 72 52 108 77 55 76 58 58 82 63 43 88 68 46 94 73 49 100 78 52 106 59 55 74 64 58 80 69 43 86 74 46 92 79 49 98 60 52 104 65 55 110 70 58 78 75 43 84 56 46 90 61 49 96 66 52 102 71 55 108 76 58 76 57 43 82 62 46 88 67 49 94 72 52 100 77 55 106 58 58 74 63 43 80 68 46 86 73 49 92 78 52 98 59 55 104 64 58 110 69 43 78 74 46 84 79 49 90 60 52 96 65 55 102 70 58 108 75 43 76 56 46 82 61 49 88 66 52 94 71 55 100 76 58 106 57 43 74 62 46 80 67 49 86 72 52 92 77 55 98 58 58 104 63 43 110 68 46 78 73 49 84 78 52 90 59 55 96 64 58 102 69 43 108 74 46 76 79 49 82 60 52 88 65 55 94 70 58 100 75 43 106 56 46 74 61 49 80 66 52 86 71 55 92 76 58 98 57 43 104 62 46 110 67 49 78 72 52 84 77 55 90 58 58 96 63 43 102 68 46 108 73 49 76 78 52 82 59 55 88 64 58 94 69 43 100 74 46 106 79 49 74 60 52 80 65 55 86 70 58 92 75 43 98 56 46 104 61 49 110 66 52 78 71 55 84 76 58 90 57 43 96 62 46 102 67 49 108 72 52 76 77 55 82 58 58 88 63 43 94 68 46 100 73 49 106 78 52 74 59 55 80 64 58 86 69 43 92 74 46 98 79 49 104 60 52 110 65 55 78 70 58 84 75 43 90 56 46 96 61 49 102 66 52 108 71 55 76 76 58 82 57 43 88 62 46 94 67 49 100 72 52 106 77 55 74 58 58 80 63 43 86 68 46 92 73 49 98 78 52 104 59 55 110 64 58 78 69 43 84 74 46 90 79 49 96 60 52 102 65 55 108 70 58 76 75 43 82 56 46 88 61 49 94 66 52 100 71 55 106 76 58 74 57 43 80 62 46 86 67 49 92 72 52 98 77 55 104 58 58 110 63 43 78 68 46 84 73 49 90 78 52 96 59 55 102 64 58 108 69 43 76 74 46 82 79 49 88 60 52 94 65 55 100 70 58 106 75 43 74 56 46 80 61 49 86 66 52 92 71 55 98 76 58 104 57 43 110 62 46 78 67 49 84 72 52 90 77 55 96 58 58 102 63 43 108 68 46 76 73 49 82 78 52 88 59 55 94 64 58 100 69 43 106 74 46 74 79 49 80 60 52 86 65 55 92 70 58 98 75 43 104 56 46 110 61 49 78 66 52 84 71 55 90 76 58 96 57 43 102 62 46 108 67 49 76 72 52 82 77 55 88 58 58 94 63 43 100 68 46 106 73 49 74 78 52 80 59 55 86 64 58 92 69 43 98 74 46 104 79 49 110 60 52 78 65 55 84 70 58 90 75 43 96 56 46 102 61 49 108 66 52 76 71 55 82 76 58 88 57 43 94 62 46 100 67 49 106 72 52 74 77 55 80 58 58 86 63 43 92 68 46 98 73 49 104 78 52 110 59 55 78 64 58 84 69 43 90 74 46 96 79 49 102 60 52 108 65 55 76 70 58 82 75 43 88 56 46 94 61 49 100 66 52 106 71 55 74 76 58 80 57 43 86 62 46 92 67 49 98 72 52 104 77 55 110 58 58 78 63 43 84 68 46 90 73 49 96 78 52 102 59 55 108 64 58 76 69 43 82 74 46 88 79 49 94 60 52 100 65 55 106 70 58 74 75 43 80 56 46 86 61 49 92 66 52 98 71 55 104 76 58 110 57 43 78 62 46 84 67 49 90 72 52 96 77 55 102 58 58 108 63 43 76 68 46 82 73 49 88 78 52 94 59 55 100 64 58 106 69 43 74 74 46 80 79 49 86 60 52 92 65 55 98 70 58 104 75 43 110 56 46 78 61 49 84 66 52 90 71 55 96 76 58 102 57 43 108 62 46 76 67 49 82 72 52 88 77 55 94 58 58 100 63 43 106 68 46 74 73 49 80 78 52 86 59 55
77 74 42 83 79 45 89 60 48 95 65 51 101 70 54 107 75 57 75 56 42 81 61 45 87 66 48 93 71 51 99 76 54 105 57 57 111 62 42 79 67 45 85 72 48 91 77 51 97 58 54 103 63 57 109 68 42 77 73 45 83 78 48 89 59 51 95 64 54 101 69 57 107 74 42 75 79 45 81 60 48 87 65 51 93 70 54 99 75 57 105 56 42 111 61 45 79 66 48 85 71 51 91 76 54 97 57 57 103 62 42 109 67 45 77 72 48 83 77 51 89 58 54 95 63 57 101 68 42 107 73 45 75 78 48 81 59 51 87 64 54 93 69 57 99 74 42 105 79 45 111 60 48 79 65 51 85 70 54 91 75 57 97 56 42 103 61 45 109 66 48 77 71 51 83 76 54 89 57 57 95 62 42 101 67 45 107 72 48 75 77 51 81 58 54 87 63 57 93 68 42 99 73 45 105 78 48 111 59 51 79 64 54 85 69 57 91 74 42 97 79 45 103 60 48 109 65 51 77 70 54 83 75 57 89 56 42 95 61 45 101 66 48 107 71 51 75 76 54 81 57 57 87 62 42 93 67 45 99 72 48 105 77 51 111 58 54 79 63 57 85 68 42 91 73 45 97 78 48 103 59 51 109 64 54 77 69 57 83 74 42 89 79 45 95 60 48 101 65 51 107 70 54 75 75 57 81 56 42 87 61 45 93 66 48 99 71 51 105 76 54 111 57 57 79 62 42 85 67 45 91 72 48 97 77 51 103 58 54 109 63 57 77 68 42 83 73 45 89 78 48 95 59 51 101 64 54 107 69 57 75 74 42 81 79 45 87 60 48 93 65 51 99 70 54 105 75 57 111 56 42 79 61 45 85 66 48 91 71 51 97 76 54 103 57 57 109 62 42 77 67 45 83 72 48 89 77 51 95 58 54 101 63 57 107 68 42 75 73 45 81 78 48 87 59 51 93 64 54 99 69 57 105 74 42 111 79 45 79 60 48 85 65 51 91 70 54 97 75 57 103 56 42 109 61 45 77 66 48 83 71 51 89 76 54 95 57 57 101 62 42 107 67 45 75 72 48 81 77 51 87 58 54 93 63 57 99 68 42 105 73 45 111 78 48 79 59 51 85 64 54 91 69 57 97 74 42 103 79 45 109 60 48 77 65 51 83 70 54 89 75 57 95 56 42 101 61 45 107 66 48 75 71 51 81 76 54 87 57 57 93 62 42 99 67 45 105 72 48 111 77 51 79 58 54 85 63 57 91 68 42 97 73 45 103 78 48 109 59 51 77 64 54 83 69 57 89 74 42 95 79 45 101 60 48 107 65 51 75 70 54 81 75 57 87 56 42 93 61 45 99 66 48 105 71 51 111 76 54 79 57 57 85 62 42 91 67 45 97 72 48 103 77 51 109 58 54 77 63 57 83 68 42 89 73 45 95 78 48 101 59 51 107 64 54 75 69 57 81 74 42 87 79 45 93 60 48 99 65 51 105 70 54 111 75 57 79 56 42 85 61 45 91 66 48 97 71 51 103 76 54 109 57 57 77 62 42 83 67 45 89 72 48 95 77 51 101 58 54 107 63 57 75 68 42 81 73 45 87 78 48 93 59 51 99 64 54 105 69 57 111 74 42 79 79 45 85 60 48 91 65 51 97 70 54 103 75 57 109 56 42 77 61 45 83 66 48 89 71 51 95 76 54 101 57 57 107 62 42 75 67 45 81 72 48 87 77 51 93 58 54 99 63 57 105 68 42 111 73 45 79 78 48 85 59 51 91 64 54 97 69 57 103 74 42 109 79 45 77 60 48 83 65 51 89 70 54 95 75 57 101 56 42 107 61 45 75 66 48 81 71 51 87 76 54 93 57 57 99 62 42 105 67 45 111 72 48 79 77 51 85 58 54 91 63 57 97 68 42 103 73 45 109 78 48 77 59 51 83 64 54 89 69 57 95 74 42 101 79 45 107 60 48 75 65 51 81 70 54 87 75 57 93 56 42 99 61 45 105 66 48 111 71 51 79 76 54 85 57 57 91 62 42 97 67 45 103 72 48 109 77 51 77 58 54 83 63 57 89 68 42 95 73 45 101 78 48 107 59 51 75 64 54 81 69 57 87 74 42 93 79 45 99 60 48 105 65 51 111 70 54 79 75 57 85 56 42 91 61 45
82 76 50 88 57 53 94 62 56 100 67 59 106 72 44 74 77 47 80 58 50 86 63 53 92 68 56 98 73 59 104 78 44 110 59 47 78 64 50 84 69 53 90 74 56 96 79 59 102 60 44 108 65 47 76 70 50 82 75 53 88 56 56 94 61 59 100 66 44 106 71 47 74 76 50 80 57 53 86 62 56 92 67 59 98 72 44 104 77 47 110 58 50 78 63 53 84 68 56 90 73 59 96 78 44 102 59 47 108 64 50 76 69 53 82 74 56 88 79 59 94 60 44 100 65 47 106 70 50 74 75 53 80 56 56 86 61 59 92 66 44 98 71 47 104 76 50 110 57 53 78 62 56 84 67 59 90 72 44 96 77 47 102 58 50 108 63 53 76 68 56 82 73 59 88 78 44 94 59 47 100 64 50 106 69 53 74 74 56 80 79 59 86 60 44 92 65 47 98 70 50 104 75 53 110 56 56 78 61 59 84 66 44 90 71 47 96 76 50 102 57 53 108 62 56 76 67 59 82 72 44 88 77 47 94 58 50 100 63 53 106 68 56 74 73 59 80 78 44 86 59 47 92 64 50 98 69 53 104 74 56 110 79 59 78 60 44 84 65 47 90 70 50 96 75 53 102 56 56 108 61 59 76 66 44 82 71 47 88 76 50 94 57 53 100 62 56 106 67 59 74 72 44 80 77 47 86 58 50 92 63 53 98 68 56 104 73 59 110 78 44 78 59 47 84 64 50 90 69 53 96 74 56 102 79 59 108 60 44 76 65 47 82 70 50 88 75 53 94 56 56 100 61 59 106 66 44 74 71 47 80 76 50 86 57 53 92 62 56 98 67 59 104 72 44 110 77 47 78 58 50 84 63 53 90 68 56 96 73 59 102 78 44 108 59 47 76 64 50 82 69 53 88 74 56 94 79 59 100 60 44 106 65 47 74 70 50 80 75 53 86 56 56 92 61 59 98 66 44 104 71 47 110 76 50 78 57 53 84 62 56 90 67 59 96 72 44 102 77 47 108 58 50 76 63 53 82 68 56 88 73 59 94 78 44 100 59 47 106 64 50 74 69 53 80 74 56 86 79 59 92 60 44 98 65 47 104 70 50 110 75 53 78 56 56 84 61 59 90 66 44 96 71 47 102 76 50 108 57 53 76 62 56 82 67 59 88 72 44 94 77 47 100 58 50 106 63 53 74 68 56 80 73 59 86 78 44 92 59 47 98 64 50 104 69 53 110 74 56 78 79 59 84 60 44 90 65 47 96 70 50 102 75 53 108 56 56 76 61 59 82 66 44 88 71 47 94 76 50 100 57 53 106 62 56 74 67 59 80 72 44 86 77 47 92 58 50 98 63 53 104 68 56 110 73 59 78 78 44 84 59 47 90 64 50 96 69 53 102 74 56 108 79 59 76 60 44 82 65 47 88 70 50 94 75 53 100 56 56 106 61 59 74 66 44 80 71 47 86 76 50 92 57 53 98 62 56 104 67 59 110 72 44 78 77 47 84 58 50 90 63 53 96 68 56 102 73 59 108 78 44 76 59 47 82 64 50 88 69 53 94 74 56 100 79 59 106 60 44 74 65 47 80 70 50 86 75 53 92 56 56 98 61 59 104 66 44 110 71 47 78 76 50 84 57 53 90 62 56 96 67 59 102 72 44 108 77 47 76 58 50 82 63 53 88 68 56 94 73 59 100 78 44 106 59 47 74 64 50 80 69 53 86 74 56 92 79 59 98 60 44 104 65 47 110 70 50 78 75 53 84 56 56 90 61 59 96 66 44 102 71 47 108 76 50 76 57 53 82 62 56 88 67 59 94 72 44 100 77 47 106 58 50 74 63 53 80 68 56 86 73 59 92 78 44 98 59 47 104 64 50 110 69 53 78 74 56 84 79 59 90 60 44 96 65 47 102 70 50 108 75 53 76 56 56 82 61 59 88 66 44 94 71 47 100 76 50 106 57 53 74 62 56 80 67 59 86 72 44 92 77 47 98 58 50 104 63 53 110 68 56 78 73 59 84 78 44 90 59 47 96 64 50 102 69 53 108 74 56 76 79 59 82 60 44 88 65 47 94 70 50 100 75 53 106 56 56 74 61 59 80 66 44 86 71 47 92 76 50 98 57 53 104 62 56 110 67 59 78 72 44 84 77 47 90 58 50 96 63 53
87 78 58 93 59 43 99 64 46 105 69 49 111 74 52 79 79 55 85 60 58 91 65 43 97 70 46 103 75 49 109 56 52 77 61 55 83 66 58 89 71 43 95 76 46 101 57 49 107 62 52 75 67 55 81 72 58 87 77 43 93 58 46 99 63 49 105 68 52 111 73 55 79 78 58 85 59 43 91 64 46 97 69 49 103 74 52 109 79 55 77 60 58 83 65 43 89 70 46 95 75 49 101 56 52 107 61 55 75 66 58 81 71 43 87 76 46 93 57 49 99 62 52 105 67 55 111 72 58 79 77 43 85 58 46 91 63 49 97 68 52 103 73 55 109 78 58 77 59 43 83 64 46 89 69 49 95 74 52 101 79 55 107 60 58 75 65 43 81 70 46 87 75 49 93 56 52 99 61 55 105 66 58 111 71 43 79 76 46 85 57 49 91 62 52 97 67 55 103 72 58 109 77 43 77 58 46 83 63 49 89 68 52 95 73 55 101 78 58 107 59 43 75 64 46 81 69 49 87 74 52 93 79 55 99 60 58 105 65 43 111 70 46 79 75 49 85 56 52 91 61 55 97 66 58 103 71 43 109 76 46 77 57 49 83 62 52 89 67 55 95 72 58 101 77 43 107 58 46 75 63 49 81 68 52 87 73 55 93 78 58 99 59 43 105 64 46 111 69 49 79 74 52 85 79 55 91 60 58 97 65 43 103 70 46 109 75 49 77 56 52 83 61 55 89 66 58 95 71 43 101 76 46 107 57 49 75 62 52 81 67 55 87 72 58 93 77 43 99 58 46 105 63 49 111 68 52 79 73 55 85 78 58 91 59 43 97 64 46 103 69 49 109 74 52 77 79 55 83 60 58 89 65 43 95 70 46 101 75 49 107 56 52 75 61 55 81 66 58 87 71 43 93 76 46 99 57 49 105 62 52 111 67 55 79 72 58 85 77 43 91 58 46 97 63 49 103 68 52 109 73 55 77 78 58 83 59 43 89 64 46 95 69 49 101 74 52 107 79 55 75 60 58 81 65 43 87 70 46 93 75 49 99 56 52 105 61 55 111 66 58 79 71 43 85 76 46 91 57 49 97 62 52 103 67 55 109 72 58 77 77 43 83 58 46 89 63 49 95 68 52 101 73 55 107 78 58 75 59 43 81 64 46 87 69 49 93 74 52 99 79 55 105 60 58 111 65 43 79 70 46 85 75 49 91 56 52 97 61 55 103 66 58 109 71 43 77 76 46 83 57 49 89 62 52 95 67 55 101 72 58 107 77 43 75 58 46 81 63 49 87 68 52 93 73 55 99 78 58 105 59 43 111 64 46 79 69 49 85 74 52 91 79 55 97 60 58 103 65 43 109 70 46 77 75 49 83 56 52 89 61 55 95 66 58 101 71 43 107 76 46 75 57 49 81 62 52 87 67 55 93 72 58 99 77 43 105 58 46 111 63 49 79 68 52 85 73 55 91 78 58 97 59 43 103 64 46 109 69 49 77 74 52 83 79 55 89 60 58 95 65 43 101 70 46 107 75 49 75 56 52 81 61 55 87 66 58 93 71 43 99 76 46 105 57 49 111 62 52 79 67 55 85 72 58 91 77 43 97 58 46 103 63 49 109 68 52 77 73 55 83 78 58 89 59 43 95 64 46 101 69 49 107 74 52 75 79 55 81 60 58 87 65 43 93 70 46 99 75 49 105 56 52 111 61 55 79 66 58 85 71 43 91 76 46 97 57 49 103 62 52 109 67 55 77 72 58 83 77 43 89 58 46 95 63 49 101 68 52 107 73 55 75 78 58 81 59 43 87 64 46 93 69 49 99 74 52 105 79 55 111 60 58 79 65 43 85 70 46 91 75 49 97 56 52 103 61 55 109 66 58 77 71 43 83 76 46 89 57 49 95 62 52 101 67 55 107 72 58 75 77 43 81 58 46 87 63 49 93 68 52 99 73 55 105 78 58 111 59 43 79 64 46 85 69 49 91 74 52 97 79 55 103 60 58 109 65 43 77 70 46 83 75 49 89 56 52 95 61 55 101 66 58 107 71 43 75 76 46 81 57 49 87 62 52 93 67 55 99 72 58 105 77 43 111 58 46 79 63 49 85 68 52 91 73 55 97 78 58 103 59 43 109 64 46 77 69 49 83 74 52 89 79 55 95 60 58 101 65 43
92 56 48 98 61 51 104 66 54 110 71 57 78 76 42 84 57 45 90 62 48 96 67 51 102 72 54 108 77 57 76 58 42 82 63 45 88 68 48 94 73 51 100 78 54 106 59 57 74 64 42 80 69 45 86 74 48 92 79 51 98 60 54 104 65 57 110 70 42 78 75 45 84 56 48 90 61 51 96 66 54 102 71 57 108 76 42 76 57 45 82 62 48 88 67 51 94 72 54 100 77 57 106 58 42 74 63 45 80 68 48 86 73 51 92 78 54 98 59 57 104 64 42 110 69 45 78 74 48 84 79 51 90 60 54 96 65 57 102 70 42 108 75 45 76 56 48 82 61 51 88 66 54 94 71 57 100 76 42 106 57 45 74 62 48 80 67 51 86 72 54 92 77 57 98 58 42 104 63 45 110 68 48 78 73 51 84 78 54 90 59 57 96 64 42 102 69 45 108 74 48 76 79 51 82 60 54 88 65 57 94 70 42 100 75 45 106 56 48 74 61 51 80 66 54 86 71 57 92 76 42 98 57 45 104 62 48 110 67 51 78 72 54 84 77 57 90 58 42 96 63 45 102 68 48 108 73 51 76 78 54 82 59 57 88 64 42 94 69 45 100 74 48 106 79 51 74 60 54 80 65 57 86 70 42 92 75 45 98 56 48 104 61 51 110 66 54 78 71 57 84 76 42 90 57 45 96 62 48 102 67 51 108 72 54 76 77 57 82 58 42 88 63 45 94 68 48 100 73 51 106 78 54 74 59 57 80 64 42 86 69 45 92 74 48 98 79 51 104 60 54 110 65 57 78 70 42 84 75 45 90 56 48 96 61 51 102 66 54 108 71 57 76 76 42 82 57 45 88 62 48 94 67 51 100 72 54 106 77 57 74 58 42 80 63 45 86 68 48 92 73 51 98 78 54 104 59 57 110 64 42 78 69 45 84 74 48 90 79 51 96 60 54 102 65 57 108 70 42 76 75 45 82 56 48 88 61 51 94 66 54 100 71 57 106 76 42 74 57 45 80 62 48 86 67 51 92 72 54 98 77 57 104 58 42 110 63 45 78 68 48 84 73 51 90 78 54 96 59 57 102 64 42 108 69 45 76 74 48 82 79 51 88 60 54 94 65 57 100 70 42 106 75 45 74 56 48 80 61 51 86 66 54 92 71 57 98 76 42 104 57 45 110 62 48 78 67 51 84 72 54 90 77 57 96 58 42 102 63 45 108 68 48 76 73 51 82 78 54 88 59 57 94 64 42 100 69 45 106 74 48 74 79 51 80 60 54 86 65 57 92 70 42 98 75 45 104 56 48 110 61 51 78 66 54 84 71 57 90 76 42 96 57 45 102 62 48 108 67 51 76 72 54 82 77 57 88 58 42 94 63 45 100 68 48 106 73 51 74 78 54 80 59 57 86 64 42 92 69 45 98 74 48 104 79 51 110 60 54 78 65 57 84 70 42 90 75 45 96 56 48 102 61 51 108 66 54 76 71 57 82 76 42 88 57 45 94 62 48 100 67 51 106 72 54 74 77 57 80 58 42 86 63 45 92 68 48 98 73 51 104 78 54 110 59 57 78 64 42 84 69 45 90 74 48 96 79 51 102 60 54 108 65 57 76 70 42 82 75 45 88 56 48 94 61 51 100 66 54 106 71 57 74 76 42 80 57 45 86 62 48 92 67 51 98 72 54 104 77 57 110 58 42 78 63 45 84 68 48 90 73 51 96 78 54 102 59 57 108 64 42 76 69 45 82 74 48 88 79 51 94 60 54 100 65 57 106 70 42 74 75 45 80 56 48 86 61 51 92 66 54 98 71 57 104 76 42 110 57 45 78 62 48 84 67 51 90 72 54 96 77 57 102 58 42 108 63 45 76 68 48 82 73 51 88 78 54 94 59 57 100 64 42 106 69 45 74 74 48 80 79 51 86 60 54 92 65 57 98 70 42 104 75 45 110 56 48 78 61 51 84 66 54 90 71 57 96 76 42 102 57 45 108 62 48 76 67 51 82 72 54 88 77 57 94 58 42 100 63 45 106 68 48 74 73 51 80 78 54 86 59 57 92 64 42 98 69 45 104 74 48 110 79 51 78 60 54 84 65 57 90 70 42 96 75 45 102 56 48 108 61 51 76 66 54 82 71 57 88 76 42 94 57 45 100 62 48 106 67 51
97 58 56 103 63 59 109 68 44 77 73 47 83 78 50 89 59 53 95 64 56 101 69 59 107 74 44 75 79 47 81 60 50 87 65 53 93 70 56 99 75 59 105 56 44 111 61 47 79 66 50 85 71 53 91 76 56 97 57 59 103 62 44 109 67 47 77 72 50 83 77 53 89 58 56 95 63 59 101 68 44 107 73 47 75 78 50 81 59 53 87 64 56 93 69 59 99 74 44 105 79 47 111 60 50 79 65 53 85 70 56 91 75 59 97 56 44 103 61 47 109 66 50 77 71 53 83 76 56 89 57 59 95 62 44 101 67 47 107 72 50 75 77 53 81 58 56 87 63 59 93 68 44 99 73 47 105 78 50 111 59 53 79 64 56 85 69 59 91 74 44 97 79 47 103 60 50 109 65 53 77 70 56 83 75 59 89 56 44 95 61 47 101 66 50 107 71 53 75 76 56 81 57 59 87 62 44 93 67 47 99 72 50 105 77 53 111 58 56 79 63 59 85 68 44 91 73 47 97 78 50 103 59 53 109 64 56 77 69 59 83 74 44 89 79 47 95 60 50 101 65 53 107 70 56 75 75 59 81 56 44 87 61 47 93 66 50 99 71 53 105 76 56 111 57 59 79 62 44 85 67 47 91 72 50 97 77 53 103 58 56 109 63 59 77 68 44 83 73 47 89 78 50 95 59 53 101 64 56 107 69 59 75 74 44 81 79 47 87 60 50 93 65 53 99 70 56 105 75 59 111 56 44 79 61 47 85 66 50 91 71 53 97 76 56 103 57 59 109 62 44 77 67 47 83 72 50 89 77 53 95 58 56 101 63 59 107 68 44 75 73 47 81 78 50 87 59 53 93 64 56 99 69 59 105 74 44 111 79 47 79 60 50 85 65 53 91 70 56 97 75 59 103 56 44 109 61 47 77 66 50 83 71 53 89 76 56 95 57 59 101 62 44 107 67 47 75 72 50 81 77 53 87 58 56 93 63 59 99 68 44 105 73 47 111 78 50 79 59 53 85 64 56 91 69 59 97 74 44 103 79 47 109 60 50 77 65 53 83 70 56 89 75 59 95 56 44 101 61 47 107 66 50 75 71 53 81 76 56 87 57 59 93 62 44 99 67 47 105 72 50 111 77 53 79 58 56 85 63 59 91 68 44 97 73 47 103 78 50 109 59 53 77 64 56 83 69 59 89 74 44 95 79 47 101 60 50 107 65 53 75 70 56 81 75 59 87 56 44 93 61 47 99 66 50 105 71 53 111 76 56 79 57 59 85 62 44 91 67 47 97 72 50 103 77 53 109 58 56 77 63 59 83 68 44 89 73 47 95 78 50 101 59 53 107 64 56 75 69 59 81 74 44 87 79 47 93 60 50 99 65 53 105 70 56 111 75 59 79 56 44 85 61 47 91 66 50 97 71 53 103 76 56 109 57 59 77 62 44 83 67 47 89 72 50 95 77 53 101 58 56 107 63 59 75 68 44 81 73 47 87 78 50 93 59 53 99 64 56 105 69 59 111 74 44 79 79 47 85 60 50 91 65 53 97 70 56 103 75 59 109 56 44 77 61 47 83 66 50 89 71 53 95 76 56 101 57 59 107 62 44 75 67 47 81 72 50 87 77 53 93 58 56 99 63 59 105 68 44 111 73 47 79 78 50 85 59 53 91 64 56 97 69 59 103 74 44 109 79 47 77 60 50 83 65 53 89 70 56 95 75 59 101 56 44 107 61 47 75 66 50 81 71 53 87 76 56 93 57 59 99 62 44 105 67 47 111 72 50 79 77 53 85 58 56 91 63 59 97 68 44 103 73 47 109 78 50 77 59 53 83 64 56 89 69 59 95 74 44 101 79 47 107 60 50 75 65 53 81 70 56 87 75 59 93 56 44 99 61 47 105 66 50 111 71 53 79 76 56 85 57 59 91 62 44 97 67 47 103 72 50 109 77 53 77 58 56 83 63 59 89 68 44 95 73 47 101 78 50 107 59 53 75 64 56 81 69 59 87 74 44 93 79 47 99 60 50 105 65 53 111 70 56 79 75 59 85 56 44 91 61 47 97 66 50 103 71 53 109 76 56 77 57 59 83 62 44 89 67 47 95 72 50 101 77 53 107 58 56 75 63 59 81 68 44 87 73 47 93 78 50 99 59 53 105 64 56 111 69 59
102 60 46 108 65 49 76 70 52 82 75 55 88 56 58 94 61 43 100 66 46 106 71 49 74 76 52 80 57 55 86 62 58 92 67 43 98 72 46 104 77 49 110 58 52 78 63 55 84 68 58 90 73 43 96 78 46 102 59 49 108 64 52 76 69 55 82 74 58 88 79 43 94 60 46 100 65 49 106 70 52 74 75 55 80 56 58 86 61 43 92 66 46 98 71 49 104 76 52 110 57 55 78 62 58 84 67 43 90 72 46 96 77 49 102 58 52 108 63 55 76 68 58 82 73 43 88 78 46 94 59 49 100 64 52 106 69 55 74 74 58 80 79 43 86 60 46 92 65 49 98 70 52 104 75 55 110 56 58 78 61 43 84 66 46 90 71 49 96 76 52 102 57 55 108 62 58 76 67 43 82 72 46 88 77 49 94 58 52 100 63 55 106 68 58 74 73 43 80 78 46 86 59 49 92 64 52 98 69 55 104 74 58 110 79 43 78 60 46 84 65 49 90 70 52 96 75 55 102 56 58 108 61 43 76 66 46 82 71 49 88 76 52 94 57 55 100 62 58 106 67 43 74 72 46 80 77 49 86 58 52 92 63 55 98 68 58 104 73 43 110 78 46 78 59 49 84 64 52 90 69 55 96 74 58 102 79 43 108 60 46 76 65 49 82 70 52 88 75 55 94 56 58 100 61 43 106 66 46 74 71 49 80 76 52 86 57 55 92 62 58 98 67 43 104 72 46 110 77 49 78 58 52 84 63 55 90 68 58 96 73 43 102 78 46 108 59 49 76 64 52 82 69 55 88 74 58 94 79 43 100 60 46 106 65 49 74 70 52 80 75 55 86 56 58 92 61 43 98 66 46 104 71 49 110 76 52 78 57 55 84 62 58 90 67 43 96 72 46 102 77 49 108 58 52 76 63 55 82 68 58 88 73 43 94 78 46 100 59 49 106 64 52 74 69 55 80 74 58 86 79 43 92 60 46 98 65 49 104 70 52 110 75 55 78 56 58 84 61 43 90 66 46 96 71 49 102 76 52 108 57 55 76 62 58 82 67 43 88 72 46 94 77 49 100 58 52 106 63 55 74 68 58 80 73 43 86 78 46 92 59 49 98 64 52 104 69 55 110 74 58 78 79 43 84 60 46 90 65 49 96 70 52 102 75 55 108 56 58 76 61 43 82 66 46 88 71 49 94 76 52 100 57 55 106 62 58 74 67 43 80 72 46 86 77 49 92 58 52 98 63 55 104 68 58 110 73 43 78 78 46 84 59 49 90 64 52 96 69 55 102 74 58 108 79 43 76 60 46 82 65 49 88 70 52 94 75 55 100 56 58 106 61 43 74 66 46 80 71 49 86 76 52 92 57 55 98 62 58 104 67 43 110 72 46 78 77 49 84 58 52 90 63 55 96 68 58 102 73 43 108 78 46 76 59 49 82 64 52 88 69 55 94 74 58 100 79 43 106 60 46 74 65 49 80 70 52 86 75 55 92 56 58 98 61 43 104 66 46 110 71 49 78 76 52 84 57 55 90 62 58 96 67 43 102 72 46 108 77 49 76 58 52 82 63 55 88 68 58 94 73 43 100 78 46 106 59 49 74 64 52 80 69 55 86 74 58 92 79 43 98 60 46 104 65 49 110 70 52 78 75 55 84 56 58 90 61 43 96 66 46 102 71 49 108 76 52 76 57 55 82 62 58 88 67 43 94 72 46 100 77 49 106 58 52 74 63 55 80 68 58 86 73 43 92 78 46 98 59 49 104 64 52 110 69 55 78 74 58 84 79 43 90 60 46 96 65 49 102 70 52 108 75 55 76 56 58 82 61 43 88 66 46 94 71 49 100 76 52 106 57 55 74 62 58 80 67 43 86 72 46 92 77 49 98 58 52 104 63 55 110 68 58 78 73 43 84 78 46 90 59 49 96 64 52 102 69 55 108 74 58 76 79 43 82 60 46 88 65 49 94 70 52 100 75 55 106 56 58 74 61 43 80 66 46 86 71 49 92 76 52 98 57 55 104 62 58 110 67 43 78 72 46 84 77 49 90 58 52 96 63 55 102 68 58 108 73 43 76 78 46 82 59 49 88 64 52 94 69 55 100 74 58 106 79 43 74 60 46 80 65 49 86 70 52 92 75 55 98 56 58 104 61 43 110 66 46 78 71 49
107 62 54 75 67 57 81 72 42 87 77 45 93 58 48 99 63 51 105 68 54 111 73 57 79 78 42 85 59 45 91 64 48 97 69 51 103 74 54 109 79 57 77 60 42 83 65 45 89 70 48 95 75 51 101 56 54 107 61 57 75 66 42 81 71 45 87 76 48 93 57 51 99 62 54 105 67 57 111 72 42 79 77 45 85 58 48 91 63 51 97 68 54 103 73 57 109 78 42 77 59 45 83 64 48 89 69 51 95 74 54 101 79 57 107 60 42 75 65 45 81 70 48 87 75 51 93 56 54 99 61 57 105 66 42 111 71 45 79 76 48 85 57 51 91 62 54 97 67 57 103 72 42 109 77 45 77 58 48 83 63 51 89 68 54 95 73 57 101 78 42 107 59 45 75 64 48 81 69 51 87 74 54 93 79 57 99 60 42 105 65 45 111 70 48 79 75 51 85 56 54 91 61 57 97 66 42 103 71 45 109 76 48 77 57 51 83 62 54 89 67 57 95 72 42 101 77 45 107 58 48 75 63 51 81 68 54 87 73 57 93 78 42 99 59 45 105 64 48 111 69 51 79 74 54 85 79 57 91 60 42 97 65 45 103 70 48 109 75 51 77 56 54 83 61 57 89 66 42 95 71 45 101 76 48 107 57 51 75 62 54 81 67 57 87 72 42 93 77 45 99 58 48 105 63 51 111 68 54 79 73 57 85 78 42 91 59 45 97 64 48 103 69 51 109 74 54 77 79 57 83 60 42 89 65 45 95 70 48 101 75 51 107 56 54 75 61 57 81 66 42 87 71 45 93 76 48 99 57 51 105 62 54 111 67 57 79 72 42 85 77 45 91 58 48 97 63 51 103 68 54 109 73 57 77 78 42 83 59 45 89 64 48 95 69 51 101 74 54 107 79 57 75 60 42 81 65 45 87 70 48 93 75 51 99 56 54 105 61 57 111 66 42 79 71 45 85 76 48 91 57 51 97 62 54 103 67 57 109 72 42 77 77 45 83 58 48 89 63 51 95 68 54 101 73 57 107 78 42 75 59 45 81 64 48 87 69 51 93 74 54 99 79 57 105 60 42 111 65 45 79 70 48 85 75 51 91 56 54 97 61 57 103 66 42 109 71 45 77 76 48 83 57 51 89 62 54 95 67 57 101 72 42 107 77 45 75 58 48 81 63 51 87 68 54 93 73 57 99 78 42 105 59 45 111 64 48 79 69 51 85 74 54 91 79 57 97 60 42 103 65 45 109 70 48 77 75 51 83 56 54 89 61 57 95 66 42 101 71 45 107 76 48 75 57 51 81 62 54 87 67 57 93 72 42 99 77 45 105 58 48 111 63 51 79 68 54 85 73 57 91 78 42 97 59 45 103 64 48 109 69 51 77 74 54 83 79 57 89 60 42 95 65 45 101 70 48 107 75 51 75 56 54 81 61 57 87 66 42 93 71 45 99 76 48 105 57 51 111 62 54 79 67 57 85 72 42 91 77 45 97 58 48 103 63 51 109 68 54 77 73 57 83 78 42 89 59 45 95 64 48 101 69 51 107 74 54 75 79 57 81 60 42 87 65 45 93 70 48 99 75 51 105 56 54 111 61 57 79 66 42 85 71 45 91 76 48 97 57 51 103 62 54 109 67 57 77 72 42 83 77 45 89 58 48 95 63 51 101 68 54 107 73 57 75 78 42 81 59 45 87 64 48 93 69 51 99 74 54 105 79 57 111 60 42 79 65 45 85 70 48 91 75 51 97 56 54 103 61 57 109 66 42 77 71 45 83 76 48 89 57 51 95 62 54 101 67 57 107 72 42 75 77 45 81 58 48 87 63 51 93 68 54 99 73 57 105 78 42 111 59 45 79 64 48 85 69 51 91 74 54 97 79 57 103 60 42 109 65 45 77 70 48 83 75 51 89 56 54 95 61 57 101 66 42 107 71 45 75 76 48 81 57 51 87 62 54 93 67 57 99 72 42 105 77 45 111 58 48 79 63 51 85 68 54 91 73 57 97 78 42 103 59 45 109 64 48 77 69 51 83 74 54 89 79 57 95 60 42 101 65 45 107 70 48 75 75 51 81 56 54 87 61 57 93 66 42 99 71 45 105 76 48 111 57 51 79 62 54 85 67 57 91 72 42 97 77 45 103 58 48 109 63 51 77 68 54 83 73 57
74 64 44 80 69 47 86 74 50 92 79 53 98 60 56 104 65 59 110 70 44 78 75 47 84 56 50 90 61 53 96 66 56 102 71 59 108 76 44 76 57 47 82 62 50 88 67 53 94 72 56 100 77 59 106 58 44 74 63 47 80 68 50 86 73 53 92 78 56 98 59 59 104 64 44 110 69 47 78 74 50 84 79 53 90 60 56 96 65 59 102 70 44 108 75 47 76 56 50 82 61 53 88 66 56 94 71 59 100 76 44 106 57 47 74 62 50 80 67 53 86 72 56 92 77 59 98 58 44 104 63 47 110 68 50 78 73 53 84 78 56 90 59 59 96 64 44 102 69 47 108 74 50 76 79 53 82 60 56 88 65 59 94 70 44 100 75 47 106 56 50 74 61 53 80 66 56 86 71 59 92 76 44 98 57 47 104 62 50 110 67 53 78 72 56 84 77 59 90 58 44 96 63 47 102 68 50 108 73 53 76 78 56 82 59 59 88 64 44 94 69 47 100 74 50 106 79 53 74 60 56 80 65 59 86 70 44 92 75 47 98 56 50 104 61 53 110 66 56 78 71 59 84 76 44 90 57 47 96 62 50 102 67 53 108 72 56 76 77 59 82 58 44 88 63 47 94 68 50 100 73 53 106 78 56 74 59 59 80 64 44 86 69 47 92 74 50 98 79 53 104 60 56 110 65 59 78 70 44 84 75 47 90 56 50 96 61 53 102 66 56 108 71 59 76 76 44 82 57 47 88 62 50 94 67 53 100 72 56 106 77 59 74 58 44 80 63 47 86 68 50 92 73 53 98 78 56 104 59 59 110 64 44 78 69 47 84 74 50 90 79 53 96 60 56 102 65 59 108 70 44 76 75 47 82 56 50 88 61 53 94 66 56 100 71 59 106 76 44 74 57 47 80 62 50 86 67 53 92 72 56 98 77 59 104 58 44 110 63 47 78 68 50 84 73 53 90 78 56 96 59 59 102 64 44 108 69 47 76 74 50 82 79 53 88 60 56 94 65 59 100 70 44 106 75 47 74 56 50 80 61 53 86 66 56 92 71 59 98 76 44 104 57 47 110 62 50 78 67 53 84 72 56 90 77 59 96 58 44 102 63 47 108 68 50 76 73 53 82 78 56 88 59 59 94 64 44 100 69 47 106 74 50 74 79 53 80 60 56 86 65 59 92 70 44 98 75 47 104 56 50 110 61 53 78 66 56 84 71 59 90 76 44 96 57 47 102 62 50 108 67 53 76 72 56 82 77 59 88 58 44 94 63 47 100 68 50 106 73 53 74 78 56 80 59 59 86 64 44 92 69 47 98 74 50 104 79 53 110 60 56 78 65 59 84 70 44 90 75 47 96 56 50 102 61 53 108 66 56 76 71 59 82 76 44 88 57 47 94 62 50 100 67 53 106 72 56 74 77 59 80 58 44 86 63 47 92 68 50 98 73 53 104 78 56 110 59 59 78 64 44 84 69 47 90 74 50 96 79 53 102 60 56 108 65 59 76 70 44 82 75 47 88 56 50 94 61 53 100 66 56 106 71 59 74 76 44 80 57 47 86 62 50 92 67 53 98 72 56 104 77 59 110 58 44 78 63 47 84 68 50 90 73 53 96 78 56 102 59 59 108 64 44 76 69 47 82 74 50 88 79 53 94 60 56 100 65 59 106 70 44 74 75 47 80 56 50 86 61 53 92 66 56 98 71 59 104 76 44 110 57 47 78 62 50 84 67 53 90 72 56 96 77 59 102 58 44 108 63 47 76 68 50 82 73 53 88 78 56 94 59 59 100 64 44 106 69 47 74 74 50 80 79 53 86 60 56 92 65 59 98 70 44 104 75 47 110 56 50 78 61 53 84 66 56 90 71 59 96 76 44 102 57 47 108 62 50 76 67 53 82 72 56 88 77 59 94 58 44 100 63 47 106 68 50 74 73 53 80 78 56 86 59 59 92 64 44 98 69 47 104 74 50 110 79 53 78 60 56 84 65 59 90 70 44 96 75 47 102 56 50 108 61 53 76 66 56 82 71 59 88 76 44 94 57 47 100 62 50 106 67 53 74 72 56 80 77 59 86 58 44 92 63 47 98 68 50 104 73 53 110 78 56 78 59 59 84 64 44 90 69 47 96 74 50 102 79 53 108 60 56 76 65 59 82 70 44 88 75 47
79 66 52 85 71 55 91 76 58 97 57 43 103 62 46 109 67 49 77 72 52 83 77 55 89 58 58 95 63 43 101 68 46 107 73 49 75 78 52 81 59 55 87 64 58 93 69 43 99 74 46 105 79 49 111 60 52 79 65 55 85 70 58 91 75 43 97 56 46 103 61 49 109 66 52 77 71 55 83 76 58 89 57 43 95 62 46 101 67 49 107 72 52 75 77 55 81 58 58 87 63 43 93 68 46 99 73 49 105 78 52 111 59 55 79 64 58 85 69 43 91 74 46 97 79 49 103 60 52 109 65 55 77 70 58 83 75 43 89 56 46 95 61 49 101 66 52 107 71 55 75 76 58 81 57 43 87 62 46 93 67 49 99 72 52 105 77 55 111 58 58 79 63 43 85 68 46 91 73 49 97 78 52 103 59 55 109 64 58 77 69 43 83 74 46 89 79 49 95 60 52 101 65 55 107 70 58 75 75 43 81 56 46 87 61 49 93 66 52 99 71 55 105 76 58 111 57 43 79 62 46 85 67 49 91 72 52 97 77 55 103 58 58 109 63 43 77 68 46 83 73 49 89 78 52 95 59 55 101 64 58 107 69 43 75 74 46 81 79 49 87 60 52 93 65 55 99 70 58 105 75 43 111 56 46 79 61 49 85 66 52 91 71 55 97 76 58 103 57 43 109 62 46 77 67 49 83 72 52 89 77 55 95 58 58 101 63 43 107 68 46 75 73 49 81 78 52 87 59 55 93 64 58 99 69 43 105 74 46 111 79 49 79 60 52 85 65 55 91 70 58 97 75 43 103 56 46 109 61 49 77 66 52 83 71 55 89 76 58 95 57 43 101 62 46 107 67 49 75 72 52 81 77 55 87 58 58 93 63 43 99 68 46 105 73 49 111 78 52 79 59 55 85 64 58 91 69 43 97 74 46 103 79 49 109 60 52 77 65 55 83 70 58 89 75 43 95 56 46 101 61 49 107 66 52 75 71 55 81 76 58 87 57 43 93 62 46 99 67 49 105 72 52 111 77 55 79 58 58 85 63 43 91 68 46 97 73 49 103 78 52 109 59 55 77 64 58 83 69 43 89 74 46 95 79 49 101 60 52 107 65 55 75 70 58 81 75 43 87 56 46 93 61 49 99 66 52 105 71 55 111 76 58 79 57 43 85 62 46 91 67 49 97 72 52 103 77 55 109 58 58 77 63 43 83 68 46 89 73 49 95 78 52 101 59 55 107 64 58 75 69 43 81 74 46 87 79 49 93 60 52 99 65 55 105 70 58 111 75 43 79 56 46 85 61 49 91 66 52 97 71 55 103 76 58 109 57 43 77 62 46 83 67 49 89 72 52 95 77 55 101 58 58 107 63 43 75 68 46 81 73 49 87 78 52 93 59 55 99 64 58 105 69 43 111 74 46 79 79 49 85 60 52 91 65 55 97 70 58 103 75 43 109 56 46 77 61 49 83 66 52 89 71 55 95 76 58 101 57 43 107 62 46 75 67 49 81 72 52 87 77 55 93 58 58 99 63 43 105 68 46 111 73 49 79 78 52 85 59 55 91 64 58 97 69 43 103 74 46 109 79 49 77 60 52 83 65 55 89 70 58 95 75 43 101 56 46 107 61 49 75 66 52 81 71 55 87 76 58 93 57 43 99 62 46 105 67 49 111 72 52 79 77 55 85 58 58 91 63 43 97 68 46 103 73 49 109 78 52 77 59 55 83 64 58 89 69 43 95 74 46 101 79 49 107 60 52 75 65 55 81 70 58 87 75 43 93 56 46 99 61 49 105 66 52 111 71 55 79 76 58 85 57 43 91 62 46 97 67 49 103 72 52 109 77 55 77 58 58 83 63 43 89 68 46 95 73 49 101 78 52 107 59 55 75 64 58 81 69 43 87 74 46 93 79 49 99 60 52 105 65 55 111 70 58 79 75 43 85 56 46 91 61 49 97 66 52 103 71 55 109 76 58 77 57 43 83 62 46 89 67 49 95 72 52 101 77 55 107 58 58 75 63 43 81 68 46 87 73 49 93 78 52 99 59 55 105 64 58 111 69 43 79 74 46 85 79 49 91 60 52 97 65 55 103 70 58 109 75 43 77 56 46 83 61 49 89 66 52 95 71 55 101 76 58 107 57 43 75 62 46 81 67 49 87 72 52 93 77 55
84 68 42 90 73 45 96 78 48 102 59 51 108 64 54 76 69 57 82 74 42 88 79 45 94 60 48 100 65 51 106 70 54 74 75 57 80 56 42 86 61 45 92 66 48 98 71 51 104 76 54 110 57 57 78 62 42 84 67 45 90 72 48 96 77 51 102 58 54 108 63 57 76 68 42 82 73 45 88 78 48 94 59 51 100 64 54 106 69 57 74 74 42 80 79 45 86 60 48 92 65 51 98 70 54 104 75 57 110 56 42 78 61 45 84 66 48 90 71 51 96 76 54 102 57 57 108 62 42 76 67 45 82 72 48 88 77 51 94 58 54 100 63 57 106 68 42 74 73 45 80 78 48 86 59 51 92 64 54 98 69 57 104 74 42 110 79 45 78 60 48 84 65 51 90 70 54 96 75 57 102 56 42 108 61 45 76 66 48 82 71 51 88 76 54 94 57 57 100 62 42 106 67 45 74 72 48 80 77 51 86 58 54 92 63 57 98 68 42 104 73 45 110 78 48 78 59 51 84 64 54 90 69 57 96 74 42 102 79 45 108 60 48 76 65 51 82 70 54 88 75 57 94 56 42 100 61 45 106 66 48 74 71 51 80 76 54 86 57 57 92 62 42 98 67 45 104 72 48 110 77 51 78 58 54 84 63 57 90 68 42 96 73 45 102 78 48 108 59 51 76 64 54 82 69 57 88 74 42 94 79 45 100 60 48 106 65 51 74 70 54 80 75 57 86 56 42 92 61 45 98 66 48 104 71 51 110 76 54 78 57 57 84 62 42 90 67 45 96 72 48 102 77 51 108 58 54 76 63 57 82 68 42 88 73 45 94 78 48 100 59 51 106 64 54 74 69 57 80 74 42 86 79 45 92 60 48 98 65 51 104 70 54 110 75 57 78 56 42 84 61 45 90 66 48 96 71 51 102 76 54 108 57 57 76 62 42 82 67 45 88 72 48 94 77 51 100 58 54 106 63 57 74 68 42 80 73 45 86 78 48 92 59 51 98 64 54 104 69 57 110 74 42 78 79 45 84 60 48 90 65 51 96 70 54 102 75 57 108 56 42 76 61 45 82 66 48 88 71 51 94 76 54 100 57 57 106 62 42 74 67 45 80 72 48 86 77 51 92 58 54 98 63 57 104 68 42 110 73 45 78 78 48 84 59 51 90 64 54 96 69 57 102 74 42 108 79 45 76 60 48 82 65 51 88 70 54 94 75 57 100 56 42 106 61 45 74 66 48 80 71 51 86 76 54 92 57 57 98 62 42 104 67 45 110 72 48 78 77 51 84 58 54 90 63 57 96 68 42 102 73 45 108 78 48 76 59 51 82 64 54 88 69 57 94 74 42 100 79 45 106 60 48 74 65 51 80 70 54 86 75 57 92 56 42 98 61 45 104 66 48 110 71 51 78 76 54 84 57 57 90 62 42 96 67 45 102 72 48 108 77 51 76 58 54 82 63 57 88 68 42 94 73 45 100 78 48 106 59 51 74 64 54 80 69 57 86 74 42 92 79 45 98 60 48 104 65 51 110 70 54 78 75 57 84 56 42 90 61 45 96 66 48 102 71 51 108 76 54 76 57 57 82 62 42 88 67 45 94 72 48 100 77 51 106 58 54 74 63 57 80 68 42 86 73 45 92 78 48 98 59 51 104 64 54 110 69 57 78 74 42 84 79 45 90 60 48 96 65 51 102 70 54 108 75 57 76 56 42 82 61 45 88 66 48 94 71 51 100 76 54 106 57 57 74 62 42 80 67 45 86 72 48 92 77 51 98 58 54 104 63 57 110 68 42 78 73 45 84 78 48 90 59 51 96 64 54 102 69 57 108 74 42 76 79 45 82 60 48 88 65 51 94 70 54 100 75 57 106 56 42 74 61 45 80 66 48 86 71 51 92 76 54 98 57 57 104 62 42 110 67 45 78 72 48 84 77 51 90 58 54 96 63 57 102 68 42 108 73 45 76 78 48 82 59 51 88 64 54 94 69 57 100 74 42 106 79 45 74 60 48 80 65 51 86 70 54 92 75 57 98 56 42 104 61 45 110 66 48 78 71 51 84 76 54 90 57 57 96 62 42 102 67 45 108 72 48 76 77 51 82 58 54 88 63 57 94 68 42 100 73 45 106 78 48 74 59 51 80 64 54 86 69 57 92 74 42 98 79 45
89 70 50 95 75 53 101 56 56 107 61 59 75 66 44 81 71 47 87 76 50 93 57 53 99 62 56 105 67 59 111 72 44 79 77 47 85 58 50 91 63 53 97 68 56 103 73 59 109 78 44 77 59 47 83 64 50 89 69 53 95 74 56 101 79 59 107 60 44 75 65 47 81 70 50 87 75 53 93 56 56 99 61 59 105 66 44 111 71 47 79 76 50 85 57 53 91 62 56 97 67 59 103 72 44 109 77 47 77 58 50 83 63 53 89 68 56 95 73 59 101 78 44 107 59 47 75 64 50 81 69 53 87 74 56 93 79 59 99 60 44 105 65 47 111 70 50 79 75 53 85 56 56 91 61 59 97 66 44 103 71 47 109 76 50 77 57 53 83 62 56 89 67 59 95 72 44 101 77 47 107 58 50 75 63 53 81 68 56 87 73 59 93 78 44 99 59 47 105 64 50 111 69 53 79 74 56 85 79 59 91 60 44 97 65 47 103 70 50 109 75 53 77 56 56 83 61 59 89 66 44 95 71 47 101 76 50 107 57 53 75 62 56 81 67 59 87 72 44 93 77 47 99 58 50 105 63 53 111 68 56 79 73 59 85 78 44 91 59 47 97 64 50 103 69 53 109 74 56 77 79 59 83 60 44 89 65 47 95 70 50 101 75 53 107 56 56 75 61 59 81 66 44 87 71 47 93 76 50 99 57 53 105 62 56 111 67 59 79 72 44 85 77 47 91 58 50 97 63 53 103 68 56 109 73 59 77 78 44 83 59 47 89 64 50 95 69 53 101 74 56 107 79 59 75 60 44 81 65 47 87 70 50 93 75 53 99 56 56 105 61 59 111 66 44 79 71 47 85 76 50 91 57 53 97 62 56 103 67 59 109 72 44 77 77 47 83 58 50 89 63 53 95 68 56 101 73 59 107 78 44 75 59 47 81 64 50 87 69 53 93 74 56 99 79 59 105 60 44 111 65 47 79 70 50 85 75 53 91 56 56 97 61 59 103 66 44 109 71 47 77 76 50 83 57 53 89 62 56 95 67 59 101 72 44 107 77 47 75 58 50 81 63 53 87 68 56 93 73 59 99 78 44 105 59 47 111 64 50 79 69 53 85 74 56 91 79 59 97 60 44 103 65 47 109 70 50 77 75 53 83 56 56 89 61 59 95 66 44 101 71 47 107 76 50 75 57 53 81 62 56 87 67 59 93 72 44 99 77 47 105 58 50 111 63 53 79 68 56 85 73 59 91 78 44 97 59 47 103 64 50 109 69 53 77 74 56 83 79 59 89 60 44 95 65 47 101 70 50 107 75 53 75 56 56 81 61 59 87 66 44 93 71 47 99 76 50 105 57 53 111 62 56 79 67 59 85 72 44 91 77 47 97 58 50 103 63 53 109 68 56 77 73 59 83 78 44 89 59 47 95 64 50 101 69 53 107 74 56 75 79 59 81 60 44 87 65 47 93 70 50 99 75 53 105 56 56 111 61 59 79 66 44 85 71 47 91 76 50 97 57 53 103 62 56 109 67 59 77 72 44 83 77 47 89 58 50 95 63 53 101 68 56 107 73 59 75 78 44 81 59 47 87 64 50 93 69 53 99 74 56 105 79 59 111 60 44 79 65 47 85 70 50 91 75 53 97 56 56 103 61 59 109 66 44 77 71 47 83 76 50 89 57 53 95 62 56 101 67 59 107 72 44 75 77 47 81 58 50 87 63 53 93 68 56 99 73 59 105 78 44 111 59 47 79 64 50 85 69 53 91 74 56 97 79 59 103 60 44 109 65 47 77 70 50 83 75 53 89 56 56 95 61 59 101 66 44 107 71 47 75 76 50 81 57 53 87 62 56 93 67 59 99 72 44 105 77 47 111 58 50 79 63 53 85 68 56 91 73 59 97 78 44 103 59 47 109 64 50 77 69 53 83 74 56 89 79 59 95 60 44 101 65 47 107 70 50 75 75 53 81 56 56 87 61 59 93 66 44 99 71 47 105 76 50 111 57 53 79 62 56 85 67 59 91 72 44 97 77 47 103 58 50 109 63 53 77 68 56 83 73 59 89 78 44 95 59 47 101 64 50 107 69 53 75 74 56 81 79 59 87 60 44 93 65 47 99 70 50 105 75 53 111 56 56 79 61 59 85 66 44 91 71 47 97 76 50 103 57 53
94 72 58 100 77 43 106 58 46 74 63 49 80 68 52 86 73 55 92 78 58 98 59 43 104 64 46 110 69 49 78 74 52 84 79 55 90 60 58 96 65 43 102 70 46 108 75 49 76 56 52 82 61 55 88 66 58 94 71 43 100 76 46 106 57 49 74 62 52 80 67 55 86 72 58 92 77 43 98 58 46 104 63 49 110 68 52 78 73 55 84 78 58 90 59 43 96 64 46 102 69 49 108 74 52 76 79 55 82 60 58 88 65 43 94 70 46 100 75 49 106 56 52 74 61 55 80 66 58 86 71 43 92 76 46 98 57 49 104 62 52 110 67 55 78 72 58 84 77 43 90 58 46 96 63 49 102 68 52 108 73 55 76 78 58 82 59 43 88 64 46 94 69 49 100 74 52 106 79 55 74 60 58 80 65 43 86 70 46 92 75 49 98 56 52 104 61 55 110 66 58 78 71 43 84 76 46 90 57 49 96 62 52 102 67 55 108 72 58 76 77 43 82 58 46 88 63 49 94 68 52 100 73 55 106 78 58 74 59 43 80 64 46 86 69 49 92 74 52 98 79 55 104 60 58 110 65 43 78 70 46 84 75 49 90 56 52 96 61 55 102 66 58 108 71 43 76 76 46 82 57 49 88 62 52 94 67 55 100 72 58 106 77 43 74 58 46 80 63 49 86 68 52 92 73 55 98 78 58 104 59 43 110 64 46 78 69 49 84 74 52 90 79 55 96 60 58 102 65 43 108 70 46 76 75 49 82 56 52 88 61 55 94 66 58 100 71 43 106 76 46 74 57 49 80 62 52 86 67 55 92 72 58 98 77 43 104 58 46 110 63 49 78 68 52 84 73 55 90 78 58 96 59 43 102 64 46 108 69 49 76 74 52 82 79 55 88 60 58 94 65 43 100 70 46 106 75 49 74 56 52 80 61 55 86 66 58 92 71 43 98 76 46 104 57 49 110 62 52 78 67 55 84 72 58 90 77 43 96 58 46 102 63 49 108 68 52 76 73 55 82 78 58 88 59 43 94 64 46 100 69 49 106 74 52 74 79 55 80 60 58 86 65 43 92 70 46 98 75 49 104 56 52 110 61 55 78 66 58 84 71 43 90 76 46 96 57 49 102 62 52 108 67 55 76 72 58 82 77 43 88 58 46 94 63 49 100 68 52 106 73 55 74 78 58 80 59 43 86 64 46 92 69 49 98 74 52 104 79 55 110 60 58 78 65 43 84 70 46 90 75 49 96 56 52 102 61 55 108 66 58 76 71 43 82 76 46 88 57 49 94 62 52 100 67 55 106 72 58 74 77 43 80 58 46 86 63 49 92 68 52 98 73 55 104 78 58 110 59 43 78 64 46 84 69 49 90 74 52 96 79 55 102 60 58 108 65 43 76 70 46 82 75 49 88 56 52 94 61 55 100 66 58 106 71 43 74 76 46 80 57 49 86 62 52 92 67 55 98 72 58 104 77 43 110 58 46 78 63 49 84 68 52 90 73 55 96 78 58 102 59 43 108 64 46 76 69 49 82 74 52 88 79 55 94 60 58 100 65 43 106 70 46 74 75 49 80 56 52 86 61 55 92 66 58 98 71 43 104 76 46 110 57 49 78 62 52 84 67 55 90 72 58 96 77 43 102 58 46 108 63 49 76 68 52 82 73 55 88 78 58 94 59 43 100 64 46 106 69 49 74 74 52 80 79 55 86 60 58 92 65 43 98 70 46 104 75 49 110 56 52 78 61 55 84 66 58 90 71 43 96 76 46 102 57 49 108 62 52 76 67 55 82 72 58 88 77 43 94 58 46 100 63 49 106 68 52 74 73 55 80 78 58 86 59 43 92 64 46 98 69 49 104 74 52 110 79 55 78 60 58 84 65 43 90 70 46 96 75 49 102 56 52 108 61 55 76 66 58 82 71 43 88 76 46 94 57 49 100 62 52 106 67 55 74 72 58 80 77 43 86 58 46 92 63 49 98 68 52 104 73 55 110 78 58 78 59 43 84 64 46 90 69 49 96 74 52 102 79 55 108 60 58 76 65 43 82 70 46 88 75 49 94 56 52 100 61 55 106 66 58 74 71 43 80 76 46 86 57 49 92 62 52 98 67 55 104 72 58 110 77 43 78 58 46 84 63 49 90 68 52 96 73 55 102 78 58 108 59 43
99 74 48 105 79 51 111 60 54 79 65 57 85 70 42 91 75 45 97 56 48 103 61 51 109 66 54 77 71 57 83 76 42 89 57 45 95 62 48 101 67 51 107 72 54 75 77 57 81 58 42 87 63 45 93 68 48 99 73 51 105 78 54 111 59 57 79 64 42 85 69 45 91 74 48 97 79 51 103 60 54 109 65 57 77 70 42 83 75 45 89 56 48 95 61 51 101 66 54 107 71 57 75 76 42 81 57 45 87 62 48 93 67 51 99 72 54 105 77 57 111 58 42 79 63 45 85 68 48 91 73 51 97 78 54 103 59 57 109 64 42 77 69 45 83 74 48 89 79 51 95 60 54 101 65 57 107 70 42 75 75 45 81 56 48 87 61 51 93 66 54 99 71 57 105 76 42 111 57 45 79 62 48 85 67 51 91 72 54 97 77 57 103 58 42 109 63 45 77 68 48 83 73 51 89 78 54 95 59 57 101 64 42 107 69 45 75 74 48 81 79 51 87 60 54 93 65 57 99 70 42 105 75 45 111 56 48 79 61 51 85 66 54 91 71 57 97 76 42 103 57 45 109 62 48 77 67 51 83 72 54 89 77 57 95 58 42 101 63 45 107 68 48 75 73 51 81 78 54 87 59 57 93 64 42 99 69 45 105 74 48 111 79 51 79 60 54 85 65 57 91 70 42 97 75 45 103 56 48 109 61 51 77 66 54 83 71 57 89 76 42 95 57 45 101 62 48 107 67 51 75 72 54 81 77 57 87 58 42 93 63 45 99 68 48 105 73 51 111 78 54 79 59 57 85 64 42 91 69 45 97 74 48 103 79 51 109 60 54 77 65 57 83 70 42 89 75 45 95 56 48 101 61 51 107 66 54 75 71 57 81 76 42 87 57 45 93 62 48 99 67 51 105 72 54 111 77 57 79 58 42 85 63 45 91 68 48 97 73 51 103 78 54 109 59 57 77 64 42 83 69 45 89 74 48 95 79 51 101 60 54 107 65 57 75 70 42 81 75 45 87 56 48 93 61 51 99 66 54 105 71 57 111 76 42 79 57 45 85 62 48 91 67 51 97 72 54 103 77 57 109 58 42 77 63 45 83 68 48 89 73 51 95 78 54 101 59 57 107 64 42 75 69 45 81 74 48 87 79 51 93 60 54 99 65 57 105 70 42 111 75 45 79 56 48 85 61 51 91 66 54 97 71 57 103 76 42 109 57 45 77 62 48 83 67 51 89 72 54 95 77 57 101 58 42 107 63 45 75 68 48 81 73 51 87 78 54 93 59 57 99 64 42 105 69 45 111 74 48 79 79 51 85 60 54 91 65 57 97 70 42 103 75 45 109 56 48 77 61 51 83 66 54 89 71 57 95 76 42 101 57 45 107 62 48 75 67 51 81 72 54 87 77 57 93 58 42 99 63 45 105 68 48 111 73 51 79 78 54 85 59 57 91 64 42 97 69 45 103 74 48 109 79 51 77 60 54 83 65 57 89 70 42 95 75 45 101 56 48 107 61 51 75 66 54 81 71 57 87 76 42 93 57 45 99 62 48 105 67 51 111 72 54 79 77 57 85 58 42 91 63 45 97 68 48 103 73 51 109 78 54 77 59 57 83 64 42 89 69 45 95 74 48 101 79 51 107 60 54 75 65 57 81 70 42 87 75 45 93 56 48 99 61 51 105 66 54 111 71 57 79 76 42 85 57 45 91 62 48 97 67 51 103 72 54 109 77 57 77 58 42 83 63 45 89 68 48 95 73 51 101 78 54 107 59 57 75 64 42 81 69 45 87 74 48 93 79 51 99 60 54 105 65 57 111 70 42 79 75 45 85 56 48 91 61 51 97 66 54 103 71 57 109 76 42 77 57 45 83 62 48 89 67 51 95 72 54 101 77 57 107 58 42 75 63 45 81 68 48 87 73 51 93 78 54 99 59 57 105 64 42 111 69 45 79 74 48 85 79 51 91 60 54 97 65 57 103 70 42 109 75 45 77 56 48 83 61 51 89 66 54 95 71 57 101 76 42 107 57 45 75 62 48 81 67 51 87 72 54 93 77 57 99 58 42 105 63 45 111 68 48 79 73 51 85 78 54 91 59 57 97 64 42 103 69 45 109 74 48 77 79 51 83 60 54 89 65 57 95 70 42 101 75 45 107 56 48 75 61 51
104 76 56 110 57 59 78 62 44 84 67 47 90 72 50 96 77 53 102 58 56 108 63 59 76 68 44 82 73 47 88 78 50 94 59 53 100 64 56 106 69 59 74 74 44 80 79 47 86 60 50 92 65 53 98 70 56 104 75 59 110 56 44 78 61 47 84 66 50 90 71 53 96 76 56 102 57 59 108 62 44 76 67 47 82 72 50 88 77 53 94 58 56 100 63 59 106 68 44 74 73 47 80 78 50 86 59 53 92 64 56 98 69 59 104 74 44 110 79 47 78 60 50 84 65 53 90 70 56 96 75 59 102 56 44 108 61 47 76 66 50 82 71 53 88 76 56 94 57 59 100 62 44 106 67 47 74 72 50 80 77 53 86 58 56 92 63 59 98 68 44 104 73 47 110 78 50 78 59 53 84 64 56 90 69 59 96 74 44 102 79 47 108 60 50 76 65 53 82 70 56 88 75 59 94 56 44 100 61 47 106 66 50 74 71 53 80 76 56 86 57 59 92 62 44 98 67 47 104 72 50 110 77 53 78 58 56 84 63 59 90 68 44 96 73 47 102 78 50 108 59 53 76 64 56 82 69 59 88 74 44 94 79 47 100 60 50 106 65 53 74 70 56 80 75 59 86 56 44 92 61 47 98 66 50 104 71 53 110 76 56 78 57 59 84 62 44 90 67 47 96 72 50 102 77 53 108 58 56 76 63 59 82 68 44 88 73 47 94 78 50 100 59 53 106 64 56 74 69 59 80 74 44 86 79 47 92 60 50 98 65 53 104 70 56 110 75 59 78 56 44 84 61 47 90 66 50 96 71 53 102 76 56 108 57 59 76 62 44 82 67 47 88 72 50 94 77 53 100 58 56 106 63 59 74 68 44 80 73 47 86 78 50 92 59 53 98 64 56 104 69 59 110 74 44 78 79 47 84 60 50 90 65 53 96 70 56 102 75 59 108 56 44 76 61 47 82 66 50 88 71 53 94 76 56 100 57 59 106 62 44 74 67 47 80 72 50 86 77 53 92 58 56 98 63 59 104 68 44 110 73 47 78 78 50 84 59 53 90 64 56 96 69 59 102 74 44 108 79 47 76 60 50 82 65 53 88 70 56 94 75 59 100 56 44 106 61 47 74 66 50 80 71 53 86 76 56 92 57 59 98 62 44 104 67 47 110 72 50 78 77 53 84 58 56 90 63 59 96 68 44 102 73 47 108 78 50 76 59 53 82 64 56 88 69 59 94 74 44 100 79 47 106 60 50 74 65 53 80 70 56 86 75 59 92 56 44 98 61 47 104 66 50 110 71 53 78 76 56 84 57 59 90 62 44 96 67 47 102 72 50 108 77 53 76 58 56 82 63 59 88 68 44 94 73 47 100 78 50 106 59 53 74 64 56 80 69 59 86 74 44 92 79 47 98 60 50 104 65 53 110 70 56 78 75 59 84 56 44 90 61 47 96 66 50 102 71 53 108 76 56 76 57 59 82 62 44 88 67 47 94 72 50 100 77 53 106 58 56 74 63 59 80 68 44 86 73 47 92 78 50 98 59 53 104 64 56 110 69 59 78 74 44 84 79 47 90 60 50 96 65 53 102 70 56 108 75 59 76 56 44 82 61 47 88 66 50 94 71 53 100 76 56 106 57 59 74 62 44 80 67 47 86 72 50 92 77 53 98 58 56 104 63 59 110 68 44 78 73 47 84 78 50 90 59 53 96 64 56 102 69 59 108 74 44 76 79 47 82 60 50 88 65 53 94 70 56 100 75 59 106 56 44 74 61 47 80 66 50 86 71 53 92 76 56 98 57 59 104 62 44 110 67 47 78 72 50 84 77 53 90 58 56 96 63 59 102 68 44 108 73 47 76 78 50 82 59 53 88 64 56 94 69 59 100 74 44 106 79 47 74 60 50 80 65 53 86 70 56 92 75 59 98 56 44 104 61 47 110 66 50 78 71 53 84 76 56 90 57 59 96 62 44 102 67 47 108 72 50 76 77 53 82 58 56 88 63 59 94 68 44 100 73 47 106 78 50 74 59 53 80 64 56 86 69 59 92 74 44 98 79 47 104 60 50 110 65 53 78 70 56 84 75 59 90 56 44 96 61 47 102 66 50 108 71 53 76 76 56 82 57 59 88 62 44 94 67 47 100 72 50 106 77 53 74 58 56 80 63 59
109 78 46 77 59 49 83 64 52 89 69 55 95 74 58 101 79 43 107 60 46 75 65 49 81 70 52 87 75 55 93 56 58 99 61 43 105 66 46 111 71 49 79 76 52 85 57 55 91 62 58 97 67 43 103 72 46 109 77 49 77 58 52 83 63 55 89 68 58 95 73 43 101 78 46 107 59 49 75 64 52 81 69 55 87 74 58 93 79 43 99 60 46 105 65 49 111 70 52 79 75 55 85 56 58 91 61 43 97 66 46 103 71 49 109 76 52 77 57 55 83 62 58 89 67 43 95 72 46 101 77 49 107 58 52 75 63 55 81 68 58 87 73 43 93 78 46 99 59 49 105 64 52 111 69 55 79 74 58 85 79 43 91 60 46 97 65 49 103 70 52 109 75 55 77 56 58 83 61 43 89 66 46 95 71 49 101 76 52 107 57 55 75 62 58 81 67 43 87 72 46 93 77 49 99 58 52 105 63 55 111 68 58 79 73 43 85 78 46 91 59 49 97 64 52 103 69 55 109 74 58 77 79 43 83 60 46 89 65 49 95 70 52 101 75 55 107 56 58 75 61 43 81 66 46 87 71 49 93 76 52 99 57 55 105 62 58 111 67 43 79 72 46 85 77 49 91 58 52 97 63 55 103 68 58 109 73 43 77 78 46 83 59 49 89 64 52 95 69 55 101 74 58 107 79 43 75 60 46 81 65 49 87 70 52 93 75 55 99 56 58 105 61 43 111 66 46 79 71 49 85 76 52 91 57 55 97 62 58 103 67 43 109 72 46 77 77 49 83 58 52 89 63 55 95 68 58 101 73 43 107 78 46 75 59 49 81 64 52 87 69 55 93 74 58 99 79 43 105 60 46 111 65 49 79 70 52 85 75 55 91 56 58 97 61 43 103 66 46 109 71 49 77 76 52 83 57 55 89 62 58 95 67 43 101 72 46 107 77 49 75 58 52 81 63 55 87 68 58 93 73 43 99 78 46 105 59 49 111 64 52 79 69 55 85 74 58 91 79 43 97 60 46 103 65 49 109 70 52 77 75 55 83 56 58 89 61 43 95 66 46 101 71 49 107 76 52 75 57 55 81 62 58 87 67 43 93 72 46 99 77 49 105 58 52 111 63 55 79 68 58 85 73 43 91 78 46 97 59 49 103 64 52 109 69 55 77 74 58 83 79 43 89 60 46 95 65 49 101 70 52 107 75 55 75 56 58 81 61 43 87 66 46 93 71 49 99 76 52 105 57 55 111 62 58 79 67 43 85 72 46 91 77 49 97 58 52 103 63 55 109 68 58 77 73 43 83 78 46 89 59 49 95 64 52 101 69 55 107 74 58 75 79 43 81 60 46 87 65 49 93 70 52 99 75 55 105 56 58 111 61 43 79 66 46 85 71 49 91 76 52 97 57 55 103 62 58 109 67 43 77 72 46 83 77 49 89 58 52 95 63 55 101 68 58 107 73 43 75 78 46 81 59 49 87 64 52 93 69 55 99 74 58 105 79 43 111 60 46 79 65 49 85 70 52 91 75 55 97 56 58 103 61 43 109 66 46 77 71 49 83 76 52 89 57 55 95 62 58 101 67 43 107 72 46 75 77 49 81 58 52 87 63 55 93 68 58 99 73 43 105 78 46 111 59 49 79 64 52 85 69 55 91 74 58 97 79 43 103 60 46 109 65 49 77 70 52 83 75 55 89 56 58 95 61 43 101 66 46 107 71 49 75 76 52 81 57 55 87 62 58 93 67 43 99 72 46 105 77 49 111 58 52 79 63 55 85 68 58 91 73 43 97 78 46 103 59 49 109 64 52 77 69 55 83 74 58 89 79 43 95 60 46 101 65 49 107 70 52 75 75 55 81 56 58 87 61 43 93 66 46 99 71 49 105 76 52 111 57 55 79 62 58 85 67 43 91 72 46 97 77 49 103 58 52 109 63 55 77 68 58 83 73 43 89 78 46 95 59 49 101 64 52 107 69 55 75 74 58 81 79 43 87 60 46 93 65 49 99 70 52 105 75 55 111 56 58 79 61 43 85 66 46 91 71 49 97 76 52 103 57 55 109 62 58 77 67 43 83 72 46 89 77 49 95 58 52 101 63 55 107 68 58 75 73 43 81 78 46 87 59 49 93 64 52 99 69 55 105 74 58 111 79 43 79 60 46 85 65 49
76 56 54 82 61 57 88 66 42 94 71 45 100 76 48 106 57 51 74 62 54 80 67 57 86 72 42 92 77 45 98 58 48 104 63 51 110 68 54 78 73 57 84 78 42 90 59 45 96 64 48 102 69 51 108 74 54 76 79 57 82 60 42 88 65 45 94 70 48 100 75 51 106 56 54 74 61 57 80 66 42 86 71 45 92 76 48 98 57 51 104 62 54 110 67 57 78 72 42 84 77 45 90 58 48 96 63 51 102 68 54 108 73 57 76 78 42 82 59 45 88 64 48 94 69 51 100 74 54 106 79 57 74 60 42 80 65 45 86 70 48 92 75 51 98 56 54 104 61 57 110 66 42 78 71 45 84 76 48 90 57 51 96 62 54 102 67 57 108 72 42 76 77 45 82 58 48 88 63 51 94 68 54 100 73 57 106 78 42 74 59 45 80 64 48 86 69 51 92 74 54 98 79 57 104 60 42 110 65 45 78 70 48 84 75 51 90 56 54 96 61 57 102 66 42 108 71 45 76 76 48 82 57 51 88 62 54 94 67 57 100 72 42 106 77 45 74 58 48 80 63 51 86 68 54 92 73 57 98 78 42 104 59 45 110 64 48 78 69 51 84 74 54 90 79 57 96 60 42 102 65 45 108 70 48 76 75 51 82 56 54 88 61 57 94 66 42 100 71 45 106 76 48 74 57 51 80 62 54 86 67 57 92 72 42 98 77 45 104 58 48 110 63 51 78 68 54 84 73 57 90 78 42 96 59 45 102 64 48 108 69 51 76 74 54 82 79 57 88 60 42 94 65 45 100 70 48 106 75 51 74 56 54 80 61 57 86 66 42 92 71 45 98 76 48 104 57 51 110 62 54 78 67 57 84 72 42 90 77 45 96 58 48 102 63 51 108 68 54 76 73 57 82 78 42 88 59 45 94 64 48 100 69 51 106 74 54 74 79 57 80 60 42 86 65 45 92 70 48 98 75 51 104 56 54 110 61 57 78 66 42 84 71 45 90 76 48 96 57 51 102 62 54 108 67 57 76 72 42 82 77 45 88 58 48 94 63 51 100 68 54 106 73 57 74 78 42 80 59 45 86 64 48 92 69 51 98 74 54 104 79 57 110 60 42 78 65 45 84 70 48 90 75 51 96 56 54 102 61 57 108 66 42 76 71 45 82 76 48 88 57 51 94 62 54 100 67 57 106 72 42 74 77 45 80 58 48 86 63 51 92 68 54 98 73 57 104 78 42 110 59 45 78 64 48 84 69 51 90 74 54 96 79 57 102 60 42 108 65 45 76 70 48 82 75 51 88 56 54 94 61 57 100 66 42 106 71 45 74 76 48 80 57 51 86 62 54 92 67 57 98 72 42 104 77 45 110 58 48 78 63 51 84 68 54 90 73 57 96 78 42 102 59 45 108 64 48 76 69 51 82 74 54 88 79 57 94 60 42 100 65 45 106 70 48 74 75 51 80 56 54 86 61 57 92 66 42 98 71 45 104 76 48 110 57 51 78 62 54 84 67 57 90 72 42 96 77 45 102 58 48 108 63 51 76 68 54 82 73 57 88 78 42 94 59 45 100 64 48 106 69 51 74 74 54 80 79 57 86 60 42 92 65 45 98 70 48 104 75 51 110 56 54 78 61 57 84 66 42 90 71 45 96 76 48 102 57 51 108 62 54 76 67 57 82 72 42 88 77 45 94 58 48 100 63 51 106 68 54 74 73 57 80 78 42 86 59 45 92 64 48 98 69 51 104 74 54 110 79 57 78 60 42 84 65 45 90 70 48 96 75 51 102 56 54 108 61 57 76 66 42 82 71 45 88 76 48 94 57 51 100 62 54 106 67 57 74 72 42 80 77 45 86 58 48 92 63 51 98 68 54 104 73 57 110 78 42 78 59 45 84 64 48 90 69 51 96 74 54 102 79 57 108 60 42 76 65 45 82 70 48 88 75 51 94 56 54 100 61 57 106 66 42 74 71 45 80 76 48 86 57 51 92 62 54 98 67 57 104 72 42 110 77 45 78 58 48 84 63 51 90 68 54 96 73 57 102 78 42 108 59 45 76 64 48 82 69 51 88 74 54 94 79 57 100 60 42 106 65 45 74 70 48 80 75 51 86 56 54 92 61 57 98 66 42 104 71 45 110 76 48 78 57 51 84 62 54 90 67 57
81 58 44 87 63 47 93 68 50 99 73 53 105 78 56 111 59 59 79 64 44 85 69 47 91 74 50 97 79 53 103 60 56 109 65 59 77 70 44 83 75 47 89 56 50 95 61 53 101 66 56 107 71 59 75 76 44 81 57 47 87 62 50 93 67 53 99 72 56 105 77 59 111 58 44 79 63 47 85 68 50 91 73 53 97 78 56 103 59 59 109 64 44 77 69 47 83 74 50 89 79 53 95 60 56 101 65 59 107 70 44 75 75 47 81 56 50 87 61 53 93 66 56 99 71 59 105 76 44 111 57 47 79 62 50 85 67 53 91 72 56 97 77 59 103 58 44 109 63 47 77 68 50 83 73 53 89 78 56 95 59 59 101 64 44 107 69 47 75 74 50 81 79 53 87 60 56 93 65 59 99 70 44 105 75 47 111 56 50 79 61 53 85 66 56 91 71 59 97 76 44 103 57 47 109 62 50 77 67 53 83 72 56 89 77 59 95 58 44 101 63 47 107 68 50 75 73 53 81 78 56 87 59 59 93 64 44 99 69 47 105 74 50 111 79 53 79 60 56 85 65 59 91 70 44 97 75 47 103 56 50 109 61 53 77 66 56 83 71 59 89 76 44 95 57 47 101 62 50 107 67 53 75 72 56 81 77 59 87 58 44 93 63 47 99 68 50 105 73 53 111 78 56 79 59 59 85 64 44 91 69 47 97 74 50 103 79 53 109 60 56 77 65 59 83 70 44 89 75 47 95 56 50 101 61 53 107 66 56 75 71 59 81 76 44 87 57 47 93 62 50 99 67 53 105 72 56 111 77 59 79 58 44 85 63 47 91 68 50 97 73 53 103 78 56 109 59 59 77 64 44 83 69 47 89 74 50 95 79 53 101 60 56 107 65 59 75 70 44 81 75 47 87 56 50 93 61 53 99 66 56 105 71 59 111 76 44 79 57 47 85 62 50 91 67 53 97 72 56 103 77 59 109 58 44 77 63 47 83 68 50 89 73 53 95 78 56 101 59 59 107 64 44 75 69 47 81 74 50 87 79 53 93 60 56 99 65 59 105 70 44 111 75 47 79 56 50 85 61 53 91 66 56 97 71 59 103 76 44 109 57 47 77 62 50 83 67 53 89 72 56 95 77 59 101 58 44 107 63 47 75 68 50 81 73 53 87 78 56 93 59 59 99 64 44 105 69 47 111 74 50 79 79 53 85 60 56 91 65 59 97 70 44 103 75 47 109 56 50 77 61 53 83 66 56 89 71 59 95 76 44 101 57 47 107 62 50 75 67 53 81 72 56 87 77 59 93 58 44 99 63 47 105 68 50 111 73 53 79 78 56 85 59 59 91 64 44 97 69 47 103 74 50 109 79 53 77 60 56 83 65 59 89 70 44 95 75 47 101 56 50 107 61 53 75 66 56 81 71 59 87 76 44 93 57 47 99 62 50 105 67 53 111 72 56 79 77 59 85 58 44 91 63 47 97 68 50 103 73 53 109 78 56 77 59 59 83 64 44 89 69 47 95 74 50 101 79 53 107 60 56 75 65 59 81 70 44 87 75 47 93 56 50 99 61 53 105 66 56 111 71 59 79 76 44 85 57 47 91 62 50 97 67 53 103 72 56 109 77 59 77 58 44 83 63 47 89 68 50 95 73 53 101 78 56 107 59 59 75 64 44 81 69 47 87 74 50 93 79 53 99 60 56 105 65 59 111 70 44 79 75 47 85 56 50 91 61 53 97 66 56 103 71 59 109 76 44 77 57 47 83 62 50 89 67 53 95 72 56 101 77 59 107 58 44 75 63 47 81 68 50 87 73 53 93 78 56 99 59 59 105 64 44 111 69 47 79 74 50 85 79 53 91 60 56 97 65 59 103 70 44 109 75 47 77 56 50 83 61 53 89 66 56 95 71 59 101 76 44 107 57 47 75 62 50 81 67 53 87 72 56 93 77 59 99 58 44 105 63 47 111 68 50 79 73 53 85 78 56 91 59 59 97 64 44 103 69 47 109 74 50 77 79 53 83 60 56 89 65 59 95 70 44 101 75 47 107 56 50 75 61 53 81 66 56 87 71 59 93 76 44 99 57 47 105 62 50 111 67 53 79 72 56 85 77 59 91 58 44 97 63 47 103 68 50 109 73 53 77 78 56 83 59 59 89 64 44 95 69 47
86 60 52 92 65 55 98 70 58 104 75 43 110 56 46 78 61 49 84 66 52 90 71 55 96 76 58 102 57 43 108 62 46 76 67 49 82 72 52 88 77 55 94 58 58 100 63 43 106 68 46 74 73 49 80 78 52 86 59 55 92 64 58 98 69 43 104 74 46 110 79 49 78 60 52 84 65 55 90 70 58 96 75 43 102 56 46 108 61 49 76 66 52 82 71 55 88 76 58 94 57 43 100 62 46 106 67 49 74 72 52 80 77 55 86 58 58 92 63 43 98 68 46 104 73 49 110 78 52 78 59 55 84 64 58 90 69 43 96 74 46 102 79 49 108 60 52 76 65 55 82 70 58 88 75 43 94 56 46 100 61 49 106 66 52 74 71 55 80 76 58 86 57 43 92 62 46 98 67 49 104 72 52 110 77 55 78 58 58 84 63 43 90 68 46 96 73 49 102 78 52 108 59 55 76 64 58 82 69 43 88 74 46 94 79 49 100 60 52 106 65 55 74 70 58 80 75 43 86 56 46 92 61 49 98 66 52 104 71 55 110 76 58 78 57 43 84 62 46 90 67 49 96 72 52 102 77 55 108 58 58 76 63 43 82 68 46 88 73 49 94 78 52 100 59 55 106 64 58 74 69 43 80 74 46 86 79 49 92 60 52 98 65 55 104 70 58 110 75 43 78 56 46 84 61 49 90 66 52 96 71 55 102 76 58 108 57 43 76 62 46 82 67 49 88 72 52 94 77 55 100 58 58 106 63 43 74 68 46 80 73 49 86 78 52 92 59 55 98 64 58 104 69 43 110 74 46 78 79 49 84 60 52 90 65 55 96 70 58 102 75 43 108 56 46 76 61 49 82 66 52 88 71 55 94 76 58 100 57 43 106 62 46 74 67 49 80 72 52 86 77 55 92 58 58 98 63 43 104 68 46 110 73 49 78 78 52 84 59 55 90 64 58 96 69 43 102 74 46 108 79 49 76 60 52 82 65 55 88 70 58 94 75 43 100 56 46 106 61 49 74 66 52 80 71 55 86 76 58 92 57 43 98 62 46 104 67 49 110 72 52 78 77 55 84 58 58 90 63 43 96 68 46 102 73 49 108 78 52 76 59 55 82 64 58 88 69 43 94 74 46 100 79 49 106 60 52 74 65 55 80 70 58 86 75 43 92 56 46 98 61 49 104 66 52 110 71 55 78 76 58 84 57 43 90 62 46 96 67 49 102 72 52 108 77 55 76 58 58 82 63 43 88 68 46 94 73 49 100 78 52 106 59 55 74 64 58 80 69 43 86 74 46 92 79 49 98 60 52 104 65 55 110 70 58 78 75 43 84 56 46 90 61 49 96 66 52 102 71 55 108 76 58 76 57 43 82 62 46 88 67 49 94 72 52 100 77 55 106 58 58 74 63 43 80 68 46 86 73 49 92 78 52 98 59 55 104 64 58 110 69 43 78 74 46 84 79 49 90 60 52 96 65 55 102 70 58 108 75 43 76 56 46 82 61 49 88 66 52 94 71 55 100 76 58 106 57 43 74 62 46 80 67 49 86 72 52 92 77 55 98 58 58 104 63 43 110 68 46 78 73 49 84 78 52 90 59 55 96 64 58 102 69 43 108 74 46 76 79 49 82 60 52 88 65 55 94 70 58 100 75 43 106 56 46 74 61 49 80 66 52 86 71 55 92 76 58 98 57 43 104 62 46 110 67 49 78 72 52 84 77 55 90 58 58 96 63 43 102 68 46 108 73 49 76 78 52 82 59 55 88 64 58 94 69 43 100 74 46 106 79 49 74 60 52 80 65 55 86 70 58 92 75 43 98 56 46 104 61 49 110 66 52 78 71 55 84 76 58 90 57 43 96 62 46 102 67 49 108 72 52 76 77 55 82 58 58 88 63 43 94 68 46 100 73 49 106 78 52 74 59 55 80 64 58 86 69 43 92 74 46 98 79 49 104 60 52 110 65 55 78 70 58 84 75 43 90 56 46 96 61 49 102 66 52 108 71 55 76 76 58 82 57 43 88 62 46 94 67 49 100 72 52 106 77 55 74 58 58 80 63 43 86 68 46 92 73 49 98 78 52 104 59 55 110 64 58 78 69 43 84 74 46 90 79 49 96 60 52 102 65 55 108 70 58 76 75 43 82 56 46 88 61 49 94 66 52 100 71 55
91 62 42 97 67 45 103 72 48 109 77 51 77 58 54 83 63 57 89 68 42 95 73 45 101 78 48 107 59 51 75 64 54 81 69 57 87 74 42 93 79 45 99 60 48 105 65 51 111 70 54 79 75 57 85 56 42 91 61 45 97 66 48 103 71 51 109 76 54 77 57 57 83 62 42 89 67 45 95 72 48 101 77 51 107 58 54 75 63 57 81 68 42 87 73 45 93 78 48 99 59 51 105 64 54 111 69 57 79 74 42 85 79 45 91 60 48 97 65 51 103 70 54 109 75 57 77 56 42 83 61 45 89 66 48 95 71 51 101 76 54 107 57 57 75 62 42 81 67 45 87 72 48 93 77 51 99 58 54 105 63 57 111 68 42 79 73 45 85 78 48 91 59 51 97 64 54 103 69 57 109 74 42 77 79 45 83 60 48 89 65 51 95 70 54 101 75 57 107 56 42 75 61 45 81 66 48 87 71 51 93 76 54 99 57 57 105 62 42 111 67 45 79 72 48 85 77 51 91 58 54 97 63 57 103 68 42 109 73 45 77 78 48 83 59 51 89 64 54 95 69 57 101 74 42 107 79 45 75 60 48 81 65 51 87 70 54 93 75 57 99 56 42 105 61 45 111 66 48 79 71 51 85 76 54 91 57 57 97 62 42 103 67 45 109 72 48 77 77 51 83 58 54 89 63 57 95 68 42 101 73 45 107 78 48 75 59 51 81 64 54 87 69 57 93 74 42 99 79 45 105 60 48 111 65 51 79 70 54 85 75 57 91 56 42 97 61 45 103 66 48 109 71 51 77 76 54 83 57 57 89 62 42 95 67 45 101 72 48 107 77 51 75 58 54 81 63 57 87 68 42 93 73 45 99 78 48 105 59 51 111 64 54 79 69 57 85 74 42 91 79 45 97 60 48 103 65 51 109 70 54 77 75 57 83 56 42 89 61 45 95 66 48 101 71 51 107 76 54 75 57 57 81 62 42 87 67 45 93 72 48 99 77 51 105 58 54 111 63 57 79 68 42 85 73 45 91 78 48 97 59 51 103 64 54 109 69 57 77 74 42 83 79 45 89 60 48 95 65 51 101 70 54 107 75 57 75 56 42 81 61 45 87 66 48 93 71 51 99 76 54 105 57 57 111 62 42 79 67 45 85 72 48 91 77 51 97 58 54 103 63 57 109 68 42 77 73 45 83 78 48 89 59 51 95 64 54 101 69 57 107 74 42 75 79 45 81 60 48 87 65 51 93 70 54 99 75 57 105 56 42 111 61 45 79 66 48 85 71 51 91 76 54 97 57 57 103 62 42 109 67 45 77 72 48 83 77 51 89 58 54 95 63 57 101 68 42 107 73 45 75 78 48 81 59 51 87 64 54 93 69 57 99 74 42 105 79 45 111 60 48 79 65 51 85 70 54 91 75 57 97 56 42 103 61 45 109 66 48 77 71 51 83 76 54 89 57 57 95 62 42 101 67 45 107 72 48 75 77 51 81 58 54 87 63 57 93 68 42 99 73 45 105 78 48 111 59 51 79 64 54 85 69 57 91 74 42 97 79 45 103 60 48 109 65 51 77 70 54 83 75 57 89 56 42 95 61 45 101 66 48 107 71 51 75 76 54 81 57 57 87 62 42 93 67 45 99 72 48 105 77 51 111 58 54 79 63 57 85 68 42 91 73 45 97 78 48 103 59 51 109 64 54 77 69 57 83 74 42 89 79 45 95 60 48 101 65 51 107 70 54 75 75 57 81 56 42 87 61 45 93 66 48 99 71 51 105 76 54 111 57 57 79 62 42 85 67 45 91 72 48 97 77 51 103 58 54 109 63 57 77 68 42 83 73 45 89 78 48 95 59 51 101 64 54 107 69 57 75 74 42 81 79 45 87 60 48 93 65 51 99 70 54 105 75 57 111 56 42 79 61 45 85 66 48 91 71 51 97 76 54 103 57 57 109 62 42 77 67 45 83 72 48 89 77 51 95 58 54 101 63 57 107 68 42 75 73 45 81 78 48 87 59 51 93 64 54 99 69 57 105 74 42 111 79 45 79 60 48 85 65 51 91 70 54 97 75 57 103 56 42 109 61 45 77 66 48 83 71 51 89 76 54 95 57 57 101 62 42 107 67 45 75 72 48 81 77 51 87 58 54 93 63 57 99 68 42 105 73 45
96 64 50 102 69 53 108 74 56 76 79 59 82 60 44 88 65 47 94 70 50 100 75 53 106 56 56 74 61 59 80 66 44 86 71 47 92 76 50 98 57 53 104 62 56 110 67 59 78 72 44 84 77 47 90 58 50 96 63 53 102 68 56 108 73 59 76 78 44 82 59 47 88 64 50 94 69 53 100 74 56 106 79 59 74 60 44 80 65 47 86 70 50 92 75 53 98 56 56 104 61 59 110 66 44 78 71 47 84 76 50 90 57 53 96 62 56 102 67 59 108 72 44 76 77 47 82 58 50 88 63 53 94 68 56 100 73 59 106 78 44 74 59 47 80 64 50 86 69 53 92 74 56 98 79 59 104 60 44 110 65 47 78 70 50 84 75 53 90 56 56 96 61 59 102 66 44 108 71 47 76 76 50 82 57 53 88 62 56 94 67 59 100 72 44 106 77 47 74 58 50 80 63 53 86 68 56 92 73 59 98 78 44 104 59 47 110 64 50 78 69 53 84 74 56 90 79 59 96 60 44 102 65 47 108 70 50 76 75 53 82 56 56 88 61 59 94 66 44 100 71 47 106 76 50 74 57 53 80 62 56 86 67 59 92 72 44 98 77 47 104 58 50 110 63 53 78 68 56 84 73 59 90 78 44 96 59 47 102 64 50 108 69 53 76 74 56 82 79 59 88 60 44 94 65 47 100 70 50 106 75 53 74 56 56 80 61 59 86 66 44 92 71 47 98 76 50 104 57 53 110 62 56 78 67 59 84 72 44 90 77 47 96 58 50 102 63 53 108 68 56 76 73 59 82 78 44 88 59 47 94 64 50 100 69 53 106 74 56 74 79 59 80 60 44 86 65 47 92 70 50 98 75 53 104 56 56 110 61 59 78 66 44 84 71 47 90 76 50 96 57 53 102 62 56 108 67 59 76 72 44 82 77 47 88 58 50 94 63 53 100 68 56 106 73 59 74 78 44 80 59 47 86 64 50 92 69 53 98 74 56 104 79 59 110 60 44 78 65 47 84 70 50 90 75 53 96 56 56 102 61 59 108 66 44 76 71 47 82 76 50 88 57 53 94 62 56 100 67 59 106 72 44 74 77 47 80 58 50 86 63 53 92 68 56 98 73 59 104 78 44 110 59 47 78 64 50 84 69 53 90 74 56 96 79 59 102 60 44 108 65 47 76 70 50 82 75 53 88 56 56 94 61 59 100 66 44 106 71 47 74 76 50 80 57 53 86 62 56 92 67 59 98 72 44 104 77 47 110 58 50 78 63 53 84 68 56 90 73 59 96 78 44 102 59 47 108 64 50 76 69 53 82 74 56 88 79 59 94 60 44 100 65 47 106 70 50 74 75 53 80 56 56 86 61 59 92 66 44 98 71 47 104 76 50 110 57 53 78 62 56 84 67 59 90 72 44 96 77 47 102 58 50 108 63 53 76 68 56 82 73 59 88 78 44 94 59 47 100 64 50 106 69 53 74 74 56 80 79 59 86 60 44 92 65 47 98 70 50 104 75 53 110 56 56 78 61 59 84 66 44 90 71 47 96 76 50 102 57 53 108 62 56 76 67 59 82 72 44 88 77 47 94 58 50 100 63 53 106 68 56 74 73 59 80 78 44 86 59 47 92 64 50 98 69 53 104 74 56 110 79 59 78 60 44 84 65 47 90 70 50 96 75 53 102 56 56 108 61 59 76 66 44 82 71 47 88 76 50 94 57 53 100 62 56 106 67 59 74 72 44 80 77 47 86 58 50 92 63 53 98 68 56 104 73 59 110 78 44 78 59 47 84 64 50 90 69 53 96 74 56 102 79 59 108 60 44 76 65 47 82 70 50 88 75 53 94 56 56 100 61 59 106 66 44 74 71 47 80 76 50 86 57 53 92 62 56 98 67 59 104 72 44 110 77 47 78 58 50 84 63 53 90 68 56 96 73 59 102 78 44 108 59 47 76 64 50 82 69 53 88 74 56 94 79 59 100 60 44 106 65 47 74 70 50 80 75 53 86 56 56 92 61 59 98 66 44 104 71 47 110 76 50 78 57 53 84 62 56 90 67 59 96 72 44 102 77 47 108 58 50 76 63 53 82 68 56 88 73 59 94 78 44 100 59 47 106 64 50 74 69 53 80 74 56 86 79 59 92 60 44 98 65 47 104 70 50 110 75 53
101 66 58 107 71 43 75 76 46 81 57 49 87 62 52 93 67 55 99 72 58 105 77 43 111 58 46 79 63 49 85 68 52 91 73 55 97 78 58 103 59 43 109 64 46 77 69 49 83 74 52 89 79 55 95 60 58 101 65 43 107 70 46 75 75 49 81 56 52 87 61 55 93 66 58 99 71 43 105 76 46 111 57 49 79 62 52 85 67 55 91 72 58 97 77 43 103 58 46 109 63 49 77 68 52 83 73 55 89 78 58 95 59 43 101 64 46 107 69 49 75 74 52 81 79 55 87 60 58 93 65 43 99 70 46 105 75 49 111 56 52 79 61 55 85 66 58 91 71 43 97 76 46 103 57 49 109 62 52 77 67 55 83 72 58 89 77 43 95 58 46 101 63 49 107 68 52 75 73 55 81 78 58 87 59 43 93 64 46 99 69 49 105 74 52 111 79 55 79 60 58 85 65 43 91 70 46 97 75 49 103 56 52 109 61 55 77 66 58 83 71 43 89 76 46 95 57 49 101 62 52 107 67 55 75 72 58 81 77 43 87 58 46 93 63 49 99 68 52 105 73 55 111 78 58 79 59 43 85 64 46 91 69 49 97 74 52 103 79 55 109 60 58 77 65 43 83 70 46 89 75 49 95 56 52 101 61 55 107 66 58 75 71 43 81 76 46 87 57 49 93 62 52 99 67 55 105 72 58 111 77 43 79 58 46 85 63 49 91 68 52 97 73 55 103 78 58 109 59 43 77 64 46 83 69 49 89 74 52 95 79 55 101 60 58 107 65 43 75 70 46 81 75 49 87 56 52 93 61 55 99 66 58 105 71 43 111 76 46 79 57 49 85 62 52 91 67 55 97 72 58 103 77 43 109 58 46 77 63 49 83 68 52 89 73 55 95 78 58 101 59 43 107 64 46 75 69 49 81 74 52 87 79 55 93 60 58 99 65 43 105 70 46 111 75 49 79 56 52 85 61 55 91 66 58 97 71 43 103 76 46 109 57 49 77 62 52 83 67 55 89 72 58 95 77 43 101 58 46 107 63 49 75 68 52 81 73 55 87 78 58 93 59 43 99 64 46 105 69 49 111 74 52 79 79 55 85 60 58 91 65 43 97 70 46 103 75 49 109 56 52 77 61 55 83 66 58 89 71 43 95 76 46 101 57 49 107 62 52 75 67 55 81 72 58 87 77 43 93 58 46 99 63 49 105 68 52 111 73 55 79 78 58 85 59 43 91 64 46 97 69 49 103 74 52 109 79 55 77 60 58 83 65 43 89 70 46 95 75 49 101 56 52 107 61 55 75 66 58 81 71 43 87 76 46 93 57 49 99 62 52 105 67 55 111 72 58 79 77 43 85 58 46 91 63 49 97 68 52 103 73 55 109 78 58 77 59 43 83 64 46 89 69 49 95 74 52 101 79 55 107 60 58 75 65 43 81 70 46 87 75 49 93 56 52 99 61 55 105 66 58 111 71 43 79 76 46 85 57 49 91 62 52 97 67 55 103 72 58 109 77 43 77 58 46 83 63 49 89 68 52 95 73 55 101 78 58 107 59 43 75 64 46 81 69 49 87 74 52 93 79 55 99 60 58 105 65 43 111 70 46 79 75 49 85 56 52 91 61 55 97 66 58 103 71 43 109 76 46 77 57 49 83 62 52 89 67 55 95 72 58 101 77 43 107 58 46 75 63 49 81 68 52 87 73 55 93 78 58 99 59 43 105 64 46 111 69 49 79 74 52 85 79 55 91 60 58 97 65 43 103 70 46 109 75 49 77 56 52 83 61 55 89 66 58 95 71 43 101 76 46 107 57 49 75 62 52 81 67 55 87 72 58 93 77 43 99 58 46 105 63 49 111 68 52 79 73 55 85 78 58 91 59 43 97 64 46 103 69 49 109 74 52 77 79 55 83 60 58 89 65 43 95 70 46 101 75 49 107 56 52 75 61 55 81 66 58 87 71 43 93 76 46 99 57 49 105 62 52 111 67 55 79 72 58 85 77 43 91 58 46 97 63 49 103 68 52 109 73 55 77 78 58 83 59 43 89 64 46 95 69 49 101 74 52 107 79 55 75 60 58 81 65 43 87 70 46 93 75 49 99 56 52 105 61 55 111 66 58 79 71 43 85 76 46 91 57 49 97 62 52 103 67 55 109 72 58 77 77 43
106 68 48 74 73 51 80 78 54 86 59 57 92 64 42 98 69 45 104 74 48 110 79 51 78 60 54 84 65 57 90 70 42 96 75 45 102 56 48 108 61 51 76 66 54 82 71 57 88 76 42 94 57 45 100 62 48 106 67 51 74 72 54 80 77 57 86 58 42 92 63 45 98 68 48 104 73 51 110 78 54 78 59 57 84 64 42 90 69 45 96 74 48 102 79 51 108 60 54 76 65 57 82 70 42 88 75 45 94 56 48 100 61 51 106 66 54 74 71 57 80 76 42 86 57 45 92 62 48 98 67 51 104 72 54 110 77 57 78 58 42 84 63 45 90 68 48 96 73 51 102 78 54 108 59 57 76 64 42 82 69 45 88 74 48 94 79 51 100 60 54 106 65 57 74 70 42 80 75 45 86 56 48 92 61 51 98 66 54 104 71 57 110 76 42 78 57 45 84 62 48 90 67 51 96 72 54 102 77 57 108 58 42 76 63 45 82 68 48 88 73 51 94 78 54 100 59 57 106 64 42 74 69 45 80 74 48 86 79 51 92 60 54 98 65 57 104 70 42 110 75 45 78 56 48 84 61 51 90 66 54 96 71 57 102 76 42 108 57 45 76 62 48 82 67 51 88 72 54 94 77 57 100 58 42 106 63 45 74 68 48 80 73 51 86 78 54 92 59 57 98 64 42 104 69 45 110 74 48 78 79 51 84 60 54 90 65 57 96 70 42 102 75 45 108 56 48 76 61 51 82 66 54 88 71 57 94 76 42 100 57 45 106 62 48 74 67 51 80 72 54 86 77 57 92 58 42 98 63 45 104 68 48 110 73 51 78 78 54 84 59 57 90 64 42 96 69 45 102 74 48 108 79 51 76 60 54 82 65 57 88 70 42 94 75 45 100 56 48 106 61 51 74 66 54 80 71 57 86 76 42 92 57 45 98 62 48 104 67 51 110 72 54 78 77 57 84 58 42 90 63 45 96 68 48 102 73 51 108 78 54 76 59 57 82 64 42 88 69 45 94 74 48 100 79 51 106 60 54 74 65 57 80 70 42 86 75 45 92 56 48 98 61 51 104 66 54 110 71 57 78 76 42 84 57 45 90 62 48 96 67 51 102 72 54 108 77 57 76 58 42 82 63 45 88 68 48 94 73 51 100 78 54 106 59 57 74 64 42 80 69 45 86 74 48 92 79 51 98 60 54 104 65 57 110 70 42 78 75 45 84 56 48 90 61 51 96 66 54 102 71 57 108 76 42 76 57 45 82 62 48 88 67 51 94 72 54 100 77 57 106 58 42 74 63 45 80 68 48 86 73 51 92 78 54 98 59 57 104 64 42 110 69 45 78 74 48 84 79 51 90 60 54 96 65 57 102 70 42 108 75 45 76 56 48 82 61 51 88 66 54 94 71 57 100 76 42 106 57 45 74 62 48 80 67 51 86 72 54 92 77 57 98 58 42 104 63 45 110 68 48 78 73 51 84 78 54 90 59 57 96 64 42 102 69 45 108 74 48 76 79 51 82 60 54 88 65 57 94 70 42 100 75 45 106 56 48 74 61 51 80 66 54 86 71 57 92 76 42 98 57 45 104 62 48 110 67 51 78 72 54 84 77 57 90 58 42 96 63 45 102 68 48 108 73 51 76 78 54 82 59 57 88 64 42 94 69 45 100 74 48 106 79 51 74 60 54 80 65 57 86 70 42 92 75 45 98 56 48 104 61 51 110 66 54 78 71 57 84 76 42 90 57 45 96 62 48 102 67 51 108 72 54 76 77 57 82 58 42 88 63 45 94 68 48 100 73 51 106 78 54 74 59 57 80 64 42 86 69 45 92 74 48 98 79 51 104 60 54 110 65 57 78 70 42 84 75 45 90 56 48 96 61 51 102 66 54 108 71 57 76 76 42 82 57 45 88 62 48 94 67 51 100 72 54 106 77 57 74 58 42 80 63 45 86 68 48 92 73 51 98 78 54 104 59 57 110 64 42 78 69 45 84 74 48 90 79 51 96 60 54 102 65 57 108 70 42 76 75 45 82 56 48 88 61 51 94 66 54 100 71 57 106 76 42 74 57 45 80 62 48 86 67 51 92 72 54 98 77 57 104 58 42 110 63 45 78 68 48 84 73 51 90 78 54 96 59 57 102 64 42 108 69 45 76 74 48 82 79 51
111 70 56 79 75 59 85 56 44 91 61 47 97 66 50 103 71 53 109 76 56 77 57 59 83 62 44 89 67 47 95 72 50 101 77 53 107 58 56 75 63 59 81 68 44 87 73 47 93 78 50 99 59 53 105 64 56 111 69 59 79 74 44 85 79 47 91 60 50 97 65 53 103 70 56 109 75 59 77 56 44 83 61 47 89 66 50 95 71 53 101 76 56 107 57 59 75 62 44 81 67 47 87 72 50 93 77 53 99 58 56 105 63 59 111 68 44 79 73 47 85 78 50 91 59 53 97 64 56 103 69 59 109 74 44 77 79 47 83 60 50 89 65 53 95 70 56 101 75 59 107 56 44 75 61 47 81 66 50 87 71 53 93 76 56 99 57 59 105 62 44 111 67 47 79 72 50 85 77 53 91 58 56 97 63 59 103 68 44 109 73 47 77 78 50 83 59 53 89 64 56 95 69 59 101 74 44 107 79 47 75 60 50 81 65 53 87 70 56 93 75 59 99 56 44 105 61 47 111 66 50 79 71 53 85 76 56 91 57 59 97 62 44 103 67 47 109 72 50 77 77 53 83 58 56 89 63 59 95 68 44 101 73 47 107 78 50 75 59 53 81 64 56 87 69 59 93 74 44 99 79 47 105 60 50 111 65 53 79 70 56 85 75 59 91 56 44 97 61 47 103 66 50 109 71 53 77 76 56 83 57 59 89 62 44 95 67 47 101 72 50 107 77 53 75 58 56 81 63 59 87 68 44 93 73 47 99 78 50 105 59 53 111 64 56 79 69 59 85 74 44 91 79 47 97 60 50 103 65 53 109 70 56 77 75 59 83 56 44 89 61 47 95 66 50 101 71 53 107 76 56 75 57 59 81 62 44 87 67 47 93 72 50 99 77 53 105 58 56 111 63 59 79 68 44 85 73 47 91 78 50 97 59 53 103 64 56 109 69 59 77 74 44 83 79 47 89 60 50 95 65 53 101 70 56 107 75 59 75 56 44 81 61 47 87 66 50 93 71 53 99 76 56 105 57 59 111 62 44 79 67 47 85 72 50 91 77 53 97 58 56 103 63 59 109 68 44 77 73 47 83 78 50 89 59 53 95 64 56 101 69 59 107 74 44 75 79 47 81 60 50 87 65 53 93 70 56 99 75 59 105 56 44 111 61 47 79 66 50 85 71 53 91 76 56 97 57 59 103 62 44 109 67 47 77 72 50 83 77 53 89 58 56 95 63 59 101 68 44 107 73 47 75 78 50 81 59 53 87 64 56 93 69 59 99 74 44 105 79 47 111 60 50 79 65 53 85 70 56 91 75 59 97 56 44 103 61 47 109 66 50 77 71 53 83 76 56 89 57 59 95 62 44 101 67 47 107 72 50 75 77 53 81 58 56 87 63 59 93 68 44 99 73 47 105 78 50 111 59 53 79 64 56 85 69 59 91 74 44 97 79 47 103 60 50 109 65 53 77 70 56 83 75 59 89 56 44 95 61 47 101 66 50 107 71 53 75 76 56 81 57 59 87 62 44 93 67 47 99 72 50 105 77 53 111 58 56 79 63 59 85 68 44 91 73 47 97 78 50 103 59 53 109 64 56 77 69 59 83 74 44 89 79 47 95 60 50 101 65 53 107 70 56 75 75 59 81 56 44 87 61 47 93 66 50 99 71 53 105 76 56 111 57 59 79 62 44 85 67 47 91 72 50 97 77 53 103 58 56 109 63 59 77 68 44 83 73 47 89 78 50 95 59 53 101 64 56 107 69 59 75 74 44 81 79 47 87 60 50 93 65 53 99 70 56 105 75 59 111 56 44 79 61 47 85 66 50 91 71 53 97 76 56 103 57 59 109 62 44 77 67 47 83 72 50 89 77 53 95 58 56 101 63 59 107 68 44 75 73 47 81 78 50 87 59 53 93 64 56 99 69 59 105 74 44 111 79 47 79 60 50 85 65 53 91 70 56 97 75 59 103 56 44 109 61 47 77 66 50 83 71 53 89 76 56 95 57 59 101 62 44 107 67 47 75 72 50 81 77 53 87 58 56 93 63 59 99 68 44 105 73 47 111 78 50 79 59 53 85 64 56 91 69 59 97 74 44 103 79 47 109 60 50 77 65 53 83 70 56 89 75 59 95 56 44 101 61 47 107 66 50 75 71 53 81 76 56 87 57 59
