P3
128 128
255
78 60 46 85 63 48 92 66 50 99 69 52 106 72 54 78 75 56 85 78 58 92 81 60 99 84 62 106 62 64 78 65 47 85 68 49 92 71 51 99 74 53 106 77 55 78 80 57 85 83 59 92 61 61 99 64 63 106 67 46 78 70 48 85 73 50 92 76 52 99 79 54 106 82 56 78 60 58 85 63 60 92 66 62 99 69 64 106 72 47 78 75 49 85 78 51 92 81 53 99 84 55 106 62 57 78 65 59 85 68 61 92 71 63 99 74 46 106 77 48 78 80 50 85 83 52 92 61 54 99 64 56 106 67 58 78 70 60 85 73 62 92 76 64 99 79 47 106 82 49 78 60 51 85 63 53 92 66 55 99 69 57 106 72 59 78 75 61 85 78 63 92 81 46 99 84 48 106 62 50 78 65 52 85 68 54 92 71 56 99 74 58 106 77 60 78 80 62 85 83 64 92 61 47 99 64 49 106 67 51 78 70 53 85 73 55 92 76 57 99 79 59 106 82 61 78 60 63 85 63 46 92 66 48 99 69 50 106 72 52 78 75 54 85 78 56 92 81 58 99 84 60 106 62 62 78 65 64 85 68 47 92 71 49 99 74 51 106 77 53 78 80 55 85 83 57 92 61 59 99 64 61 106 67 63 78 70 46 85 73 48 92 76 50 99 79 52 106 82 54 78 60 56 85 63 58 92 66 60 99 69 62 106 72 64 78 75 47 85 78 49 92 81 51 99 84 53 106 62 55 78 65 57 85 68 59 92 71 61 99 74 63 106 77 46 78 80 48 85 83 50 92 61 52 99 64 54 106 67 56 78 70 58 85 73 60 92 76 62 99 79 64 106 82 47 78 60 49 85 63 51 92 66 53
81 65 57 88 68 59 95 71 61 102 74 63 109 77 46 81 80 48 88 83 50 95 61 52 102 64 54 109 67 56 81 70 58 88 73 60 95 76 62 102 79 64 109 82 47 81 60 49 88 63 51 95 66 53 102 69 55 109 72 57 81 75 59 88 78 61 95 81 63 102 84 46 109 62 48 81 65 50 88 68 52 95 71 54 102 74 56 109 77 58 81 80 60 88 83 62 95 61 64 102 64 47 109 67 49 81 70 51 88 73 53 95 76 55 102 79 57 109 82 59 81 60 61 88 63 63 95 66 46 102 69 48 109 72 50 81 75 52 88 78 54 95 81 56 102 84 58 109 62 60 81 65 62 88 68 64 95 71 47 102 74 49 109 77 51 81 80 53 88 83 55 95 61 57 102 64 59 109 67 61 81 70 63 88 73 46 95 76 48 102 79 50 109 82 52 81 60 54 88 63 56 95 66 58 102 69 60 109 72 62 81 75 64 88 78 47 95 81 49 102 84 51 109 62 53 81 65 55 88 68 57 95 71 59 102 74 61 109 77 63 81 80 46 88 83 48 95 61 50 102 64 52 109 67 54 81 70 56 88 73 58 95 76 60 102 79 62 109 82 64 81 60 47 88 63 49 95 66 51 102 69 53 109 72 55 81 75 57 88 78 59 95 81 61 102 84 63 109 62 46 81 65 48 88 68 50 95 71 52 102 74 54 109 77 56 81 80 58 88 83 60 95 61 62 102 64 64 109 67 47 81 70 49 88 73 51 95 76 53 102 79 55 109 82 57 81 60 59 88 63 61 95 66 63 102 69 46 109 72 48 81 75 50 88 78 52 95 81 54 102 84 56 109 62 58 81 65 60 88 68 62 95 71 64
84 70 49 91 73 51 98 76 53 105 79 55 112 82 57 84 60 59 91 63 61 98 66 63 105 69 46 112 72 48 84 75 50 91 78 52 98 81 54 105 84 56 112 62 58 84 65 60 91 68 62 98 71 64 105 74 47 112 77 49 84 80 51 91 83 53 98 61 55 105 64 57 112 67 59 84 70 61 91 73 63 98 76 46 105 79 48 112 82 50 84 60 52 91 63 54 98 66 56 105 69 58 112 72 60 84 75 62 91 78 64 98 81 47 105 84 49 112 62 51 84 65 53 91 68 55 98 71 57 105 74 59 112 77 61 84 80 63 91 83 46 98 61 48 105 64 50 112 67 52 84 70 54 91 73 56 98 76 58 105 79 60 112 82 62 84 60 64 91 63 47 98 66 49 105 69 51 112 72 53 84 75 55 91 78 57 98 81 59 105 84 61 112 62 63 84 65 46 91 68 48 98 71 50 105 74 52 112 77 54 84 80 56 91 83 58 98 61 60 105 64 62 112 67 64 84 70 47 91 73 49 98 76 51 105 79 53 112 82 55 84 60 57 91 63 59 98 66 61 105 69 63 112 72 46 84 75 48 91 78 50 98 81 52 105 84 54 112 62 56 84 65 58 91 68 60 98 71 62 105 74 64 112 77 47 84 80 49 91 83 51 98 61 53 105 64 55 112 67 57 84 70 59 91 73 61 98 76 63 105 79 46 112 82 48 84 60 50 91 63 52 98 66 54 105 69 56 112 72 58 84 75 60 91 78 62 98 81 64 105 84 47 112 62 49 84 65 51 91 68 53 98 71 55 105 74 57 112 77 59 84 80 61 91 83 63 98 61 46 105 64 48 112 67 50 84 70 52 91 73 54 98 76 56
87 75 60 94 78 62 101 81 64 108 84 47 80 62 49 87 65 51 94 68 53 101 71 55 108 74 57 80 77 59 87 80 61 94 83 63 101 61 46 108 64 48 80 67 50 87 70 52 94 73 54 101 76 56 108 79 58 80 82 60 87 60 62 94 63 64 101 66 47 108 69 49 80 72 51 87 75 53 94 78 55 101 81 57 108 84 59 80 62 61 87 65 63 94 68 46 101 71 48 108 74 50 80 77 52 87 80 54 94 83 56 101 61 58 108 64 60 80 67 62 87 70 64 94 73 47 101 76 49 108 79 51 80 82 53 87 60 55 94 63 57 101 66 59 108 69 61 80 72 63 87 75 46 94 78 48 101 81 50 108 84 52 80 62 54 87 65 56 94 68 58 101 71 60 108 74 62 80 77 64 87 80 47 94 83 49 101 61 51 108 64 53 80 67 55 87 70 57 94 73 59 101 76 61 108 79 63 80 82 46 87 60 48 94 63 50 101 66 52 108 69 54 80 72 56 87 75 58 94 78 60 101 81 62 108 84 64 80 62 47 87 65 49 94 68 51 101 71 53 108 74 55 80 77 57 87 80 59 94 83 61 101 61 63 108 64 46 80 67 48 87 70 50 94 73 52 101 76 54 108 79 56 80 82 58 87 60 60 94 63 62 101 66 64 108 69 47 80 72 49 87 75 51 94 78 53 101 81 55 108 84 57 80 62 59 87 65 61 94 68 63 101 71 46 108 74 48 80 77 50 87 80 52 94 83 54 101 61 56 108 64 58 80 67 60 87 70 62 94 73 64 101 76 47 108 79 49 80 82 51 87 60 53 94 63 55 101 66 57 108 69 59 80 72 61 87 75 63 94 78 46 101 81 48
90 80 52 97 83 54 104 61 56 111 64 58 83 67 60 90 70 62 97 73 64 104 76 47 111 79 49 83 82 51 90 60 53 97 63 55 104 66 57 111 69 59 83 72 61 90 75 63 97 78 46 104 81 48 111 84 50 83 62 52 90 65 54 97 68 56 104 71 58 111 74 60 83 77 62 90 80 64 97 83 47 104 61 49 111 64 51 83 67 53 90 70 55 97 73 57 104 76 59 111 79 61 83 82 63 90 60 46 97 63 48 104 66 50 111 69 52 83 72 54 90 75 56 97 78 58 104 81 60 111 84 62 83 62 64 90 65 47 97 68 49 104 71 51 111 74 53 83 77 55 90 80 57 97 83 59 104 61 61 111 64 63 83 67 46 90 70 48 97 73 50 104 76 52 111 79 54 83 82 56 90 60 58 97 63 60 104 66 62 111 69 64 83 72 47 90 75 49 97 78 51 104 81 53 111 84 55 83 62 57 90 65 59 97 68 61 104 71 63 111 74 46 83 77 48 90 80 50 97 83 52 104 61 54 111 64 56 83 67 58 90 70 60 97 73 62 104 76 64 111 79 47 83 82 49 90 60 51 97 63 53 104 66 55 111 69 57 83 72 59 90 75 61 97 78 63 104 81 46 111 84 48 83 62 50 90 65 52 97 68 54 104 71 56 111 74 58 83 77 60 90 80 62 97 83 64 104 61 47 111 64 49 83 67 51 90 70 53 97 73 55 104 76 57 111 79 59 83 82 61 90 60 63 97 63 46 104 66 48 111 69 50 83 72 52 90 75 54 97 78 56 104 81 58 111 84 60 83 62 62 90 65 64 97 68 47 104 71 49 111 74 51 83 77 53 90 80 55 97 83 57 104 61 59
93 60 63 100 63 46 107 66 48 79 69 50 86 72 52 93 75 54 100 78 56 107 81 58 79 84 60 86 62 62 93 65 64 100 68 47 107 71 49 79 74 51 86 77 53 93 80 55 100 83 57 107 61 59 79 64 61 86 67 63 93 70 46 100 73 48 107 76 50 79 79 52 86 82 54 93 60 56 100 63 58 107 66 60 79 69 62 86 72 64 93 75 47 100 78 49 107 81 51 79 84 53 86 62 55 93 65 57 100 68 59 107 71 61 79 74 63 86 77 46 93 80 48 100 83 50 107 61 52 79 64 54 86 67 56 93 70 58 100 73 60 107 76 62 79 79 64 86 82 47 93 60 49 100 63 51 107 66 53 79 69 55 86 72 57 93 75 59 100 78 61 107 81 63 79 84 46 86 62 48 93 65 50 100 68 52 107 71 54 79 74 56 86 77 58 93 80 60 100 83 62 107 61 64 79 64 47 86 67 49 93 70 51 100 73 53 107 76 55 79 79 57 86 82 59 93 60 61 100 63 63 107 66 46 79 69 48 86 72 50 93 75 52 100 78 54 107 81 56 79 84 58 86 62 60 93 65 62 100 68 64 107 71 47 79 74 49 86 77 51 93 80 53 100 83 55 107 61 57 79 64 59 86 67 61 93 70 63 100 73 46 107 76 48 79 79 50 86 82 52 93 60 54 100 63 56 107 66 58 79 69 60 86 72 62 93 75 64 100 78 47 107 81 49 79 84 51 86 62 53 93 65 55 100 68 57 107 71 59 79 74 61 86 77 63 93 80 46 100 83 48 107 61 50 79 64 52 86 67 54 93 70 56 100 73 58 107 76 60 79 79 62 86 82 64 93 60 47 100 63 49 107 66 51
96 65 55 103 68 57 110 71 59 82 74 61 89 77 63 96 80 46 103 83 48 110 61 50 82 64 52 89 67 54 96 70 56 103 73 58 110 76 60 82 79 62 89 82 64 96 60 47 103 63 49 110 66 51 82 69 53 89 72 55 96 75 57 103 78 59 110 81 61 82 84 63 89 62 46 96 65 48 103 68 50 110 71 52 82 74 54 89 77 56 96 80 58 103 83 60 110 61 62 82 64 64 89 67 47 96 70 49 103 73 51 110 76 53 82 79 55 89 82 57 96 60 59 103 63 61 110 66 63 82 69 46 89 72 48 96 75 50 103 78 52 110 81 54 82 84 56 89 62 58 96 65 60 103 68 62 110 71 64 82 74 47 89 77 49 96 80 51 103 83 53 110 61 55 82 64 57 89 67 59 96 70 61 103 73 63 110 76 46 82 79 48 89 82 50 96 60 52 103 63 54 110 66 56 82 69 58 89 72 60 96 75 62 103 78 64 110 81 47 82 84 49 89 62 51 96 65 53 103 68 55 110 71 57 82 74 59 89 77 61 96 80 63 103 83 46 110 61 48 82 64 50 89 67 52 96 70 54 103 73 56 110 76 58 82 79 60 89 82 62 96 60 64 103 63 47 110 66 49 82 69 51 89 72 53 96 75 55 103 78 57 110 81 59 82 84 61 89 62 63 96 65 46 103 68 48 110 71 50 82 74 52 89 77 54 96 80 56 103 83 58 110 61 60 82 64 62 89 67 64 96 70 47 103 73 49 110 76 51 82 79 53 89 82 55 96 60 57 103 63 59 110 66 61 82 69 63 89 72 46 96 75 48 103 78 50 110 81 52 82 84 54 89 62 56 96 65 58 103 68 60 110 71 62
99 70 47 106 73 49 78 76 51 85 79 53 92 82 55 99 60 57 106 63 59 78 66 61 85 69 63 92 72 46 99 75 48 106 78 50 78 81 52 85 84 54 92 62 56 99 65 58 106 68 60 78 71 62 85 74 64 92 77 47 99 80 49 106 83 51 78 61 53 85 64 55 92 67 57 99 70 59 106 73 61 78 76 63 85 79 46 92 82 48 99 60 50 106 63 52 78 66 54 85 69 56 92 72 58 99 75 60 106 78 62 78 81 64 85 84 47 92 62 49 99 65 51 106 68 53 78 71 55 85 74 57 92 77 59 99 80 61 106 83 63 78 61 46 85 64 48 92 67 50 99 70 52 106 73 54 78 76 56 85 79 58 92 82 60 99 60 62 106 63 64 78 66 47 85 69 49 92 72 51 99 75 53 106 78 55 78 81 57 85 84 59 92 62 61 99 65 63 106 68 46 78 71 48 85 74 50 92 77 52 99 80 54 106 83 56 78 61 58 85 64 60 92 67 62 99 70 64 106 73 47 78 76 49 85 79 51 92 82 53 99 60 55 106 63 57 78 66 59 85 69 61 92 72 63 99 75 46 106 78 48 78 81 50 85 84 52 92 62 54 99 65 56 106 68 58 78 71 60 85 74 62 92 77 64 99 80 47 106 83 49 78 61 51 85 64 53 92 67 55 99 70 57 106 73 59 78 76 61 85 79 63 92 82 46 99 60 48 106 63 50 78 66 52 85 69 54 92 72 56 99 75 58 106 78 60 78 81 62 85 84 64 92 62 47 99 65 49 106 68 51 78 71 53 85 74 55 92 77 57 99 80 59 106 83 61 78 61 63 85 64 46 92 67 48 99 70 50 106 73 52 78 76 54
102 75 58 109 78 60 81 81 62 88 84 64 95 62 47 102 65 49 109 68 51 81 71 53 88 74 55 95 77 57 102 80 59 109 83 61 81 61 63 88 64 46 95 67 48 102 70 50 109 73 52 81 76 54 88 79 56 95 82 58 102 60 60 109 63 62 81 66 64 88 69 47 95 72 49 102 75 51 109 78 53 81 81 55 88 84 57 95 62 59 102 65 61 109 68 63 81 71 46 88 74 48 95 77 50 102 80 52 109 83 54 81 61 56 88 64 58 95 67 60 102 70 62 109 73 64 81 76 47 88 79 49 95 82 51 102 60 53 109 63 55 81 66 57 88 69 59 95 72 61 102 75 63 109 78 46 81 81 48 88 84 50 95 62 52 102 65 54 109 68 56 81 71 58 88 74 60 95 77 62 102 80 64 109 83 47 81 61 49 88 64 51 95 67 53 102 70 55 109 73 57 81 76 59 88 79 61 95 82 63 102 60 46 109 63 48 81 66 50 88 69 52 95 72 54 102 75 56 109 78 58 81 81 60 88 84 62 95 62 64 102 65 47 109 68 49 81 71 51 88 74 53 95 77 55 102 80 57 109 83 59 81 61 61 88 64 63 95 67 46 102 70 48 109 73 50 81 76 52 88 79 54 95 82 56 102 60 58 109 63 60 81 66 62 88 69 64 95 72 47 102 75 49 109 78 51 81 81 53 88 84 55 95 62 57 102 65 59 109 68 61 81 71 63 88 74 46 95 77 48 102 80 50 109 83 52 81 61 54 88 64 56 95 67 58 102 70 60 109 73 62 81 76 64 88 79 47 95 82 49 102 60 51 109 63 53 81 66 55 88 69 57 95 72 59 102 75 61 109 78 63 81 81 46
105 80 50 112 83 52 84 61 54 91 64 56 98 67 58 105 70 60 112 73 62 84 76 64 91 79 47 98 82 49 105 60 51 112 63 53 84 66 55 91 69 57 98 72 59 105 75 61 112 78 63 84 81 46 91 84 48 98 62 50 105 65 52 112 68 54 84 71 56 91 74 58 98 77 60 105 80 62 112 83 64 84 61 47 91 64 49 98 67 51 105 70 53 112 73 55 84 76 57 91 79 59 98 82 61 105 60 63 112 63 46 84 66 48 91 69 50 98 72 52 105 75 54 112 78 56 84 81 58 91 84 60 98 62 62 105 65 64 112 68 47 84 71 49 91 74 51 98 77 53 105 80 55 112 83 57 84 61 59 91 64 61 98 67 63 105 70 46 112 73 48 84 76 50 91 79 52 98 82 54 105 60 56 112 63 58 84 66 60 91 69 62 98 72 64 105 75 47 112 78 49 84 81 51 91 84 53 98 62 55 105 65 57 112 68 59 84 71 61 91 74 63 98 77 46 105 80 48 112 83 50 84 61 52 91 64 54 98 67 56 105 70 58 112 73 60 84 76 62 91 79 64 98 82 47 105 60 49 112 63 51 84 66 53 91 69 55 98 72 57 105 75 59 112 78 61 84 81 63 91 84 46 98 62 48 105 65 50 112 68 52 84 71 54 91 74 56 98 77 58 105 80 60 112 83 62 84 61 64 91 64 47 98 67 49 105 70 51 112 73 53 84 76 55 91 79 57 98 82 59 105 60 61 112 63 63 84 66 46 91 69 48 98 72 50 105 75 52 112 78 54 84 81 56 91 84 58 98 62 60 105 65 62 112 68 64 84 71 47 91 74 49 98 77 51 105 80 53 112 83 55 84 61 57
108 60 61 80 63 63 87 66 46 94 69 48 101 72 50 108 75 52 80 78 54 87 81 56 94 84 58 101 62 60 108 65 62 80 68 64 87 71 47 94 74 49 101 77 51 108 80 53 80 83 55 87 61 57 94 64 59 101 67 61 108 70 63 80 73 46 87 76 48 94 79 50 101 82 52 108 60 54 80 63 56 87 66 58 94 69 60 101 72 62 108 75 64 80 78 47 87 81 49 94 84 51 101 62 53 108 65 55 80 68 57 87 71 59 94 74 61 101 77 63 108 80 46 80 83 48 87 61 50 94 64 52 101 67 54 108 70 56 80 73 58 87 76 60 94 79 62 101 82 64 108 60 47 80 63 49 87 66 51 94 69 53 101 72 55 108 75 57 80 78 59 87 81 61 94 84 63 101 62 46 108 65 48 80 68 50 87 71 52 94 74 54 101 77 56 108 80 58 80 83 60 87 61 62 94 64 64 101 67 47 108 70 49 80 73 51 87 76 53 94 79 55 101 82 57 108 60 59 80 63 61 87 66 63 94 69 46 101 72 48 108 75 50 80 78 52 87 81 54 94 84 56 101 62 58 108 65 60 80 68 62 87 71 64 94 74 47 101 77 49 108 80 51 80 83 53 87 61 55 94 64 57 101 67 59 108 70 61 80 73 63 87 76 46 94 79 48 101 82 50 108 60 52 80 63 54 87 66 56 94 69 58 101 72 60 108 75 62 80 78 64 87 81 47 94 84 49 101 62 51 108 65 53 80 68 55 87 71 57 94 74 59 101 77 61 108 80 63 80 83 46 87 61 48 94 64 50 101 67 52 108 70 54 80 73 56 87 76 58 94 79 60 101 82 62 108 60 64 80 63 47 87 66 49
111 65 53 83 68 55 90 71 57 97 74 59 104 77 61 111 80 63 83 83 46 90 61 48 97 64 50 104 67 52 111 70 54 83 73 56 90 76 58 97 79 60 104 82 62 111 60 64 83 63 47 90 66 49 97 69 51 104 72 53 111 75 55 83 78 57 90 81 59 97 84 61 104 62 63 111 65 46 83 68 48 90 71 50 97 74 52 104 77 54 111 80 56 83 83 58 90 61 60 97 64 62 104 67 64 111 70 47 83 73 49 90 76 51 97 79 53 104 82 55 111 60 57 83 63 59 90 66 61 97 69 63 104 72 46 111 75 48 83 78 50 90 81 52 97 84 54 104 62 56 111 65 58 83 68 60 90 71 62 97 74 64 104 77 47 111 80 49 83 83 51 90 61 53 97 64 55 104 67 57 111 70 59 83 73 61 90 76 63 97 79 46 104 82 48 111 60 50 83 63 52 90 66 54 97 69 56 104 72 58 111 75 60 83 78 62 90 81 64 97 84 47 104 62 49 111 65 51 83 68 53 90 71 55 97 74 57 104 77 59 111 80 61 83 83 63 90 61 46 97 64 48 104 67 50 111 70 52 83 73 54 90 76 56 97 79 58 104 82 60 111 60 62 83 63 64 90 66 47 97 69 49 104 72 51 111 75 53 83 78 55 90 81 57 97 84 59 104 62 61 111 65 63 83 68 46 90 71 48 97 74 50 104 77 52 111 80 54 83 83 56 90 61 58 97 64 60 104 67 62 111 70 64 83 73 47 90 76 49 97 79 51 104 82 53 111 60 55 83 63 57 90 66 59 97 69 61 104 72 63 111 75 46 83 78 48 90 81 50 97 84 52 104 62 54 111 65 56 83 68 58 90 71 60
79 70 64 86 73 47 93 76 49 100 79 51 107 82 53 79 60 55 86 63 57 93 66 59 100 69 61 107 72 63 79 75 46 86 78 48 93 81 50 100 84 52 107 62 54 79 65 56 86 68 58 93 71 60 100 74 62 107 77 64 79 80 47 86 83 49 93 61 51 100 64 53 107 67 55 79 70 57 86 73 59 93 76 61 100 79 63 107 82 46 79 60 48 86 63 50 93 66 52 100 69 54 107 72 56 79 75 58 86 78 60 93 81 62 100 84 64 107 62 47 79 65 49 86 68 51 93 71 53 100 74 55 107 77 57 79 80 59 86 83 61 93 61 63 100 64 46 107 67 48 79 70 50 86 73 52 93 76 54 100 79 56 107 82 58 79 60 60 86 63 62 93 66 64 100 69 47 107 72 49 79 75 51 86 78 53 93 81 55 100 84 57 107 62 59 79 65 61 86 68 63 93 71 46 100 74 48 107 77 50 79 80 52 86 83 54 93 61 56 100 64 58 107 67 60 79 70 62 86 73 64 93 76 47 100 79 49 107 82 51 79 60 53 86 63 55 93 66 57 100 69 59 107 72 61 79 75 63 86 78 46 93 81 48 100 84 50 107 62 52 79 65 54 86 68 56 93 71 58 100 74 60 107 77 62 79 80 64 86 83 47 93 61 49 100 64 51 107 67 53 79 70 55 86 73 57 93 76 59 100 79 61 107 82 63 79 60 46 86 63 48 93 66 50 100 69 52 107 72 54 79 75 56 86 78 58 93 81 60 100 84 62 107 62 64 79 65 47 86 68 49 93 71 51 100 74 53 107 77 55 79 80 57 86 83 59 93 61 61 100 64 63 107 67 46 79 70 48 86 73 50 93 76 52
82 75 56 89 78 58 96 81 60 103 84 62 110 62 64 82 65 47 89 68 49 96 71 51 103 74 53 110 77 55 82 80 57 89 83 59 96 61 61 103 64 63 110 67 46 82 70 48 89 73 50 96 76 52 103 79 54 110 82 56 82 60 58 89 63 60 96 66 62 103 69 64 110 72 47 82 75 49 89 78 51 96 81 53 103 84 55 110 62 57 82 65 59 89 68 61 96 71 63 103 74 46 110 77 48 82 80 50 89 83 52 96 61 54 103 64 56 110 67 58 82 70 60 89 73 62 96 76 64 103 79 47 110 82 49 82 60 51 89 63 53 96 66 55 103 69 57 110 72 59 82 75 61 89 78 63 96 81 46 103 84 48 110 62 50 82 65 52 89 68 54 96 71 56 103 74 58 110 77 60 82 80 62 89 83 64 96 61 47 103 64 49 110 67 51 82 70 53 89 73 55 96 76 57 103 79 59 110 82 61 82 60 63 89 63 46 96 66 48 103 69 50 110 72 52 82 75 54 89 78 56 96 81 58 103 84 60 110 62 62 82 65 64 89 68 47 96 71 49 103 74 51 110 77 53 82 80 55 89 83 57 96 61 59 103 64 61 110 67 63 82 70 46 89 73 48 96 76 50 103 79 52 110 82 54 82 60 56 89 63 58 96 66 60 103 69 62 110 72 64 82 75 47 89 78 49 96 81 51 103 84 53 110 62 55 82 65 57 89 68 59 96 71 61 103 74 63 110 77 46 82 80 48 89 83 50 96 61 52 103 64 54 110 67 56 82 70 58 89 73 60 96 76 62 103 79 64 110 82 47 82 60 49 89 63 51 96 66 53 103 69 55 110 72 57 82 75 59 89 78 61 96 81 63
85 80 48 92 83 50 99 61 52 106 64 54 78 67 56 85 70 58 92 73 60 99 76 62 106 79 64 78 82 47 85 60 49 92 63 51 99 66 53 106 69 55 78 72 57 85 75 59 92 78 61 99 81 63 106 84 46 78 62 48 85 65 50 92 68 52 99 71 54 106 74 56 78 77 58 85 80 60 92 83 62 99 61 64 106 64 47 78 67 49 85 70 51 92 73 53 99 76 55 106 79 57 78 82 59 85 60 61 92 63 63 99 66 46 106 69 48 78 72 50 85 75 52 92 78 54 99 81 56 106 84 58 78 62 60 85 65 62 92 68 64 99 71 47 106 74 49 78 77 51 85 80 53 92 83 55 99 61 57 106 64 59 78 67 61 85 70 63 92 73 46 99 76 48 106 79 50 78 82 52 85 60 54 92 63 56 99 66 58 106 69 60 78 72 62 85 75 64 92 78 47 99 81 49 106 84 51 78 62 53 85 65 55 92 68 57 99 71 59 106 74 61 78 77 63 85 80 46 92 83 48 99 61 50 106 64 52 78 67 54 85 70 56 92 73 58 99 76 60 106 79 62 78 82 64 85 60 47 92 63 49 99 66 51 106 69 53 78 72 55 85 75 57 92 78 59 99 81 61 106 84 63 78 62 46 85 65 48 92 68 50 99 71 52 106 74 54 78 77 56 85 80 58 92 83 60 99 61 62 106 64 64 78 67 47 85 70 49 92 73 51 99 76 53 106 79 55 78 82 57 85 60 59 92 63 61 99 66 63 106 69 46 78 72 48 85 75 50 92 78 52 99 81 54 106 84 56 78 62 58 85 65 60 92 68 62 99 71 64 106 74 47 78 77 49 85 80 51 92 83 53 99 61 55
88 60 59 95 63 61 102 66 63 109 69 46 81 72 48 88 75 50 95 78 52 102 81 54 109 84 56 81 62 58 88 65 60 95 68 62 102 71 64 109 74 47 81 77 49 88 80 51 95 83 53 102 61 55 109 64 57 81 67 59 88 70 61 95 73 63 102 76 46 109 79 48 81 82 50 88 60 52 95 63 54 102 66 56 109 69 58 81 72 60 88 75 62 95 78 64 102 81 47 109 84 49 81 62 51 88 65 53 95 68 55 102 71 57 109 74 59 81 77 61 88 80 63 95 83 46 102 61 48 109 64 50 81 67 52 88 70 54 95 73 56 102 76 58 109 79 60 81 82 62 88 60 64 95 63 47 102 66 49 109 69 51 81 72 53 88 75 55 95 78 57 102 81 59 109 84 61 81 62 63 88 65 46 95 68 48 102 71 50 109 74 52 81 77 54 88 80 56 95 83 58 102 61 60 109 64 62 81 67 64 88 70 47 95 73 49 102 76 51 109 79 53 81 82 55 88 60 57 95 63 59 102 66 61 109 69 63 81 72 46 88 75 48 95 78 50 102 81 52 109 84 54 81 62 56 88 65 58 95 68 60 102 71 62 109 74 64 81 77 47 88 80 49 95 83 51 102 61 53 109 64 55 81 67 57 88 70 59 95 73 61 102 76 63 109 79 46 81 82 48 88 60 50 95 63 52 102 66 54 109 69 56 81 72 58 88 75 60 95 78 62 102 81 64 109 84 47 81 62 49 88 65 51 95 68 53 102 71 55 109 74 57 81 77 59 88 80 61 95 83 63 102 61 46 109 64 48 81 67 50 88 70 52 95 73 54 102 76 56 109 79 58 81 82 60 88 60 62 95 63 64 102 66 47
91 65 51 98 68 53 105 71 55 112 74 57 84 77 59 91 80 61 98 83 63 105 61 46 112 64 48 84 67 50 91 70 52 98 73 54 105 76 56 112 79 58 84 82 60 91 60 62 98 63 64 105 66 47 112 69 49 84 72 51 91 75 53 98 78 55 105 81 57 112 84 59 84 62 61 91 65 63 98 68 46 105 71 48 112 74 50 84 77 52 91 80 54 98 83 56 105 61 58 112 64 60 84 67 62 91 70 64 98 73 47 105 76 49 112 79 51 84 82 53 91 60 55 98 63 57 105 66 59 112 69 61 84 72 63 91 75 46 98 78 48 105 81 50 112 84 52 84 62 54 91 65 56 98 68 58 105 71 60 112 74 62 84 77 64 91 80 47 98 83 49 105 61 51 112 64 53 84 67 55 91 70 57 98 73 59 105 76 61 112 79 63 84 82 46 91 60 48 98 63 50 105 66 52 112 69 54 84 72 56 91 75 58 98 78 60 105 81 62 112 84 64 84 62 47 91 65 49 98 68 51 105 71 53 112 74 55 84 77 57 91 80 59 98 83 61 105 61 63 112 64 46 84 67 48 91 70 50 98 73 52 105 76 54 112 79 56 84 82 58 91 60 60 98 63 62 105 66 64 112 69 47 84 72 49 91 75 51 98 78 53 105 81 55 112 84 57 84 62 59 91 65 61 98 68 63 105 71 46 112 74 48 84 77 50 91 80 52 98 83 54 105 61 56 112 64 58 84 67 60 91 70 62 98 73 64 105 76 47 112 79 49 84 82 51 91 60 53 98 63 55 105 66 57 112 69 59 84 72 61 91 75 63 98 78 46 105 81 48 112 84 50 84 62 52 91 65 54 98 68 56 105 71 58
94 70 62 101 73 64 108 76 47 80 79 49 87 82 51 94 60 53 101 63 55 108 66 57 80 69 59 87 72 61 94 75 63 101 78 46 108 81 48 80 84 50 87 62 52 94 65 54 101 68 56 108 71 58 80 74 60 87 77 62 94 80 64 101 83 47 108 61 49 80 64 51 87 67 53 94 70 55 101 73 57 108 76 59 80 79 61 87 82 63 94 60 46 101 63 48 108 66 50 80 69 52 87 72 54 94 75 56 101 78 58 108 81 60 80 84 62 87 62 64 94 65 47 101 68 49 108 71 51 80 74 53 87 77 55 94 80 57 101 83 59 108 61 61 80 64 63 87 67 46 94 70 48 101 73 50 108 76 52 80 79 54 87 82 56 94 60 58 101 63 60 108 66 62 80 69 64 87 72 47 94 75 49 101 78 51 108 81 53 80 84 55 87 62 57 94 65 59 101 68 61 108 71 63 80 74 46 87 77 48 94 80 50 101 83 52 108 61 54 80 64 56 87 67 58 94 70 60 101 73 62 108 76 64 80 79 47 87 82 49 94 60 51 101 63 53 108 66 55 80 69 57 87 72 59 94 75 61 101 78 63 108 81 46 80 84 48 87 62 50 94 65 52 101 68 54 108 71 56 80 74 58 87 77 60 94 80 62 101 83 64 108 61 47 80 64 49 87 67 51 94 70 53 101 73 55 108 76 57 80 79 59 87 82 61 94 60 63 101 63 46 108 66 48 80 69 50 87 72 52 94 75 54 101 78 56 108 81 58 80 84 60 87 62 62 94 65 64 101 68 47 108 71 49 80 74 51 87 77 53 94 80 55 101 83 57 108 61 59 80 64 61 87 67 63 94 70 46 101 73 48 108 76 50
97 75 54 104 78 56 111 81 58 83 84 60 90 62 62 97 65 64 104 68 47 111 71 49 83 74 51 90 77 53 97 80 55 104 83 57 111 61 59 83 64 61 90 67 63 97 70 46 104 73 48 111 76 50 83 79 52 90 82 54 97 60 56 104 63 58 111 66 60 83 69 62 90 72 64 97 75 47 104 78 49 111 81 51 83 84 53 90 62 55 97 65 57 104 68 59 111 71 61 83 74 63 90 77 46 97 80 48 104 83 50 111 61 52 83 64 54 90 67 56 97 70 58 104 73 60 111 76 62 83 79 64 90 82 47 97 60 49 104 63 51 111 66 53 83 69 55 90 72 57 97 75 59 104 78 61 111 81 63 83 84 46 90 62 48 97 65 50 104 68 52 111 71 54 83 74 56 90 77 58 97 80 60 104 83 62 111 61 64 83 64 47 90 67 49 97 70 51 104 73 53 111 76 55 83 79 57 90 82 59 97 60 61 104 63 63 111 66 46 83 69 48 90 72 50 97 75 52 104 78 54 111 81 56 83 84 58 90 62 60 97 65 62 104 68 64 111 71 47 83 74 49 90 77 51 97 80 53 104 83 55 111 61 57 83 64 59 90 67 61 97 70 63 104 73 46 111 76 48 83 79 50 90 82 52 97 60 54 104 63 56 111 66 58 83 69 60 90 72 62 97 75 64 104 78 47 111 81 49 83 84 51 90 62 53 97 65 55 104 68 57 111 71 59 83 74 61 90 77 63 97 80 46 104 83 48 111 61 50 83 64 52 90 67 54 97 70 56 104 73 58 111 76 60 83 79 62 90 82 64 97 60 47 104 63 49 111 66 51 83 69 53 90 72 55 97 75 57 104 78 59 111 81 61
100 80 46 107 83 48 79 61 50 86 64 52 93 67 54 100 70 56 107 73 58 79 76 60 86 79 62 93 82 64 100 60 47 107 63 49 79 66 51 86 69 53 93 72 55 100 75 57 107 78 59 79 81 61 86 84 63 93 62 46 100 65 48 107 68 50 79 71 52 86 74 54 93 77 56 100 80 58 107 83 60 79 61 62 86 64 64 93 67 47 100 70 49 107 73 51 79 76 53 86 79 55 93 82 57 100 60 59 107 63 61 79 66 63 86 69 46 93 72 48 100 75 50 107 78 52 79 81 54 86 84 56 93 62 58 100 65 60 107 68 62 79 71 64 86 74 47 93 77 49 100 80 51 107 83 53 79 61 55 86 64 57 93 67 59 100 70 61 107 73 63 79 76 46 86 79 48 93 82 50 100 60 52 107 63 54 79 66 56 86 69 58 93 72 60 100 75 62 107 78 64 79 81 47 86 84 49 93 62 51 100 65 53 107 68 55 79 71 57 86 74 59 93 77 61 100 80 63 107 83 46 79 61 48 86 64 50 93 67 52 100 70 54 107 73 56 79 76 58 86 79 60 93 82 62 100 60 64 107 63 47 79 66 49 86 69 51 93 72 53 100 75 55 107 78 57 79 81 59 86 84 61 93 62 63 100 65 46 107 68 48 79 71 50 86 74 52 93 77 54 100 80 56 107 83 58 79 61 60 86 64 62 93 67 64 100 70 47 107 73 49 79 76 51 86 79 53 93 82 55 100 60 57 107 63 59 79 66 61 86 69 63 93 72 46 100 75 48 107 78 50 79 81 52 86 84 54 93 62 56 100 65 58 107 68 60 79 71 62 86 74 64 93 77 47 100 80 49 107 83 51 79 61 53
103 60 57 110 63 59 82 66 61 89 69 63 96 72 46 103 75 48 110 78 50 82 81 52 89 84 54 96 62 56 103 65 58 110 68 60 82 71 62 89 74 64 96 77 47 103 80 49 110 83 51 82 61 53 89 64 55 96 67 57 103 70 59 110 73 61 82 76 63 89 79 46 96 82 48 103 60 50 110 63 52 82 66 54 89 69 56 96 72 58 103 75 60 110 78 62 82 81 64 89 84 47 96 62 49 103 65 51 110 68 53 82 71 55 89 74 57 96 77 59 103 80 61 110 83 63 82 61 46 89 64 48 96 67 50 103 70 52 110 73 54 82 76 56 89 79 58 96 82 60 103 60 62 110 63 64 82 66 47 89 69 49 96 72 51 103 75 53 110 78 55 82 81 57 89 84 59 96 62 61 103 65 63 110 68 46 82 71 48 89 74 50 96 77 52 103 80 54 110 83 56 82 61 58 89 64 60 96 67 62 103 70 64 110 73 47 82 76 49 89 79 51 96 82 53 103 60 55 110 63 57 82 66 59 89 69 61 96 72 63 103 75 46 110 78 48 82 81 50 89 84 52 96 62 54 103 65 56 110 68 58 82 71 60 89 74 62 96 77 64 103 80 47 110 83 49 82 61 51 89 64 53 96 67 55 103 70 57 110 73 59 82 76 61 89 79 63 96 82 46 103 60 48 110 63 50 82 66 52 89 69 54 96 72 56 103 75 58 110 78 60 82 81 62 89 84 64 96 62 47 103 65 49 110 68 51 82 71 53 89 74 55 96 77 57 103 80 59 110 83 61 82 61 63 89 64 46 96 67 48 103 70 50 110 73 52 82 76 54 89 79 56 96 82 58 103 60 60 110 63 62 82 66 64
106 65 49 78 68 51 85 71 53 92 74 55 99 77 57 106 80 59 78 83 61 85 61 63 92 64 46 99 67 48 106 70 50 78 73 52 85 76 54 92 79 56 99 82 58 106 60 60 78 63 62 85 66 64 92 69 47 99 72 49 106 75 51 78 78 53 85 81 55 92 84 57 99 62 59 106 65 61 78 68 63 85 71 46 92 74 48 99 77 50 106 80 52 78 83 54 85 61 56 92 64 58 99 67 60 106 70 62 78 73 64 85 76 47 92 79 49 99 82 51 106 60 53 78 63 55 85 66 57 92 69 59 99 72 61 106 75 63 78 78 46 85 81 48 92 84 50 99 62 52 106 65 54 78 68 56 85 71 58 92 74 60 99 77 62 106 80 64 78 83 47 85 61 49 92 64 51 99 67 53 106 70 55 78 73 57 85 76 59 92 79 61 99 82 63 106 60 46 78 63 48 85 66 50 92 69 52 99 72 54 106 75 56 78 78 58 85 81 60 92 84 62 99 62 64 106 65 47 78 68 49 85 71 51 92 74 53 99 77 55 106 80 57 78 83 59 85 61 61 92 64 63 99 67 46 106 70 48 78 73 50 85 76 52 92 79 54 99 82 56 106 60 58 78 63 60 85 66 62 92 69 64 99 72 47 106 75 49 78 78 51 85 81 53 92 84 55 99 62 57 106 65 59 78 68 61 85 71 63 92 74 46 99 77 48 106 80 50 78 83 52 85 61 54 92 64 56 99 67 58 106 70 60 78 73 62 85 76 64 92 79 47 99 82 49 106 60 51 78 63 53 85 66 55 92 69 57 99 72 59 106 75 61 78 78 63 85 81 46 92 84 48 99 62 50 106 65 52 78 68 54 85 71 56
109 70 60 81 73 62 88 76 64 95 79 47 102 82 49 109 60 51 81 63 53 88 66 55 95 69 57 102 72 59 109 75 61 81 78 63 88 81 46 95 84 48 102 62 50 109 65 52 81 68 54 88 71 56 95 74 58 102 77 60 109 80 62 81 83 64 88 61 47 95 64 49 102 67 51 109 70 53 81 73 55 88 76 57 95 79 59 102 82 61 109 60 63 81 63 46 88 66 48 95 69 50 102 72 52 109 75 54 81 78 56 88 81 58 95 84 60 102 62 62 109 65 64 81 68 47 88 71 49 95 74 51 102 77 53 109 80 55 81 83 57 88 61 59 95 64 61 102 67 63 109 70 46 81 73 48 88 76 50 95 79 52 102 82 54 109 60 56 81 63 58 88 66 60 95 69 62 102 72 64 109 75 47 81 78 49 88 81 51 95 84 53 102 62 55 109 65 57 81 68 59 88 71 61 95 74 63 102 77 46 109 80 48 81 83 50 88 61 52 95 64 54 102 67 56 109 70 58 81 73 60 88 76 62 95 79 64 102 82 47 109 60 49 81 63 51 88 66 53 95 69 55 102 72 57 109 75 59 81 78 61 88 81 63 95 84 46 102 62 48 109 65 50 81 68 52 88 71 54 95 74 56 102 77 58 109 80 60 81 83 62 88 61 64 95 64 47 102 67 49 109 70 51 81 73 53 88 76 55 95 79 57 102 82 59 109 60 61 81 63 63 88 66 46 95 69 48 102 72 50 109 75 52 81 78 54 88 81 56 95 84 58 102 62 60 109 65 62 81 68 64 88 71 47 95 74 49 102 77 51 109 80 53 81 83 55 88 61 57 95 64 59 102 67 61 109 70 63 81 73 46 88 76 48
112 75 52 84 78 54 91 81 56 98 84 58 105 62 60 112 65 62 84 68 64 91 71 47 98 74 49 105 77 51 112 80 53 84 83 55 91 61 57 98 64 59 105 67 61 112 70 63 84 73 46 91 76 48 98 79 50 105 82 52 112 60 54 84 63 56 91 66 58 98 69 60 105 72 62 112 75 64 84 78 47 91 81 49 98 84 51 105 62 53 112 65 55 84 68 57 91 71 59 98 74 61 105 77 63 112 80 46 84 83 48 91 61 50 98 64 52 105 67 54 112 70 56 84 73 58 91 76 60 98 79 62 105 82 64 112 60 47 84 63 49 91 66 51 98 69 53 105 72 55 112 75 57 84 78 59 91 81 61 98 84 63 105 62 46 112 65 48 84 68 50 91 71 52 98 74 54 105 77 56 112 80 58 84 83 60 91 61 62 98 64 64 105 67 47 112 70 49 84 73 51 91 76 53 98 79 55 105 82 57 112 60 59 84 63 61 91 66 63 98 69 46 105 72 48 112 75 50 84 78 52 91 81 54 98 84 56 105 62 58 112 65 60 84 68 62 91 71 64 98 74 47 105 77 49 112 80 51 84 83 53 91 61 55 98 64 57 105 67 59 112 70 61 84 73 63 91 76 46 98 79 48 105 82 50 112 60 52 84 63 54 91 66 56 98 69 58 105 72 60 112 75 62 84 78 64 91 81 47 98 84 49 105 62 51 112 65 53 84 68 55 91 71 57 98 74 59 105 77 61 112 80 63 84 83 46 91 61 48 98 64 50 105 67 52 112 70 54 84 73 56 91 76 58 98 79 60 105 82 62 112 60 64 84 63 47 91 66 49 98 69 51 105 72 53 112 75 55 84 78 57 91 81 59
80 80 63 87 83 46 94 61 48 101 64 50 108 67 52 80 70 54 87 73 56 94 76 58 101 79 60 108 82 62 80 60 64 87 63 47 94 66 49 101 69 51 108 72 53 80 75 55 87 78 57 94 81 59 101 84 61 108 62 63 80 65 46 87 68 48 94 71 50 101 74 52 108 77 54 80 80 56 87 83 58 94 61 60 101 64 62 108 67 64 80 70 47 87 73 49 94 76 51 101 79 53 108 82 55 80 60 57 87 63 59 94 66 61 101 69 63 108 72 46 80 75 48 87 78 50 94 81 52 101 84 54 108 62 56 80 65 58 87 68 60 94 71 62 101 74 64 108 77 47 80 80 49 87 83 51 94 61 53 101 64 55 108 67 57 80 70 59 87 73 61 94 76 63 101 79 46 108 82 48 80 60 50 87 63 52 94 66 54 101 69 56 108 72 58 80 75 60 87 78 62 94 81 64 101 84 47 108 62 49 80 65 51 87 68 53 94 71 55 101 74 57 108 77 59 80 80 61 87 83 63 94 61 46 101 64 48 108 67 50 80 70 52 87 73 54 94 76 56 101 79 58 108 82 60 80 60 62 87 63 64 94 66 47 101 69 49 108 72 51 80 75 53 87 78 55 94 81 57 101 84 59 108 62 61 80 65 63 87 68 46 94 71 48 101 74 50 108 77 52 80 80 54 87 83 56 94 61 58 101 64 60 108 67 62 80 70 64 87 73 47 94 76 49 101 79 51 108 82 53 80 60 55 87 63 57 94 66 59 101 69 61 108 72 63 80 75 46 87 78 48 94 81 50 101 84 52 108 62 54 80 65 56 87 68 58 94 71 60 101 74 62 108 77 64 80 80 47 87 83 49 94 61 51
83 60 55 90 63 57 97 66 59 104 69 61 111 72 63 83 75 46 90 78 48 97 81 50 104 84 52 111 62 54 83 65 56 90 68 58 97 71 60 104 74 62 111 77 64 83 80 47 90 83 49 97 61 51 104 64 53 111 67 55 83 70 57 90 73 59 97 76 61 104 79 63 111 82 46 83 60 48 90 63 50 97 66 52 104 69 54 111 72 56 83 75 58 90 78 60 97 81 62 104 84 64 111 62 47 83 65 49 90 68 51 97 71 53 104 74 55 111 77 57 83 80 59 90 83 61 97 61 63 104 64 46 111 67 48 83 70 50 90 73 52 97 76 54 104 79 56 111 82 58 83 60 60 90 63 62 97 66 64 104 69 47 111 72 49 83 75 51 90 78 53 97 81 55 104 84 57 111 62 59 83 65 61 90 68 63 97 71 46 104 74 48 111 77 50 83 80 52 90 83 54 97 61 56 104 64 58 111 67 60 83 70 62 90 73 64 97 76 47 104 79 49 111 82 51 83 60 53 90 63 55 97 66 57 104 69 59 111 72 61 83 75 63 90 78 46 97 81 48 104 84 50 111 62 52 83 65 54 90 68 56 97 71 58 104 74 60 111 77 62 83 80 64 90 83 47 97 61 49 104 64 51 111 67 53 83 70 55 90 73 57 97 76 59 104 79 61 111 82 63 83 60 46 90 63 48 97 66 50 104 69 52 111 72 54 83 75 56 90 78 58 97 81 60 104 84 62 111 62 64 83 65 47 90 68 49 97 71 51 104 74 53 111 77 55 83 80 57 90 83 59 97 61 61 104 64 63 111 67 46 83 70 48 90 73 50 97 76 52 104 79 54 111 82 56 83 60 58 90 63 60 97 66 62
86 65 47 93 68 49 100 71 51 107 74 53 79 77 55 86 80 57 93 83 59 100 61 61 107 64 63 79 67 46 86 70 48 93 73 50 100 76 52 107 79 54 79 82 56 86 60 58 93 63 60 100 66 62 107 69 64 79 72 47 86 75 49 93 78 51 100 81 53 107 84 55 79 62 57 86 65 59 93 68 61 100 71 63 107 74 46 79 77 48 86 80 50 93 83 52 100 61 54 107 64 56 79 67 58 86 70 60 93 73 62 100 76 64 107 79 47 79 82 49 86 60 51 93 63 53 100 66 55 107 69 57 79 72 59 86 75 61 93 78 63 100 81 46 107 84 48 79 62 50 86 65 52 93 68 54 100 71 56 107 74 58 79 77 60 86 80 62 93 83 64 100 61 47 107 64 49 79 67 51 86 70 53 93 73 55 100 76 57 107 79 59 79 82 61 86 60 63 93 63 46 100 66 48 107 69 50 79 72 52 86 75 54 93 78 56 100 81 58 107 84 60 79 62 62 86 65 64 93 68 47 100 71 49 107 74 51 79 77 53 86 80 55 93 83 57 100 61 59 107 64 61 79 67 63 86 70 46 93 73 48 100 76 50 107 79 52 79 82 54 86 60 56 93 63 58 100 66 60 107 69 62 79 72 64 86 75 47 93 78 49 100 81 51 107 84 53 79 62 55 86 65 57 93 68 59 100 71 61 107 74 63 79 77 46 86 80 48 93 83 50 100 61 52 107 64 54 79 67 56 86 70 58 93 73 60 100 76 62 107 79 64 79 82 47 86 60 49 93 63 51 100 66 53 107 69 55 79 72 57 86 75 59 93 78 61 100 81 63 107 84 46 79 62 48 86 65 50 93 68 52 100 71 54
89 70 58 96 73 60 103 76 62 110 79 64 82 82 47 89 60 49 96 63 51 103 66 53 110 69 55 82 72 57 89 75 59 96 78 61 103 81 63 110 84 46 82 62 48 89 65 50 96 68 52 103 71 54 110 74 56 82 77 58 89 80 60 96 83 62 103 61 64 110 64 47 82 67 49 89 70 51 96 73 53 103 76 55 110 79 57 82 82 59 89 60 61 96 63 63 103 66 46 110 69 48 82 72 50 89 75 52 96 78 54 103 81 56 110 84 58 82 62 60 89 65 62 96 68 64 103 71 47 110 74 49 82 77 51 89 80 53 96 83 55 103 61 57 110 64 59 82 67 61 89 70 63 96 73 46 103 76 48 110 79 50 82 82 52 89 60 54 96 63 56 103 66 58 110 69 60 82 72 62 89 75 64 96 78 47 103 81 49 110 84 51 82 62 53 89 65 55 96 68 57 103 71 59 110 74 61 82 77 63 89 80 46 96 83 48 103 61 50 110 64 52 82 67 54 89 70 56 96 73 58 103 76 60 110 79 62 82 82 64 89 60 47 96 63 49 103 66 51 110 69 53 82 72 55 89 75 57 96 78 59 103 81 61 110 84 63 82 62 46 89 65 48 96 68 50 103 71 52 110 74 54 82 77 56 89 80 58 96 83 60 103 61 62 110 64 64 82 67 47 89 70 49 96 73 51 103 76 53 110 79 55 82 82 57 89 60 59 96 63 61 103 66 63 110 69 46 82 72 48 89 75 50 96 78 52 103 81 54 110 84 56 82 62 58 89 65 60 96 68 62 103 71 64 110 74 47 82 77 49 89 80 51 96 83 53 103 61 55 110 64 57 82 67 59 89 70 61 96 73 63 103 76 46
92 75 50 99 78 52 106 81 54 78 84 56 85 62 58 92 65 60 99 68 62 106 71 64 78 74 47 85 77 49 92 80 51 99 83 53 106 61 55 78 64 57 85 67 59 92 70 61 99 73 63 106 76 46 78 79 48 85 82 50 92 60 52 99 63 54 106 66 56 78 69 58 85 72 60 92 75 62 99 78 64 106 81 47 78 84 49 85 62 51 92 65 53 99 68 55 106 71 57 78 74 59 85 77 61 92 80 63 99 83 46 106 61 48 78 64 50 85 67 52 92 70 54 99 73 56 106 76 58 78 79 60 85 82 62 92 60 64 99 63 47 106 66 49 78 69 51 85 72 53 92 75 55 99 78 57 106 81 59 78 84 61 85 62 63 92 65 46 99 68 48 106 71 50 78 74 52 85 77 54 92 80 56 99 83 58 106 61 60 78 64 62 85 67 64 92 70 47 99 73 49 106 76 51 78 79 53 85 82 55 92 60 57 99 63 59 106 66 61 78 69 63 85 72 46 92 75 48 99 78 50 106 81 52 78 84 54 85 62 56 92 65 58 99 68 60 106 71 62 78 74 64 85 77 47 92 80 49 99 83 51 106 61 53 78 64 55 85 67 57 92 70 59 99 73 61 106 76 63 78 79 46 85 82 48 92 60 50 99 63 52 106 66 54 78 69 56 85 72 58 92 75 60 99 78 62 106 81 64 78 84 47 85 62 49 92 65 51 99 68 53 106 71 55 78 74 57 85 77 59 92 80 61 99 83 63 106 61 46 78 64 48 85 67 50 92 70 52 99 73 54 106 76 56 78 79 58 85 82 60 92 60 62 99 63 64 106 66 47 78 69 49 85 72 51 92 75 53 99 78 55 106 81 57
95 80 61 102 83 63 109 61 46 81 64 48 88 67 50 95 70 52 102 73 54 109 76 56 81 79 58 88 82 60 95 60 62 102 63 64 109 66 47 81 69 49 88 72 51 95 75 53 102 78 55 109 81 57 81 84 59 88 62 61 95 65 63 102 68 46 109 71 48 81 74 50 88 77 52 95 80 54 102 83 56 109 61 58 81 64 60 88 67 62 95 70 64 102 73 47 109 76 49 81 79 51 88 82 53 95 60 55 102 63 57 109 66 59 81 69 61 88 72 63 95 75 46 102 78 48 109 81 50 81 84 52 88 62 54 95 65 56 102 68 58 109 71 60 81 74 62 88 77 64 95 80 47 102 83 49 109 61 51 81 64 53 88 67 55 95 70 57 102 73 59 109 76 61 81 79 63 88 82 46 95 60 48 102 63 50 109 66 52 81 69 54 88 72 56 95 75 58 102 78 60 109 81 62 81 84 64 88 62 47 95 65 49 102 68 51 109 71 53 81 74 55 88 77 57 95 80 59 102 83 61 109 61 63 81 64 46 88 67 48 95 70 50 102 73 52 109 76 54 81 79 56 88 82 58 95 60 60 102 63 62 109 66 64 81 69 47 88 72 49 95 75 51 102 78 53 109 81 55 81 84 57 88 62 59 95 65 61 102 68 63 109 71 46 81 74 48 88 77 50 95 80 52 102 83 54 109 61 56 81 64 58 88 67 60 95 70 62 102 73 64 109 76 47 81 79 49 88 82 51 95 60 53 102 63 55 109 66 57 81 69 59 88 72 61 95 75 63 102 78 46 109 81 48 81 84 50 88 62 52 95 65 54 102 68 56 109 71 58 81 74 60 88 77 62 95 80 64 102 83 47 109 61 49
98 60 53 105 63 55 112 66 57 84 69 59 91 72 61 98 75 63 105 78 46 112 81 48 84 84 50 91 62 52 98 65 54 105 68 56 112 71 58 84 74 60 91 77 62 98 80 64 105 83 47 112 61 49 84 64 51 91 67 53 98 70 55 105 73 57 112 76 59 84 79 61 91 82 63 98 60 46 105 63 48 112 66 50 84 69 52 91 72 54 98 75 56 105 78 58 112 81 60 84 84 62 91 62 64 98 65 47 105 68 49 112 71 51 84 74 53 91 77 55 98 80 57 105 83 59 112 61 61 84 64 63 91 67 46 98 70 48 105 73 50 112 76 52 84 79 54 91 82 56 98 60 58 105 63 60 112 66 62 84 69 64 91 72 47 98 75 49 105 78 51 112 81 53 84 84 55 91 62 57 98 65 59 105 68 61 112 71 63 84 74 46 91 77 48 98 80 50 105 83 52 112 61 54 84 64 56 91 67 58 98 70 60 105 73 62 112 76 64 84 79 47 91 82 49 98 60 51 105 63 53 112 66 55 84 69 57 91 72 59 98 75 61 105 78 63 112 81 46 84 84 48 91 62 50 98 65 52 105 68 54 112 71 56 84 74 58 91 77 60 98 80 62 105 83 64 112 61 47 84 64 49 91 67 51 98 70 53 105 73 55 112 76 57 84 79 59 91 82 61 98 60 63 105 63 46 112 66 48 84 69 50 91 72 52 98 75 54 105 78 56 112 81 58 84 84 60 91 62 62 98 65 64 105 68 47 112 71 49 84 74 51 91 77 53 98 80 55 105 83 57 112 61 59 84 64 61 91 67 63 98 70 46 105 73 48 112 76 50 84 79 52 91 82 54 98 60 56 105 63 58 112 66 60
101 65 64 108 68 47 80 71 49 87 74 51 94 77 53 101 80 55 108 83 57 80 61 59 87 64 61 94 67 63 101 70 46 108 73 48 80 76 50 87 79 52 94 82 54 101 60 56 108 63 58 80 66 60 87 69 62 94 72 64 101 75 47 108 78 49 80 81 51 87 84 53 94 62 55 101 65 57 108 68 59 80 71 61 87 74 63 94 77 46 101 80 48 108 83 50 80 61 52 87 64 54 94 67 56 101 70 58 108 73 60 80 76 62 87 79 64 94 82 47 101 60 49 108 63 51 80 66 53 87 69 55 94 72 57 101 75 59 108 78 61 80 81 63 87 84 46 94 62 48 101 65 50 108 68 52 80 71 54 87 74 56 94 77 58 101 80 60 108 83 62 80 61 64 87 64 47 94 67 49 101 70 51 108 73 53 80 76 55 87 79 57 94 82 59 101 60 61 108 63 63 80 66 46 87 69 48 94 72 50 101 75 52 108 78 54 80 81 56 87 84 58 94 62 60 101 65 62 108 68 64 80 71 47 87 74 49 94 77 51 101 80 53 108 83 55 80 61 57 87 64 59 94 67 61 101 70 63 108 73 46 80 76 48 87 79 50 94 82 52 101 60 54 108 63 56 80 66 58 87 69 60 94 72 62 101 75 64 108 78 47 80 81 49 87 84 51 94 62 53 101 65 55 108 68 57 80 71 59 87 74 61 94 77 63 101 80 46 108 83 48 80 61 50 87 64 52 94 67 54 101 70 56 108 73 58 80 76 60 87 79 62 94 82 64 101 60 47 108 63 49 80 66 51 87 69 53 94 72 55 101 75 57 108 78 59 80 81 61 87 84 63 94 62 46 101 65 48 108 68 50 80 71 52
104 70 56 111 73 58 83 76 60 90 79 62 97 82 64 104 60 47 111 63 49 83 66 51 90 69 53 97 72 55 104 75 57 111 78 59 83 81 61 90 84 63 97 62 46 104 65 48 111 68 50 83 71 52 90 74 54 97 77 56 104 80 58 111 83 60 83 61 62 90 64 64 97 67 47 104 70 49 111 73 51 83 76 53 90 79 55 97 82 57 104 60 59 111 63 61 83 66 63 90 69 46 97 72 48 104 75 50 111 78 52 83 81 54 90 84 56 97 62 58 104 65 60 111 68 62 83 71 64 90 74 47 97 77 49 104 80 51 111 83 53 83 61 55 90 64 57 97 67 59 104 70 61 111 73 63 83 76 46 90 79 48 97 82 50 104 60 52 111 63 54 83 66 56 90 69 58 97 72 60 104 75 62 111 78 64 83 81 47 90 84 49 97 62 51 104 65 53 111 68 55 83 71 57 90 74 59 97 77 61 104 80 63 111 83 46 83 61 48 90 64 50 97 67 52 104 70 54 111 73 56 83 76 58 90 79 60 97 82 62 104 60 64 111 63 47 83 66 49 90 69 51 97 72 53 104 75 55 111 78 57 83 81 59 90 84 61 97 62 63 104 65 46 111 68 48 83 71 50 90 74 52 97 77 54 104 80 56 111 83 58 83 61 60 90 64 62 97 67 64 104 70 47 111 73 49 83 76 51 90 79 53 97 82 55 104 60 57 111 63 59 83 66 61 90 69 63 97 72 46 104 75 48 111 78 50 83 81 52 90 84 54 97 62 56 104 65 58 111 68 60 83 71 62 90 74 64 97 77 47 104 80 49 111 83 51 83 61 53 90 64 55 97 67 57 104 70 59 111 73 61 83 76 63
107 75 48 79 78 50 86 81 52 93 84 54 100 62 56 107 65 58 79 68 60 86 71 62 93 74 64 100 77 47 107 80 49 79 83 51 86 61 53 93 64 55 100 67 57 107 70 59 79 73 61 86 76 63 93 79 46 100 82 48 107 60 50 79 63 52 86 66 54 93 69 56 100 72 58 107 75 60 79 78 62 86 81 64 93 84 47 100 62 49 107 65 51 79 68 53 86 71 55 93 74 57 100 77 59 107 80 61 79 83 63 86 61 46 93 64 48 100 67 50 107 70 52 79 73 54 86 76 56 93 79 58 100 82 60 107 60 62 79 63 64 86 66 47 93 69 49 100 72 51 107 75 53 79 78 55 86 81 57 93 84 59 100 62 61 107 65 63 79 68 46 86 71 48 93 74 50 100 77 52 107 80 54 79 83 56 86 61 58 93 64 60 100 67 62 107 70 64 79 73 47 86 76 49 93 79 51 100 82 53 107 60 55 79 63 57 86 66 59 93 69 61 100 72 63 107 75 46 79 78 48 86 81 50 93 84 52 100 62 54 107 65 56 79 68 58 86 71 60 93 74 62 100 77 64 107 80 47 79 83 49 86 61 51 93 64 53 100 67 55 107 70 57 79 73 59 86 76 61 93 79 63 100 82 46 107 60 48 79 63 50 86 66 52 93 69 54 100 72 56 107 75 58 79 78 60 86 81 62 93 84 64 100 62 47 107 65 49 79 68 51 86 71 53 93 74 55 100 77 57 107 80 59 79 83 61 86 61 63 93 64 46 100 67 48 107 70 50 79 73 52 86 76 54 93 79 56 100 82 58 107 60 60 79 63 62 86 66 64 93 69 47 100 72 49 107 75 51 79 78 53 86 81 55
110 80 59 82 83 61 89 61 63 96 64 46 103 67 48 110 70 50 82 73 52 89 76 54 96 79 56 103 82 58 110 60 60 82 63 62 89 66 64 96 69 47 103 72 49 110 75 51 82 78 53 89 81 55 96 84 57 103 62 59 110 65 61 82 68 63 89 71 46 96 74 48 103 77 50 110 80 52 82 83 54 89 61 56 96 64 58 103 67 60 110 70 62 82 73 64 89 76 47 96 79 49 103 82 51 110 60 53 82 63 55 89 66 57 96 69 59 103 72 61 110 75 63 82 78 46 89 81 48 96 84 50 103 62 52 110 65 54 82 68 56 89 71 58 96 74 60 103 77 62 110 80 64 82 83 47 89 61 49 96 64 51 103 67 53 110 70 55 82 73 57 89 76 59 96 79 61 103 82 63 110 60 46 82 63 48 89 66 50 96 69 52 103 72 54 110 75 56 82 78 58 89 81 60 96 84 62 103 62 64 110 65 47 82 68 49 89 71 51 96 74 53 103 77 55 110 80 57 82 83 59 89 61 61 96 64 63 103 67 46 110 70 48 82 73 50 89 76 52 96 79 54 103 82 56 110 60 58 82 63 60 89 66 62 96 69 64 103 72 47 110 75 49 82 78 51 89 81 53 96 84 55 103 62 57 110 65 59 82 68 61 89 71 63 96 74 46 103 77 48 110 80 50 82 83 52 89 61 54 96 64 56 103 67 58 110 70 60 82 73 62 89 76 64 96 79 47 103 82 49 110 60 51 82 63 53 89 66 55 96 69 57 103 72 59 110 75 61 82 78 63 89 81 46 96 84 48 103 62 50 110 65 52 82 68 54 89 71 56 96 74 58 103 77 60 110 80 62 82 83 64 89 61 47
78 60 51 85 63 53 92 66 55 99 69 57 106 72 59 78 75 61 85 78 63 92 81 46 99 84 48 106 62 50 78 65 52 85 68 54 92 71 56 99 74 58 106 77 60 78 80 62 85 83 64 92 61 47 99 64 49 106 67 51 78 70 53 85 73 55 92 76 57 99 79 59 106 82 61 78 60 63 85 63 46 92 66 48 99 69 50 106 72 52 78 75 54 85 78 56 92 81 58 99 84 60 106 62 62 78 65 64 85 68 47 92 71 49 99 74 51 106 77 53 78 80 55 85 83 57 92 61 59 99 64 61 106 67 63 78 70 46 85 73 48 92 76 50 99 79 52 106 82 54 78 60 56 85 63 58 92 66 60 99 69 62 106 72 64 78 75 47 85 78 49 92 81 51 99 84 53 106 62 55 78 65 57 85 68 59 92 71 61 99 74 63 106 77 46 78 80 48 85 83 50 92 61 52 99 64 54 106 67 56 78 70 58 85 73 60 92 76 62 99 79 64 106 82 47 78 60 49 85 63 51 92 66 53 99 69 55 106 72 57 78 75 59 85 78 61 92 81 63 99 84 46 106 62 48 78 65 50 85 68 52 92 71 54 99 74 56 106 77 58 78 80 60 85 83 62 92 61 64 99 64 47 106 67 49 78 70 51 85 73 53 92 76 55 99 79 57 106 82 59 78 60 61 85 63 63 92 66 46 99 69 48 106 72 50 78 75 52 85 78 54 92 81 56 99 84 58 106 62 60 78 65 62 85 68 64 92 71 47 99 74 49 106 77 51 78 80 53 85 83 55 92 61 57 99 64 59 106 67 61 78 70 63 85 73 46 92 76 48 99 79 50 106 82 52 78 60 54 85 63 56 92 66 58
81 65 62 88 68 64 95 71 47 102 74 49 109 77 51 81 80 53 88 83 55 95 61 57 102 64 59 109 67 61 81 70 63 88 73 46 95 76 48 102 79 50 109 82 52 81 60 54 88 63 56 95 66 58 102 69 60 109 72 62 81 75 64 88 78 47 95 81 49 102 84 51 109 62 53 81 65 55 88 68 57 95 71 59 102 74 61 109 77 63 81 80 46 88 83 48 95 61 50 102 64 52 109 67 54 81 70 56 88 73 58 95 76 60 102 79 62 109 82 64 81 60 47 88 63 49 95 66 51 102 69 53 109 72 55 81 75 57 88 78 59 95 81 61 102 84 63 109 62 46 81 65 48 88 68 50 95 71 52 102 74 54 109 77 56 81 80 58 88 83 60 95 61 62 102 64 64 109 67 47 81 70 49 88 73 51 95 76 53 102 79 55 109 82 57 81 60 59 88 63 61 95 66 63 102 69 46 109 72 48 81 75 50 88 78 52 95 81 54 102 84 56 109 62 58 81 65 60 88 68 62 95 71 64 102 74 47 109 77 49 81 80 51 88 83 53 95 61 55 102 64 57 109 67 59 81 70 61 88 73 63 95 76 46 102 79 48 109 82 50 81 60 52 88 63 54 95 66 56 102 69 58 109 72 60 81 75 62 88 78 64 95 81 47 102 84 49 109 62 51 81 65 53 88 68 55 95 71 57 102 74 59 109 77 61 81 80 63 88 83 46 95 61 48 102 64 50 109 67 52 81 70 54 88 73 56 95 76 58 102 79 60 109 82 62 81 60 64 88 63 47 95 66 49 102 69 51 109 72 53 81 75 55 88 78 57 95 81 59 102 84 61 109 62 63 81 65 46 88 68 48 95 71 50
84 70 54 91 73 56 98 76 58 105 79 60 112 82 62 84 60 64 91 63 47 98 66 49 105 69 51 112 72 53 84 75 55 91 78 57 98 81 59 105 84 61 112 62 63 84 65 46 91 68 48 98 71 50 105 74 52 112 77 54 84 80 56 91 83 58 98 61 60 105 64 62 112 67 64 84 70 47 91 73 49 98 76 51 105 79 53 112 82 55 84 60 57 91 63 59 98 66 61 105 69 63 112 72 46 84 75 48 91 78 50 98 81 52 105 84 54 112 62 56 84 65 58 91 68 60 98 71 62 105 74 64 112 77 47 84 80 49 91 83 51 98 61 53 105 64 55 112 67 57 84 70 59 91 73 61 98 76 63 105 79 46 112 82 48 84 60 50 91 63 52 98 66 54 105 69 56 112 72 58 84 75 60 91 78 62 98 81 64 105 84 47 112 62 49 84 65 51 91 68 53 98 71 55 105 74 57 112 77 59 84 80 61 91 83 63 98 61 46 105 64 48 112 67 50 84 70 52 91 73 54 98 76 56 105 79 58 112 82 60 84 60 62 91 63 64 98 66 47 105 69 49 112 72 51 84 75 53 91 78 55 98 81 57 105 84 59 112 62 61 84 65 63 91 68 46 98 71 48 105 74 50 112 77 52 84 80 54 91 83 56 98 61 58 105 64 60 112 67 62 84 70 64 91 73 47 98 76 49 105 79 51 112 82 53 84 60 55 91 63 57 98 66 59 105 69 61 112 72 63 84 75 46 91 78 48 98 81 50 105 84 52 112 62 54 84 65 56 91 68 58 98 71 60 105 74 62 112 77 64 84 80 47 91 83 49 98 61 51 105 64 53 112 67 55 84 70 57 91 73 59 98 76 61
87 75 46 94 78 48 101 81 50 108 84 52 80 62 54 87 65 56 94 68 58 101 71 60 108 74 62 80 77 64 87 80 47 94 83 49 101 61 51 108 64 53 80 67 55 87 70 57 94 73 59 101 76 61 108 79 63 80 82 46 87 60 48 94 63 50 101 66 52 108 69 54 80 72 56 87 75 58 94 78 60 101 81 62 108 84 64 80 62 47 87 65 49 94 68 51 101 71 53 108 74 55 80 77 57 87 80 59 94 83 61 101 61 63 108 64 46 80 67 48 87 70 50 94 73 52 101 76 54 108 79 56 80 82 58 87 60 60 94 63 62 101 66 64 108 69 47 80 72 49 87 75 51 94 78 53 101 81 55 108 84 57 80 62 59 87 65 61 94 68 63 101 71 46 108 74 48 80 77 50 87 80 52 94 83 54 101 61 56 108 64 58 80 67 60 87 70 62 94 73 64 101 76 47 108 79 49 80 82 51 87 60 53 94 63 55 101 66 57 108 69 59 80 72 61 87 75 63 94 78 46 101 81 48 108 84 50 80 62 52 87 65 54 94 68 56 101 71 58 108 74 60 80 77 62 87 80 64 94 83 47 101 61 49 108 64 51 80 67 53 87 70 55 94 73 57 101 76 59 108 79 61 80 82 63 87 60 46 94 63 48 101 66 50 108 69 52 80 72 54 87 75 56 94 78 58 101 81 60 108 84 62 80 62 64 87 65 47 94 68 49 101 71 51 108 74 53 80 77 55 87 80 57 94 83 59 101 61 61 108 64 63 80 67 46 87 70 48 94 73 50 101 76 52 108 79 54 80 82 56 87 60 58 94 63 60 101 66 62 108 69 64 80 72 47 87 75 49 94 78 51 101 81 53
90 80 57 97 83 59 104 61 61 111 64 63 83 67 46 90 70 48 97 73 50 104 76 52 111 79 54 83 82 56 90 60 58 97 63 60 104 66 62 111 69 64 83 72 47 90 75 49 97 78 51 104 81 53 111 84 55 83 62 57 90 65 59 97 68 61 104 71 63 111 74 46 83 77 48 90 80 50 97 83 52 104 61 54 111 64 56 83 67 58 90 70 60 97 73 62 104 76 64 111 79 47 83 82 49 90 60 51 97 63 53 104 66 55 111 69 57 83 72 59 90 75 61 97 78 63 104 81 46 111 84 48 83 62 50 90 65 52 97 68 54 104 71 56 111 74 58 83 77 60 90 80 62 97 83 64 104 61 47 111 64 49 83 67 51 90 70 53 97 73 55 104 76 57 111 79 59 83 82 61 90 60 63 97 63 46 104 66 48 111 69 50 83 72 52 90 75 54 97 78 56 104 81 58 111 84 60 83 62 62 90 65 64 97 68 47 104 71 49 111 74 51 83 77 53 90 80 55 97 83 57 104 61 59 111 64 61 83 67 63 90 70 46 97 73 48 104 76 50 111 79 52 83 82 54 90 60 56 97 63 58 104 66 60 111 69 62 83 72 64 90 75 47 97 78 49 104 81 51 111 84 53 83 62 55 90 65 57 97 68 59 104 71 61 111 74 63 83 77 46 90 80 48 97 83 50 104 61 52 111 64 54 83 67 56 90 70 58 97 73 60 104 76 62 111 79 64 83 82 47 90 60 49 97 63 51 104 66 53 111 69 55 83 72 57 90 75 59 97 78 61 104 81 63 111 84 46 83 62 48 90 65 50 97 68 52 104 71 54 111 74 56 83 77 58 90 80 60 97 83 62 104 61 64
93 60 49 100 63 51 107 66 53 79 69 55 86 72 57 93 75 59 100 78 61 107 81 63 79 84 46 86 62 48 93 65 50 100 68 52 107 71 54 79 74 56 86 77 58 93 80 60 100 83 62 107 61 64 79 64 47 86 67 49 93 70 51 100 73 53 107 76 55 79 79 57 86 82 59 93 60 61 100 63 63 107 66 46 79 69 48 86 72 50 93 75 52 100 78 54 107 81 56 79 84 58 86 62 60 93 65 62 100 68 64 107 71 47 79 74 49 86 77 51 93 80 53 100 83 55 107 61 57 79 64 59 86 67 61 93 70 63 100 73 46 107 76 48 79 79 50 86 82 52 93 60 54 100 63 56 107 66 58 79 69 60 86 72 62 93 75 64 100 78 47 107 81 49 79 84 51 86 62 53 93 65 55 100 68 57 107 71 59 79 74 61 86 77 63 93 80 46 100 83 48 107 61 50 79 64 52 86 67 54 93 70 56 100 73 58 107 76 60 79 79 62 86 82 64 93 60 47 100 63 49 107 66 51 79 69 53 86 72 55 93 75 57 100 78 59 107 81 61 79 84 63 86 62 46 93 65 48 100 68 50 107 71 52 79 74 54 86 77 56 93 80 58 100 83 60 107 61 62 79 64 64 86 67 47 93 70 49 100 73 51 107 76 53 79 79 55 86 82 57 93 60 59 100 63 61 107 66 63 79 69 46 86 72 48 93 75 50 100 78 52 107 81 54 79 84 56 86 62 58 93 65 60 100 68 62 107 71 64 79 74 47 86 77 49 93 80 51 100 83 53 107 61 55 79 64 57 86 67 59 93 70 61 100 73 63 107 76 46 79 79 48 86 82 50 93 60 52 100 63 54 107 66 56
96 65 60 103 68 62 110 71 64 82 74 47 89 77 49 96 80 51 103 83 53 110 61 55 82 64 57 89 67 59 96 70 61 103 73 63 110 76 46 82 79 48 89 82 50 96 60 52 103 63 54 110 66 56 82 69 58 89 72 60 96 75 62 103 78 64 110 81 47 82 84 49 89 62 51 96 65 53 103 68 55 110 71 57 82 74 59 89 77 61 96 80 63 103 83 46 110 61 48 82 64 50 89 67 52 96 70 54 103 73 56 110 76 58 82 79 60 89 82 62 96 60 64 103 63 47 110 66 49 82 69 51 89 72 53 96 75 55 103 78 57 110 81 59 82 84 61 89 62 63 96 65 46 103 68 48 110 71 50 82 74 52 89 77 54 96 80 56 103 83 58 110 61 60 82 64 62 89 67 64 96 70 47 103 73 49 110 76 51 82 79 53 89 82 55 96 60 57 103 63 59 110 66 61 82 69 63 89 72 46 96 75 48 103 78 50 110 81 52 82 84 54 89 62 56 96 65 58 103 68 60 110 71 62 82 74 64 89 77 47 96 80 49 103 83 51 110 61 53 82 64 55 89 67 57 96 70 59 103 73 61 110 76 63 82 79 46 89 82 48 96 60 50 103 63 52 110 66 54 82 69 56 89 72 58 96 75 60 103 78 62 110 81 64 82 84 47 89 62 49 96 65 51 103 68 53 110 71 55 82 74 57 89 77 59 96 80 61 103 83 63 110 61 46 82 64 48 89 67 50 96 70 52 103 73 54 110 76 56 82 79 58 89 82 60 96 60 62 103 63 64 110 66 47 82 69 49 89 72 51 96 75 53 103 78 55 110 81 57 82 84 59 89 62 61 96 65 63 103 68 46 110 71 48
99 70 52 106 73 54 78 76 56 85 79 58 92 82 60 99 60 62 106 63 64 78 66 47 85 69 49 92 72 51 99 75 53 106 78 55 78 81 57 85 84 59 92 62 61 99 65 63 106 68 46 78 71 48 85 74 50 92 77 52 99 80 54 106 83 56 78 61 58 85 64 60 92 67 62 99 70 64 106 73 47 78 76 49 85 79 51 92 82 53 99 60 55 106 63 57 78 66 59 85 69 61 92 72 63 99 75 46 106 78 48 78 81 50 85 84 52 92 62 54 99 65 56 106 68 58 78 71 60 85 74 62 92 77 64 99 80 47 106 83 49 78 61 51 85 64 53 92 67 55 99 70 57 106 73 59 78 76 61 85 79 63 92 82 46 99 60 48 106 63 50 78 66 52 85 69 54 92 72 56 99 75 58 106 78 60 78 81 62 85 84 64 92 62 47 99 65 49 106 68 51 78 71 53 85 74 55 92 77 57 99 80 59 106 83 61 78 61 63 85 64 46 92 67 48 99 70 50 106 73 52 78 76 54 85 79 56 92 82 58 99 60 60 106 63 62 78 66 64 85 69 47 92 72 49 99 75 51 106 78 53 78 81 55 85 84 57 92 62 59 99 65 61 106 68 63 78 71 46 85 74 48 92 77 50 99 80 52 106 83 54 78 61 56 85 64 58 92 67 60 99 70 62 106 73 64 78 76 47 85 79 49 92 82 51 99 60 53 106 63 55 78 66 57 85 69 59 92 72 61 99 75 63 106 78 46 78 81 48 85 84 50 92 62 52 99 65 54 106 68 56 78 71 58 85 74 60 92 77 62 99 80 64 106 83 47 78 61 49 85 64 51 92 67 53 99 70 55 106 73 57 78 76 59
102 75 63 109 78 46 81 81 48 88 84 50 95 62 52 102 65 54 109 68 56 81 71 58 88 74 60 95 77 62 102 80 64 109 83 47 81 61 49 88 64 51 95 67 53 102 70 55 109 73 57 81 76 59 88 79 61 95 82 63 102 60 46 109 63 48 81 66 50 88 69 52 95 72 54 102 75 56 109 78 58 81 81 60 88 84 62 95 62 64 102 65 47 109 68 49 81 71 51 88 74 53 95 77 55 102 80 57 109 83 59 81 61 61 88 64 63 95 67 46 102 70 48 109 73 50 81 76 52 88 79 54 95 82 56 102 60 58 109 63 60 81 66 62 88 69 64 95 72 47 102 75 49 109 78 51 81 81 53 88 84 55 95 62 57 102 65 59 109 68 61 81 71 63 88 74 46 95 77 48 102 80 50 109 83 52 81 61 54 88 64 56 95 67 58 102 70 60 109 73 62 81 76 64 88 79 47 95 82 49 102 60 51 109 63 53 81 66 55 88 69 57 95 72 59 102 75 61 109 78 63 81 81 46 88 84 48 95 62 50 102 65 52 109 68 54 81 71 56 88 74 58 95 77 60 102 80 62 109 83 64 81 61 47 88 64 49 95 67 51 102 70 53 109 73 55 81 76 57 88 79 59 95 82 61 102 60 63 109 63 46 81 66 48 88 69 50 95 72 52 102 75 54 109 78 56 81 81 58 88 84 60 95 62 62 102 65 64 109 68 47 81 71 49 88 74 51 95 77 53 102 80 55 109 83 57 81 61 59 88 64 61 95 67 63 102 70 46 109 73 48 81 76 50 88 79 52 95 82 54 102 60 56 109 63 58 81 66 60 88 69 62 95 72 64 102 75 47 109 78 49 81 81 51
105 80 55 112 83 57 84 61 59 91 64 61 98 67 63 105 70 46 112 73 48 84 76 50 91 79 52 98 82 54 105 60 56 112 63 58 84 66 60 91 69 62 98 72 64 105 75 47 112 78 49 84 81 51 91 84 53 98 62 55 105 65 57 112 68 59 84 71 61 91 74 63 98 77 46 105 80 48 112 83 50 84 61 52 91 64 54 98 67 56 105 70 58 112 73 60 84 76 62 91 79 64 98 82 47 105 60 49 112 63 51 84 66 53 91 69 55 98 72 57 105 75 59 112 78 61 84 81 63 91 84 46 98 62 48 105 65 50 112 68 52 84 71 54 91 74 56 98 77 58 105 80 60 112 83 62 84 61 64 91 64 47 98 67 49 105 70 51 112 73 53 84 76 55 91 79 57 98 82 59 105 60 61 112 63 63 84 66 46 91 69 48 98 72 50 105 75 52 112 78 54 84 81 56 91 84 58 98 62 60 105 65 62 112 68 64 84 71 47 91 74 49 98 77 51 105 80 53 112 83 55 84 61 57 91 64 59 98 67 61 105 70 63 112 73 46 84 76 48 91 79 50 98 82 52 105 60 54 112 63 56 84 66 58 91 69 60 98 72 62 105 75 64 112 78 47 84 81 49 91 84 51 98 62 53 105 65 55 112 68 57 84 71 59 91 74 61 98 77 63 105 80 46 112 83 48 84 61 50 91 64 52 98 67 54 105 70 56 112 73 58 84 76 60 91 79 62 98 82 64 105 60 47 112 63 49 84 66 51 91 69 53 98 72 55 105 75 57 112 78 59 84 81 61 91 84 63 98 62 46 105 65 48 112 68 50 84 71 52 91 74 54 98 77 56 105 80 58 112 83 60 84 61 62
108 60 47 80 63 49 87 66 51 94 69 53 101 72 55 108 75 57 80 78 59 87 81 61 94 84 63 101 62 46 108 65 48 80 68 50 87 71 52 94 74 54 101 77 56 108 80 58 80 83 60 87 61 62 94 64 64 101 67 47 108 70 49 80 73 51 87 76 53 94 79 55 101 82 57 108 60 59 80 63 61 87 66 63 94 69 46 101 72 48 108 75 50 80 78 52 87 81 54 94 84 56 101 62 58 108 65 60 80 68 62 87 71 64 94 74 47 101 77 49 108 80 51 80 83 53 87 61 55 94 64 57 101 67 59 108 70 61 80 73 63 87 76 46 94 79 48 101 82 50 108 60 52 80 63 54 87 66 56 94 69 58 101 72 60 108 75 62 80 78 64 87 81 47 94 84 49 101 62 51 108 65 53 80 68 55 87 71 57 94 74 59 101 77 61 108 80 63 80 83 46 87 61 48 94 64 50 101 67 52 108 70 54 80 73 56 87 76 58 94 79 60 101 82 62 108 60 64 80 63 47 87 66 49 94 69 51 101 72 53 108 75 55 80 78 57 87 81 59 94 84 61 101 62 63 108 65 46 80 68 48 87 71 50 94 74 52 101 77 54 108 80 56 80 83 58 87 61 60 94 64 62 101 67 64 108 70 47 80 73 49 87 76 51 94 79 53 101 82 55 108 60 57 80 63 59 87 66 61 94 69 63 101 72 46 108 75 48 80 78 50 87 81 52 94 84 54 101 62 56 108 65 58 80 68 60 87 71 62 94 74 64 101 77 47 108 80 49 80 83 51 87 61 53 94 64 55 101 67 57 108 70 59 80 73 61 87 76 63 94 79 46 101 82 48 108 60 50 80 63 52 87 66 54
111 65 58 83 68 60 90 71 62 97 74 64 104 77 47 111 80 49 83 83 51 90 61 53 97 64 55 104 67 57 111 70 59 83 73 61 90 76 63 97 79 46 104 82 48 111 60 50 83 63 52 90 66 54 97 69 56 104 72 58 111 75 60 83 78 62 90 81 64 97 84 47 104 62 49 111 65 51 83 68 53 90 71 55 97 74 57 104 77 59 111 80 61 83 83 63 90 61 46 97 64 48 104 67 50 111 70 52 83 73 54 90 76 56 97 79 58 104 82 60 111 60 62 83 63 64 90 66 47 97 69 49 104 72 51 111 75 53 83 78 55 90 81 57 97 84 59 104 62 61 111 65 63 83 68 46 90 71 48 97 74 50 104 77 52 111 80 54 83 83 56 90 61 58 97 64 60 104 67 62 111 70 64 83 73 47 90 76 49 97 79 51 104 82 53 111 60 55 83 63 57 90 66 59 97 69 61 104 72 63 111 75 46 83 78 48 90 81 50 97 84 52 104 62 54 111 65 56 83 68 58 90 71 60 97 74 62 104 77 64 111 80 47 83 83 49 90 61 51 97 64 53 104 67 55 111 70 57 83 73 59 90 76 61 97 79 63 104 82 46 111 60 48 83 63 50 90 66 52 97 69 54 104 72 56 111 75 58 83 78 60 90 81 62 97 84 64 104 62 47 111 65 49 83 68 51 90 71 53 97 74 55 104 77 57 111 80 59 83 83 61 90 61 63 97 64 46 104 67 48 111 70 50 83 73 52 90 76 54 97 79 56 104 82 58 111 60 60 83 63 62 90 66 64 97 69 47 104 72 49 111 75 51 83 78 53 90 81 55 97 84 57 104 62 59 111 65 61 83 68 63 90 71 46
79 70 50 86 73 52 93 76 54 100 79 56 107 82 58 79 60 60 86 63 62 93 66 64 100 69 47 107 72 49 79 75 51 86 78 53 93 81 55 100 84 57 107 62 59 79 65 61 86 68 63 93 71 46 100 74 48 107 77 50 79 80 52 86 83 54 93 61 56 100 64 58 107 67 60 79 70 62 86 73 64 93 76 47 100 79 49 107 82 51 79 60 53 86 63 55 93 66 57 100 69 59 107 72 61 79 75 63 86 78 46 93 81 48 100 84 50 107 62 52 79 65 54 86 68 56 93 71 58 100 74 60 107 77 62 79 80 64 86 83 47 93 61 49 100 64 51 107 67 53 79 70 55 86 73 57 93 76 59 100 79 61 107 82 63 79 60 46 86 63 48 93 66 50 100 69 52 107 72 54 79 75 56 86 78 58 93 81 60 100 84 62 107 62 64 79 65 47 86 68 49 93 71 51 100 74 53 107 77 55 79 80 57 86 83 59 93 61 61 100 64 63 107 67 46 79 70 48 86 73 50 93 76 52 100 79 54 107 82 56 79 60 58 86 63 60 93 66 62 100 69 64 107 72 47 79 75 49 86 78 51 93 81 53 100 84 55 107 62 57 79 65 59 86 68 61 93 71 63 100 74 46 107 77 48 79 80 50 86 83 52 93 61 54 100 64 56 107 67 58 79 70 60 86 73 62 93 76 64 100 79 47 107 82 49 79 60 51 86 63 53 93 66 55 100 69 57 107 72 59 79 75 61 86 78 63 93 81 46 100 84 48 107 62 50 79 65 52 86 68 54 93 71 56 100 74 58 107 77 60 79 80 62 86 83 64 93 61 47 100 64 49 107 67 51 79 70 53 86 73 55 93 76 57
82 75 61 89 78 63 96 81 46 103 84 48 110 62 50 82 65 52 89 68 54 96 71 56 103 74 58 110 77 60 82 80 62 89 83 64 96 61 47 103 64 49 110 67 51 82 70 53 89 73 55 96 76 57 103 79 59 110 82 61 82 60 63 89 63 46 96 66 48 103 69 50 110 72 52 82 75 54 89 78 56 96 81 58 103 84 60 110 62 62 82 65 64 89 68 47 96 71 49 103 74 51 110 77 53 82 80 55 89 83 57 96 61 59 103 64 61 110 67 63 82 70 46 89 73 48 96 76 50 103 79 52 110 82 54 82 60 56 89 63 58 96 66 60 103 69 62 110 72 64 82 75 47 89 78 49 96 81 51 103 84 53 110 62 55 82 65 57 89 68 59 96 71 61 103 74 63 110 77 46 82 80 48 89 83 50 96 61 52 103 64 54 110 67 56 82 70 58 89 73 60 96 76 62 103 79 64 110 82 47 82 60 49 89 63 51 96 66 53 103 69 55 110 72 57 82 75 59 89 78 61 96 81 63 103 84 46 110 62 48 82 65 50 89 68 52 96 71 54 103 74 56 110 77 58 82 80 60 89 83 62 96 61 64 103 64 47 110 67 49 82 70 51 89 73 53 96 76 55 103 79 57 110 82 59 82 60 61 89 63 63 96 66 46 103 69 48 110 72 50 82 75 52 89 78 54 96 81 56 103 84 58 110 62 60 82 65 62 89 68 64 96 71 47 103 74 49 110 77 51 82 80 53 89 83 55 96 61 57 103 64 59 110 67 61 82 70 63 89 73 46 96 76 48 103 79 50 110 82 52 82 60 54 89 63 56 96 66 58 103 69 60 110 72 62 82 75 64 89 78 47 96 81 49
85 80 53 92 83 55 99 61 57 106 64 59 78 67 61 85 70 63 92 73 46 99 76 48 106 79 50 78 82 52 85 60 54 92 63 56 99 66 58 106 69 60 78 72 62 85 75 64 92 78 47 99 81 49 106 84 51 78 62 53 85 65 55 92 68 57 99 71 59 106 74 61 78 77 63 85 80 46 92 83 48 99 61 50 106 64 52 78 67 54 85 70 56 92 73 58 99 76 60 106 79 62 78 82 64 85 60 47 92 63 49 99 66 51 106 69 53 78 72 55 85 75 57 92 78 59 99 81 61 106 84 63 78 62 46 85 65 48 92 68 50 99 71 52 106 74 54 78 77 56 85 80 58 92 83 60 99 61 62 106 64 64 78 67 47 85 70 49 92 73 51 99 76 53 106 79 55 78 82 57 85 60 59 92 63 61 99 66 63 106 69 46 78 72 48 85 75 50 92 78 52 99 81 54 106 84 56 78 62 58 85 65 60 92 68 62 99 71 64 106 74 47 78 77 49 85 80 51 92 83 53 99 61 55 106 64 57 78 67 59 85 70 61 92 73 63 99 76 46 106 79 48 78 82 50 85 60 52 92 63 54 99 66 56 106 69 58 78 72 60 85 75 62 92 78 64 99 81 47 106 84 49 78 62 51 85 65 53 92 68 55 99 71 57 106 74 59 78 77 61 85 80 63 92 83 46 99 61 48 106 64 50 78 67 52 85 70 54 92 73 56 99 76 58 106 79 60 78 82 62 85 60 64 92 63 47 99 66 49 106 69 51 78 72 53 85 75 55 92 78 57 99 81 59 106 84 61 78 62 63 85 65 46 92 68 48 99 71 50 106 74 52 78 77 54 85 80 56 92 83 58 99 61 60
88 60 64 95 63 47 102 66 49 109 69 51 81 72 53 88 75 55 95 78 57 102 81 59 109 84 61 81 62 63 88 65 46 95 68 48 102 71 50 109 74 52 81 77 54 88 80 56 95 83 58 102 61 60 109 64 62 81 67 64 88 70 47 95 73 49 102 76 51 109 79 53 81 82 55 88 60 57 95 63 59 102 66 61 109 69 63 81 72 46 88 75 48 95 78 50 102 81 52 109 84 54 81 62 56 88 65 58 95 68 60 102 71 62 109 74 64 81 77 47 88 80 49 95 83 51 102 61 53 109 64 55 81 67 57 88 70 59 95 73 61 102 76 63 109 79 46 81 82 48 88 60 50 95 63 52 102 66 54 109 69 56 81 72 58 88 75 60 95 78 62 102 81 64 109 84 47 81 62 49 88 65 51 95 68 53 102 71 55 109 74 57 81 77 59 88 80 61 95 83 63 102 61 46 109 64 48 81 67 50 88 70 52 95 73 54 102 76 56 109 79 58 81 82 60 88 60 62 95 63 64 102 66 47 109 69 49 81 72 51 88 75 53 95 78 55 102 81 57 109 84 59 81 62 61 88 65 63 95 68 46 102 71 48 109 74 50 81 77 52 88 80 54 95 83 56 102 61 58 109 64 60 81 67 62 88 70 64 95 73 47 102 76 49 109 79 51 81 82 53 88 60 55 95 63 57 102 66 59 109 69 61 81 72 63 88 75 46 95 78 48 102 81 50 109 84 52 81 62 54 88 65 56 95 68 58 102 71 60 109 74 62 81 77 64 88 80 47 95 83 49 102 61 51 109 64 53 81 67 55 88 70 57 95 73 59 102 76 61 109 79 63 81 82 46 88 60 48 95 63 50 102 66 52
91 65 56 98 68 58 105 71 60 112 74 62 84 77 64 91 80 47 98 83 49 105 61 51 112 64 53 84 67 55 91 70 57 98 73 59 105 76 61 112 79 63 84 82 46 91 60 48 98 63 50 105 66 52 112 69 54 84 72 56 91 75 58 98 78 60 105 81 62 112 84 64 84 62 47 91 65 49 98 68 51 105 71 53 112 74 55 84 77 57 91 80 59 98 83 61 105 61 63 112 64 46 84 67 48 91 70 50 98 73 52 105 76 54 112 79 56 84 82 58 91 60 60 98 63 62 105 66 64 112 69 47 84 72 49 91 75 51 98 78 53 105 81 55 112 84 57 84 62 59 91 65 61 98 68 63 105 71 46 112 74 48 84 77 50 91 80 52 98 83 54 105 61 56 112 64 58 84 67 60 91 70 62 98 73 64 105 76 47 112 79 49 84 82 51 91 60 53 98 63 55 105 66 57 112 69 59 84 72 61 91 75 63 98 78 46 105 81 48 112 84 50 84 62 52 91 65 54 98 68 56 105 71 58 112 74 60 84 77 62 91 80 64 98 83 47 105 61 49 112 64 51 84 67 53 91 70 55 98 73 57 105 76 59 112 79 61 84 82 63 91 60 46 98 63 48 105 66 50 112 69 52 84 72 54 91 75 56 98 78 58 105 81 60 112 84 62 84 62 64 91 65 47 98 68 49 105 71 51 112 74 53 84 77 55 91 80 57 98 83 59 105 61 61 112 64 63 84 67 46 91 70 48 98 73 50 105 76 52 112 79 54 84 82 56 91 60 58 98 63 60 105 66 62 112 69 64 84 72 47 91 75 49 98 78 51 105 81 53 112 84 55 84 62 57 91 65 59 98 68 61 105 71 63
94 70 48 101 73 50 108 76 52 80 79 54 87 82 56 94 60 58 101 63 60 108 66 62 80 69 64 87 72 47 94 75 49 101 78 51 108 81 53 80 84 55 87 62 57 94 65 59 101 68 61 108 71 63 80 74 46 87 77 48 94 80 50 101 83 52 108 61 54 80 64 56 87 67 58 94 70 60 101 73 62 108 76 64 80 79 47 87 82 49 94 60 51 101 63 53 108 66 55 80 69 57 87 72 59 94 75 61 101 78 63 108 81 46 80 84 48 87 62 50 94 65 52 101 68 54 108 71 56 80 74 58 87 77 60 94 80 62 101 83 64 108 61 47 80 64 49 87 67 51 94 70 53 101 73 55 108 76 57 80 79 59 87 82 61 94 60 63 101 63 46 108 66 48 80 69 50 87 72 52 94 75 54 101 78 56 108 81 58 80 84 60 87 62 62 94 65 64 101 68 47 108 71 49 80 74 51 87 77 53 94 80 55 101 83 57 108 61 59 80 64 61 87 67 63 94 70 46 101 73 48 108 76 50 80 79 52 87 82 54 94 60 56 101 63 58 108 66 60 80 69 62 87 72 64 94 75 47 101 78 49 108 81 51 80 84 53 87 62 55 94 65 57 101 68 59 108 71 61 80 74 63 87 77 46 94 80 48 101 83 50 108 61 52 80 64 54 87 67 56 94 70 58 101 73 60 108 76 62 80 79 64 87 82 47 94 60 49 101 63 51 108 66 53 80 69 55 87 72 57 94 75 59 101 78 61 108 81 63 80 84 46 87 62 48 94 65 50 101 68 52 108 71 54 80 74 56 87 77 58 94 80 60 101 83 62 108 61 64 80 64 47 87 67 49 94 70 51 101 73 53 108 76 55
97 75 59 104 78 61 111 81 63 83 84 46 90 62 48 97 65 50 104 68 52 111 71 54 83 74 56 90 77 58 97 80 60 104 83 62 111 61 64 83 64 47 90 67 49 97 70 51 104 73 53 111 76 55 83 79 57 90 82 59 97 60 61 104 63 63 111 66 46 83 69 48 90 72 50 97 75 52 104 78 54 111 81 56 83 84 58 90 62 60 97 65 62 104 68 64 111 71 47 83 74 49 90 77 51 97 80 53 104 83 55 111 61 57 83 64 59 90 67 61 97 70 63 104 73 46 111 76 48 83 79 50 90 82 52 97 60 54 104 63 56 111 66 58 83 69 60 90 72 62 97 75 64 104 78 47 111 81 49 83 84 51 90 62 53 97 65 55 104 68 57 111 71 59 83 74 61 90 77 63 97 80 46 104 83 48 111 61 50 83 64 52 90 67 54 97 70 56 104 73 58 111 76 60 83 79 62 90 82 64 97 60 47 104 63 49 111 66 51 83 69 53 90 72 55 97 75 57 104 78 59 111 81 61 83 84 63 90 62 46 97 65 48 104 68 50 111 71 52 83 74 54 90 77 56 97 80 58 104 83 60 111 61 62 83 64 64 90 67 47 97 70 49 104 73 51 111 76 53 83 79 55 90 82 57 97 60 59 104 63 61 111 66 63 83 69 46 90 72 48 97 75 50 104 78 52 111 81 54 83 84 56 90 62 58 97 65 60 104 68 62 111 71 64 83 74 47 90 77 49 97 80 51 104 83 53 111 61 55 83 64 57 90 67 59 97 70 61 104 73 63 111 76 46 83 79 48 90 82 50 97 60 52 104 63 54 111 66 56 83 69 58 90 72 60 97 75 62 104 78 64 111 81 47
100 80 51 107 83 53 79 61 55 86 64 57 93 67 59 100 70 61 107 73 63 79 76 46 86 79 48 93 82 50 100 60 52 107 63 54 79 66 56 86 69 58 93 72 60 100 75 62 107 78 64 79 81 47 86 84 49 93 62 51 100 65 53 107 68 55 79 71 57 86 74 59 93 77 61 100 80 63 107 83 46 79 61 48 86 64 50 93 67 52 100 70 54 107 73 56 79 76 58 86 79 60 93 82 62 100 60 64 107 63 47 79 66 49 86 69 51 93 72 53 100 75 55 107 78 57 79 81 59 86 84 61 93 62 63 100 65 46 107 68 48 79 71 50 86 74 52 93 77 54 100 80 56 107 83 58 79 61 60 86 64 62 93 67 64 100 70 47 107 73 49 79 76 51 86 79 53 93 82 55 100 60 57 107 63 59 79 66 61 86 69 63 93 72 46 100 75 48 107 78 50 79 81 52 86 84 54 93 62 56 100 65 58 107 68 60 79 71 62 86 74 64 93 77 47 100 80 49 107 83 51 79 61 53 86 64 55 93 67 57 100 70 59 107 73 61 79 76 63 86 79 46 93 82 48 100 60 50 107 63 52 79 66 54 86 69 56 93 72 58 100 75 60 107 78 62 79 81 64 86 84 47 93 62 49 100 65 51 107 68 53 79 71 55 86 74 57 93 77 59 100 80 61 107 83 63 79 61 46 86 64 48 93 67 50 100 70 52 107 73 54 79 76 56 86 79 58 93 82 60 100 60 62 107 63 64 79 66 47 86 69 49 93 72 51 100 75 53 107 78 55 79 81 57 86 84 59 93 62 61 100 65 63 107 68 46 79 71 48 86 74 50 93 77 52 100 80 54 107 83 56 79 61 58
103 60 62 110 63 64 82 66 47 89 69 49 96 72 51 103 75 53 110 78 55 82 81 57 89 84 59 96 62 61 103 65 63 110 68 46 82 71 48 89 74 50 96 77 52 103 80 54 110 83 56 82 61 58 89 64 60 96 67 62 103 70 64 110 73 47 82 76 49 89 79 51 96 82 53 103 60 55 110 63 57 82 66 59 89 69 61 96 72 63 103 75 46 110 78 48 82 81 50 89 84 52 96 62 54 103 65 56 110 68 58 82 71 60 89 74 62 96 77 64 103 80 47 110 83 49 82 61 51 89 64 53 96 67 55 103 70 57 110 73 59 82 76 61 89 79 63 96 82 46 103 60 48 110 63 50 82 66 52 89 69 54 96 72 56 103 75 58 110 78 60 82 81 62 89 84 64 96 62 47 103 65 49 110 68 51 82 71 53 89 74 55 96 77 57 103 80 59 110 83 61 82 61 63 89 64 46 96 67 48 103 70 50 110 73 52 82 76 54 89 79 56 96 82 58 103 60 60 110 63 62 82 66 64 89 69 47 96 72 49 103 75 51 110 78 53 82 81 55 89 84 57 96 62 59 103 65 61 110 68 63 82 71 46 89 74 48 96 77 50 103 80 52 110 83 54 82 61 56 89 64 58 96 67 60 103 70 62 110 73 64 82 76 47 89 79 49 96 82 51 103 60 53 110 63 55 82 66 57 89 69 59 96 72 61 103 75 63 110 78 46 82 81 48 89 84 50 96 62 52 103 65 54 110 68 56 82 71 58 89 74 60 96 77 62 103 80 64 110 83 47 82 61 49 89 64 51 96 67 53 103 70 55 110 73 57 82 76 59 89 79 61 96 82 63 103 60 46 110 63 48 82 66 50
106 65 54 78 68 56 85 71 58 92 74 60 99 77 62 106 80 64 78 83 47 85 61 49 92 64 51 99 67 53 106 70 55 78 73 57 85 76 59 92 79 61 99 82 63 106 60 46 78 63 48 85 66 50 92 69 52 99 72 54 106 75 56 78 78 58 85 81 60 92 84 62 99 62 64 106 65 47 78 68 49 85 71 51 92 74 53 99 77 55 106 80 57 78 83 59 85 61 61 92 64 63 99 67 46 106 70 48 78 73 50 85 76 52 92 79 54 99 82 56 106 60 58 78 63 60 85 66 62 92 69 64 99 72 47 106 75 49 78 78 51 85 81 53 92 84 55 99 62 57 106 65 59 78 68 61 85 71 63 92 74 46 99 77 48 106 80 50 78 83 52 85 61 54 92 64 56 99 67 58 106 70 60 78 73 62 85 76 64 92 79 47 99 82 49 106 60 51 78 63 53 85 66 55 92 69 57 99 72 59 106 75 61 78 78 63 85 81 46 92 84 48 99 62 50 106 65 52 78 68 54 85 71 56 92 74 58 99 77 60 106 80 62 78 83 64 85 61 47 92 64 49 99 67 51 106 70 53 78 73 55 85 76 57 92 79 59 99 82 61 106 60 63 78 63 46 85 66 48 92 69 50 99 72 52 106 75 54 78 78 56 85 81 58 92 84 60 99 62 62 106 65 64 78 68 47 85 71 49 92 74 51 99 77 53 106 80 55 78 83 57 85 61 59 92 64 61 99 67 63 106 70 46 78 73 48 85 76 50 92 79 52 99 82 54 106 60 56 78 63 58 85 66 60 92 69 62 99 72 64 106 75 47 78 78 49 85 81 51 92 84 53 99 62 55 106 65 57 78 68 59 85 71 61
109 70 46 81 73 48 88 76 50 95 79 52 102 82 54 109 60 56 81 63 58 88 66 60 95 69 62 102 72 64 109 75 47 81 78 49 88 81 51 95 84 53 102 62 55 109 65 57 81 68 59 88 71 61 95 74 63 102 77 46 109 80 48 81 83 50 88 61 52 95 64 54 102 67 56 109 70 58 81 73 60 88 76 62 95 79 64 102 82 47 109 60 49 81 63 51 88 66 53 95 69 55 102 72 57 109 75 59 81 78 61 88 81 63 95 84 46 102 62 48 109 65 50 81 68 52 88 71 54 95 74 56 102 77 58 109 80 60 81 83 62 88 61 64 95 64 47 102 67 49 109 70 51 81 73 53 88 76 55 95 79 57 102 82 59 109 60 61 81 63 63 88 66 46 95 69 48 102 72 50 109 75 52 81 78 54 88 81 56 95 84 58 102 62 60 109 65 62 81 68 64 88 71 47 95 74 49 102 77 51 109 80 53 81 83 55 88 61 57 95 64 59 102 67 61 109 70 63 81 73 46 88 76 48 95 79 50 102 82 52 109 60 54 81 63 56 88 66 58 95 69 60 102 72 62 109 75 64 81 78 47 88 81 49 95 84 51 102 62 53 109 65 55 81 68 57 88 71 59 95 74 61 102 77 63 109 80 46 81 83 48 88 61 50 95 64 52 102 67 54 109 70 56 81 73 58 88 76 60 95 79 62 102 82 64 109 60 47 81 63 49 88 66 51 95 69 53 102 72 55 109 75 57 81 78 59 88 81 61 95 84 63 102 62 46 109 65 48 81 68 50 88 71 52 95 74 54 102 77 56 109 80 58 81 83 60 88 61 62 95 64 64 102 67 47 109 70 49 81 73 51 88 76 53
112 75 57 84 78 59 91 81 61 98 84 63 105 62 46 112 65 48 84 68 50 91 71 52 98 74 54 105 77 56 112 80 58 84 83 60 91 61 62 98 64 64 105 67 47 112 70 49 84 73 51 91 76 53 98 79 55 105 82 57 112 60 59 84 63 61 91 66 63 98 69 46 105 72 48 112 75 50 84 78 52 91 81 54 98 84 56 105 62 58 112 65 60 84 68 62 91 71 64 98 74 47 105 77 49 112 80 51 84 83 53 91 61 55 98 64 57 105 67 59 112 70 61 84 73 63 91 76 46 98 79 48 105 82 50 112 60 52 84 63 54 91 66 56 98 69 58 105 72 60 112 75 62 84 78 64 91 81 47 98 84 49 105 62 51 112 65 53 84 68 55 91 71 57 98 74 59 105 77 61 112 80 63 84 83 46 91 61 48 98 64 50 105 67 52 112 70 54 84 73 56 91 76 58 98 79 60 105 82 62 112 60 64 84 63 47 91 66 49 98 69 51 105 72 53 112 75 55 84 78 57 91 81 59 98 84 61 105 62 63 112 65 46 84 68 48 91 71 50 98 74 52 105 77 54 112 80 56 84 83 58 91 61 60 98 64 62 105 67 64 112 70 47 84 73 49 91 76 51 98 79 53 105 82 55 112 60 57 84 63 59 91 66 61 98 69 63 105 72 46 112 75 48 84 78 50 91 81 52 98 84 54 105 62 56 112 65 58 84 68 60 91 71 62 98 74 64 105 77 47 112 80 49 84 83 51 91 61 53 98 64 55 105 67 57 112 70 59 84 73 61 91 76 63 98 79 46 105 82 48 112 60 50 84 63 52 91 66 54 98 69 56 105 72 58 112 75 60 84 78 62 91 81 64
80 80 49 87 83 51 94 61 53 101 64 55 108 67 57 80 70 59 87 73 61 94 76 63 101 79 46 108 82 48 80 60 50 87 63 52 94 66 54 101 69 56 108 72 58 80 75 60 87 78 62 94 81 64 101 84 47 108 62 49 80 65 51 87 68 53 94 71 55 101 74 57 108 77 59 80 80 61 87 83 63 94 61 46 101 64 48 108 67 50 80 70 52 87 73 54 94 76 56 101 79 58 108 82 60 80 60 62 87 63 64 94 66 47 101 69 49 108 72 51 80 75 53 87 78 55 94 81 57 101 84 59 108 62 61 80 65 63 87 68 46 94 71 48 101 74 50 108 77 52 80 80 54 87 83 56 94 61 58 101 64 60 108 67 62 80 70 64 87 73 47 94 76 49 101 79 51 108 82 53 80 60 55 87 63 57 94 66 59 101 69 61 108 72 63 80 75 46 87 78 48 94 81 50 101 84 52 108 62 54 80 65 56 87 68 58 94 71 60 101 74 62 108 77 64 80 80 47 87 83 49 94 61 51 101 64 53 108 67 55 80 70 57 87 73 59 94 76 61 101 79 63 108 82 46 80 60 48 87 63 50 94 66 52 101 69 54 108 72 56 80 75 58 87 78 60 94 81 62 101 84 64 108 62 47 80 65 49 87 68 51 94 71 53 101 74 55 108 77 57 80 80 59 87 83 61 94 61 63 101 64 46 108 67 48 80 70 50 87 73 52 94 76 54 101 79 56 108 82 58 80 60 60 87 63 62 94 66 64 101 69 47 108 72 49 80 75 51 87 78 53 94 81 55 101 84 57 108 62 59 80 65 61 87 68 63 94 71 46 101 74 48 108 77 50 80 80 52 87 83 54 94 61 56
83 60 60 90 63 62 97 66 64 104 69 47 111 72 49 83 75 51 90 78 53 97 81 55 104 84 57 111 62 59 83 65 61 90 68 63 97 71 46 104 74 48 111 77 50 83 80 52 90 83 54 97 61 56 104 64 58 111 67 60 83 70 62 90 73 64 97 76 47 104 79 49 111 82 51 83 60 53 90 63 55 97 66 57 104 69 59 111 72 61 83 75 63 90 78 46 97 81 48 104 84 50 111 62 52 83 65 54 90 68 56 97 71 58 104 74 60 111 77 62 83 80 64 90 83 47 97 61 49 104 64 51 111 67 53 83 70 55 90 73 57 97 76 59 104 79 61 111 82 63 83 60 46 90 63 48 97 66 50 104 69 52 111 72 54 83 75 56 90 78 58 97 81 60 104 84 62 111 62 64 83 65 47 90 68 49 97 71 51 104 74 53 111 77 55 83 80 57 90 83 59 97 61 61 104 64 63 111 67 46 83 70 48 90 73 50 97 76 52 104 79 54 111 82 56 83 60 58 90 63 60 97 66 62 104 69 64 111 72 47 83 75 49 90 78 51 97 81 53 104 84 55 111 62 57 83 65 59 90 68 61 97 71 63 104 74 46 111 77 48 83 80 50 90 83 52 97 61 54 104 64 56 111 67 58 83 70 60 90 73 62 97 76 64 104 79 47 111 82 49 83 60 51 90 63 53 97 66 55 104 69 57 111 72 59 83 75 61 90 78 63 97 81 46 104 84 48 111 62 50 83 65 52 90 68 54 97 71 56 104 74 58 111 77 60 83 80 62 90 83 64 97 61 47 104 64 49 111 67 51 83 70 53 90 73 55 97 76 57 104 79 59 111 82 61 83 60 63 90 63 46 97 66 48
86 65 52 93 68 54 100 71 56 107 74 58 79 77 60 86 80 62 93 83 64 100 61 47 107 64 49 79 67 51 86 70 53 93 73 55 100 76 57 107 79 59 79 82 61 86 60 63 93 63 46 100 66 48 107 69 50 79 72 52 86 75 54 93 78 56 100 81 58 107 84 60 79 62 62 86 65 64 93 68 47 100 71 49 107 74 51 79 77 53 86 80 55 93 83 57 100 61 59 107 64 61 79 67 63 86 70 46 93 73 48 100 76 50 107 79 52 79 82 54 86 60 56 93 63 58 100 66 60 107 69 62 79 72 64 86 75 47 93 78 49 100 81 51 107 84 53 79 62 55 86 65 57 93 68 59 100 71 61 107 74 63 79 77 46 86 80 48 93 83 50 100 61 52 107 64 54 79 67 56 86 70 58 93 73 60 100 76 62 107 79 64 79 82 47 86 60 49 93 63 51 100 66 53 107 69 55 79 72 57 86 75 59 93 78 61 100 81 63 107 84 46 79 62 48 86 65 50 93 68 52 100 71 54 107 74 56 79 77 58 86 80 60 93 83 62 100 61 64 107 64 47 79 67 49 86 70 51 93 73 53 100 76 55 107 79 57 79 82 59 86 60 61 93 63 63 100 66 46 107 69 48 79 72 50 86 75 52 93 78 54 100 81 56 107 84 58 79 62 60 86 65 62 93 68 64 100 71 47 107 74 49 79 77 51 86 80 53 93 83 55 100 61 57 107 64 59 79 67 61 86 70 63 93 73 46 100 76 48 107 79 50 79 82 52 86 60 54 93 63 56 100 66 58 107 69 60 79 72 62 86 75 64 93 78 47 100 81 49 107 84 51 79 62 53 86 65 55 93 68 57 100 71 59
89 70 63 96 73 46 103 76 48 110 79 50 82 82 52 89 60 54 96 63 56 103 66 58 110 69 60 82 72 62 89 75 64 96 78 47 103 81 49 110 84 51 82 62 53 89 65 55 96 68 57 103 71 59 110 74 61 82 77 63 89 80 46 96 83 48 103 61 50 110 64 52 82 67 54 89 70 56 96 73 58 103 76 60 110 79 62 82 82 64 89 60 47 96 63 49 103 66 51 110 69 53 82 72 55 89 75 57 96 78 59 103 81 61 110 84 63 82 62 46 89 65 48 96 68 50 103 71 52 110 74 54 82 77 56 89 80 58 96 83 60 103 61 62 110 64 64 82 67 47 89 70 49 96 73 51 103 76 53 110 79 55 82 82 57 89 60 59 96 63 61 103 66 63 110 69 46 82 72 48 89 75 50 96 78 52 103 81 54 110 84 56 82 62 58 89 65 60 96 68 62 103 71 64 110 74 47 82 77 49 89 80 51 96 83 53 103 61 55 110 64 57 82 67 59 89 70 61 96 73 63 103 76 46 110 79 48 82 82 50 89 60 52 96 63 54 103 66 56 110 69 58 82 72 60 89 75 62 96 78 64 103 81 47 110 84 49 82 62 51 89 65 53 96 68 55 103 71 57 110 74 59 82 77 61 89 80 63 96 83 46 103 61 48 110 64 50 82 67 52 89 70 54 96 73 56 103 76 58 110 79 60 82 82 62 89 60 64 96 63 47 103 66 49 110 69 51 82 72 53 89 75 55 96 78 57 103 81 59 110 84 61 82 62 63 89 65 46 96 68 48 103 71 50 110 74 52 82 77 54 89 80 56 96 83 58 103 61 60 110 64 62 82 67 64 89 70 47 96 73 49 103 76 51
92 75 55 99 78 57 106 81 59 78 84 61 85 62 63 92 65 46 99 68 48 106 71 50 78 74 52 85 77 54 92 80 56 99 83 58 106 61 60 78 64 62 85 67 64 92 70 47 99 73 49 106 76 51 78 79 53 85 82 55 92 60 57 99 63 59 106 66 61 78 69 63 85 72 46 92 75 48 99 78 50 106 81 52 78 84 54 85 62 56 92 65 58 99 68 60 106 71 62 78 74 64 85 77 47 92 80 49 99 83 51 106 61 53 78 64 55 85 67 57 92 70 59 99 73 61 106 76 63 78 79 46 85 82 48 92 60 50 99 63 52 106 66 54 78 69 56 85 72 58 92 75 60 99 78 62 106 81 64 78 84 47 85 62 49 92 65 51 99 68 53 106 71 55 78 74 57 85 77 59 92 80 61 99 83 63 106 61 46 78 64 48 85 67 50 92 70 52 99 73 54 106 76 56 78 79 58 85 82 60 92 60 62 99 63 64 106 66 47 78 69 49 85 72 51 92 75 53 99 78 55 106 81 57 78 84 59 85 62 61 92 65 63 99 68 46 106 71 48 78 74 50 85 77 52 92 80 54 99 83 56 106 61 58 78 64 60 85 67 62 92 70 64 99 73 47 106 76 49 78 79 51 85 82 53 92 60 55 99 63 57 106 66 59 78 69 61 85 72 63 92 75 46 99 78 48 106 81 50 78 84 52 85 62 54 92 65 56 99 68 58 106 71 60 78 74 62 85 77 64 92 80 47 99 83 49 106 61 51 78 64 53 85 67 55 92 70 57 99 73 59 106 76 61 78 79 63 85 82 46 92 60 48 99 63 50 106 66 52 78 69 54 85 72 56 92 75 58 99 78 60 106 81 62
95 80 47 102 83 49 109 61 51 81 64 53 88 67 55 95 70 57 102 73 59 109 76 61 81 79 63 88 82 46 95 60 48 102 63 50 109 66 52 81 69 54 88 72 56 95 75 58 102 78 60 109 81 62 81 84 64 88 62 47 95 65 49 102 68 51 109 71 53 81 74 55 88 77 57 95 80 59 102 83 61 109 61 63 81 64 46 88 67 48 95 70 50 102 73 52 109 76 54 81 79 56 88 82 58 95 60 60 102 63 62 109 66 64 81 69 47 88 72 49 95 75 51 102 78 53 109 81 55 81 84 57 88 62 59 95 65 61 102 68 63 109 71 46 81 74 48 88 77 50 95 80 52 102 83 54 109 61 56 81 64 58 88 67 60 95 70 62 102 73 64 109 76 47 81 79 49 88 82 51 95 60 53 102 63 55 109 66 57 81 69 59 88 72 61 95 75 63 102 78 46 109 81 48 81 84 50 88 62 52 95 65 54 102 68 56 109 71 58 81 74 60 88 77 62 95 80 64 102 83 47 109 61 49 81 64 51 88 67 53 95 70 55 102 73 57 109 76 59 81 79 61 88 82 63 95 60 46 102 63 48 109 66 50 81 69 52 88 72 54 95 75 56 102 78 58 109 81 60 81 84 62 88 62 64 95 65 47 102 68 49 109 71 51 81 74 53 88 77 55 95 80 57 102 83 59 109 61 61 81 64 63 88 67 46 95 70 48 102 73 50 109 76 52 81 79 54 88 82 56 95 60 58 102 63 60 109 66 62 81 69 64 88 72 47 95 75 49 102 78 51 109 81 53 81 84 55 88 62 57 95 65 59 102 68 61 109 71 63 81 74 46 88 77 48 95 80 50 102 83 52 109 61 54
98 60 58 105 63 60 112 66 62 84 69 64 91 72 47 98 75 49 105 78 51 112 81 53 84 84 55 91 62 57 98 65 59 105 68 61 112 71 63 84 74 46 91 77 48 98 80 50 105 83 52 112 61 54 84 64 56 91 67 58 98 70 60 105 73 62 112 76 64 84 79 47 91 82 49 98 60 51 105 63 53 112 66 55 84 69 57 91 72 59 98 75 61 105 78 63 112 81 46 84 84 48 91 62 50 98 65 52 105 68 54 112 71 56 84 74 58 91 77 60 98 80 62 105 83 64 112 61 47 84 64 49 91 67 51 98 70 53 105 73 55 112 76 57 84 79 59 91 82 61 98 60 63 105 63 46 112 66 48 84 69 50 91 72 52 98 75 54 105 78 56 112 81 58 84 84 60 91 62 62 98 65 64 105 68 47 112 71 49 84 74 51 91 77 53 98 80 55 105 83 57 112 61 59 84 64 61 91 67 63 98 70 46 105 73 48 112 76 50 84 79 52 91 82 54 98 60 56 105 63 58 112 66 60 84 69 62 91 72 64 98 75 47 105 78 49 112 81 51 84 84 53 91 62 55 98 65 57 105 68 59 112 71 61 84 74 63 91 77 46 98 80 48 105 83 50 112 61 52 84 64 54 91 67 56 98 70 58 105 73 60 112 76 62 84 79 64 91 82 47 98 60 49 105 63 51 112 66 53 84 69 55 91 72 57 98 75 59 105 78 61 112 81 63 84 84 46 91 62 48 98 65 50 105 68 52 112 71 54 84 74 56 91 77 58 98 80 60 105 83 62 112 61 64 84 64 47 91 67 49 98 70 51 105 73 53 112 76 55 84 79 57 91 82 59 98 60 61 105 63 63 112 66 46
101 65 50 108 68 52 80 71 54 87 74 56 94 77 58 101 80 60 108 83 62 80 61 64 87 64 47 94 67 49 101 70 51 108 73 53 80 76 55 87 79 57 94 82 59 101 60 61 108 63 63 80 66 46 87 69 48 94 72 50 101 75 52 108 78 54 80 81 56 87 84 58 94 62 60 101 65 62 108 68 64 80 71 47 87 74 49 94 77 51 101 80 53 108 83 55 80 61 57 87 64 59 94 67 61 101 70 63 108 73 46 80 76 48 87 79 50 94 82 52 101 60 54 108 63 56 80 66 58 87 69 60 94 72 62 101 75 64 108 78 47 80 81 49 87 84 51 94 62 53 101 65 55 108 68 57 80 71 59 87 74 61 94 77 63 101 80 46 108 83 48 80 61 50 87 64 52 94 67 54 101 70 56 108 73 58 80 76 60 87 79 62 94 82 64 101 60 47 108 63 49 80 66 51 87 69 53 94 72 55 101 75 57 108 78 59 80 81 61 87 84 63 94 62 46 101 65 48 108 68 50 80 71 52 87 74 54 94 77 56 101 80 58 108 83 60 80 61 62 87 64 64 94 67 47 101 70 49 108 73 51 80 76 53 87 79 55 94 82 57 101 60 59 108 63 61 80 66 63 87 69 46 94 72 48 101 75 50 108 78 52 80 81 54 87 84 56 94 62 58 101 65 60 108 68 62 80 71 64 87 74 47 94 77 49 101 80 51 108 83 53 80 61 55 87 64 57 94 67 59 101 70 61 108 73 63 80 76 46 87 79 48 94 82 50 101 60 52 108 63 54 80 66 56 87 69 58 94 72 60 101 75 62 108 78 64 80 81 47 87 84 49 94 62 51 101 65 53 108 68 55 80 71 57
104 70 61 111 73 63 83 76 46 90 79 48 97 82 50 104 60 52 111 63 54 83 66 56 90 69 58 97 72 60 104 75 62 111 78 64 83 81 47 90 84 49 97 62 51 104 65 53 111 68 55 83 71 57 90 74 59 97 77 61 104 80 63 111 83 46 83 61 48 90 64 50 97 67 52 104 70 54 111 73 56 83 76 58 90 79 60 97 82 62 104 60 64 111 63 47 83 66 49 90 69 51 97 72 53 104 75 55 111 78 57 83 81 59 90 84 61 97 62 63 104 65 46 111 68 48 83 71 50 90 74 52 97 77 54 104 80 56 111 83 58 83 61 60 90 64 62 97 67 64 104 70 47 111 73 49 83 76 51 90 79 53 97 82 55 104 60 57 111 63 59 83 66 61 90 69 63 97 72 46 104 75 48 111 78 50 83 81 52 90 84 54 97 62 56 104 65 58 111 68 60 83 71 62 90 74 64 97 77 47 104 80 49 111 83 51 83 61 53 90 64 55 97 67 57 104 70 59 111 73 61 83 76 63 90 79 46 97 82 48 104 60 50 111 63 52 83 66 54 90 69 56 97 72 58 104 75 60 111 78 62 83 81 64 90 84 47 97 62 49 104 65 51 111 68 53 83 71 55 90 74 57 97 77 59 104 80 61 111 83 63 83 61 46 90 64 48 97 67 50 104 70 52 111 73 54 83 76 56 90 79 58 97 82 60 104 60 62 111 63 64 83 66 47 90 69 49 97 72 51 104 75 53 111 78 55 83 81 57 90 84 59 97 62 61 104 65 63 111 68 46 83 71 48 90 74 50 97 77 52 104 80 54 111 83 56 83 61 58 90 64 60 97 67 62 104 70 64 111 73 47 83 76 49
107 75 53 79 78 55 86 81 57 93 84 59 100 62 61 107 65 63 79 68 46 86 71 48 93 74 50 100 77 52 107 80 54 79 83 56 86 61 58 93 64 60 100 67 62 107 70 64 79 73 47 86 76 49 93 79 51 100 82 53 107 60 55 79 63 57 86 66 59 93 69 61 100 72 63 107 75 46 79 78 48 86 81 50 93 84 52 100 62 54 107 65 56 79 68 58 86 71 60 93 74 62 100 77 64 107 80 47 79 83 49 86 61 51 93 64 53 100 67 55 107 70 57 79 73 59 86 76 61 93 79 63 100 82 46 107 60 48 79 63 50 86 66 52 93 69 54 100 72 56 107 75 58 79 78 60 86 81 62 93 84 64 100 62 47 107 65 49 79 68 51 86 71 53 93 74 55 100 77 57 107 80 59 79 83 61 86 61 63 93 64 46 100 67 48 107 70 50 79 73 52 86 76 54 93 79 56 100 82 58 107 60 60 79 63 62 86 66 64 93 69 47 100 72 49 107 75 51 79 78 53 86 81 55 93 84 57 100 62 59 107 65 61 79 68 63 86 71 46 93 74 48 100 77 50 107 80 52 79 83 54 86 61 56 93 64 58 100 67 60 107 70 62 79 73 64 86 76 47 93 79 49 100 82 51 107 60 53 79 63 55 86 66 57 93 69 59 100 72 61 107 75 63 79 78 46 86 81 48 93 84 50 100 62 52 107 65 54 79 68 56 86 71 58 93 74 60 100 77 62 107 80 64 79 83 47 86 61 49 93 64 51 100 67 53 107 70 55 79 73 57 86 76 59 93 79 61 100 82 63 107 60 46 79 63 48 86 66 50 93 69 52 100 72 54 107 75 56 79 78 58 86 81 60
110 80 64 82 83 47 89 61 49 96 64 51 103 67 53 110 70 55 82 73 57 89 76 59 96 79 61 103 82 63 110 60 46 82 63 48 89 66 50 96 69 52 103 72 54 110 75 56 82 78 58 89 81 60 96 84 62 103 62 64 110 65 47 82 68 49 89 71 51 96 74 53 103 77 55 110 80 57 82 83 59 89 61 61 96 64 63 103 67 46 110 70 48 82 73 50 89 76 52 96 79 54 103 82 56 110 60 58 82 63 60 89 66 62 96 69 64 103 72 47 110 75 49 82 78 51 89 81 53 96 84 55 103 62 57 110 65 59 82 68 61 89 71 63 96 74 46 103 77 48 110 80 50 82 83 52 89 61 54 96 64 56 103 67 58 110 70 60 82 73 62 89 76 64 96 79 47 103 82 49 110 60 51 82 63 53 89 66 55 96 69 57 103 72 59 110 75 61 82 78 63 89 81 46 96 84 48 103 62 50 110 65 52 82 68 54 89 71 56 96 74 58 103 77 60 110 80 62 82 83 64 89 61 47 96 64 49 103 67 51 110 70 53 82 73 55 89 76 57 96 79 59 103 82 61 110 60 63 82 63 46 89 66 48 96 69 50 103 72 52 110 75 54 82 78 56 89 81 58 96 84 60 103 62 62 110 65 64 82 68 47 89 71 49 96 74 51 103 77 53 110 80 55 82 83 57 89 61 59 96 64 61 103 67 63 110 70 46 82 73 48 89 76 50 96 79 52 103 82 54 110 60 56 82 63 58 89 66 60 96 69 62 103 72 64 110 75 47 82 78 49 89 81 51 96 84 53 103 62 55 110 65 57 82 68 59 89 71 61 96 74 63 103 77 46 110 80 48 82 83 50 89 61 52
78 60 56 85 63 58 92 66 60 99 69 62 106 72 64 78 75 47 85 78 49 92 81 51 99 84 53 106 62 55 78 65 57 85 68 59 92 71 61 99 74 63 106 77 46 78 80 48 85 83 50 92 61 52 99 64 54 106 67 56 78 70 58 85 73 60 92 76 62 99 79 64 106 82 47 78 60 49 85 63 51 92 66 53 99 69 55 106 72 57 78 75 59 85 78 61 92 81 63 99 84 46 106 62 48 78 65 50 85 68 52 92 71 54 99 74 56 106 77 58 78 80 60 85 83 62 92 61 64 99 64 47 106 67 49 78 70 51 85 73 53 92 76 55 99 79 57 106 82 59 78 60 61 85 63 63 92 66 46 99 69 48 106 72 50 78 75 52 85 78 54 92 81 56 99 84 58 106 62 60 78 65 62 85 68 64 92 71 47 99 74 49 106 77 51 78 80 53 85 83 55 92 61 57 99 64 59 106 67 61 78 70 63 85 73 46 92 76 48 99 79 50 106 82 52 78 60 54 85 63 56 92 66 58 99 69 60 106 72 62 78 75 64 85 78 47 92 81 49 99 84 51 106 62 53 78 65 55 85 68 57 92 71 59 99 74 61 106 77 63 78 80 46 85 83 48 92 61 50 99 64 52 106 67 54 78 70 56 85 73 58 92 76 60 99 79 62 106 82 64 78 60 47 85 63 49 92 66 51 99 69 53 106 72 55 78 75 57 85 78 59 92 81 61 99 84 63 106 62 46 78 65 48 85 68 50 92 71 52 99 74 54 106 77 56 78 80 58 85 83 60 92 61 62 99 64 64 106 67 47 78 70 49 85 73 51 92 76 53 99 79 55 106 82 57 78 60 59 85 63 61 92 66 63
81 65 48 88 68 50 95 71 52 102 74 54 109 77 56 81 80 58 88 83 60 95 61 62 102 64 64 109 67 47 81 70 49 88 73 51 95 76 53 102 79 55 109 82 57 81 60 59 88 63 61 95 66 63 102 69 46 109 72 48 81 75 50 88 78 52 95 81 54 102 84 56 109 62 58 81 65 60 88 68 62 95 71 64 102 74 47 109 77 49 81 80 51 88 83 53 95 61 55 102 64 57 109 67 59 81 70 61 88 73 63 95 76 46 102 79 48 109 82 50 81 60 52 88 63 54 95 66 56 102 69 58 109 72 60 81 75 62 88 78 64 95 81 47 102 84 49 109 62 51 81 65 53 88 68 55 95 71 57 102 74 59 109 77 61 81 80 63 88 83 46 95 61 48 102 64 50 109 67 52 81 70 54 88 73 56 95 76 58 102 79 60 109 82 62 81 60 64 88 63 47 95 66 49 102 69 51 109 72 53 81 75 55 88 78 57 95 81 59 102 84 61 109 62 63 81 65 46 88 68 48 95 71 50 102 74 52 109 77 54 81 80 56 88 83 58 95 61 60 102 64 62 109 67 64 81 70 47 88 73 49 95 76 51 102 79 53 109 82 55 81 60 57 88 63 59 95 66 61 102 69 63 109 72 46 81 75 48 88 78 50 95 81 52 102 84 54 109 62 56 81 65 58 88 68 60 95 71 62 102 74 64 109 77 47 81 80 49 88 83 51 95 61 53 102 64 55 109 67 57 81 70 59 88 73 61 95 76 63 102 79 46 109 82 48 81 60 50 88 63 52 95 66 54 102 69 56 109 72 58 81 75 60 88 78 62 95 81 64 102 84 47 109 62 49 81 65 51 88 68 53 95 71 55
84 70 59 91 73 61 98 76 63 105 79 46 112 82 48 84 60 50 91 63 52 98 66 54 105 69 56 112 72 58 84 75 60 91 78 62 98 81 64 105 84 47 112 62 49 84 65 51 91 68 53 98 71 55 105 74 57 112 77 59 84 80 61 91 83 63 98 61 46 105 64 48 112 67 50 84 70 52 91 73 54 98 76 56 105 79 58 112 82 60 84 60 62 91 63 64 98 66 47 105 69 49 112 72 51 84 75 53 91 78 55 98 81 57 105 84 59 112 62 61 84 65 63 91 68 46 98 71 48 105 74 50 112 77 52 84 80 54 91 83 56 98 61 58 105 64 60 112 67 62 84 70 64 91 73 47 98 76 49 105 79 51 112 82 53 84 60 55 91 63 57 98 66 59 105 69 61 112 72 63 84 75 46 91 78 48 98 81 50 105 84 52 112 62 54 84 65 56 91 68 58 98 71 60 105 74 62 112 77 64 84 80 47 91 83 49 98 61 51 105 64 53 112 67 55 84 70 57 91 73 59 98 76 61 105 79 63 112 82 46 84 60 48 91 63 50 98 66 52 105 69 54 112 72 56 84 75 58 91 78 60 98 81 62 105 84 64 112 62 47 84 65 49 91 68 51 98 71 53 105 74 55 112 77 57 84 80 59 91 83 61 98 61 63 105 64 46 112 67 48 84 70 50 91 73 52 98 76 54 105 79 56 112 82 58 84 60 60 91 63 62 98 66 64 105 69 47 112 72 49 84 75 51 91 78 53 98 81 55 105 84 57 112 62 59 84 65 61 91 68 63 98 71 46 105 74 48 112 77 50 84 80 52 91 83 54 98 61 56 105 64 58 112 67 60 84 70 62 91 73 64 98 76 47
87 75 51 94 78 53 101 81 55 108 84 57 80 62 59 87 65 61 94 68 63 101 71 46 108 74 48 80 77 50 87 80 52 94 83 54 101 61 56 108 64 58 80 67 60 87 70 62 94 73 64 101 76 47 108 79 49 80 82 51 87 60 53 94 63 55 101 66 57 108 69 59 80 72 61 87 75 63 94 78 46 101 81 48 108 84 50 80 62 52 87 65 54 94 68 56 101 71 58 108 74 60 80 77 62 87 80 64 94 83 47 101 61 49 108 64 51 80 67 53 87 70 55 94 73 57 101 76 59 108 79 61 80 82 63 87 60 46 94 63 48 101 66 50 108 69 52 80 72 54 87 75 56 94 78 58 101 81 60 108 84 62 80 62 64 87 65 47 94 68 49 101 71 51 108 74 53 80 77 55 87 80 57 94 83 59 101 61 61 108 64 63 80 67 46 87 70 48 94 73 50 101 76 52 108 79 54 80 82 56 87 60 58 94 63 60 101 66 62 108 69 64 80 72 47 87 75 49 94 78 51 101 81 53 108 84 55 80 62 57 87 65 59 94 68 61 101 71 63 108 74 46 80 77 48 87 80 50 94 83 52 101 61 54 108 64 56 80 67 58 87 70 60 94 73 62 101 76 64 108 79 47 80 82 49 87 60 51 94 63 53 101 66 55 108 69 57 80 72 59 87 75 61 94 78 63 101 81 46 108 84 48 80 62 50 87 65 52 94 68 54 101 71 56 108 74 58 80 77 60 87 80 62 94 83 64 101 61 47 108 64 49 80 67 51 87 70 53 94 73 55 101 76 57 108 79 59 80 82 61 87 60 63 94 63 46 101 66 48 108 69 50 80 72 52 87 75 54 94 78 56 101 81 58
90 80 62 97 83 64 104 61 47 111 64 49 83 67 51 90 70 53 97 73 55 104 76 57 111 79 59 83 82 61 90 60 63 97 63 46 104 66 48 111 69 50 83 72 52 90 75 54 97 78 56 104 81 58 111 84 60 83 62 62 90 65 64 97 68 47 104 71 49 111 74 51 83 77 53 90 80 55 97 83 57 104 61 59 111 64 61 83 67 63 90 70 46 97 73 48 104 76 50 111 79 52 83 82 54 90 60 56 97 63 58 104 66 60 111 69 62 83 72 64 90 75 47 97 78 49 104 81 51 111 84 53 83 62 55 90 65 57 97 68 59 104 71 61 111 74 63 83 77 46 90 80 48 97 83 50 104 61 52 111 64 54 83 67 56 90 70 58 97 73 60 104 76 62 111 79 64 83 82 47 90 60 49 97 63 51 104 66 53 111 69 55 83 72 57 90 75 59 97 78 61 104 81 63 111 84 46 83 62 48 90 65 50 97 68 52 104 71 54 111 74 56 83 77 58 90 80 60 97 83 62 104 61 64 111 64 47 83 67 49 90 70 51 97 73 53 104 76 55 111 79 57 83 82 59 90 60 61 97 63 63 104 66 46 111 69 48 83 72 50 90 75 52 97 78 54 104 81 56 111 84 58 83 62 60 90 65 62 97 68 64 104 71 47 111 74 49 83 77 51 90 80 53 97 83 55 104 61 57 111 64 59 83 67 61 90 70 63 97 73 46 104 76 48 111 79 50 83 82 52 90 60 54 97 63 56 104 66 58 111 69 60 83 72 62 90 75 64 97 78 47 104 81 49 111 84 51 83 62 53 90 65 55 97 68 57 104 71 59 111 74 61 83 77 63 90 80 46 97 83 48 104 61 50
93 60 54 100 63 56 107 66 58 79 69 60 86 72 62 93 75 64 100 78 47 107 81 49 79 84 51 86 62 53 93 65 55 100 68 57 107 71 59 79 74 61 86 77 63 93 80 46 100 83 48 107 61 50 79 64 52 86 67 54 93 70 56 100 73 58 107 76 60 79 79 62 86 82 64 93 60 47 100 63 49 107 66 51 79 69 53 86 72 55 93 75 57 100 78 59 107 81 61 79 84 63 86 62 46 93 65 48 100 68 50 107 71 52 79 74 54 86 77 56 93 80 58 100 83 60 107 61 62 79 64 64 86 67 47 93 70 49 100 73 51 107 76 53 79 79 55 86 82 57 93 60 59 100 63 61 107 66 63 79 69 46 86 72 48 93 75 50 100 78 52 107 81 54 79 84 56 86 62 58 93 65 60 100 68 62 107 71 64 79 74 47 86 77 49 93 80 51 100 83 53 107 61 55 79 64 57 86 67 59 93 70 61 100 73 63 107 76 46 79 79 48 86 82 50 93 60 52 100 63 54 107 66 56 79 69 58 86 72 60 93 75 62 100 78 64 107 81 47 79 84 49 86 62 51 93 65 53 100 68 55 107 71 57 79 74 59 86 77 61 93 80 63 100 83 46 107 61 48 79 64 50 86 67 52 93 70 54 100 73 56 107 76 58 79 79 60 86 82 62 93 60 64 100 63 47 107 66 49 79 69 51 86 72 53 93 75 55 100 78 57 107 81 59 79 84 61 86 62 63 93 65 46 100 68 48 107 71 50 79 74 52 86 77 54 93 80 56 100 83 58 107 61 60 79 64 62 86 67 64 93 70 47 100 73 49 107 76 51 79 79 53 86 82 55 93 60 57 100 63 59 107 66 61
96 65 46 103 68 48 110 71 50 82 74 52 89 77 54 96 80 56 103 83 58 110 61 60 82 64 62 89 67 64 96 70 47 103 73 49 110 76 51 82 79 53 89 82 55 96 60 57 103 63 59 110 66 61 82 69 63 89 72 46 96 75 48 103 78 50 110 81 52 82 84 54 89 62 56 96 65 58 103 68 60 110 71 62 82 74 64 89 77 47 96 80 49 103 83 51 110 61 53 82 64 55 89 67 57 96 70 59 103 73 61 110 76 63 82 79 46 89 82 48 96 60 50 103 63 52 110 66 54 82 69 56 89 72 58 96 75 60 103 78 62 110 81 64 82 84 47 89 62 49 96 65 51 103 68 53 110 71 55 82 74 57 89 77 59 96 80 61 103 83 63 110 61 46 82 64 48 89 67 50 96 70 52 103 73 54 110 76 56 82 79 58 89 82 60 96 60 62 103 63 64 110 66 47 82 69 49 89 72 51 96 75 53 103 78 55 110 81 57 82 84 59 89 62 61 96 65 63 103 68 46 110 71 48 82 74 50 89 77 52 96 80 54 103 83 56 110 61 58 82 64 60 89 67 62 96 70 64 103 73 47 110 76 49 82 79 51 89 82 53 96 60 55 103 63 57 110 66 59 82 69 61 89 72 63 96 75 46 103 78 48 110 81 50 82 84 52 89 62 54 96 65 56 103 68 58 110 71 60 82 74 62 89 77 64 96 80 47 103 83 49 110 61 51 82 64 53 89 67 55 96 70 57 103 73 59 110 76 61 82 79 63 89 82 46 96 60 48 103 63 50 110 66 52 82 69 54 89 72 56 96 75 58 103 78 60 110 81 62 82 84 64 89 62 47 96 65 49 103 68 51 110 71 53
99 70 57 106 73 59 78 76 61 85 79 63 92 82 46 99 60 48 106 63 50 78 66 52 85 69 54 92 72 56 99 75 58 106 78 60 78 81 62 85 84 64 92 62 47 99 65 49 106 68 51 78 71 53 85 74 55 92 77 57 99 80 59 106 83 61 78 61 63 85 64 46 92 67 48 99 70 50 106 73 52 78 76 54 85 79 56 92 82 58 99 60 60 106 63 62 78 66 64 85 69 47 92 72 49 99 75 51 106 78 53 78 81 55 85 84 57 92 62 59 99 65 61 106 68 63 78 71 46 85 74 48 92 77 50 99 80 52 106 83 54 78 61 56 85 64 58 92 67 60 99 70 62 106 73 64 78 76 47 85 79 49 92 82 51 99 60 53 106 63 55 78 66 57 85 69 59 92 72 61 99 75 63 106 78 46 78 81 48 85 84 50 92 62 52 99 65 54 106 68 56 78 71 58 85 74 60 92 77 62 99 80 64 106 83 47 78 61 49 85 64 51 92 67 53 99 70 55 106 73 57 78 76 59 85 79 61 92 82 63 99 60 46 106 63 48 78 66 50 85 69 52 92 72 54 99 75 56 106 78 58 78 81 60 85 84 62 92 62 64 99 65 47 106 68 49 78 71 51 85 74 53 92 77 55 99 80 57 106 83 59 78 61 61 85 64 63 92 67 46 99 70 48 106 73 50 78 76 52 85 79 54 92 82 56 99 60 58 106 63 60 78 66 62 85 69 64 92 72 47 99 75 49 106 78 51 78 81 53 85 84 55 92 62 57 99 65 59 106 68 61 78 71 63 85 74 46 92 77 48 99 80 50 106 83 52 78 61 54 85 64 56 92 67 58 99 70 60 106 73 62 78 76 64
102 75 49 109 78 51 81 81 53 88 84 55 95 62 57 102 65 59 109 68 61 81 71 63 88 74 46 95 77 48 102 80 50 109 83 52 81 61 54 88 64 56 95 67 58 102 70 60 109 73 62 81 76 64 88 79 47 95 82 49 102 60 51 109 63 53 81 66 55 88 69 57 95 72 59 102 75 61 109 78 63 81 81 46 88 84 48 95 62 50 102 65 52 109 68 54 81 71 56 88 74 58 95 77 60 102 80 62 109 83 64 81 61 47 88 64 49 95 67 51 102 70 53 109 73 55 81 76 57 88 79 59 95 82 61 102 60 63 109 63 46 81 66 48 88 69 50 95 72 52 102 75 54 109 78 56 81 81 58 88 84 60 95 62 62 102 65 64 109 68 47 81 71 49 88 74 51 95 77 53 102 80 55 109 83 57 81 61 59 88 64 61 95 67 63 102 70 46 109 73 48 81 76 50 88 79 52 95 82 54 102 60 56 109 63 58 81 66 60 88 69 62 95 72 64 102 75 47 109 78 49 81 81 51 88 84 53 95 62 55 102 65 57 109 68 59 81 71 61 88 74 63 95 77 46 102 80 48 109 83 50 81 61 52 88 64 54 95 67 56 102 70 58 109 73 60 81 76 62 88 79 64 95 82 47 102 60 49 109 63 51 81 66 53 88 69 55 95 72 57 102 75 59 109 78 61 81 81 63 88 84 46 95 62 48 102 65 50 109 68 52 81 71 54 88 74 56 95 77 58 102 80 60 109 83 62 81 61 64 88 64 47 95 67 49 102 70 51 109 73 53 81 76 55 88 79 57 95 82 59 102 60 61 109 63 63 81 66 46 88 69 48 95 72 50 102 75 52 109 78 54 81 81 56
105 80 60 112 83 62 84 61 64 91 64 47 98 67 49 105 70 51 112 73 53 84 76 55 91 79 57 98 82 59 105 60 61 112 63 63 84 66 46 91 69 48 98 72 50 105 75 52 112 78 54 84 81 56 91 84 58 98 62 60 105 65 62 112 68 64 84 71 47 91 74 49 98 77 51 105 80 53 112 83 55 84 61 57 91 64 59 98 67 61 105 70 63 112 73 46 84 76 48 91 79 50 98 82 52 105 60 54 112 63 56 84 66 58 91 69 60 98 72 62 105 75 64 112 78 47 84 81 49 91 84 51 98 62 53 105 65 55 112 68 57 84 71 59 91 74 61 98 77 63 105 80 46 112 83 48 84 61 50 91 64 52 98 67 54 105 70 56 112 73 58 84 76 60 91 79 62 98 82 64 105 60 47 112 63 49 84 66 51 91 69 53 98 72 55 105 75 57 112 78 59 84 81 61 91 84 63 98 62 46 105 65 48 112 68 50 84 71 52 91 74 54 98 77 56 105 80 58 112 83 60 84 61 62 91 64 64 98 67 47 105 70 49 112 73 51 84 76 53 91 79 55 98 82 57 105 60 59 112 63 61 84 66 63 91 69 46 98 72 48 105 75 50 112 78 52 84 81 54 91 84 56 98 62 58 105 65 60 112 68 62 84 71 64 91 74 47 98 77 49 105 80 51 112 83 53 84 61 55 91 64 57 98 67 59 105 70 61 112 73 63 84 76 46 91 79 48 98 82 50 105 60 52 112 63 54 84 66 56 91 69 58 98 72 60 105 75 62 112 78 64 84 81 47 91 84 49 98 62 51 105 65 53 112 68 55 84 71 57 91 74 59 98 77 61 105 80 63 112 83 46 84 61 48
108 60 52 80 63 54 87 66 56 94 69 58 101 72 60 108 75 62 80 78 64 87 81 47 94 84 49 101 62 51 108 65 53 80 68 55 87 71 57 94 74 59 101 77 61 108 80 63 80 83 46 87 61 48 94 64 50 101 67 52 108 70 54 80 73 56 87 76 58 94 79 60 101 82 62 108 60 64 80 63 47 87 66 49 94 69 51 101 72 53 108 75 55 80 78 57 87 81 59 94 84 61 101 62 63 108 65 46 80 68 48 87 71 50 94 74 52 101 77 54 108 80 56 80 83 58 87 61 60 94 64 62 101 67 64 108 70 47 80 73 49 87 76 51 94 79 53 101 82 55 108 60 57 80 63 59 87 66 61 94 69 63 101 72 46 108 75 48 80 78 50 87 81 52 94 84 54 101 62 56 108 65 58 80 68 60 87 71 62 94 74 64 101 77 47 108 80 49 80 83 51 87 61 53 94 64 55 101 67 57 108 70 59 80 73 61 87 76 63 94 79 46 101 82 48 108 60 50 80 63 52 87 66 54 94 69 56 101 72 58 108 75 60 80 78 62 87 81 64 94 84 47 101 62 49 108 65 51 80 68 53 87 71 55 94 74 57 101 77 59 108 80 61 80 83 63 87 61 46 94 64 48 101 67 50 108 70 52 80 73 54 87 76 56 94 79 58 101 82 60 108 60 62 80 63 64 87 66 47 94 69 49 101 72 51 108 75 53 80 78 55 87 81 57 94 84 59 101 62 61 108 65 63 80 68 46 87 71 48 94 74 50 101 77 52 108 80 54 80 83 56 87 61 58 94 64 60 101 67 62 108 70 64 80 73 47 87 76 49 94 79 51 101 82 53 108 60 55 80 63 57 87 66 59
111 65 63 83 68 46 90 71 48 97 74 50 104 77 52 111 80 54 83 83 56 90 61 58 97 64 60 104 67 62 111 70 64 83 73 47 90 76 49 97 79 51 104 82 53 111 60 55 83 63 57 90 66 59 97 69 61 104 72 63 111 75 46 83 78 48 90 81 50 97 84 52 104 62 54 111 65 56 83 68 58 90 71 60 97 74 62 104 77 64 111 80 47 83 83 49 90 61 51 97 64 53 104 67 55 111 70 57 83 73 59 90 76 61 97 79 63 104 82 46 111 60 48 83 63 50 90 66 52 97 69 54 104 72 56 111 75 58 83 78 60 90 81 62 97 84 64 104 62 47 111 65 49 83 68 51 90 71 53 97 74 55 104 77 57 111 80 59 83 83 61 90 61 63 97 64 46 104 67 48 111 70 50 83 73 52 90 76 54 97 79 56 104 82 58 111 60 60 83 63 62 90 66 64 97 69 47 104 72 49 111 75 51 83 78 53 90 81 55 97 84 57 104 62 59 111 65 61 83 68 63 90 71 46 97 74 48 104 77 50 111 80 52 83 83 54 90 61 56 97 64 58 104 67 60 111 70 62 83 73 64 90 76 47 97 79 49 104 82 51 111 60 53 83 63 55 90 66 57 97 69 59 104 72 61 111 75 63 83 78 46 90 81 48 97 84 50 104 62 52 111 65 54 83 68 56 90 71 58 97 74 60 104 77 62 111 80 64 83 83 47 90 61 49 97 64 51 104 67 53 111 70 55 83 73 57 90 76 59 97 79 61 104 82 63 111 60 46 83 63 48 90 66 50 97 69 52 104 72 54 111 75 56 83 78 58 90 81 60 97 84 62 104 62 64 111 65 47 83 68 49 90 71 51
79 70 55 86 73 57 93 76 59 100 79 61 107 82 63 79 60 46 86 63 48 93 66 50 100 69 52 107 72 54 79 75 56 86 78 58 93 81 60 100 84 62 107 62 64 79 65 47 86 68 49 93 71 51 100 74 53 107 77 55 79 80 57 86 83 59 93 61 61 100 64 63 107 67 46 79 70 48 86 73 50 93 76 52 100 79 54 107 82 56 79 60 58 86 63 60 93 66 62 100 69 64 107 72 47 79 75 49 86 78 51 93 81 53 100 84 55 107 62 57 79 65 59 86 68 61 93 71 63 100 74 46 107 77 48 79 80 50 86 83 52 93 61 54 100 64 56 107 67 58 79 70 60 86 73 62 93 76 64 100 79 47 107 82 49 79 60 51 86 63 53 93 66 55 100 69 57 107 72 59 79 75 61 86 78 63 93 81 46 100 84 48 107 62 50 79 65 52 86 68 54 93 71 56 100 74 58 107 77 60 79 80 62 86 83 64 93 61 47 100 64 49 107 67 51 79 70 53 86 73 55 93 76 57 100 79 59 107 82 61 79 60 63 86 63 46 93 66 48 100 69 50 107 72 52 79 75 54 86 78 56 93 81 58 100 84 60 107 62 62 79 65 64 86 68 47 93 71 49 100 74 51 107 77 53 79 80 55 86 83 57 93 61 59 100 64 61 107 67 63 79 70 46 86 73 48 93 76 50 100 79 52 107 82 54 79 60 56 86 63 58 93 66 60 100 69 62 107 72 64 79 75 47 86 78 49 93 81 51 100 84 53 107 62 55 79 65 57 86 68 59 93 71 61 100 74 63 107 77 46 79 80 48 86 83 50 93 61 52 100 64 54 107 67 56 79 70 58 86 73 60 93 76 62
82 75 47 89 78 49 96 81 51 103 84 53 110 62 55 82 65 57 89 68 59 96 71 61 103 74 63 110 77 46 82 80 48 89 83 50 96 61 52 103 64 54 110 67 56 82 70 58 89 73 60 96 76 62 103 79 64 110 82 47 82 60 49 89 63 51 96 66 53 103 69 55 110 72 57 82 75 59 89 78 61 96 81 63 103 84 46 110 62 48 82 65 50 89 68 52 96 71 54 103 74 56 110 77 58 82 80 60 89 83 62 96 61 64 103 64 47 110 67 49 82 70 51 89 73 53 96 76 55 103 79 57 110 82 59 82 60 61 89 63 63 96 66 46 103 69 48 110 72 50 82 75 52 89 78 54 96 81 56 103 84 58 110 62 60 82 65 62 89 68 64 96 71 47 103 74 49 110 77 51 82 80 53 89 83 55 96 61 57 103 64 59 110 67 61 82 70 63 89 73 46 96 76 48 103 79 50 110 82 52 82 60 54 89 63 56 96 66 58 103 69 60 110 72 62 82 75 64 89 78 47 96 81 49 103 84 51 110 62 53 82 65 55 89 68 57 96 71 59 103 74 61 110 77 63 82 80 46 89 83 48 96 61 50 103 64 52 110 67 54 82 70 56 89 73 58 96 76 60 103 79 62 110 82 64 82 60 47 89 63 49 96 66 51 103 69 53 110 72 55 82 75 57 89 78 59 96 81 61 103 84 63 110 62 46 82 65 48 89 68 50 96 71 52 103 74 54 110 77 56 82 80 58 89 83 60 96 61 62 103 64 64 110 67 47 82 70 49 89 73 51 96 76 53 103 79 55 110 82 57 82 60 59 89 63 61 96 66 63 103 69 46 110 72 48 82 75 50 89 78 52 96 81 54
85 80 58 92 83 60 99 61 62 106 64 64 78 67 47 85 70 49 92 73 51 99 76 53 106 79 55 78 82 57 85 60 59 92 63 61 99 66 63 106 69 46 78 72 48 85 75 50 92 78 52 99 81 54 106 84 56 78 62 58 85 65 60 92 68 62 99 71 64 106 74 47 78 77 49 85 80 51 92 83 53 99 61 55 106 64 57 78 67 59 85 70 61 92 73 63 99 76 46 106 79 48 78 82 50 85 60 52 92 63 54 99 66 56 106 69 58 78 72 60 85 75 62 92 78 64 99 81 47 106 84 49 78 62 51 85 65 53 92 68 55 99 71 57 106 74 59 78 77 61 85 80 63 92 83 46 99 61 48 106 64 50 78 67 52 85 70 54 92 73 56 99 76 58 106 79 60 78 82 62 85 60 64 92 63 47 99 66 49 106 69 51 78 72 53 85 75 55 92 78 57 99 81 59 106 84 61 78 62 63 85 65 46 92 68 48 99 71 50 106 74 52 78 77 54 85 80 56 92 83 58 99 61 60 106 64 62 78 67 64 85 70 47 92 73 49 99 76 51 106 79 53 78 82 55 85 60 57 92 63 59 99 66 61 106 69 63 78 72 46 85 75 48 92 78 50 99 81 52 106 84 54 78 62 56 85 65 58 92 68 60 99 71 62 106 74 64 78 77 47 85 80 49 92 83 51 99 61 53 106 64 55 78 67 57 85 70 59 92 73 61 99 76 63 106 79 46 78 82 48 85 60 50 92 63 52 99 66 54 106 69 56 78 72 58 85 75 60 92 78 62 99 81 64 106 84 47 78 62 49 85 65 51 92 68 53 99 71 55 106 74 57 78 77 59 85 80 61 92 83 63 99 61 46
88 60 50 95 63 52 102 66 54 109 69 56 81 72 58 88 75 60 95 78 62 102 81 64 109 84 47 81 62 49 88 65 51 95 68 53 102 71 55 109 74 57 81 77 59 88 80 61 95 83 63 102 61 46 109 64 48 81 67 50 88 70 52 95 73 54 102 76 56 109 79 58 81 82 60 88 60 62 95 63 64 102 66 47 109 69 49 81 72 51 88 75 53 95 78 55 102 81 57 109 84 59 81 62 61 88 65 63 95 68 46 102 71 48 109 74 50 81 77 52 88 80 54 95 83 56 102 61 58 109 64 60 81 67 62 88 70 64 95 73 47 102 76 49 109 79 51 81 82 53 88 60 55 95 63 57 102 66 59 109 69 61 81 72 63 88 75 46 95 78 48 102 81 50 109 84 52 81 62 54 88 65 56 95 68 58 102 71 60 109 74 62 81 77 64 88 80 47 95 83 49 102 61 51 109 64 53 81 67 55 88 70 57 95 73 59 102 76 61 109 79 63 81 82 46 88 60 48 95 63 50 102 66 52 109 69 54 81 72 56 88 75 58 95 78 60 102 81 62 109 84 64 81 62 47 88 65 49 95 68 51 102 71 53 109 74 55 81 77 57 88 80 59 95 83 61 102 61 63 109 64 46 81 67 48 88 70 50 95 73 52 102 76 54 109 79 56 81 82 58 88 60 60 95 63 62 102 66 64 109 69 47 81 72 49 88 75 51 95 78 53 102 81 55 109 84 57 81 62 59 88 65 61 95 68 63 102 71 46 109 74 48 81 77 50 88 80 52 95 83 54 102 61 56 109 64 58 81 67 60 88 70 62 95 73 64 102 76 47 109 79 49 81 82 51 88 60 53 95 63 55 102 66 57
91 65 61 98 68 63 105 71 46 112 74 48 84 77 50 91 80 52 98 83 54 105 61 56 112 64 58 84 67 60 91 70 62 98 73 64 105 76 47 112 79 49 84 82 51 91 60 53 98 63 55 105 66 57 112 69 59 84 72 61 91 75 63 98 78 46 105 81 48 112 84 50 84 62 52 91 65 54 98 68 56 105 71 58 112 74 60 84 77 62 91 80 64 98 83 47 105 61 49 112 64 51 84 67 53 91 70 55 98 73 57 105 76 59 112 79 61 84 82 63 91 60 46 98 63 48 105 66 50 112 69 52 84 72 54 91 75 56 98 78 58 105 81 60 112 84 62 84 62 64 91 65 47 98 68 49 105 71 51 112 74 53 84 77 55 91 80 57 98 83 59 105 61 61 112 64 63 84 67 46 91 70 48 98 73 50 105 76 52 112 79 54 84 82 56 91 60 58 98 63 60 105 66 62 112 69 64 84 72 47 91 75 49 98 78 51 105 81 53 112 84 55 84 62 57 91 65 59 98 68 61 105 71 63 112 74 46 84 77 48 91 80 50 98 83 52 105 61 54 112 64 56 84 67 58 91 70 60 98 73 62 105 76 64 112 79 47 84 82 49 91 60 51 98 63 53 105 66 55 112 69 57 84 72 59 91 75 61 98 78 63 105 81 46 112 84 48 84 62 50 91 65 52 98 68 54 105 71 56 112 74 58 84 77 60 91 80 62 98 83 64 105 61 47 112 64 49 84 67 51 91 70 53 98 73 55 105 76 57 112 79 59 84 82 61 91 60 63 98 63 46 105 66 48 112 69 50 84 72 52 91 75 54 98 78 56 105 81 58 112 84 60 84 62 62 91 65 64 98 68 47 105 71 49
94 70 53 101 73 55 108 76 57 80 79 59 87 82 61 94 60 63 101 63 46 108 66 48 80 69 50 87 72 52 94 75 54 101 78 56 108 81 58 80 84 60 87 62 62 94 65 64 101 68 47 108 71 49 80 74 51 87 77 53 94 80 55 101 83 57 108 61 59 80 64 61 87 67 63 94 70 46 101 73 48 108 76 50 80 79 52 87 82 54 94 60 56 101 63 58 108 66 60 80 69 62 87 72 64 94 75 47 101 78 49 108 81 51 80 84 53 87 62 55 94 65 57 101 68 59 108 71 61 80 74 63 87 77 46 94 80 48 101 83 50 108 61 52 80 64 54 87 67 56 94 70 58 101 73 60 108 76 62 80 79 64 87 82 47 94 60 49 101 63 51 108 66 53 80 69 55 87 72 57 94 75 59 101 78 61 108 81 63 80 84 46 87 62 48 94 65 50 101 68 52 108 71 54 80 74 56 87 77 58 94 80 60 101 83 62 108 61 64 80 64 47 87 67 49 94 70 51 101 73 53 108 76 55 80 79 57 87 82 59 94 60 61 101 63 63 108 66 46 80 69 48 87 72 50 94 75 52 101 78 54 108 81 56 80 84 58 87 62 60 94 65 62 101 68 64 108 71 47 80 74 49 87 77 51 94 80 53 101 83 55 108 61 57 80 64 59 87 67 61 94 70 63 101 73 46 108 76 48 80 79 50 87 82 52 94 60 54 101 63 56 108 66 58 80 69 60 87 72 62 94 75 64 101 78 47 108 81 49 80 84 51 87 62 53 94 65 55 101 68 57 108 71 59 80 74 61 87 77 63 94 80 46 101 83 48 108 61 50 80 64 52 87 67 54 94 70 56 101 73 58 108 76 60
97 75 64 104 78 47 111 81 49 83 84 51 90 62 53 97 65 55 104 68 57 111 71 59 83 74 61 90 77 63 97 80 46 104 83 48 111 61 50 83 64 52 90 67 54 97 70 56 104 73 58 111 76 60 83 79 62 90 82 64 97 60 47 104 63 49 111 66 51 83 69 53 90 72 55 97 75 57 104 78 59 111 81 61 83 84 63 90 62 46 97 65 48 104 68 50 111 71 52 83 74 54 90 77 56 97 80 58 104 83 60 111 61 62 83 64 64 90 67 47 97 70 49 104 73 51 111 76 53 83 79 55 90 82 57 97 60 59 104 63 61 111 66 63 83 69 46 90 72 48 97 75 50 104 78 52 111 81 54 83 84 56 90 62 58 97 65 60 104 68 62 111 71 64 83 74 47 90 77 49 97 80 51 104 83 53 111 61 55 83 64 57 90 67 59 97 70 61 104 73 63 111 76 46 83 79 48 90 82 50 97 60 52 104 63 54 111 66 56 83 69 58 90 72 60 97 75 62 104 78 64 111 81 47 83 84 49 90 62 51 97 65 53 104 68 55 111 71 57 83 74 59 90 77 61 97 80 63 104 83 46 111 61 48 83 64 50 90 67 52 97 70 54 104 73 56 111 76 58 83 79 60 90 82 62 97 60 64 104 63 47 111 66 49 83 69 51 90 72 53 97 75 55 104 78 57 111 81 59 83 84 61 90 62 63 97 65 46 104 68 48 111 71 50 83 74 52 90 77 54 97 80 56 104 83 58 111 61 60 83 64 62 90 67 64 97 70 47 104 73 49 111 76 51 83 79 53 90 82 55 97 60 57 104 63 59 111 66 61 83 69 63 90 72 46 97 75 48 104 78 50 111 81 52
100 80 56 107 83 58 79 61 60 86 64 62 93 67 64 100 70 47 107 73 49 79 76 51 86 79 53 93 82 55 100 60 57 107 63 59 79 66 61 86 69 63 93 72 46 100 75 48 107 78 50 79 81 52 86 84 54 93 62 56 100 65 58 107 68 60 79 71 62 86 74 64 93 77 47 100 80 49 107 83 51 79 61 53 86 64 55 93 67 57 100 70 59 107 73 61 79 76 63 86 79 46 93 82 48 100 60 50 107 63 52 79 66 54 86 69 56 93 72 58 100 75 60 107 78 62 79 81 64 86 84 47 93 62 49 100 65 51 107 68 53 79 71 55 86 74 57 93 77 59 100 80 61 107 83 63 79 61 46 86 64 48 93 67 50 100 70 52 107 73 54 79 76 56 86 79 58 93 82 60 100 60 62 107 63 64 79 66 47 86 69 49 93 72 51 100 75 53 107 78 55 79 81 57 86 84 59 93 62 61 100 65 63 107 68 46 79 71 48 86 74 50 93 77 52 100 80 54 107 83 56 79 61 58 86 64 60 93 67 62 100 70 64 107 73 47 79 76 49 86 79 51 93 82 53 100 60 55 107 63 57 79 66 59 86 69 61 93 72 63 100 75 46 107 78 48 79 81 50 86 84 52 93 62 54 100 65 56 107 68 58 79 71 60 86 74 62 93 77 64 100 80 47 107 83 49 79 61 51 86 64 53 93 67 55 100 70 57 107 73 59 79 76 61 86 79 63 93 82 46 100 60 48 107 63 50 79 66 52 86 69 54 93 72 56 100 75 58 107 78 60 79 81 62 86 84 64 93 62 47 100 65 49 107 68 51 79 71 53 86 74 55 93 77 57 100 80 59 107 83 61 79 61 63
103 60 48 110 63 50 82 66 52 89 69 54 96 72 56 103 75 58 110 78 60 82 81 62 89 84 64 96 62 47 103 65 49 110 68 51 82 71 53 89 74 55 96 77 57 103 80 59 110 83 61 82 61 63 89 64 46 96 67 48 103 70 50 110 73 52 82 76 54 89 79 56 96 82 58 103 60 60 110 63 62 82 66 64 89 69 47 96 72 49 103 75 51 110 78 53 82 81 55 89 84 57 96 62 59 103 65 61 110 68 63 82 71 46 89 74 48 96 77 50 103 80 52 110 83 54 82 61 56 89 64 58 96 67 60 103 70 62 110 73 64 82 76 47 89 79 49 96 82 51 103 60 53 110 63 55 82 66 57 89 69 59 96 72 61 103 75 63 110 78 46 82 81 48 89 84 50 96 62 52 103 65 54 110 68 56 82 71 58 89 74 60 96 77 62 103 80 64 110 83 47 82 61 49 89 64 51 96 67 53 103 70 55 110 73 57 82 76 59 89 79 61 96 82 63 103 60 46 110 63 48 82 66 50 89 69 52 96 72 54 103 75 56 110 78 58 82 81 60 89 84 62 96 62 64 103 65 47 110 68 49 82 71 51 89 74 53 96 77 55 103 80 57 110 83 59 82 61 61 89 64 63 96 67 46 103 70 48 110 73 50 82 76 52 89 79 54 96 82 56 103 60 58 110 63 60 82 66 62 89 69 64 96 72 47 103 75 49 110 78 51 82 81 53 89 84 55 96 62 57 103 65 59 110 68 61 82 71 63 89 74 46 96 77 48 103 80 50 110 83 52 82 61 54 89 64 56 96 67 58 103 70 60 110 73 62 82 76 64 89 79 47 96 82 49 103 60 51 110 63 53 82 66 55
106 65 59 78 68 61 85 71 63 92 74 46 99 77 48 106 80 50 78 83 52 85 61 54 92 64 56 99 67 58 106 70 60 78 73 62 85 76 64 92 79 47 99 82 49 106 60 51 78 63 53 85 66 55 92 69 57 99 72 59 106 75 61 78 78 63 85 81 46 92 84 48 99 62 50 106 65 52 78 68 54 85 71 56 92 74 58 99 77 60 106 80 62 78 83 64 85 61 47 92 64 49 99 67 51 106 70 53 78 73 55 85 76 57 92 79 59 99 82 61 106 60 63 78 63 46 85 66 48 92 69 50 99 72 52 106 75 54 78 78 56 85 81 58 92 84 60 99 62 62 106 65 64 78 68 47 85 71 49 92 74 51 99 77 53 106 80 55 78 83 57 85 61 59 92 64 61 99 67 63 106 70 46 78 73 48 85 76 50 92 79 52 99 82 54 106 60 56 78 63 58 85 66 60 92 69 62 99 72 64 106 75 47 78 78 49 85 81 51 92 84 53 99 62 55 106 65 57 78 68 59 85 71 61 92 74 63 99 77 46 106 80 48 78 83 50 85 61 52 92 64 54 99 67 56 106 70 58 78 73 60 85 76 62 92 79 64 99 82 47 106 60 49 78 63 51 85 66 53 92 69 55 99 72 57 106 75 59 78 78 61 85 81 63 92 84 46 99 62 48 106 65 50 78 68 52 85 71 54 92 74 56 99 77 58 106 80 60 78 83 62 85 61 64 92 64 47 99 67 49 106 70 51 78 73 53 85 76 55 92 79 57 99 82 59 106 60 61 78 63 63 85 66 46 92 69 48 99 72 50 106 75 52 78 78 54 85 81 56 92 84 58 99 62 60 106 65 62 78 68 64 85 71 47
109 70 51 81 73 53 88 76 55 95 79 57 102 82 59 109 60 61 81 63 63 88 66 46 95 69 48 102 72 50 109 75 52 81 78 54 88 81 56 95 84 58 102 62 60 109 65 62 81 68 64 88 71 47 95 74 49 102 77 51 109 80 53 81 83 55 88 61 57 95 64 59 102 67 61 109 70 63 81 73 46 88 76 48 95 79 50 102 82 52 109 60 54 81 63 56 88 66 58 95 69 60 102 72 62 109 75 64 81 78 47 88 81 49 95 84 51 102 62 53 109 65 55 81 68 57 88 71 59 95 74 61 102 77 63 109 80 46 81 83 48 88 61 50 95 64 52 102 67 54 109 70 56 81 73 58 88 76 60 95 79 62 102 82 64 109 60 47 81 63 49 88 66 51 95 69 53 102 72 55 109 75 57 81 78 59 88 81 61 95 84 63 102 62 46 109 65 48 81 68 50 88 71 52 95 74 54 102 77 56 109 80 58 81 83 60 88 61 62 95 64 64 102 67 47 109 70 49 81 73 51 88 76 53 95 79 55 102 82 57 109 60 59 81 63 61 88 66 63 95 69 46 102 72 48 109 75 50 81 78 52 88 81 54 95 84 56 102 62 58 109 65 60 81 68 62 88 71 64 95 74 47 102 77 49 109 80 51 81 83 53 88 61 55 95 64 57 102 67 59 109 70 61 81 73 63 88 76 46 95 79 48 102 82 50 109 60 52 81 63 54 88 66 56 95 69 58 102 72 60 109 75 62 81 78 64 88 81 47 95 84 49 102 62 51 109 65 53 81 68 55 88 71 57 95 74 59 102 77 61 109 80 63 81 83 46 88 61 48 95 64 50 102 67 52 109 70 54 81 73 56 88 76 58
112 75 62 84 78 64 91 81 47 98 84 49 105 62 51 112 65 53 84 68 55 91 71 57 98 74 59 105 77 61 112 80 63 84 83 46 91 61 48 98 64 50 105 67 52 112 70 54 84 73 56 91 76 58 98 79 60 105 82 62 112 60 64 84 63 47 91 66 49 98 69 51 105 72 53 112 75 55 84 78 57 91 81 59 98 84 61 105 62 63 112 65 46 84 68 48 91 71 50 98 74 52 105 77 54 112 80 56 84 83 58 91 61 60 98 64 62 105 67 64 112 70 47 84 73 49 91 76 51 98 79 53 105 82 55 112 60 57 84 63 59 91 66 61 98 69 63 105 72 46 112 75 48 84 78 50 91 81 52 98 84 54 105 62 56 112 65 58 84 68 60 91 71 62 98 74 64 105 77 47 112 80 49 84 83 51 91 61 53 98 64 55 105 67 57 112 70 59 84 73 61 91 76 63 98 79 46 105 82 48 112 60 50 84 63 52 91 66 54 98 69 56 105 72 58 112 75 60 84 78 62 91 81 64 98 84 47 105 62 49 112 65 51 84 68 53 91 71 55 98 74 57 105 77 59 112 80 61 84 83 63 91 61 46 98 64 48 105 67 50 112 70 52 84 73 54 91 76 56 98 79 58 105 82 60 112 60 62 84 63 64 91 66 47 98 69 49 105 72 51 112 75 53 84 78 55 91 81 57 98 84 59 105 62 61 112 65 63 84 68 46 91 71 48 98 74 50 105 77 52 112 80 54 84 83 56 91 61 58 98 64 60 105 67 62 112 70 64 84 73 47 91 76 49 98 79 51 105 82 53 112 60 55 84 63 57 91 66 59 98 69 61 105 72 63 112 75 46 84 78 48 91 81 50
80 80 54 87 83 56 94 61 58 101 64 60 108 67 62 80 70 64 87 73 47 94 76 49 101 79 51 108 82 53 80 60 55 87 63 57 94 66 59 101 69 61 108 72 63 80 75 46 87 78 48 94 81 50 101 84 52 108 62 54 80 65 56 87 68 58 94 71 60 101 74 62 108 77 64 80 80 47 87 83 49 94 61 51 101 64 53 108 67 55 80 70 57 87 73 59 94 76 61 101 79 63 108 82 46 80 60 48 87 63 50 94 66 52 101 69 54 108 72 56 80 75 58 87 78 60 94 81 62 101 84 64 108 62 47 80 65 49 87 68 51 94 71 53 101 74 55 108 77 57 80 80 59 87 83 61 94 61 63 101 64 46 108 67 48 80 70 50 87 73 52 94 76 54 101 79 56 108 82 58 80 60 60 87 63 62 94 66 64 101 69 47 108 72 49 80 75 51 87 78 53 94 81 55 101 84 57 108 62 59 80 65 61 87 68 63 94 71 46 101 74 48 108 77 50 80 80 52 87 83 54 94 61 56 101 64 58 108 67 60 80 70 62 87 73 64 94 76 47 101 79 49 108 82 51 80 60 53 87 63 55 94 66 57 101 69 59 108 72 61 80 75 63 87 78 46 94 81 48 101 84 50 108 62 52 80 65 54 87 68 56 94 71 58 101 74 60 108 77 62 80 80 64 87 83 47 94 61 49 101 64 51 108 67 53 80 70 55 87 73 57 94 76 59 101 79 61 108 82 63 80 60 46 87 63 48 94 66 50 101 69 52 108 72 54 80 75 56 87 78 58 94 81 60 101 84 62 108 62 64 80 65 47 87 68 49 94 71 51 101 74 53 108 77 55 80 80 57 87 83 59 94 61 61
83 60 46 90 63 48 97 66 50 104 69 52 111 72 54 83 75 56 90 78 58 97 81 60 104 84 62 111 62 64 83 65 47 90 68 49 97 71 51 104 74 53 111 77 55 83 80 57 90 83 59 97 61 61 104 64 63 111 67 46 83 70 48 90 73 50 97 76 52 104 79 54 111 82 56 83 60 58 90 63 60 97 66 62 104 69 64 111 72 47 83 75 49 90 78 51 97 81 53 104 84 55 111 62 57 83 65 59 90 68 61 97 71 63 104 74 46 111 77 48 83 80 50 90 83 52 97 61 54 104 64 56 111 67 58 83 70 60 90 73 62 97 76 64 104 79 47 111 82 49 83 60 51 90 63 53 97 66 55 104 69 57 111 72 59 83 75 61 90 78 63 97 81 46 104 84 48 111 62 50 83 65 52 90 68 54 97 71 56 104 74 58 111 77 60 83 80 62 90 83 64 97 61 47 104 64 49 111 67 51 83 70 53 90 73 55 97 76 57 104 79 59 111 82 61 83 60 63 90 63 46 97 66 48 104 69 50 111 72 52 83 75 54 90 78 56 97 81 58 104 84 60 111 62 62 83 65 64 90 68 47 97 71 49 104 74 51 111 77 53 83 80 55 90 83 57 97 61 59 104 64 61 111 67 63 83 70 46 90 73 48 97 76 50 104 79 52 111 82 54 83 60 56 90 63 58 97 66 60 104 69 62 111 72 64 83 75 47 90 78 49 97 81 51 104 84 53 111 62 55 83 65 57 90 68 59 97 71 61 104 74 63 111 77 46 83 80 48 90 83 50 97 61 52 104 64 54 111 67 56 83 70 58 90 73 60 97 76 62 104 79 64 111 82 47 83 60 49 90 63 51 97 66 53
86 65 57 93 68 59 100 71 61 107 74 63 79 77 46 86 80 48 93 83 50 100 61 52 107 64 54 79 67 56 86 70 58 93 73 60 100 76 62 107 79 64 79 82 47 86 60 49 93 63 51 100 66 53 107 69 55 79 72 57 86 75 59 93 78 61 100 81 63 107 84 46 79 62 48 86 65 50 93 68 52 100 71 54 107 74 56 79 77 58 86 80 60 93 83 62 100 61 64 107 64 47 79 67 49 86 70 51 93 73 53 100 76 55 107 79 57 79 82 59 86 60 61 93 63 63 100 66 46 107 69 48 79 72 50 86 75 52 93 78 54 100 81 56 107 84 58 79 62 60 86 65 62 93 68 64 100 71 47 107 74 49 79 77 51 86 80 53 93 83 55 100 61 57 107 64 59 79 67 61 86 70 63 93 73 46 100 76 48 107 79 50 79 82 52 86 60 54 93 63 56 100 66 58 107 69 60 79 72 62 86 75 64 93 78 47 100 81 49 107 84 51 79 62 53 86 65 55 93 68 57 100 71 59 107 74 61 79 77 63 86 80 46 93 83 48 100 61 50 107 64 52 79 67 54 86 70 56 93 73 58 100 76 60 107 79 62 79 82 64 86 60 47 93 63 49 100 66 51 107 69 53 79 72 55 86 75 57 93 78 59 100 81 61 107 84 63 79 62 46 86 65 48 93 68 50 100 71 52 107 74 54 79 77 56 86 80 58 93 83 60 100 61 62 107 64 64 79 67 47 86 70 49 93 73 51 100 76 53 107 79 55 79 82 57 86 60 59 93 63 61 100 66 63 107 69 46 79 72 48 86 75 50 93 78 52 100 81 54 107 84 56 79 62 58 86 65 60 93 68 62 100 71 64
89 70 49 96 73 51 103 76 53 110 79 55 82 82 57 89 60 59 96 63 61 103 66 63 110 69 46 82 72 48 89 75 50 96 78 52 103 81 54 110 84 56 82 62 58 89 65 60 96 68 62 103 71 64 110 74 47 82 77 49 89 80 51 96 83 53 103 61 55 110 64 57 82 67 59 89 70 61 96 73 63 103 76 46 110 79 48 82 82 50 89 60 52 96 63 54 103 66 56 110 69 58 82 72 60 89 75 62 96 78 64 103 81 47 110 84 49 82 62 51 89 65 53 96 68 55 103 71 57 110 74 59 82 77 61 89 80 63 96 83 46 103 61 48 110 64 50 82 67 52 89 70 54 96 73 56 103 76 58 110 79 60 82 82 62 89 60 64 96 63 47 103 66 49 110 69 51 82 72 53 89 75 55 96 78 57 103 81 59 110 84 61 82 62 63 89 65 46 96 68 48 103 71 50 110 74 52 82 77 54 89 80 56 96 83 58 103 61 60 110 64 62 82 67 64 89 70 47 96 73 49 103 76 51 110 79 53 82 82 55 89 60 57 96 63 59 103 66 61 110 69 63 82 72 46 89 75 48 96 78 50 103 81 52 110 84 54 82 62 56 89 65 58 96 68 60 103 71 62 110 74 64 82 77 47 89 80 49 96 83 51 103 61 53 110 64 55 82 67 57 89 70 59 96 73 61 103 76 63 110 79 46 82 82 48 89 60 50 96 63 52 103 66 54 110 69 56 82 72 58 89 75 60 96 78 62 103 81 64 110 84 47 82 62 49 89 65 51 96 68 53 103 71 55 110 74 57 82 77 59 89 80 61 96 83 63 103 61 46 110 64 48 82 67 50 89 70 52 96 73 54 103 76 56
92 75 60 99 78 62 106 81 64 78 84 47 85 62 49 92 65 51 99 68 53 106 71 55 78 74 57 85 77 59 92 80 61 99 83 63 106 61 46 78 64 48 85 67 50 92 70 52 99 73 54 106 76 56 78 79 58 85 82 60 92 60 62 99 63 64 106 66 47 78 69 49 85 72 51 92 75 53 99 78 55 106 81 57 78 84 59 85 62 61 92 65 63 99 68 46 106 71 48 78 74 50 85 77 52 92 80 54 99 83 56 106 61 58 78 64 60 85 67 62 92 70 64 99 73 47 106 76 49 78 79 51 85 82 53 92 60 55 99 63 57 106 66 59 78 69 61 85 72 63 92 75 46 99 78 48 106 81 50 78 84 52 85 62 54 92 65 56 99 68 58 106 71 60 78 74 62 85 77 64 92 80 47 99 83 49 106 61 51 78 64 53 85 67 55 92 70 57 99 73 59 106 76 61 78 79 63 85 82 46 92 60 48 99 63 50 106 66 52 78 69 54 85 72 56 92 75 58 99 78 60 106 81 62 78 84 64 85 62 47 92 65 49 99 68 51 106 71 53 78 74 55 85 77 57 92 80 59 99 83 61 106 61 63 78 64 46 85 67 48 92 70 50 99 73 52 106 76 54 78 79 56 85 82 58 92 60 60 99 63 62 106 66 64 78 69 47 85 72 49 92 75 51 99 78 53 106 81 55 78 84 57 85 62 59 92 65 61 99 68 63 106 71 46 78 74 48 85 77 50 92 80 52 99 83 54 106 61 56 78 64 58 85 67 60 92 70 62 99 73 64 106 76 47 78 79 49 85 82 51 92 60 53 99 63 55 106 66 57 78 69 59 85 72 61 92 75 63 99 78 46 106 81 48
95 80 52 102 83 54 109 61 56 81 64 58 88 67 60 95 70 62 102 73 64 109 76 47 81 79 49 88 82 51 95 60 53 102 63 55 109 66 57 81 69 59 88 72 61 95 75 63 102 78 46 109 81 48 81 84 50 88 62 52 95 65 54 102 68 56 109 71 58 81 74 60 88 77 62 95 80 64 102 83 47 109 61 49 81 64 51 88 67 53 95 70 55 102 73 57 109 76 59 81 79 61 88 82 63 95 60 46 102 63 48 109 66 50 81 69 52 88 72 54 95 75 56 102 78 58 109 81 60 81 84 62 88 62 64 95 65 47 102 68 49 109 71 51 81 74 53 88 77 55 95 80 57 102 83 59 109 61 61 81 64 63 88 67 46 95 70 48 102 73 50 109 76 52 81 79 54 88 82 56 95 60 58 102 63 60 109 66 62 81 69 64 88 72 47 95 75 49 102 78 51 109 81 53 81 84 55 88 62 57 95 65 59 102 68 61 109 71 63 81 74 46 88 77 48 95 80 50 102 83 52 109 61 54 81 64 56 88 67 58 95 70 60 102 73 62 109 76 64 81 79 47 88 82 49 95 60 51 102 63 53 109 66 55 81 69 57 88 72 59 95 75 61 102 78 63 109 81 46 81 84 48 88 62 50 95 65 52 102 68 54 109 71 56 81 74 58 88 77 60 95 80 62 102 83 64 109 61 47 81 64 49 88 67 51 95 70 53 102 73 55 109 76 57 81 79 59 88 82 61 95 60 63 102 63 46 109 66 48 81 69 50 88 72 52 95 75 54 102 78 56 109 81 58 81 84 60 88 62 62 95 65 64 102 68 47 109 71 49 81 74 51 88 77 53 95 80 55 102 83 57 109 61 59
98 60 63 105 63 46 112 66 48 84 69 50 91 72 52 98 75 54 105 78 56 112 81 58 84 84 60 91 62 62 98 65 64 105 68 47 112 71 49 84 74 51 91 77 53 98 80 55 105 83 57 112 61 59 84 64 61 91 67 63 98 70 46 105 73 48 112 76 50 84 79 52 91 82 54 98 60 56 105 63 58 112 66 60 84 69 62 91 72 64 98 75 47 105 78 49 112 81 51 84 84 53 91 62 55 98 65 57 105 68 59 112 71 61 84 74 63 91 77 46 98 80 48 105 83 50 112 61 52 84 64 54 91 67 56 98 70 58 105 73 60 112 76 62 84 79 64 91 82 47 98 60 49 105 63 51 112 66 53 84 69 55 91 72 57 98 75 59 105 78 61 112 81 63 84 84 46 91 62 48 98 65 50 105 68 52 112 71 54 84 74 56 91 77 58 98 80 60 105 83 62 112 61 64 84 64 47 91 67 49 98 70 51 105 73 53 112 76 55 84 79 57 91 82 59 98 60 61 105 63 63 112 66 46 84 69 48 91 72 50 98 75 52 105 78 54 112 81 56 84 84 58 91 62 60 98 65 62 105 68 64 112 71 47 84 74 49 91 77 51 98 80 53 105 83 55 112 61 57 84 64 59 91 67 61 98 70 63 105 73 46 112 76 48 84 79 50 91 82 52 98 60 54 105 63 56 112 66 58 84 69 60 91 72 62 98 75 64 105 78 47 112 81 49 84 84 51 91 62 53 98 65 55 105 68 57 112 71 59 84 74 61 91 77 63 98 80 46 105 83 48 112 61 50 84 64 52 91 67 54 98 70 56 105 73 58 112 76 60 84 79 62 91 82 64 98 60 47 105 63 49 112 66 51
101 65 55 108 68 57 80 71 59 87 74 61 94 77 63 101 80 46 108 83 48 80 61 50 87 64 52 94 67 54 101 70 56 108 73 58 80 76 60 87 79 62 94 82 64 101 60 47 108 63 49 80 66 51 87 69 53 94 72 55 101 75 57 108 78 59 80 81 61 87 84 63 94 62 46 101 65 48 108 68 50 80 71 52 87 74 54 94 77 56 101 80 58 108 83 60 80 61 62 87 64 64 94 67 47 101 70 49 108 73 51 80 76 53 87 79 55 94 82 57 101 60 59 108 63 61 80 66 63 87 69 46 94 72 48 101 75 50 108 78 52 80 81 54 87 84 56 94 62 58 101 65 60 108 68 62 80 71 64 87 74 47 94 77 49 101 80 51 108 83 53 80 61 55 87 64 57 94 67 59 101 70 61 108 73 63 80 76 46 87 79 48 94 82 50 101 60 52 108 63 54 80 66 56 87 69 58 94 72 60 101 75 62 108 78 64 80 81 47 87 84 49 94 62 51 101 65 53 108 68 55 80 71 57 87 74 59 94 77 61 101 80 63 108 83 46 80 61 48 87 64 50 94 67 52 101 70 54 108 73 56 80 76 58 87 79 60 94 82 62 101 60 64 108 63 47 80 66 49 87 69 51 94 72 53 101 75 55 108 78 57 80 81 59 87 84 61 94 62 63 101 65 46 108 68 48 80 71 50 87 74 52 94 77 54 101 80 56 108 83 58 80 61 60 87 64 62 94 67 64 101 70 47 108 73 49 80 76 51 87 79 53 94 82 55 101 60 57 108 63 59 80 66 61 87 69 63 94 72 46 101 75 48 108 78 50 80 81 52 87 84 54 94 62 56 101 65 58 108 68 60 80 71 62
104 70 47 111 73 49 83 76 51 90 79 53 97 82 55 104 60 57 111 63 59 83 66 61 90 69 63 97 72 46 104 75 48 111 78 50 83 81 52 90 84 54 97 62 56 104 65 58 111 68 60 83 71 62 90 74 64 97 77 47 104 80 49 111 83 51 83 61 53 90 64 55 97 67 57 104 70 59 111 73 61 83 76 63 90 79 46 97 82 48 104 60 50 111 63 52 83 66 54 90 69 56 97 72 58 104 75 60 111 78 62 83 81 64 90 84 47 97 62 49 104 65 51 111 68 53 83 71 55 90 74 57 97 77 59 104 80 61 111 83 63 83 61 46 90 64 48 97 67 50 104 70 52 111 73 54 83 76 56 90 79 58 97 82 60 104 60 62 111 63 64 83 66 47 90 69 49 97 72 51 104 75 53 111 78 55 83 81 57 90 84 59 97 62 61 104 65 63 111 68 46 83 71 48 90 74 50 97 77 52 104 80 54 111 83 56 83 61 58 90 64 60 97 67 62 104 70 64 111 73 47 83 76 49 90 79 51 97 82 53 104 60 55 111 63 57 83 66 59 90 69 61 97 72 63 104 75 46 111 78 48 83 81 50 90 84 52 97 62 54 104 65 56 111 68 58 83 71 60 90 74 62 97 77 64 104 80 47 111 83 49 83 61 51 90 64 53 97 67 55 104 70 57 111 73 59 83 76 61 90 79 63 97 82 46 104 60 48 111 63 50 83 66 52 90 69 54 97 72 56 104 75 58 111 78 60 83 81 62 90 84 64 97 62 47 104 65 49 111 68 51 83 71 53 90 74 55 97 77 57 104 80 59 111 83 61 83 61 63 90 64 46 97 67 48 104 70 50 111 73 52 83 76 54
107 75 58 79 78 60 86 81 62 93 84 64 100 62 47 107 65 49 79 68 51 86 71 53 93 74 55 100 77 57 107 80 59 79 83 61 86 61 63 93 64 46 100 67 48 107 70 50 79 73 52 86 76 54 93 79 56 100 82 58 107 60 60 79 63 62 86 66 64 93 69 47 100 72 49 107 75 51 79 78 53 86 81 55 93 84 57 100 62 59 107 65 61 79 68 63 86 71 46 93 74 48 100 77 50 107 80 52 79 83 54 86 61 56 93 64 58 100 67 60 107 70 62 79 73 64 86 76 47 93 79 49 100 82 51 107 60 53 79 63 55 86 66 57 93 69 59 100 72 61 107 75 63 79 78 46 86 81 48 93 84 50 100 62 52 107 65 54 79 68 56 86 71 58 93 74 60 100 77 62 107 80 64 79 83 47 86 61 49 93 64 51 100 67 53 107 70 55 79 73 57 86 76 59 93 79 61 100 82 63 107 60 46 79 63 48 86 66 50 93 69 52 100 72 54 107 75 56 79 78 58 86 81 60 93 84 62 100 62 64 107 65 47 79 68 49 86 71 51 93 74 53 100 77 55 107 80 57 79 83 59 86 61 61 93 64 63 100 67 46 107 70 48 79 73 50 86 76 52 93 79 54 100 82 56 107 60 58 79 63 60 86 66 62 93 69 64 100 72 47 107 75 49 79 78 51 86 81 53 93 84 55 100 62 57 107 65 59 79 68 61 86 71 63 93 74 46 100 77 48 107 80 50 79 83 52 86 61 54 93 64 56 100 67 58 107 70 60 79 73 62 86 76 64 93 79 47 100 82 49 107 60 51 79 63 53 86 66 55 93 69 57 100 72 59 107 75 61 79 78 63 86 81 46
110 80 50 82 83 52 89 61 54 96 64 56 103 67 58 110 70 60 82 73 62 89 76 64 96 79 47 103 82 49 110 60 51 82 63 53 89 66 55 96 69 57 103 72 59 110 75 61 82 78 63 89 81 46 96 84 48 103 62 50 110 65 52 82 68 54 89 71 56 96 74 58 103 77 60 110 80 62 82 83 64 89 61 47 96 64 49 103 67 51 110 70 53 82 73 55 89 76 57 96 79 59 103 82 61 110 60 63 82 63 46 89 66 48 96 69 50 103 72 52 110 75 54 82 78 56 89 81 58 96 84 60 103 62 62 110 65 64 82 68 47 89 71 49 96 74 51 103 77 53 110 80 55 82 83 57 89 61 59 96 64 61 103 67 63 110 70 46 82 73 48 89 76 50 96 79 52 103 82 54 110 60 56 82 63 58 89 66 60 96 69 62 103 72 64 110 75 47 82 78 49 89 81 51 96 84 53 103 62 55 110 65 57 82 68 59 89 71 61 96 74 63 103 77 46 110 80 48 82 83 50 89 61 52 96 64 54 103 67 56 110 70 58 82 73 60 89 76 62 96 79 64 103 82 47 110 60 49 82 63 51 89 66 53 96 69 55 103 72 57 110 75 59 82 78 61 89 81 63 96 84 46 103 62 48 110 65 50 82 68 52 89 71 54 96 74 56 103 77 58 110 80 60 82 83 62 89 61 64 96 64 47 103 67 49 110 70 51 82 73 53 89 76 55 96 79 57 103 82 59 110 60 61 82 63 63 89 66 46 96 69 48 103 72 50 110 75 52 82 78 54 89 81 56 96 84 58 103 62 60 110 65 62 82 68 64 89 71 47 96 74 49 103 77 51 110 80 53 82 83 55 89 61 57
78 60 61 85 63 63 92 66 46 99 69 48 106 72 50 78 75 52 85 78 54 92 81 56 99 84 58 106 62 60 78 65 62 85 68 64 92 71 47 99 74 49 106 77 51 78 80 53 85 83 55 92 61 57 99 64 59 106 67 61 78 70 63 85 73 46 92 76 48 99 79 50 106 82 52 78 60 54 85 63 56 92 66 58 99 69 60 106 72 62 78 75 64 85 78 47 92 81 49 99 84 51 106 62 53 78 65 55 85 68 57 92 71 59 99 74 61 106 77 63 78 80 46 85 83 48 92 61 50 99 64 52 106 67 54 78 70 56 85 73 58 92 76 60 99 79 62 106 82 64 78 60 47 85 63 49 92 66 51 99 69 53 106 72 55 78 75 57 85 78 59 92 81 61 99 84 63 106 62 46 78 65 48 85 68 50 92 71 52 99 74 54 106 77 56 78 80 58 85 83 60 92 61 62 99 64 64 106 67 47 78 70 49 85 73 51 92 76 53 99 79 55 106 82 57 78 60 59 85 63 61 92 66 63 99 69 46 106 72 48 78 75 50 85 78 52 92 81 54 99 84 56 106 62 58 78 65 60 85 68 62 92 71 64 99 74 47 106 77 49 78 80 51 85 83 53 92 61 55 99 64 57 106 67 59 78 70 61 85 73 63 92 76 46 99 79 48 106 82 50 78 60 52 85 63 54 92 66 56 99 69 58 106 72 60 78 75 62 85 78 64 92 81 47 99 84 49 106 62 51 78 65 53 85 68 55 92 71 57 99 74 59 106 77 61 78 80 63 85 83 46 92 61 48 99 64 50 106 67 52 78 70 54 85 73 56 92 76 58 99 79 60 106 82 62 78 60 64 85 63 47 92 66 49
81 65 53 88 68 55 95 71 57 102 74 59 109 77 61 81 80 63 88 83 46 95 61 48 102 64 50 109 67 52 81 70 54 88 73 56 95 76 58 102 79 60 109 82 62 81 60 64 88 63 47 95 66 49 102 69 51 109 72 53 81 75 55 88 78 57 95 81 59 102 84 61 109 62 63 81 65 46 88 68 48 95 71 50 102 74 52 109 77 54 81 80 56 88 83 58 95 61 60 102 64 62 109 67 64 81 70 47 88 73 49 95 76 51 102 79 53 109 82 55 81 60 57 88 63 59 95 66 61 102 69 63 109 72 46 81 75 48 88 78 50 95 81 52 102 84 54 109 62 56 81 65 58 88 68 60 95 71 62 102 74 64 109 77 47 81 80 49 88 83 51 95 61 53 102 64 55 109 67 57 81 70 59 88 73 61 95 76 63 102 79 46 109 82 48 81 60 50 88 63 52 95 66 54 102 69 56 109 72 58 81 75 60 88 78 62 95 81 64 102 84 47 109 62 49 81 65 51 88 68 53 95 71 55 102 74 57 109 77 59 81 80 61 88 83 63 95 61 46 102 64 48 109 67 50 81 70 52 88 73 54 95 76 56 102 79 58 109 82 60 81 60 62 88 63 64 95 66 47 102 69 49 109 72 51 81 75 53 88 78 55 95 81 57 102 84 59 109 62 61 81 65 63 88 68 46 95 71 48 102 74 50 109 77 52 81 80 54 88 83 56 95 61 58 102 64 60 109 67 62 81 70 64 88 73 47 95 76 49 102 79 51 109 82 53 81 60 55 88 63 57 95 66 59 102 69 61 109 72 63 81 75 46 88 78 48 95 81 50 102 84 52 109 62 54 81 65 56 88 68 58 95 71 60
84 70 64 91 73 47 98 76 49 105 79 51 112 82 53 84 60 55 91 63 57 98 66 59 105 69 61 112 72 63 84 75 46 91 78 48 98 81 50 105 84 52 112 62 54 84 65 56 91 68 58 98 71 60 105 74 62 112 77 64 84 80 47 91 83 49 98 61 51 105 64 53 112 67 55 84 70 57 91 73 59 98 76 61 105 79 63 112 82 46 84 60 48 91 63 50 98 66 52 105 69 54 112 72 56 84 75 58 91 78 60 98 81 62 105 84 64 112 62 47 84 65 49 91 68 51 98 71 53 105 74 55 112 77 57 84 80 59 91 83 61 98 61 63 105 64 46 112 67 48 84 70 50 91 73 52 98 76 54 105 79 56 112 82 58 84 60 60 91 63 62 98 66 64 105 69 47 112 72 49 84 75 51 91 78 53 98 81 55 105 84 57 112 62 59 84 65 61 91 68 63 98 71 46 105 74 48 112 77 50 84 80 52 91 83 54 98 61 56 105 64 58 112 67 60 84 70 62 91 73 64 98 76 47 105 79 49 112 82 51 84 60 53 91 63 55 98 66 57 105 69 59 112 72 61 84 75 63 91 78 46 98 81 48 105 84 50 112 62 52 84 65 54 91 68 56 98 71 58 105 74 60 112 77 62 84 80 64 91 83 47 98 61 49 105 64 51 112 67 53 84 70 55 91 73 57 98 76 59 105 79 61 112 82 63 84 60 46 91 63 48 98 66 50 105 69 52 112 72 54 84 75 56 91 78 58 98 81 60 105 84 62 112 62 64 84 65 47 91 68 49 98 71 51 105 74 53 112 77 55 84 80 57 91 83 59 98 61 61 105 64 63 112 67 46 84 70 48 91 73 50 98 76 52
87 75 56 94 78 58 101 81 60 108 84 62 80 62 64 87 65 47 94 68 49 101 71 51 108 74 53 80 77 55 87 80 57 94 83 59 101 61 61 108 64 63 80 67 46 87 70 48 94 73 50 101 76 52 108 79 54 80 82 56 87 60 58 94 63 60 101 66 62 108 69 64 80 72 47 87 75 49 94 78 51 101 81 53 108 84 55 80 62 57 87 65 59 94 68 61 101 71 63 108 74 46 80 77 48 87 80 50 94 83 52 101 61 54 108 64 56 80 67 58 87 70 60 94 73 62 101 76 64 108 79 47 80 82 49 87 60 51 94 63 53 101 66 55 108 69 57 80 72 59 87 75 61 94 78 63 101 81 46 108 84 48 80 62 50 87 65 52 94 68 54 101 71 56 108 74 58 80 77 60 87 80 62 94 83 64 101 61 47 108 64 49 80 67 51 87 70 53 94 73 55 101 76 57 108 79 59 80 82 61 87 60 63 94 63 46 101 66 48 108 69 50 80 72 52 87 75 54 94 78 56 101 81 58 108 84 60 80 62 62 87 65 64 94 68 47 101 71 49 108 74 51 80 77 53 87 80 55 94 83 57 101 61 59 108 64 61 80 67 63 87 70 46 94 73 48 101 76 50 108 79 52 80 82 54 87 60 56 94 63 58 101 66 60 108 69 62 80 72 64 87 75 47 94 78 49 101 81 51 108 84 53 80 62 55 87 65 57 94 68 59 101 71 61 108 74 63 80 77 46 87 80 48 94 83 50 101 61 52 108 64 54 80 67 56 87 70 58 94 73 60 101 76 62 108 79 64 80 82 47 87 60 49 94 63 51 101 66 53 108 69 55 80 72 57 87 75 59 94 78 61 101 81 63
90 80 48 97 83 50 104 61 52 111 64 54 83 67 56 90 70 58 97 73 60 104 76 62 111 79 64 83 82 47 90 60 49 97 63 51 104 66 53 111 69 55 83 72 57 90 75 59 97 78 61 104 81 63 111 84 46 83 62 48 90 65 50 97 68 52 104 71 54 111 74 56 83 77 58 90 80 60 97 83 62 104 61 64 111 64 47 83 67 49 90 70 51 97 73 53 104 76 55 111 79 57 83 82 59 90 60 61 97 63 63 104 66 46 111 69 48 83 72 50 90 75 52 97 78 54 104 81 56 111 84 58 83 62 60 90 65 62 97 68 64 104 71 47 111 74 49 83 77 51 90 80 53 97 83 55 104 61 57 111 64 59 83 67 61 90 70 63 97 73 46 104 76 48 111 79 50 83 82 52 90 60 54 97 63 56 104 66 58 111 69 60 83 72 62 90 75 64 97 78 47 104 81 49 111 84 51 83 62 53 90 65 55 97 68 57 104 71 59 111 74 61 83 77 63 90 80 46 97 83 48 104 61 50 111 64 52 83 67 54 90 70 56 97 73 58 104 76 60 111 79 62 83 82 64 90 60 47 97 63 49 104 66 51 111 69 53 83 72 55 90 75 57 97 78 59 104 81 61 111 84 63 83 62 46 90 65 48 97 68 50 104 71 52 111 74 54 83 77 56 90 80 58 97 83 60 104 61 62 111 64 64 83 67 47 90 70 49 97 73 51 104 76 53 111 79 55 83 82 57 90 60 59 97 63 61 104 66 63 111 69 46 83 72 48 90 75 50 97 78 52 104 81 54 111 84 56 83 62 58 90 65 60 97 68 62 104 71 64 111 74 47 83 77 49 90 80 51 97 83 53 104 61 55
93 60 59 100 63 61 107 66 63 79 69 46 86 72 48 93 75 50 100 78 52 107 81 54 79 84 56 86 62 58 93 65 60 100 68 62 107 71 64 79 74 47 86 77 49 93 80 51 100 83 53 107 61 55 79 64 57 86 67 59 93 70 61 100 73 63 107 76 46 79 79 48 86 82 50 93 60 52 100 63 54 107 66 56 79 69 58 86 72 60 93 75 62 100 78 64 107 81 47 79 84 49 86 62 51 93 65 53 100 68 55 107 71 57 79 74 59 86 77 61 93 80 63 100 83 46 107 61 48 79 64 50 86 67 52 93 70 54 100 73 56 107 76 58 79 79 60 86 82 62 93 60 64 100 63 47 107 66 49 79 69 51 86 72 53 93 75 55 100 78 57 107 81 59 79 84 61 86 62 63 93 65 46 100 68 48 107 71 50 79 74 52 86 77 54 93 80 56 100 83 58 107 61 60 79 64 62 86 67 64 93 70 47 100 73 49 107 76 51 79 79 53 86 82 55 93 60 57 100 63 59 107 66 61 79 69 63 86 72 46 93 75 48 100 78 50 107 81 52 79 84 54 86 62 56 93 65 58 100 68 60 107 71 62 79 74 64 86 77 47 93 80 49 100 83 51 107 61 53 79 64 55 86 67 57 93 70 59 100 73 61 107 76 63 79 79 46 86 82 48 93 60 50 100 63 52 107 66 54 79 69 56 86 72 58 93 75 60 100 78 62 107 81 64 79 84 47 86 62 49 93 65 51 100 68 53 107 71 55 79 74 57 86 77 59 93 80 61 100 83 63 107 61 46 79 64 48 86 67 50 93 70 52 100 73 54 107 76 56 79 79 58 86 82 60 93 60 62 100 63 64 107 66 47
96 65 51 103 68 53 110 71 55 82 74 57 89 77 59 96 80 61 103 83 63 110 61 46 82 64 48 89 67 50 96 70 52 103 73 54 110 76 56 82 79 58 89 82 60 96 60 62 103 63 64 110 66 47 82 69 49 89 72 51 96 75 53 103 78 55 110 81 57 82 84 59 89 62 61 96 65 63 103 68 46 110 71 48 82 74 50 89 77 52 96 80 54 103 83 56 110 61 58 82 64 60 89 67 62 96 70 64 103 73 47 110 76 49 82 79 51 89 82 53 96 60 55 103 63 57 110 66 59 82 69 61 89 72 63 96 75 46 103 78 48 110 81 50 82 84 52 89 62 54 96 65 56 103 68 58 110 71 60 82 74 62 89 77 64 96 80 47 103 83 49 110 61 51 82 64 53 89 67 55 96 70 57 103 73 59 110 76 61 82 79 63 89 82 46 96 60 48 103 63 50 110 66 52 82 69 54 89 72 56 96 75 58 103 78 60 110 81 62 82 84 64 89 62 47 96 65 49 103 68 51 110 71 53 82 74 55 89 77 57 96 80 59 103 83 61 110 61 63 82 64 46 89 67 48 96 70 50 103 73 52 110 76 54 82 79 56 89 82 58 96 60 60 103 63 62 110 66 64 82 69 47 89 72 49 96 75 51 103 78 53 110 81 55 82 84 57 89 62 59 96 65 61 103 68 63 110 71 46 82 74 48 89 77 50 96 80 52 103 83 54 110 61 56 82 64 58 89 67 60 96 70 62 103 73 64 110 76 47 82 79 49 89 82 51 96 60 53 103 63 55 110 66 57 82 69 59 89 72 61 96 75 63 103 78 46 110 81 48 82 84 50 89 62 52 96 65 54 103 68 56 110 71 58
99 70 62 106 73 64 78 76 47 85 79 49 92 82 51 99 60 53 106 63 55 78 66 57 85 69 59 92 72 61 99 75 63 106 78 46 78 81 48 85 84 50 92 62 52 99 65 54 106 68 56 78 71 58 85 74 60 92 77 62 99 80 64 106 83 47 78 61 49 85 64 51 92 67 53 99 70 55 106 73 57 78 76 59 85 79 61 92 82 63 99 60 46 106 63 48 78 66 50 85 69 52 92 72 54 99 75 56 106 78 58 78 81 60 85 84 62 92 62 64 99 65 47 106 68 49 78 71 51 85 74 53 92 77 55 99 80 57 106 83 59 78 61 61 85 64 63 92 67 46 99 70 48 106 73 50 78 76 52 85 79 54 92 82 56 99 60 58 106 63 60 78 66 62 85 69 64 92 72 47 99 75 49 106 78 51 78 81 53 85 84 55 92 62 57 99 65 59 106 68 61 78 71 63 85 74 46 92 77 48 99 80 50 106 83 52 78 61 54 85 64 56 92 67 58 99 70 60 106 73 62 78 76 64 85 79 47 92 82 49 99 60 51 106 63 53 78 66 55 85 69 57 92 72 59 99 75 61 106 78 63 78 81 46 85 84 48 92 62 50 99 65 52 106 68 54 78 71 56 85 74 58 92 77 60 99 80 62 106 83 64 78 61 47 85 64 49 92 67 51 99 70 53 106 73 55 78 76 57 85 79 59 92 82 61 99 60 63 106 63 46 78 66 48 85 69 50 92 72 52 99 75 54 106 78 56 78 81 58 85 84 60 92 62 62 99 65 64 106 68 47 78 71 49 85 74 51 92 77 53 99 80 55 106 83 57 78 61 59 85 64 61 92 67 63 99 70 46 106 73 48 78 76 50
102 75 54 109 78 56 81 81 58 88 84 60 95 62 62 102 65 64 109 68 47 81 71 49 88 74 51 95 77 53 102 80 55 109 83 57 81 61 59 88 64 61 95 67 63 102 70 46 109 73 48 81 76 50 88 79 52 95 82 54 102 60 56 109 63 58 81 66 60 88 69 62 95 72 64 102 75 47 109 78 49 81 81 51 88 84 53 95 62 55 102 65 57 109 68 59 81 71 61 88 74 63 95 77 46 102 80 48 109 83 50 81 61 52 88 64 54 95 67 56 102 70 58 109 73 60 81 76 62 88 79 64 95 82 47 102 60 49 109 63 51 81 66 53 88 69 55 95 72 57 102 75 59 109 78 61 81 81 63 88 84 46 95 62 48 102 65 50 109 68 52 81 71 54 88 74 56 95 77 58 102 80 60 109 83 62 81 61 64 88 64 47 95 67 49 102 70 51 109 73 53 81 76 55 88 79 57 95 82 59 102 60 61 109 63 63 81 66 46 88 69 48 95 72 50 102 75 52 109 78 54 81 81 56 88 84 58 95 62 60 102 65 62 109 68 64 81 71 47 88 74 49 95 77 51 102 80 53 109 83 55 81 61 57 88 64 59 95 67 61 102 70 63 109 73 46 81 76 48 88 79 50 95 82 52 102 60 54 109 63 56 81 66 58 88 69 60 95 72 62 102 75 64 109 78 47 81 81 49 88 84 51 95 62 53 102 65 55 109 68 57 81 71 59 88 74 61 95 77 63 102 80 46 109 83 48 81 61 50 88 64 52 95 67 54 102 70 56 109 73 58 81 76 60 88 79 62 95 82 64 102 60 47 109 63 49 81 66 51 88 69 53 95 72 55 102 75 57 109 78 59 81 81 61
105 80 46 112 83 48 84 61 50 91 64 52 98 67 54 105 70 56 112 73 58 84 76 60 91 79 62 98 82 64 105 60 47 112 63 49 84 66 51 91 69 53 98 72 55 105 75 57 112 78 59 84 81 61 91 84 63 98 62 46 105 65 48 112 68 50 84 71 52 91 74 54 98 77 56 105 80 58 112 83 60 84 61 62 91 64 64 98 67 47 105 70 49 112 73 51 84 76 53 91 79 55 98 82 57 105 60 59 112 63 61 84 66 63 91 69 46 98 72 48 105 75 50 112 78 52 84 81 54 91 84 56 98 62 58 105 65 60 112 68 62 84 71 64 91 74 47 98 77 49 105 80 51 112 83 53 84 61 55 91 64 57 98 67 59 105 70 61 112 73 63 84 76 46 91 79 48 98 82 50 105 60 52 112 63 54 84 66 56 91 69 58 98 72 60 105 75 62 112 78 64 84 81 47 91 84 49 98 62 51 105 65 53 112 68 55 84 71 57 91 74 59 98 77 61 105 80 63 112 83 46 84 61 48 91 64 50 98 67 52 105 70 54 112 73 56 84 76 58 91 79 60 98 82 62 105 60 64 112 63 47 84 66 49 91 69 51 98 72 53 105 75 55 112 78 57 84 81 59 91 84 61 98 62 63 105 65 46 112 68 48 84 71 50 91 74 52 98 77 54 105 80 56 112 83 58 84 61 60 91 64 62 98 67 64 105 70 47 112 73 49 84 76 51 91 79 53 98 82 55 105 60 57 112 63 59 84 66 61 91 69 63 98 72 46 105 75 48 112 78 50 84 81 52 91 84 54 98 62 56 105 65 58 112 68 60 84 71 62 91 74 64 98 77 47 105 80 49 112 83 51 84 61 53
108 60 57 80 63 59 87 66 61 94 69 63 101 72 46 108 75 48 80 78 50 87 81 52 94 84 54 101 62 56 108 65 58 80 68 60 87 71 62 94 74 64 101 77 47 108 80 49 80 83 51 87 61 53 94 64 55 101 67 57 108 70 59 80 73 61 87 76 63 94 79 46 101 82 48 108 60 50 80 63 52 87 66 54 94 69 56 101 72 58 108 75 60 80 78 62 87 81 64 94 84 47 101 62 49 108 65 51 80 68 53 87 71 55 94 74 57 101 77 59 108 80 61 80 83 63 87 61 46 94 64 48 101 67 50 108 70 52 80 73 54 87 76 56 94 79 58 101 82 60 108 60 62 80 63 64 87 66 47 94 69 49 101 72 51 108 75 53 80 78 55 87 81 57 94 84 59 101 62 61 108 65 63 80 68 46 87 71 48 94 74 50 101 77 52 108 80 54 80 83 56 87 61 58 94 64 60 101 67 62 108 70 64 80 73 47 87 76 49 94 79 51 101 82 53 108 60 55 80 63 57 87 66 59 94 69 61 101 72 63 108 75 46 80 78 48 87 81 50 94 84 52 101 62 54 108 65 56 80 68 58 87 71 60 94 74 62 101 77 64 108 80 47 80 83 49 87 61 51 94 64 53 101 67 55 108 70 57 80 73 59 87 76 61 94 79 63 101 82 46 108 60 48 80 63 50 87 66 52 94 69 54 101 72 56 108 75 58 80 78 60 87 81 62 94 84 64 101 62 47 108 65 49 80 68 51 87 71 53 94 74 55 101 77 57 108 80 59 80 83 61 87 61 63 94 64 46 101 67 48 108 70 50 80 73 52 87 76 54 94 79 56 101 82 58 108 60 60 80 63 62 87 66 64
111 65 49 83 68 51 90 71 53 97 74 55 104 77 57 111 80 59 83 83 61 90 61 63 97 64 46 104 67 48 111 70 50 83 73 52 90 76 54 97 79 56 104 82 58 111 60 60 83 63 62 90 66 64 97 69 47 104 72 49 111 75 51 83 78 53 90 81 55 97 84 57 104 62 59 111 65 61 83 68 63 90 71 46 97 74 48 104 77 50 111 80 52 83 83 54 90 61 56 97 64 58 104 67 60 111 70 62 83 73 64 90 76 47 97 79 49 104 82 51 111 60 53 83 63 55 90 66 57 97 69 59 104 72 61 111 75 63 83 78 46 90 81 48 97 84 50 104 62 52 111 65 54 83 68 56 90 71 58 97 74 60 104 77 62 111 80 64 83 83 47 90 61 49 97 64 51 104 67 53 111 70 55 83 73 57 90 76 59 97 79 61 104 82 63 111 60 46 83 63 48 90 66 50 97 69 52 104 72 54 111 75 56 83 78 58 90 81 60 97 84 62 104 62 64 111 65 47 83 68 49 90 71 51 97 74 53 104 77 55 111 80 57 83 83 59 90 61 61 97 64 63 104 67 46 111 70 48 83 73 50 90 76 52 97 79 54 104 82 56 111 60 58 83 63 60 90 66 62 97 69 64 104 72 47 111 75 49 83 78 51 90 81 53 97 84 55 104 62 57 111 65 59 83 68 61 90 71 63 97 74 46 104 77 48 111 80 50 83 83 52 90 61 54 97 64 56 104 67 58 111 70 60 83 73 62 90 76 64 97 79 47 104 82 49 111 60 51 83 63 53 90 66 55 97 69 57 104 72 59 111 75 61 83 78 63 90 81 46 97 84 48 104 62 50 111 65 52 83 68 54 90 71 56
79 70 60 86 73 62 93 76 64 100 79 47 107 82 49 79 60 51 86 63 53 93 66 55 100 69 57 107 72 59 79 75 61 86 78 63 93 81 46 100 84 48 107 62 50 79 65 52 86 68 54 93 71 56 100 74 58 107 77 60 79 80 62 86 83 64 93 61 47 100 64 49 107 67 51 79 70 53 86 73 55 93 76 57 100 79 59 107 82 61 79 60 63 86 63 46 93 66 48 100 69 50 107 72 52 79 75 54 86 78 56 93 81 58 100 84 60 107 62 62 79 65 64 86 68 47 93 71 49 100 74 51 107 77 53 79 80 55 86 83 57 93 61 59 100 64 61 107 67 63 79 70 46 86 73 48 93 76 50 100 79 52 107 82 54 79 60 56 86 63 58 93 66 60 100 69 62 107 72 64 79 75 47 86 78 49 93 81 51 100 84 53 107 62 55 79 65 57 86 68 59 93 71 61 100 74 63 107 77 46 79 80 48 86 83 50 93 61 52 100 64 54 107 67 56 79 70 58 86 73 60 93 76 62 100 79 64 107 82 47 79 60 49 86 63 51 93 66 53 100 69 55 107 72 57 79 75 59 86 78 61 93 81 63 100 84 46 107 62 48 79 65 50 86 68 52 93 71 54 100 74 56 107 77 58 79 80 60 86 83 62 93 61 64 100 64 47 107 67 49 79 70 51 86 73 53 93 76 55 100 79 57 107 82 59 79 60 61 86 63 63 93 66 46 100 69 48 107 72 50 79 75 52 86 78 54 93 81 56 100 84 58 107 62 60 79 65 62 86 68 64 93 71 47 100 74 49 107 77 51 79 80 53 86 83 55 93 61 57 100 64 59 107 67 61 79 70 63 86 73 46 93 76 48
82 75 52 89 78 54 96 81 56 103 84 58 110 62 60 82 65 62 89 68 64 96 71 47 103 74 49 110 77 51 82 80 53 89 83 55 96 61 57 103 64 59 110 67 61 82 70 63 89 73 46 96 76 48 103 79 50 110 82 52 82 60 54 89 63 56 96 66 58 103 69 60 110 72 62 82 75 64 89 78 47 96 81 49 103 84 51 110 62 53 82 65 55 89 68 57 96 71 59 103 74 61 110 77 63 82 80 46 89 83 48 96 61 50 103 64 52 110 67 54 82 70 56 89 73 58 96 76 60 103 79 62 110 82 64 82 60 47 89 63 49 96 66 51 103 69 53 110 72 55 82 75 57 89 78 59 96 81 61 103 84 63 110 62 46 82 65 48 89 68 50 96 71 52 103 74 54 110 77 56 82 80 58 89 83 60 96 61 62 103 64 64 110 67 47 82 70 49 89 73 51 96 76 53 103 79 55 110 82 57 82 60 59 89 63 61 96 66 63 103 69 46 110 72 48 82 75 50 89 78 52 96 81 54 103 84 56 110 62 58 82 65 60 89 68 62 96 71 64 103 74 47 110 77 49 82 80 51 89 83 53 96 61 55 103 64 57 110 67 59 82 70 61 89 73 63 96 76 46 103 79 48 110 82 50 82 60 52 89 63 54 96 66 56 103 69 58 110 72 60 82 75 62 89 78 64 96 81 47 103 84 49 110 62 51 82 65 53 89 68 55 96 71 57 103 74 59 110 77 61 82 80 63 89 83 46 96 61 48 103 64 50 110 67 52 82 70 54 89 73 56 96 76 58 103 79 60 110 82 62 82 60 64 89 63 47 96 66 49 103 69 51 110 72 53 82 75 55 89 78 57 96 81 59
85 80 63 92 83 46 99 61 48 106 64 50 78 67 52 85 70 54 92 73 56 99 76 58 106 79 60 78 82 62 85 60 64 92 63 47 99 66 49 106 69 51 78 72 53 85 75 55 92 78 57 99 81 59 106 84 61 78 62 63 85 65 46 92 68 48 99 71 50 106 74 52 78 77 54 85 80 56 92 83 58 99 61 60 106 64 62 78 67 64 85 70 47 92 73 49 99 76 51 106 79 53 78 82 55 85 60 57 92 63 59 99 66 61 106 69 63 78 72 46 85 75 48 92 78 50 99 81 52 106 84 54 78 62 56 85 65 58 92 68 60 99 71 62 106 74 64 78 77 47 85 80 49 92 83 51 99 61 53 106 64 55 78 67 57 85 70 59 92 73 61 99 76 63 106 79 46 78 82 48 85 60 50 92 63 52 99 66 54 106 69 56 78 72 58 85 75 60 92 78 62 99 81 64 106 84 47 78 62 49 85 65 51 92 68 53 99 71 55 106 74 57 78 77 59 85 80 61 92 83 63 99 61 46 106 64 48 78 67 50 85 70 52 92 73 54 99 76 56 106 79 58 78 82 60 85 60 62 92 63 64 99 66 47 106 69 49 78 72 51 85 75 53 92 78 55 99 81 57 106 84 59 78 62 61 85 65 63 92 68 46 99 71 48 106 74 50 78 77 52 85 80 54 92 83 56 99 61 58 106 64 60 78 67 62 85 70 64 92 73 47 99 76 49 106 79 51 78 82 53 85 60 55 92 63 57 99 66 59 106 69 61 78 72 63 85 75 46 92 78 48 99 81 50 106 84 52 78 62 54 85 65 56 92 68 58 99 71 60 106 74 62 78 77 64 85 80 47 92 83 49 99 61 51
88 60 55 95 63 57 102 66 59 109 69 61 81 72 63 88 75 46 95 78 48 102 81 50 109 84 52 81 62 54 88 65 56 95 68 58 102 71 60 109 74 62 81 77 64 88 80 47 95 83 49 102 61 51 109 64 53 81 67 55 88 70 57 95 73 59 102 76 61 109 79 63 81 82 46 88 60 48 95 63 50 102 66 52 109 69 54 81 72 56 88 75 58 95 78 60 102 81 62 109 84 64 81 62 47 88 65 49 95 68 51 102 71 53 109 74 55 81 77 57 88 80 59 95 83 61 102 61 63 109 64 46 81 67 48 88 70 50 95 73 52 102 76 54 109 79 56 81 82 58 88 60 60 95 63 62 102 66 64 109 69 47 81 72 49 88 75 51 95 78 53 102 81 55 109 84 57 81 62 59 88 65 61 95 68 63 102 71 46 109 74 48 81 77 50 88 80 52 95 83 54 102 61 56 109 64 58 81 67 60 88 70 62 95 73 64 102 76 47 109 79 49 81 82 51 88 60 53 95 63 55 102 66 57 109 69 59 81 72 61 88 75 63 95 78 46 102 81 48 109 84 50 81 62 52 88 65 54 95 68 56 102 71 58 109 74 60 81 77 62 88 80 64 95 83 47 102 61 49 109 64 51 81 67 53 88 70 55 95 73 57 102 76 59 109 79 61 81 82 63 88 60 46 95 63 48 102 66 50 109 69 52 81 72 54 88 75 56 95 78 58 102 81 60 109 84 62 81 62 64 88 65 47 95 68 49 102 71 51 109 74 53 81 77 55 88 80 57 95 83 59 102 61 61 109 64 63 81 67 46 88 70 48 95 73 50 102 76 52 109 79 54 81 82 56 88 60 58 95 63 60 102 66 62
91 65 47 98 68 49 105 71 51 112 74 53 84 77 55 91 80 57 98 83 59 105 61 61 112 64 63 84 67 46 91 70 48 98 73 50 105 76 52 112 79 54 84 82 56 91 60 58 98 63 60 105 66 62 112 69 64 84 72 47 91 75 49 98 78 51 105 81 53 112 84 55 84 62 57 91 65 59 98 68 61 105 71 63 112 74 46 84 77 48 91 80 50 98 83 52 105 61 54 112 64 56 84 67 58 91 70 60 98 73 62 105 76 64 112 79 47 84 82 49 91 60 51 98 63 53 105 66 55 112 69 57 84 72 59 91 75 61 98 78 63 105 81 46 112 84 48 84 62 50 91 65 52 98 68 54 105 71 56 112 74 58 84 77 60 91 80 62 98 83 64 105 61 47 112 64 49 84 67 51 91 70 53 98 73 55 105 76 57 112 79 59 84 82 61 91 60 63 98 63 46 105 66 48 112 69 50 84 72 52 91 75 54 98 78 56 105 81 58 112 84 60 84 62 62 91 65 64 98 68 47 105 71 49 112 74 51 84 77 53 91 80 55 98 83 57 105 61 59 112 64 61 84 67 63 91 70 46 98 73 48 105 76 50 112 79 52 84 82 54 91 60 56 98 63 58 105 66 60 112 69 62 84 72 64 91 75 47 98 78 49 105 81 51 112 84 53 84 62 55 91 65 57 98 68 59 105 71 61 112 74 63 84 77 46 91 80 48 98 83 50 105 61 52 112 64 54 84 67 56 91 70 58 98 73 60 105 76 62 112 79 64 84 82 47 91 60 49 98 63 51 105 66 53 112 69 55 84 72 57 91 75 59 98 78 61 105 81 63 112 84 46 84 62 48 91 65 50 98 68 52 105 71 54
94 70 58 101 73 60 108 76 62 80 79 64 87 82 47 94 60 49 101 63 51 108 66 53 80 69 55 87 72 57 94 75 59 101 78 61 108 81 63 80 84 46 87 62 48 94 65 50 101 68 52 108 71 54 80 74 56 87 77 58 94 80 60 101 83 62 108 61 64 80 64 47 87 67 49 94 70 51 101 73 53 108 76 55 80 79 57 87 82 59 94 60 61 101 63 63 108 66 46 80 69 48 87 72 50 94 75 52 101 78 54 108 81 56 80 84 58 87 62 60 94 65 62 101 68 64 108 71 47 80 74 49 87 77 51 94 80 53 101 83 55 108 61 57 80 64 59 87 67 61 94 70 63 101 73 46 108 76 48 80 79 50 87 82 52 94 60 54 101 63 56 108 66 58 80 69 60 87 72 62 94 75 64 101 78 47 108 81 49 80 84 51 87 62 53 94 65 55 101 68 57 108 71 59 80 74 61 87 77 63 94 80 46 101 83 48 108 61 50 80 64 52 87 67 54 94 70 56 101 73 58 108 76 60 80 79 62 87 82 64 94 60 47 101 63 49 108 66 51 80 69 53 87 72 55 94 75 57 101 78 59 108 81 61 80 84 63 87 62 46 94 65 48 101 68 50 108 71 52 80 74 54 87 77 56 94 80 58 101 83 60 108 61 62 80 64 64 87 67 47 94 70 49 101 73 51 108 76 53 80 79 55 87 82 57 94 60 59 101 63 61 108 66 63 80 69 46 87 72 48 94 75 50 101 78 52 108 81 54 80 84 56 87 62 58 94 65 60 101 68 62 108 71 64 80 74 47 87 77 49 94 80 51 101 83 53 108 61 55 80 64 57 87 67 59 94 70 61 101 73 63 108 76 46
97 75 50 104 78 52 111 81 54 83 84 56 90 62 58 97 65 60 104 68 62 111 71 64 83 74 47 90 77 49 97 80 51 104 83 53 111 61 55 83 64 57 90 67 59 97 70 61 104 73 63 111 76 46 83 79 48 90 82 50 97 60 52 104 63 54 111 66 56 83 69 58 90 72 60 97 75 62 104 78 64 111 81 47 83 84 49 90 62 51 97 65 53 104 68 55 111 71 57 83 74 59 90 77 61 97 80 63 104 83 46 111 61 48 83 64 50 90 67 52 97 70 54 104 73 56 111 76 58 83 79 60 90 82 62 97 60 64 104 63 47 111 66 49 83 69 51 90 72 53 97 75 55 104 78 57 111 81 59 83 84 61 90 62 63 97 65 46 104 68 48 111 71 50 83 74 52 90 77 54 97 80 56 104 83 58 111 61 60 83 64 62 90 67 64 97 70 47 104 73 49 111 76 51 83 79 53 90 82 55 97 60 57 104 63 59 111 66 61 83 69 63 90 72 46 97 75 48 104 78 50 111 81 52 83 84 54 90 62 56 97 65 58 104 68 60 111 71 62 83 74 64 90 77 47 97 80 49 104 83 51 111 61 53 83 64 55 90 67 57 97 70 59 104 73 61 111 76 63 83 79 46 90 82 48 97 60 50 104 63 52 111 66 54 83 69 56 90 72 58 97 75 60 104 78 62 111 81 64 83 84 47 90 62 49 97 65 51 104 68 53 111 71 55 83 74 57 90 77 59 97 80 61 104 83 63 111 61 46 83 64 48 90 67 50 97 70 52 104 73 54 111 76 56 83 79 58 90 82 60 97 60 62 104 63 64 111 66 47 83 69 49 90 72 51 97 75 53 104 78 55 111 81 57
100 80 61 107 83 63 79 61 46 86 64 48 93 67 50 100 70 52 107 73 54 79 76 56 86 79 58 93 82 60 100 60 62 107 63 64 79 66 47 86 69 49 93 72 51 100 75 53 107 78 55 79 81 57 86 84 59 93 62 61 100 65 63 107 68 46 79 71 48 86 74 50 93 77 52 100 80 54 107 83 56 79 61 58 86 64 60 93 67 62 100 70 64 107 73 47 79 76 49 86 79 51 93 82 53 100 60 55 107 63 57 79 66 59 86 69 61 93 72 63 100 75 46 107 78 48 79 81 50 86 84 52 93 62 54 100 65 56 107 68 58 79 71 60 86 74 62 93 77 64 100 80 47 107 83 49 79 61 51 86 64 53 93 67 55 100 70 57 107 73 59 79 76 61 86 79 63 93 82 46 100 60 48 107 63 50 79 66 52 86 69 54 93 72 56 100 75 58 107 78 60 79 81 62 86 84 64 93 62 47 100 65 49 107 68 51 79 71 53 86 74 55 93 77 57 100 80 59 107 83 61 79 61 63 86 64 46 93 67 48 100 70 50 107 73 52 79 76 54 86 79 56 93 82 58 100 60 60 107 63 62 79 66 64 86 69 47 93 72 49 100 75 51 107 78 53 79 81 55 86 84 57 93 62 59 100 65 61 107 68 63 79 71 46 86 74 48 93 77 50 100 80 52 107 83 54 79 61 56 86 64 58 93 67 60 100 70 62 107 73 64 79 76 47 86 79 49 93 82 51 100 60 53 107 63 55 79 66 57 86 69 59 93 72 61 100 75 63 107 78 46 79 81 48 86 84 50 93 62 52 100 65 54 107 68 56 79 71 58 86 74 60 93 77 62 100 80 64 107 83 47 79 61 49
103 60 53 110 63 55 82 66 57 89 69 59 96 72 61 103 75 63 110 78 46 82 81 48 89 84 50 96 62 52 103 65 54 110 68 56 82 71 58 89 74 60 96 77 62 103 80 64 110 83 47 82 61 49 89 64 51 96 67 53 103 70 55 110 73 57 82 76 59 89 79 61 96 82 63 103 60 46 110 63 48 82 66 50 89 69 52 96 72 54 103 75 56 110 78 58 82 81 60 89 84 62 96 62 64 103 65 47 110 68 49 82 71 51 89 74 53 96 77 55 103 80 57 110 83 59 82 61 61 89 64 63 96 67 46 103 70 48 110 73 50 82 76 52 89 79 54 96 82 56 103 60 58 110 63 60 82 66 62 89 69 64 96 72 47 103 75 49 110 78 51 82 81 53 89 84 55 96 62 57 103 65 59 110 68 61 82 71 63 89 74 46 96 77 48 103 80 50 110 83 52 82 61 54 89 64 56 96 67 58 103 70 60 110 73 62 82 76 64 89 79 47 96 82 49 103 60 51 110 63 53 82 66 55 89 69 57 96 72 59 103 75 61 110 78 63 82 81 46 89 84 48 96 62 50 103 65 52 110 68 54 82 71 56 89 74 58 96 77 60 103 80 62 110 83 64 82 61 47 89 64 49 96 67 51 103 70 53 110 73 55 82 76 57 89 79 59 96 82 61 103 60 63 110 63 46 82 66 48 89 69 50 96 72 52 103 75 54 110 78 56 82 81 58 89 84 60 96 62 62 103 65 64 110 68 47 82 71 49 89 74 51 96 77 53 103 80 55 110 83 57 82 61 59 89 64 61 96 67 63 103 70 46 110 73 48 82 76 50 89 79 52 96 82 54 103 60 56 110 63 58 82 66 60
106 65 64 78 68 47 85 71 49 92 74 51 99 77 53 106 80 55 78 83 57 85 61 59 92 64 61 99 67 63 106 70 46 78 73 48 85 76 50 92 79 52 99 82 54 106 60 56 78 63 58 85 66 60 92 69 62 99 72 64 106 75 47 78 78 49 85 81 51 92 84 53 99 62 55 106 65 57 78 68 59 85 71 61 92 74 63 99 77 46 106 80 48 78 83 50 85 61 52 92 64 54 99 67 56 106 70 58 78 73 60 85 76 62 92 79 64 99 82 47 106 60 49 78 63 51 85 66 53 92 69 55 99 72 57 106 75 59 78 78 61 85 81 63 92 84 46 99 62 48 106 65 50 78 68 52 85 71 54 92 74 56 99 77 58 106 80 60 78 83 62 85 61 64 92 64 47 99 67 49 106 70 51 78 73 53 85 76 55 92 79 57 99 82 59 106 60 61 78 63 63 85 66 46 92 69 48 99 72 50 106 75 52 78 78 54 85 81 56 92 84 58 99 62 60 106 65 62 78 68 64 85 71 47 92 74 49 99 77 51 106 80 53 78 83 55 85 61 57 92 64 59 99 67 61 106 70 63 78 73 46 85 76 48 92 79 50 99 82 52 106 60 54 78 63 56 85 66 58 92 69 60 99 72 62 106 75 64 78 78 47 85 81 49 92 84 51 99 62 53 106 65 55 78 68 57 85 71 59 92 74 61 99 77 63 106 80 46 78 83 48 85 61 50 92 64 52 99 67 54 106 70 56 78 73 58 85 76 60 92 79 62 99 82 64 106 60 47 78 63 49 85 66 51 92 69 53 99 72 55 106 75 57 78 78 59 85 81 61 92 84 63 99 62 46 106 65 48 78 68 50 85 71 52
109 70 56 81 73 58 88 76 60 95 79 62 102 82 64 109 60 47 81 63 49 88 66 51 95 69 53 102 72 55 109 75 57 81 78 59 88 81 61 95 84 63 102 62 46 109 65 48 81 68 50 88 71 52 95 74 54 102 77 56 109 80 58 81 83 60 88 61 62 95 64 64 102 67 47 109 70 49 81 73 51 88 76 53 95 79 55 102 82 57 109 60 59 81 63 61 88 66 63 95 69 46 102 72 48 109 75 50 81 78 52 88 81 54 95 84 56 102 62 58 109 65 60 81 68 62 88 71 64 95 74 47 102 77 49 109 80 51 81 83 53 88 61 55 95 64 57 102 67 59 109 70 61 81 73 63 88 76 46 95 79 48 102 82 50 109 60 52 81 63 54 88 66 56 95 69 58 102 72 60 109 75 62 81 78 64 88 81 47 95 84 49 102 62 51 109 65 53 81 68 55 88 71 57 95 74 59 102 77 61 109 80 63 81 83 46 88 61 48 95 64 50 102 67 52 109 70 54 81 73 56 88 76 58 95 79 60 102 82 62 109 60 64 81 63 47 88 66 49 95 69 51 102 72 53 109 75 55 81 78 57 88 81 59 95 84 61 102 62 63 109 65 46 81 68 48 88 71 50 95 74 52 102 77 54 109 80 56 81 83 58 88 61 60 95 64 62 102 67 64 109 70 47 81 73 49 88 76 51 95 79 53 102 82 55 109 60 57 81 63 59 88 66 61 95 69 63 102 72 46 109 75 48 81 78 50 88 81 52 95 84 54 102 62 56 109 65 58 81 68 60 88 71 62 95 74 64 102 77 47 109 80 49 81 83 51 88 61 53 95 64 55 102 67 57 109 70 59 81 73 61 88 76 63
