P3
320 320
255
34 88 38 34 88 38 34 88 38 34 88 38 34 88 38 34 88 50 34 106 50 48 106 50 48 106 50 48 106 50 48 106 62 48 106 62 48 124 62 48 124 62 62 124 62 62 124 38 62 124 38 62 124 38 62 142 38 62 142 38 62 142 50 76 142 50 76 142 50 76 142 50 76 88 50 76 88 62 76 88 62 76 88 62 90 88 62 90 88 62 90 106 38 90 106 38 90 106 38 90 106 38 90 106 38 34 106 50 34 124 50 34 124 50 34 124 50 34 124 50 34 124 62 34 124 62 48 142 62 48 142 62 48 142 62 48 142 38 48 142 38 48 142 38 48 88 38 62 88 38 62 88 50 62 88 50 62 88 50 62 88 50 62 106 50 62 106 62 76 106 62 76 106 62 76 106 62 76 106 62 76 124 38 76 124 38 76 124 38 90 124 38 90 124 38 90 124 50 90 142 50 90 142 50 90 142 50 90 142 50 34 142 62 34 142 62 34 88 62 34 88 62 34 88 62 34 88 38 34 88 38 48 88 38 48 106 38 48 106 38 48 106 50 48 106 50 48 106 50 48 106 50 62 124 50 62 124 62 62 124 62 62 124 62 62 124 62 62 124 62 62 142 38 76 142 38 76 142 38 76 142 38 76 142 38 76 142 50 76 88 50 76 88 50 90 88 50 90 88 50 90 88 62 90 88 62 90 106 62 90 106 62 90 106 62 34 106 38 34 106 38 34 106 38 34 124 38 34 124 38 34 124 50 34 124 50 48 124 50 48 124 50 48 142 50 48 142 62 48 142 62 48 142 62 48 142 62 62 142 62 62 88 38 62 88 38 62 88 38 62 88 38 62 88 38 62 88 50 76 106 50 76 106 50 76 106 50 76 106 50 76 106 62 76 106 62 76 124 62 90 124 62 90 124 62 90 124 38 90 124 38 90 124 38 90 142 38 90 142 38 34 142 50 34 142 50 34 142 50 34 142 50 34 88 50 34 88 62 34 88 62 48 88 62 48 88 62 48 88 62 48 106 38 48 106 38 48 106 38 48 106 38 62 106 38 62 106 50 62 124 50 62 124 50 62 124 50 62 124 50 62 124 62 76 124 62 76 142 62 76 142 62 76 142 62 76 142 38 76 142 38 76 142 38 90 88 38 90 88 38 90 88 50 90 88 50 90 88 50 90 88 50 90 106 50 34 106 62 34 106 62 34 106 62 34 106 62 34 106 62 34 124 38 34 124 38 48 124 38 48 124 38 48 124 38 48 124 50 48 142 50 48 142 50 48 142 50 62 142 50 62 142 62 62 142 62 62 88 62 62 88 62 62 88 62 62 88 38 76 88 38 76 88 38 76 106 38 76 106 38 76 106 50 76 106 50 76 106 50 90 106 50 90 124 50 90 124 62 90 124 62 90 124 62 90 124 62 90 124 62 34 142 38 34 142 38 34 142 38 34 142 38 34 142 38 34 142 50 34 88 50 48 88 50 48 88 50 48 88 50 48 88 62 48 88 62 48 106 62 48 106 62 62 106 62 62 106 38 62 106 38 62 106 38 62 124 38 62 124 38 62 124 50 76 124 50 76 124 50 76 124 50 76 142 50 76 142 62 76 142 62 76 142 62 90 142 62 90 142 62 90 88 38 90 88 38 90 88 38 90 88 38 90 88 38 34 88 50 34 106 50 34 106 50 34 106 50 34 106 50 34 106 62 34 106 62 48 124 62 48 124 62 48 124 62 48 124 38 48 124 38 48 124 38 48 142 38 62 142 38 62 142 50 62 142 50 62 142 50 62 142 50 62 88 50 62 88 62 76 88 62 76 88 62 76 88 62 76 88 62 76 106 38 76 106 38 76 106 38 90 106 38 90 106 38 90 106 50 90 124 50 90 124 50 90 124 50 90 124 50 34 124 62 34 124 62 34 142 62 34 142 62 34 142 62 34 142 38 34 142 38 48 142 38 48 88 38 48 88 38 48 88 50 48 88 50 48 88 50 48 88 50 62 106 50 62 106 62 62 106 62 62 106 62 62 106 62 62 106 62 62 124 38 76 124 38 76 124 38 76 124 38 76 124 38 76 124 50 76 142 50 76 142 50 90 142 50 90 142 50 90 142 62 90 142 62 90 88 62 90 88 62 90 88 62 34 88 38 34 88 38 34 88 38 34 106 38 34 106 38
34 88 38 34 88 38 34 88 38 34 88 38 34 88 38 34 88 50 34 106 50 48 106 50 48 106 50 48 106 50 48 106 62 48 106 62 48 124 62 48 124 62 62 124 62 62 124 38 62 124 38 62 124 38 62 142 38 62 142 38 62 142 50 76 142 50 76 142 50 76 142 50 76 88 50 76 88 62 76 88 62 76 88 62 90 88 62 90 88 62 90 106 38 90 106 38 90 106 38 90 106 38 90 106 38 34 106 50 34 124 50 34 124 50 34 124 50 34 124 50 34 124 62 34 124 62 48 142 62 48 142 62 48 142 62 48 142 38 48 142 38 48 142 38 48 88 38 62 88 38 62 88 50 62 88 50 62 88 50 62 88 50 62 106 50 62 106 62 76 106 62 76 106 62 76 106 62 76 106 62 76 124 38 76 124 38 76 124 38 90 124 38 90 124 38 90 124 50 90 142 50 90 142 50 90 142 50 90 142 50 34 142 62 34 142 62 34 88 62 34 88 62 34 88 62 34 88 38 34 88 38 48 88 38 48 106 38 48 106 38 48 106 50 48 106 50 48 106 50 48 106 50 62 124 50 62 124 62 62 124 62 62 124 62 62 124 62 62 124 62 62 142 38 76 142 38 76 142 38 76 142 38 76 142 38 76 142 50 76 88 50 76 88 50 90 88 50 90 88 50 90 88 62 90 88 62 90 106 62 90 106 62 90 106 62 34 106 38 34 106 38 34 106 38 34 124 38 34 124 38 34 124 50 34 124 50 48 124 50 48 124 50 48 142 50 48 142 62 48 142 62 48 142 62 48 142 62 62 142 62 62 88 38 62 88 38 62 88 38 62 88 38 62 88 38 62 88 50 76 106 50 76 106 50 76 106 50 76 106 50 76 106 62 76 106 62 76 124 62 90 124 62 90 124 62 90 124 38 90 124 38 90 124 38 90 142 38 90 142 38 34 142 50 34 142 50 34 142 50 34 142 50 34 88 50 34 88 62 34 88 62 48 88 62 48 88 62 48 88 62 48 106 38 48 106 38 48 106 38 48 106 38 62 106 38 62 106 50 62 124 50 62 124 50 62 124 50 62 124 50 62 124 62 76 124 62 76 142 62 76 142 62 76 142 62 76 142 38 76 142 38 76 142 38 90 88 38 90 88 38 90 88 50 90 88 50 90 88 50 90 88 50 90 106 50 34 106 62 34 106 62 34 106 62 34 106 62 34 106 62 34 124 38 34 124 38 48 124 38 48 124 38 48 124 38 48 124 50 48 142 50 48 142 50 48 142 50 62 142 50 62 142 62 62 142 62 62 88 62 62 88 62 62 88 62 62 88 38 76 88 38 76 88 38 76 106 38 76 106 38 76 106 50 76 106 50 76 106 50 90 106 50 90 124 50 90 124 62 90 124 62 90 124 62 90 124 62 90 124 62 34 142 38 34 142 38 34 142 38 34 142 38 34 142 38 34 142 50 34 88 50 48 88 50 48 88 50 48 88 50 48 88 62 48 88 62 48 106 62 48 106 62 62 106 62 62 106 38 62 106 38 62 106 38 62 124 38 62 124 38 62 124 50 76 124 50 76 124 50 76 124 50 76 142 50 76 142 62 76 142 62 76 142 62 90 142 62 90 142 62 90 88 38 90 88 38 90 88 38 90 88 38 90 88 38 34 88 50 34 106 50 34 106 50 34 106 50 34 106 50 34 106 62 34 106 62 48 124 62 48 124 62 48 124 62 48 124 38 48 124 38 48 124 38 48 142 38 62 142 38 62 142 50 62 142 50 62 142 50 62 142 50 62 88 50 62 88 62 76 88 62 76 88 62 76 88 62 76 88 62 76 106 38 76 106 38 76 106 38 90 106 38 90 106 38 90 106 50 90 124 50 90 124 50 90 124 50 90 124 50 34 124 62 34 124 62 34 142 62 34 142 62 34 142 62 34 142 38 34 142 38 48 142 38 48 88 38 48 88 38 48 88 50 48 88 50 48 88 50 48 88 50 62 106 50 62 106 62 62 106 62 62 106 62 62 106 62 62 106 62 62 124 38 76 124 38 76 124 38 76 124 38 76 124 38 76 124 50 76 142 50 76 142 50 90 142 50 90 142 50 90 142 62 90 142 62 90 88 62 90 88 62 90 88 62 34 88 38 34 88 38 34 88 38 34 106 38 34 106 38
34 88 38 34 88 38 34 88 38 34 88 38 34 88 38 34 88 50 34 106 50 48 106 50 48 106 50 48 106 50 48 106 62 48 106 62 48 124 62 48 124 62 62 124 62 62 124 38 62 124 38 62 124 38 62 142 38 62 142 38 62 142 50 76 142 50 76 142 50 76 142 50 76 88 50 76 88 62 76 88 62 76 88 62 90 88 62 90 88 62 90 106 38 90 106 38 90 106 38 90 106 38 90 106 38 34 106 50 34 124 50 34 124 50 34 124 50 34 124 50 34 124 62 34 124 62 48 142 62 48 142 62 48 142 62 48 142 38 48 142 38 48 142 38 48 88 38 62 88 38 62 88 50 62 88 50 62 88 50 62 88 50 62 106 50 62 106 62 76 106 62 76 106 62 76 106 62 76 106 62 76 124 38 76 124 38 76 124 38 90 124 38 90 124 38 90 124 50 90 142 50 90 142 50 90 142 50 90 142 50 34 142 62 34 142 62 34 88 62 34 88 62 34 88 62 34 88 38 34 88 38 48 88 38 48 106 38 48 106 38 48 106 50 48 106 50 48 106 50 48 106 50 62 124 50 62 124 62 62 124 62 62 124 62 62 124 62 62 124 62 62 142 38 76 142 38 76 142 38 76 142 38 76 142 38 76 142 50 76 88 50 76 88 50 90 88 50 90 88 50 90 88 62 90 88 62 90 106 62 90 106 62 90 106 62 34 106 38 34 106 38 34 106 38 34 124 38 34 124 38 34 124 50 34 124 50 48 124 50 48 124 50 48 142 50 48 142 62 48 142 62 48 142 62 48 142 62 62 142 62 62 88 38 62 88 38 62 88 38 62 88 38 62 88 38 62 88 50 76 106 50 76 106 50 76 106 50 76 106 50 76 106 62 76 106 62 76 124 62 90 124 62 90 124 62 90 124 38 90 124 38 90 124 38 90 142 38 90 142 38 34 142 50 34 142 50 34 142 50 34 142 50 34 88 50 34 88 62 34 88 62 48 88 62 48 88 62 48 88 62 48 106 38 48 106 38 48 106 38 48 106 38 62 106 38 62 106 50 62 124 50 62 124 50 62 124 50 62 124 50 62 124 62 76 124 62 76 142 62 76 142 62 76 142 62 76 142 38 76 142 38 76 142 38 90 88 38 90 88 38 90 88 50 90 88 50 90 88 50 90 88 50 90 106 50 34 106 62 34 106 62 34 106 62 34 106 62 34 106 62 34 124 38 34 124 38 48 124 38 48 124 38 48 124 38 48 124 50 48 142 50 48 142 50 48 142 50 62 142 50 62 142 62 62 142 62 62 88 62 62 88 62 62 88 62 62 88 38 76 88 38 76 88 38 76 106 38 76 106 38 76 106 50 76 106 50 76 106 50 90 106 50 90 124 50 90 124 62 90 124 62 90 124 62 90 124 62 90 124 62 34 142 38 34 142 38 34 142 38 34 142 38 34 142 38 34 142 50 34 88 50 48 88 50 48 88 50 48 88 50 48 88 62 48 88 62 48 106 62 48 106 62 62 106 62 62 106 38 62 106 38 62 106 38 62 124 38 62 124 38 62 124 50 76 124 50 76 124 50 76 124 50 76 142 50 76 142 62 76 142 62 76 142 62 90 142 62 90 142 62 90 88 38 90 88 38 90 88 38 90 88 38 90 88 38 34 88 50 34 106 50 34 106 50 34 106 50 34 106 50 34 106 62 34 106 62 48 124 62 48 124 62 48 124 62 48 124 38 48 124 38 48 124 38 48 142 38 62 142 38 62 142 50 62 142 50 62 142 50 62 142 50 62 88 50 62 88 62 76 88 62 76 88 62 76 88 62 76 88 62 76 106 38 76 106 38 76 106 38 90 106 38 90 106 38 90 106 50 90 124 50 90 124 50 90 124 50 90 124 50 34 124 62 34 124 62 34 142 62 34 142 62 34 142 62 34 142 38 34 142 38 48 142 38 48 88 38 48 88 38 48 88 50 48 88 50 48 88 50 48 88 50 62 106 50 62 106 62 62 106 62 62 106 62 62 106 62 62 106 62 62 124 38 76 124 38 76 124 38 76 124 38 76 124 38 76 124 50 76 142 50 76 142 50 90 142 50 90 142 50 90 142 62 90 142 62 90 88 62 90 88 62 90 88 62 34 88 38 34 88 38 34 88 38 34 106 38 34 106 38
34 88 38 34 88 38 34 88 38 34 88 38 34 88 38 34 88 50 34 106 50 48 106 50 48 106 50 48 106 50 48 106 62 48 106 62 48 124 62 48 124 62 62 124 62 62 124 38 62 124 38 62 124 38 62 142 38 62 142 38 62 142 50 76 142 50 76 142 50 76 142 50 76 88 50 76 88 62 76 88 62 76 88 62 90 88 62 90 88 62 90 106 38 90 106 38 90 106 38 90 106 38 90 106 38 34 106 50 34 124 50 34 124 50 34 124 50 34 124 50 34 124 62 34 124 62 48 142 62 48 142 62 48 142 62 48 142 38 48 142 38 48 142 38 48 88 38 62 88 38 62 88 50 62 88 50 62 88 50 62 88 50 62 106 50 62 106 62 76 106 62 76 106 62 76 106 62 76 106 62 76 124 38 76 124 38 76 124 38 90 124 38 90 124 38 90 124 50 90 142 50 90 142 50 90 142 50 90 142 50 34 142 62 34 142 62 34 88 62 34 88 62 34 88 62 34 88 38 34 88 38 48 88 38 48 106 38 48 106 38 48 106 50 48 106 50 48 106 50 48 106 50 62 124 50 62 124 62 62 124 62 62 124 62 62 124 62 62 124 62 62 142 38 76 142 38 76 142 38 76 142 38 76 142 38 76 142 50 76 88 50 76 88 50 90 88 50 90 88 50 90 88 62 90 88 62 90 106 62 90 106 62 90 106 62 34 106 38 34 106 38 34 106 38 34 124 38 34 124 38 34 124 50 34 124 50 48 124 50 48 124 50 48 142 50 48 142 62 48 142 62 48 142 62 48 142 62 62 142 62 62 88 38 62 88 38 62 88 38 62 88 38 62 88 38 62 88 50 76 106 50 76 106 50 76 106 50 76 106 50 76 106 62 76 106 62 76 124 62 90 124 62 90 124 62 90 124 38 90 124 38 90 124 38 90 142 38 90 142 38 34 142 50 34 142 50 34 142 50 34 142 50 34 88 50 34 88 62 34 88 62 48 88 62 48 88 62 48 88 62 48 106 38 48 106 38 48 106 38 48 106 38 62 106 38 62 106 50 62 124 50 62 124 50 62 124 50 62 124 50 62 124 62 76 124 62 76 142 62 76 142 62 76 142 62 76 142 38 76 142 38 76 142 38 90 88 38 90 88 38 90 88 50 90 88 50 90 88 50 90 88 50 90 106 50 34 106 62 34 106 62 34 106 62 34 106 62 34 106 62 34 124 38 34 124 38 48 124 38 48 124 38 48 124 38 48 124 50 48 142 50 48 142 50 48 142 50 62 142 50 62 142 62 62 142 62 62 88 62 62 88 62 62 88 62 62 88 38 76 88 38 76 88 38 76 106 38 76 106 38 76 106 50 76 106 50 76 106 50 90 106 50 90 124 50 90 124 62 90 124 62 90 124 62 90 124 62 90 124 62 34 142 38 34 142 38 34 142 38 34 142 38 34 142 38 34 142 50 34 88 50 48 88 50 48 88 50 48 88 50 48 88 62 48 88 62 48 106 62 48 106 62 62 106 62 62 106 38 62 106 38 62 106 38 62 124 38 62 124 38 62 124 50 76 124 50 76 124 50 76 124 50 76 142 50 76 142 62 76 142 62 76 142 62 90 142 62 90 142 62 90 88 38 90 88 38 90 88 38 90 88 38 90 88 38 34 88 50 34 106 50 34 106 50 34 106 50 34 106 50 34 106 62 34 106 62 48 124 62 48 124 62 48 124 62 48 124 38 48 124 38 48 124 38 48 142 38 62 142 38 62 142 50 62 142 50 62 142 50 62 142 50 62 88 50 62 88 62 76 88 62 76 88 62 76 88 62 76 88 62 76 106 38 76 106 38 76 106 38 90 106 38 90 106 38 90 106 50 90 124 50 90 124 50 90 124 50 90 124 50 34 124 62 34 124 62 34 142 62 34 142 62 34 142 62 34 142 38 34 142 38 48 142 38 48 88 38 48 88 38 48 88 50 48 88 50 48 88 50 48 88 50 62 106 50 62 106 62 62 106 62 62 106 62 62 106 62 62 106 62 62 124 38 76 124 38 76 124 38 76 124 38 76 124 38 76 124 50 76 142 50 76 142 50 90 142 50 90 142 50 90 142 62 90 142 62 90 88 62 90 88 62 90 88 62 34 88 38 34 88 38 34 88 38 34 106 38 34 106 38
34 88 38 34 88 38 34 88 38 34 88 38 34 88 38 34 88 50 34 106 50 48 106 50 48 106 50 48 106 50 48 106 62 48 106 62 48 124 62 48 124 62 62 124 62 62 124 38 62 124 38 62 124 38 62 142 38 62 142 38 62 142 50 76 142 50 76 142 50 76 142 50 76 88 50 76 88 62 76 88 62 76 88 62 90 88 62 90 88 62 90 106 38 90 106 38 90 106 38 90 106 38 90 106 38 34 106 50 34 124 50 34 124 50 34 124 50 34 124 50 34 124 62 34 124 62 48 142 62 48 142 62 48 142 62 48 142 38 48 142 38 48 142 38 48 88 38 62 88 38 62 88 50 62 88 50 62 88 50 62 88 50 62 106 50 62 106 62 76 106 62 76 106 62 76 106 62 76 106 62 76 124 38 76 124 38 76 124 38 90 124 38 90 124 38 90 124 50 90 142 50 90 142 50 90 142 50 90 142 50 34 142 62 34 142 62 34 88 62 34 88 62 34 88 62 34 88 38 34 88 38 48 88 38 48 106 38 48 106 38 48 106 50 48 106 50 48 106 50 48 106 50 62 124 50 62 124 62 62 124 62 62 124 62 62 124 62 62 124 62 62 142 38 76 142 38 76 142 38 76 142 38 76 142 38 76 142 50 76 88 50 76 88 50 90 88 50 90 88 50 90 88 62 90 88 62 90 106 62 90 106 62 90 106 62 34 106 38 34 106 38 34 106 38 34 124 38 34 124 38 34 124 50 34 124 50 48 124 50 48 124 50 48 142 50 48 142 62 48 142 62 48 142 62 48 142 62 62 142 62 62 88 38 62 88 38 62 88 38 62 88 38 62 88 38 62 88 50 76 106 50 76 106 50 76 106 50 76 106 50 76 106 62 76 106 62 76 124 62 90 124 62 90 124 62 90 124 38 90 124 38 90 124 38 90 142 38 90 142 38 34 142 50 34 142 50 34 142 50 34 142 50 34 88 50 34 88 62 34 88 62 48 88 62 48 88 62 48 88 62 48 106 38 48 106 38 48 106 38 48 106 38 62 106 38 62 106 50 62 124 50 62 124 50 62 124 50 62 124 50 62 124 62 76 124 62 76 142 62 76 142 62 76 142 62 76 142 38 76 142 38 76 142 38 90 88 38 90 88 38 90 88 50 90 88 50 90 88 50 90 88 50 90 106 50 34 106 62 34 106 62 34 106 62 34 106 62 34 106 62 34 124 38 34 124 38 48 124 38 48 124 38 48 124 38 48 124 50 48 142 50 48 142 50 48 142 50 62 142 50 62 142 62 62 142 62 62 88 62 62 88 62 62 88 62 62 88 38 76 88 38 76 88 38 76 106 38 76 106 38 76 106 50 76 106 50 76 106 50 90 106 50 90 124 50 90 124 62 90 124 62 90 124 62 90 124 62 90 124 62 34 142 38 34 142 38 34 142 38 34 142 38 34 142 38 34 142 50 34 88 50 48 88 50 48 88 50 48 88 50 48 88 62 48 88 62 48 106 62 48 106 62 62 106 62 62 106 38 62 106 38 62 106 38 62 124 38 62 124 38 62 124 50 76 124 50 76 124 50 76 124 50 76 142 50 76 142 62 76 142 62 76 142 62 90 142 62 90 142 62 90 88 38 90 88 38 90 88 38 90 88 38 90 88 38 34 88 50 34 106 50 34 106 50 34 106 50 34 106 50 34 106 62 34 106 62 48 124 62 48 124 62 48 124 62 48 124 38 48 124 38 48 124 38 48 142 38 62 142 38 62 142 50 62 142 50 62 142 50 62 142 50 62 88 50 62 88 62 76 88 62 76 88 62 76 88 62 76 88 62 76 106 38 76 106 38 76 106 38 90 106 38 90 106 38 90 106 50 90 124 50 90 124 50 90 124 50 90 124 50 34 124 62 34 124 62 34 142 62 34 142 62 34 142 62 34 142 38 34 142 38 48 142 38 48 88 38 48 88 38 48 88 50 48 88 50 48 88 50 48 88 50 62 106 50 62 106 62 62 106 62 62 106 62 62 106 62 62 106 62 62 124 38 76 124 38 76 124 38 76 124 38 76 124 38 76 124 50 76 142 50 76 142 50 90 142 50 90 142 50 90 142 62 90 142 62 90 88 62 90 88 62 90 88 62 34 88 38 34 88 38 34 88 38 34 106 38 34 106 38
48 88 38 48 88 38 48 88 38 48 88 38 48 88 38 48 88 50 48 106 50 62 106 50 62 106 50 62 106 50 62 106 62 62 106 62 62 124 62 62 124 62 76 124 62 76 124 38 76 124 38 76 124 38 76 142 38 76 142 38 76 142 50 90 142 50 90 142 50 90 142 50 90 88 50 90 88 62 90 88 62 90 88 62 34 88 62 34 88 62 34 106 38 34 106 38 34 106 38 34 106 38 34 106 38 48 106 50 48 124 50 48 124 50 48 124 50 48 124 50 48 124 62 48 124 62 62 142 62 62 142 62 62 142 62 62 142 38 62 142 38 62 142 38 62 88 38 76 88 38 76 88 50 76 88 50 76 88 50 76 88 50 76 106 50 76 106 62 90 106 62 90 106 62 90 106 62 90 106 62 90 124 38 90 124 38 90 124 38 34 124 38 34 124 38 34 124 50 34 142 50 34 142 50 34 142 50 34 142 50 48 142 62 48 142 62 48 88 62 48 88 62 48 88 62 48 88 38 48 88 38 62 88 38 62 106 38 62 106 38 62 106 50 62 106 50 62 106 50 62 106 50 76 124 50 76 124 62 76 124 62 76 124 62 76 124 62 76 124 62 76 142 38 90 142 38 90 142 38 90 142 38 90 142 38 90 142 50 90 88 50 90 88 50 34 88 50 34 88 50 34 88 62 34 88 62 34 106 62 34 106 62 34 106 62 48 106 38 48 106 38 48 106 38 48 124 38 48 124 38 48 124 50 48 124 50 62 124 50 62 124 50 62 142 50 62 142 62 62 142 62 62 142 62 62 142 62 76 142 62 76 88 38 76 88 38 76 88 38 76 88 38 76 88 38 76 88 50 90 106 50 90 106 50 90 106 50 90 106 50 90 106 62 90 106 62 90 124 62 34 124 62 34 124 62 34 124 38 34 124 38 34 124 38 34 142 38 34 142 38 48 142 50 48 142 50 48 142 50 48 142 50 48 88 50 48 88 62 48 88 62 62 88 62 62 88 62 62 88 62 62 106 38 62 106 38 62 106 38 62 106 38 76 106 38 76 106 50 76 124 50 76 124 50 76 124 50 76 124 50 76 124 62 90 124 62 90 142 62 90 142 62 90 142 62 90 142 38 90 142 38 90 142 38 34 88 38 34 88 38 34 88 50 34 88 50 34 88 50 34 88 50 34 106 50 48 106 62 48 106 62 48 106 62 48 106 62 48 106 62 48 124 38 48 124 38 62 124 38 62 124 38 62 124 38 62 124 50 62 142 50 62 142 50 62 142 50 76 142 50 76 142 62 76 142 62 76 88 62 76 88 62 76 88 62 76 88 38 90 88 38 90 88 38 90 106 38 90 106 38 90 106 50 90 106 50 90 106 50 34 106 50 34 124 50 34 124 62 34 124 62 34 124 62 34 124 62 34 124 62 48 142 38 48 142 38 48 142 38 48 142 38 48 142 38 48 142 50 48 88 50 62 88 50 62 88 50 62 88 50 62 88 62 62 88 62 62 106 62 62 106 62 76 106 62 76 106 38 76 106 38 76 106 38 76 124 38 76 124 38 76 124 50 90 124 50 90 124 50 90 124 50 90 142 50 90 142 62 90 142 62 90 142 62 34 142 62 34 142 62 34 88 38 34 88 38 34 88 38 34 88 38 34 88 38 48 88 50 48 106 50 48 106 50 48 106 50 48 106 50 48 106 62 48 106 62 62 124 62 62 124 62 62 124 62 62 124 38 62 124 38 62 124 38 62 142 38 76 142 38 76 142 50 76 142 50 76 142 50 76 142 50 76 88 50 76 88 62 90 88 62 90 88 62 90 88 62 90 88 62 90 106 38 90 106 38 90 106 38 34 106 38 34 106 38 34 106 50 34 124 50 34 124 50 34 124 50 34 124 50 48 124 62 48 124 62 48 142 62 48 142 62 48 142 62 48 142 38 48 142 38 62 142 38 62 88 38 62 88 38 62 88 50 62 88 50 62 88 50 62 88 50 76 106 50 76 106 62 76 106 62 76 106 62 76 106 62 76 106 62 76 124 38 90 124 38 90 124 38 90 124 38 90 124 38 90 124 50 90 142 50 90 142 50 34 142 50 34 142 50 34 142 62 34 142 62 34 88 62 34 88 62 34 88 62 48 88 38 48 88 38 48 88 38 48 106 38 48 106 38
48 88 38 48 88 38 48 88 38 48 88 38 48 88 38 48 88 50 48 106 50 62 106 50 62 106 50 62 106 50 62 106 62 62 106 62 62 124 62 62 124 62 76 124 62 76 124 38 76 124 38 76 124 38 76 142 38 76 142 38 76 142 50 90 142 50 90 142 50 90 142 50 90 88 50 90 88 62 90 88 62 90 88 62 34 88 62 34 88 62 34 106 38 34 106 38 34 106 38 34 106 38 34 106 38 48 106 50 48 124 50 48 124 50 48 124 50 48 124 50 48 124 62 48 124 62 62 142 62 62 142 62 62 142 62 62 142 38 62 142 38 62 142 38 62 88 38 76 88 38 76 88 50 76 88 50 76 88 50 76 88 50 76 106 50 76 106 62 90 106 62 90 106 62 90 106 62 90 106 62 90 124 38 90 124 38 90 124 38 34 124 38 34 124 38 34 124 50 34 142 50 34 142 50 34 142 50 34 142 50 48 142 62 48 142 62 48 88 62 48 88 62 48 88 62 48 88 38 48 88 38 62 88 38 62 106 38 62 106 38 62 106 50 62 106 50 62 106 50 62 106 50 76 124 50 76 124 62 76 124 62 76 124 62 76 124 62 76 124 62 76 142 38 90 142 38 90 142 38 90 142 38 90 142 38 90 142 50 90 88 50 90 88 50 34 88 50 34 88 50 34 88 62 34 88 62 34 106 62 34 106 62 34 106 62 48 106 38 48 106 38 48 106 38 48 124 38 48 124 38 48 124 50 48 124 50 62 124 50 62 124 50 62 142 50 62 142 62 62 142 62 62 142 62 62 142 62 76 142 62 76 88 38 76 88 38 76 88 38 76 88 38 76 88 38 76 88 50 90 106 50 90 106 50 90 106 50 90 106 50 90 106 62 90 106 62 90 124 62 34 124 62 34 124 62 34 124 38 34 124 38 34 124 38 34 142 38 34 142 38 48 142 50 48 142 50 48 142 50 48 142 50 48 88 50 48 88 62 48 88 62 62 88 62 62 88 62 62 88 62 62 106 38 62 106 38 62 106 38 62 106 38 76 106 38 76 106 50 76 124 50 76 124 50 76 124 50 76 124 50 76 124 62 90 124 62 90 142 62 90 142 62 90 142 62 90 142 38 90 142 38 90 142 38 34 88 38 34 88 38 34 88 50 34 88 50 34 88 50 34 88 50 34 106 50 48 106 62 48 106 62 48 106 62 48 106 62 48 106 62 48 124 38 48 124 38 62 124 38 62 124 38 62 124 38 62 124 50 62 142 50 62 142 50 62 142 50 76 142 50 76 142 62 76 142 62 76 88 62 76 88 62 76 88 62 76 88 38 90 88 38 90 88 38 90 106 38 90 106 38 90 106 50 90 106 50 90 106 50 34 106 50 34 124 50 34 124 62 34 124 62 34 124 62 34 124 62 34 124 62 48 142 38 48 142 38 48 142 38 48 142 38 48 142 38 48 142 50 48 88 50 62 88 50 62 88 50 62 88 50 62 88 62 62 88 62 62 106 62 62 106 62 76 106 62 76 106 38 76 106 38 76 106 38 76 124 38 76 124 38 76 124 50 90 124 50 90 124 50 90 124 50 90 142 50 90 142 62 90 142 62 90 142 62 34 142 62 34 142 62 34 88 38 34 88 38 34 88 38 34 88 38 34 88 38 48 88 50 48 106 50 48 106 50 48 106 50 48 106 50 48 106 62 48 106 62 62 124 62 62 124 62 62 124 62 62 124 38 62 124 38 62 124 38 62 142 38 76 142 38 76 142 50 76 142 50 76 142 50 76 142 50 76 88 50 76 88 62 90 88 62 90 88 62 90 88 62 90 88 62 90 106 38 90 106 38 90 106 38 34 106 38 34 106 38 34 106 50 34 124 50 34 124 50 34 124 50 34 124 50 48 124 62 48 124 62 48 142 62 48 142 62 48 142 62 48 142 38 48 142 38 62 142 38 62 88 38 62 88 38 62 88 50 62 88 50 62 88 50 62 88 50 76 106 50 76 106 62 76 106 62 76 106 62 76 106 62 76 106 62 76 124 38 90 124 38 90 124 38 90 124 38 90 124 38 90 124 50 90 142 50 90 142 50 34 142 50 34 142 50 34 142 62 34 142 62 34 88 62 34 88 62 34 88 62 48 88 38 48 88 38 48 88 38 48 106 38 48 106 38
48 106 38 48 106 38 48 106 38 48 106 38 48 106 38 48 106 50 48 124 50 62 124 50 62 124 50 62 124 50 62 124 62 62 124 62 62 142 62 62 142 62 76 142 62 76 142 38 76 142 38 76 142 38 76 88 38 76 88 38 76 88 50 90 88 50 90 88 50 90 88 50 90 106 50 90 106 62 90 106 62 90 106 62 34 106 62 34 106 62 34 124 38 34 124 38 34 124 38 34 124 38 34 124 38 48 124 50 48 142 50 48 142 50 48 142 50 48 142 50 48 142 62 48 142 62 62 88 62 62 88 62 62 88 62 62 88 38 62 88 38 62 88 38 62 106 38 76 106 38 76 106 50 76 106 50 76 106 50 76 106 50 76 124 50 76 124 62 90 124 62 90 124 62 90 124 62 90 124 62 90 142 38 90 142 38 90 142 38 34 142 38 34 142 38 34 142 50 34 88 50 34 88 50 34 88 50 34 88 50 48 88 62 48 88 62 48 106 62 48 106 62 48 106 62 48 106 38 48 106 38 62 106 38 62 124 38 62 124 38 62 124 50 62 124 50 62 124 50 62 124 50 76 142 50 76 142 62 76 142 62 76 142 62 76 142 62 76 142 62 76 88 38 90 88 38 90 88 38 90 88 38 90 88 38 90 88 50 90 106 50 90 106 50 34 106 50 34 106 50 34 106 62 34 106 62 34 124 62 34 124 62 34 124 62 48 124 38 48 124 38 48 124 38 48 142 38 48 142 38 48 142 50 48 142 50 62 142 50 62 142 50 62 88 50 62 88 62 62 88 62 62 88 62 62 88 62 76 88 62 76 106 38 76 106 38 76 106 38 76 106 38 76 106 38 76 106 50 90 124 50 90 124 50 90 124 50 90 124 50 90 124 62 90 124 62 90 142 62 34 142 62 34 142 62 34 142 38 34 142 38 34 142 38 34 88 38 34 88 38 48 88 50 48 88 50 48 88 50 48 88 50 48 106 50 48 106 62 48 106 62 62 106 62 62 106 62 62 106 62 62 124 38 62 124 38 62 124 38 62 124 38 76 124 38 76 124 50 76 142 50 76 142 50 76 142 50 76 142 50 76 142 62 90 142 62 90 88 62 90 88 62 90 88 62 90 88 38 90 88 38 90 88 38 34 106 38 34 106 38 34 106 50 34 106 50 34 106 50 34 106 50 34 124 50 48 124 62 48 124 62 48 124 62 48 124 62 48 124 62 48 142 38 48 142 38 62 142 38 62 142 38 62 142 38 62 142 50 62 88 50 62 88 50 62 88 50 76 88 50 76 88 62 76 88 62 76 106 62 76 106 62 76 106 62 76 106 38 90 106 38 90 106 38 90 124 38 90 124 38 90 124 50 90 124 50 90 124 50 34 124 50 34 142 50 34 142 62 34 142 62 34 142 62 34 142 62 34 142 62 48 88 38 48 88 38 48 88 38 48 88 38 48 88 38 48 88 50 48 106 50 62 106 50 62 106 50 62 106 50 62 106 62 62 106 62 62 124 62 62 124 62 76 124 62 76 124 38 76 124 38 76 124 38 76 142 38 76 142 38 76 142 50 90 142 50 90 142 50 90 142 50 90 88 50 90 88 62 90 88 62 90 88 62 34 88 62 34 88 62 34 106 38 34 106 38 34 106 38 34 106 38 34 106 38 48 106 50 48 124 50 48 124 50 48 124 50 48 124 50 48 124 62 48 124 62 62 142 62 62 142 62 62 142 62 62 142 38 62 142 38 62 142 38 62 88 38 76 88 38 76 88 50 76 88 50 76 88 50 76 88 50 76 106 50 76 106 62 90 106 62 90 106 62 90 106 62 90 106 62 90 124 38 90 124 38 90 124 38 34 124 38 34 124 38 34 124 50 34 142 50 34 142 50 34 142 50 34 142 50 48 142 62 48 142 62 48 88 62 48 88 62 48 88 62 48 88 38 48 88 38 62 88 38 62 106 38 62 106 38 62 106 50 62 106 50 62 106 50 62 106 50 76 124 50 76 124 62 76 124 62 76 124 62 76 124 62 76 124 62 76 142 38 90 142 38 90 142 38 90 142 38 90 142 38 90 142 50 90 88 50 90 88 50 34 88 50 34 88 50 34 88 62 34 88 62 34 106 62 34 106 62 34 106 62 48 106 38 48 106 38 48 106 38 48 124 38 48 124 38
48 106 50 48 106 50 48 106 50 48 106 50 48 106 50 48 106 62 48 124 62 62 124 62 62 124 62 62 124 62 62 124 38 62 124 38 62 142 38 62 142 38 76 142 38 76 142 50 76 142 50 76 142 50 76 88 50 76 88 50 76 88 62 90 88 62 90 88 62 90 88 62 90 106 62 90 106 38 90 106 38 90 106 38 34 106 38 34 106 38 34 124 50 34 124 50 34 124 50 34 124 50 34 124 50 48 124 62 48 142 62 48 142 62 48 142 62 48 142 62 48 142 38 48 142 38 62 88 38 62 88 38 62 88 38 62 88 50 62 88 50 62 88 50 62 106 50 76 106 50 76 106 62 76 106 62 76 106 62 76 106 62 76 124 62 76 124 38 90 124 38 90 124 38 90 124 38 90 124 38 90 142 50 90 142 50 90 142 50 34 142 50 34 142 50 34 142 62 34 88 62 34 88 62 34 88 62 34 88 62 48 88 38 48 88 38 48 106 38 48 106 38 48 106 38 48 106 50 48 106 50 62 106 50 62 124 50 62 124 50 62 124 62 62 124 62 62 124 62 62 124 62 76 142 62 76 142 38 76 142 38 76 142 38 76 142 38 76 142 38 76 88 50 90 88 50 90 88 50 90 88 50 90 88 50 90 88 62 90 106 62 90 106 62 34 106 62 34 106 62 34 106 38 34 106 38 34 124 38 34 124 38 34 124 38 48 124 50 48 124 50 48 124 50 48 142 50 48 142 50 48 142 62 48 142 62 62 142 62 62 142 62 62 88 62 62 88 38 62 88 38 62 88 38 62 88 38 76 88 38 76 106 50 76 106 50 76 106 50 76 106 50 76 106 50 76 106 62 90 124 62 90 124 62 90 124 62 90 124 62 90 124 38 90 124 38 90 142 38 34 142 38 34 142 38 34 142 50 34 142 50 34 142 50 34 88 50 34 88 50 48 88 62 48 88 62 48 88 62 48 88 62 48 106 62 48 106 38 48 106 38 62 106 38 62 106 38 62 106 38 62 124 50 62 124 50 62 124 50 62 124 50 76 124 50 76 124 62 76 142 62 76 142 62 76 142 62 76 142 62 76 142 38 90 142 38 90 88 38 90 88 38 90 88 38 90 88 50 90 88 50 90 88 50 34 106 50 34 106 50 34 106 62 34 106 62 34 106 62 34 106 62 34 124 62 48 124 38 48 124 38 48 124 38 48 124 38 48 124 38 48 142 50 48 142 50 62 142 50 62 142 50 62 142 50 62 142 62 62 88 62 62 88 62 62 88 62 76 88 62 76 88 38 76 88 38 76 106 38 76 106 38 76 106 38 76 106 50 90 106 50 90 106 50 90 124 50 90 124 50 90 124 62 90 124 62 90 124 62 34 124 62 34 142 62 34 142 38 34 142 38 34 142 38 34 142 38 34 142 38 48 88 50 48 88 50 48 88 50 48 88 50 48 88 50 48 88 62 48 106 62 62 106 62 62 106 62 62 106 62 62 106 38 62 106 38 62 124 38 62 124 38 76 124 38 76 124 50 76 124 50 76 124 50 76 142 50 76 142 50 76 142 62 90 142 62 90 142 62 90 142 62 90 88 62 90 88 38 90 88 38 90 88 38 34 88 38 34 88 38 34 106 50 34 106 50 34 106 50 34 106 50 34 106 50 48 106 62 48 124 62 48 124 62 48 124 62 48 124 62 48 124 38 48 124 38 62 142 38 62 142 38 62 142 38 62 142 50 62 142 50 62 142 50 62 88 50 76 88 50 76 88 62 76 88 62 76 88 62 76 88 62 76 106 62 76 106 38 90 106 38 90 106 38 90 106 38 90 106 38 90 124 50 90 124 50 90 124 50 34 124 50 34 124 50 34 124 62 34 142 62 34 142 62 34 142 62 34 142 62 48 142 38 48 142 38 48 88 38 48 88 38 48 88 38 48 88 50 48 88 50 62 88 50 62 106 50 62 106 50 62 106 62 62 106 62 62 106 62 62 106 62 76 124 62 76 124 38 76 124 38 76 124 38 76 124 38 76 124 38 76 142 50 90 142 50 90 142 50 90 142 50 90 142 50 90 142 62 90 88 62 90 88 62 34 88 62 34 88 62 34 88 38 34 88 38 34 106 38 34 106 38 34 106 38 48 106 50 48 106 50 48 106 50 48 124 50 48 124 50
48 106 50 48 106 50 48 106 50 48 106 50 48 106 50 48 106 62 48 124 62 62 124 62 62 124 62 62 124 62 62 124 38 62 124 38 62 142 38 62 142 38 76 142 38 76 142 50 76 142 50 76 142 50 76 88 50 76 88 50 76 88 62 90 88 62 90 88 62 90 88 62 90 106 62 90 106 38 90 106 38 90 106 38 34 106 38 34 106 38 34 124 50 34 124 50 34 124 50 34 124 50 34 124 50 48 124 62 48 142 62 48 142 62 48 142 62 48 142 62 48 142 38 48 142 38 62 88 38 62 88 38 62 88 38 62 88 50 62 88 50 62 88 50 62 106 50 76 106 50 76 106 62 76 106 62 76 106 62 76 106 62 76 124 62 76 124 38 90 124 38 90 124 38 90 124 38 90 124 38 90 142 50 90 142 50 90 142 50 34 142 50 34 142 50 34 142 62 34 88 62 34 88 62 34 88 62 34 88 62 48 88 38 48 88 38 48 106 38 48 106 38 48 106 38 48 106 50 48 106 50 62 106 50 62 124 50 62 124 50 62 124 62 62 124 62 62 124 62 62 124 62 76 142 62 76 142 38 76 142 38 76 142 38 76 142 38 76 142 38 76 88 50 90 88 50 90 88 50 90 88 50 90 88 50 90 88 62 90 106 62 90 106 62 34 106 62 34 106 62 34 106 38 34 106 38 34 124 38 34 124 38 34 124 38 48 124 50 48 124 50 48 124 50 48 142 50 48 142 50 48 142 62 48 142 62 62 142 62 62 142 62 62 88 62 62 88 38 62 88 38 62 88 38 62 88 38 76 88 38 76 106 50 76 106 50 76 106 50 76 106 50 76 106 50 76 106 62 90 124 62 90 124 62 90 124 62 90 124 62 90 124 38 90 124 38 90 142 38 34 142 38 34 142 38 34 142 50 34 142 50 34 142 50 34 88 50 34 88 50 48 88 62 48 88 62 48 88 62 48 88 62 48 106 62 48 106 38 48 106 38 62 106 38 62 106 38 62 106 38 62 124 50 62 124 50 62 124 50 62 124 50 76 124 50 76 124 62 76 142 62 76 142 62 76 142 62 76 142 62 76 142 38 90 142 38 90 88 38 90 88 38 90 88 38 90 88 50 90 88 50 90 88 50 34 106 50 34 106 50 34 106 62 34 106 62 34 106 62 34 106 62 34 124 62 48 124 38 48 124 38 48 124 38 48 124 38 48 124 38 48 142 50 48 142 50 62 142 50 62 142 50 62 142 50 62 142 62 62 88 62 62 88 62 62 88 62 76 88 62 76 88 38 76 88 38 76 106 38 76 106 38 76 106 38 76 106 50 90 106 50 90 106 50 90 124 50 90 124 50 90 124 62 90 124 62 90 124 62 34 124 62 34 142 62 34 142 38 34 142 38 34 142 38 34 142 38 34 142 38 48 88 50 48 88 50 48 88 50 48 88 50 48 88 50 48 88 62 48 106 62 62 106 62 62 106 62 62 106 62 62 106 38 62 106 38 62 124 38 62 124 38 76 124 38 76 124 50 76 124 50 76 124 50 76 142 50 76 142 50 76 142 62 90 142 62 90 142 62 90 142 62 90 88 62 90 88 38 90 88 38 90 88 38 34 88 38 34 88 38 34 106 50 34 106 50 34 106 50 34 106 50 34 106 50 48 106 62 48 124 62 48 124 62 48 124 62 48 124 62 48 124 38 48 124 38 62 142 38 62 142 38 62 142 38 62 142 50 62 142 50 62 142 50 62 88 50 76 88 50 76 88 62 76 88 62 76 88 62 76 88 62 76 106 62 76 106 38 90 106 38 90 106 38 90 106 38 90 106 38 90 124 50 90 124 50 90 124 50 34 124 50 34 124 50 34 124 62 34 142 62 34 142 62 34 142 62 34 142 62 48 142 38 48 142 38 48 88 38 48 88 38 48 88 38 48 88 50 48 88 50 62 88 50 62 106 50 62 106 50 62 106 62 62 106 62 62 106 62 62 106 62 76 124 62 76 124 38 76 124 38 76 124 38 76 124 38 76 124 38 76 142 50 90 142 50 90 142 50 90 142 50 90 142 50 90 142 62 90 88 62 90 88 62 34 88 62 34 88 62 34 88 38 34 88 38 34 106 38 34 106 38 34 106 38 48 106 50 48 106 50 48 106 50 48 124 50 48 124 50
62 106 50 62 106 50 62 106 50 62 106 50 62 106 50 62 106 62 62 124 62 76 124 62 76 124 62 76 124 62 76 124 38 76 124 38 76 142 38 76 142 38 90 142 38 90 142 50 90 142 50 90 142 50 90 88 50 90 88 50 90 88 62 34 88 62 34 88 62 34 88 62 34 106 62 34 106 38 34 106 38 34 106 38 48 106 38 48 106 38 48 124 50 48 124 50 48 124 50 48 124 50 48 124 50 62 124 62 62 142 62 62 142 62 62 142 62 62 142 62 62 142 38 62 142 38 76 88 38 76 88 38 76 88 38 76 88 50 76 88 50 76 88 50 76 106 50 90 106 50 90 106 62 90 106 62 90 106 62 90 106 62 90 124 62 90 124 38 34 124 38 34 124 38 34 124 38 34 124 38 34 142 50 34 142 50 34 142 50 48 142 50 48 142 50 48 142 62 48 88 62 48 88 62 48 88 62 48 88 62 62 88 38 62 88 38 62 106 38 62 106 38 62 106 38 62 106 50 62 106 50 76 106 50 76 124 50 76 124 50 76 124 62 76 124 62 76 124 62 76 124 62 90 142 62 90 142 38 90 142 38 90 142 38 90 142 38 90 142 38 90 88 50 34 88 50 34 88 50 34 88 50 34 88 50 34 88 62 34 106 62 34 106 62 48 106 62 48 106 62 48 106 38 48 106 38 48 124 38 48 124 38 48 124 38 62 124 50 62 124 50 62 124 50 62 142 50 62 142 50 62 142 62 62 142 62 76 142 62 76 142 62 76 88 62 76 88 38 76 88 38 76 88 38 76 88 38 90 88 38 90 106 50 90 106 50 90 106 50 90 106 50 90 106 50 90 106 62 34 124 62 34 124 62 34 124 62 34 124 62 34 124 38 34 124 38 34 142 38 48 142 38 48 142 38 48 142 50 48 142 50 48 142 50 48 88 50 48 88 50 62 88 62 62 88 62 62 88 62 62 88 62 62 106 62 62 106 38 62 106 38 76 106 38 76 106 38 76 106 38 76 124 50 76 124 50 76 124 50 76 124 50 90 124 50 90 124 62 90 142 62 90 142 62 90 142 62 90 142 62 90 142 38 34 142 38 34 88 38 34 88 38 34 88 38 34 88 50 34 88 50 34 88 50 48 106 50 48 106 50 48 106 62 48 106 62 48 106 62 48 106 62 48 124 62 62 124 38 62 124 38 62 124 38 62 124 38 62 124 38 62 142 50 62 142 50 76 142 50 76 142 50 76 142 50 76 142 62 76 88 62 76 88 62 76 88 62 90 88 62 90 88 38 90 88 38 90 106 38 90 106 38 90 106 38 90 106 50 34 106 50 34 106 50 34 124 50 34 124 50 34 124 62 34 124 62 34 124 62 48 124 62 48 142 62 48 142 38 48 142 38 48 142 38 48 142 38 48 142 38 62 88 50 62 88 50 62 88 50 62 88 50 62 88 50 62 88 62 62 106 62 76 106 62 76 106 62 76 106 62 76 106 38 76 106 38 76 124 38 76 124 38 90 124 38 90 124 50 90 124 50 90 124 50 90 142 50 90 142 50 90 142 62 34 142 62 34 142 62 34 142 62 34 88 62 34 88 38 34 88 38 34 88 38 48 88 38 48 88 38 48 106 50 48 106 50 48 106 50 48 106 50 48 106 50 62 106 62 62 124 62 62 124 62 62 124 62 62 124 62 62 124 38 62 124 38 76 142 38 76 142 38 76 142 38 76 142 50 76 142 50 76 142 50 76 88 50 90 88 50 90 88 62 90 88 62 90 88 62 90 88 62 90 106 62 90 106 38 34 106 38 34 106 38 34 106 38 34 106 38 34 124 50 34 124 50 34 124 50 48 124 50 48 124 50 48 124 62 48 142 62 48 142 62 48 142 62 48 142 62 62 142 38 62 142 38 62 88 38 62 88 38 62 88 38 62 88 50 62 88 50 76 88 50 76 106 50 76 106 50 76 106 62 76 106 62 76 106 62 76 106 62 90 124 62 90 124 38 90 124 38 90 124 38 90 124 38 90 124 38 90 142 50 34 142 50 34 142 50 34 142 50 34 142 50 34 142 62 34 88 62 34 88 62 48 88 62 48 88 62 48 88 38 48 88 38 48 106 38 48 106 38 48 106 38 62 106 50 62 106 50 62 106 50 62 124 50 62 124 50
62 106 50 62 106 50 62 106 50 62 106 50 62 106 50 62 106 62 62 124 62 76 124 62 76 124 62 76 124 62 76 124 38 76 124 38 76 142 38 76 142 38 90 142 38 90 142 50 90 142 50 90 142 50 90 88 50 90 88 50 90 88 62 34 88 62 34 88 62 34 88 62 34 106 62 34 106 38 34 106 38 34 106 38 48 106 38 48 106 38 48 124 50 48 124 50 48 124 50 48 124 50 48 124 50 62 124 62 62 142 62 62 142 62 62 142 62 62 142 62 62 142 38 62 142 38 76 88 38 76 88 38 76 88 38 76 88 50 76 88 50 76 88 50 76 106 50 90 106 50 90 106 62 90 106 62 90 106 62 90 106 62 90 124 62 90 124 38 34 124 38 34 124 38 34 124 38 34 124 38 34 142 50 34 142 50 34 142 50 48 142 50 48 142 50 48 142 62 48 88 62 48 88 62 48 88 62 48 88 62 62 88 38 62 88 38 62 106 38 62 106 38 62 106 38 62 106 50 62 106 50 76 106 50 76 124 50 76 124 50 76 124 62 76 124 62 76 124 62 76 124 62 90 142 62 90 142 38 90 142 38 90 142 38 90 142 38 90 142 38 90 88 50 34 88 50 34 88 50 34 88 50 34 88 50 34 88 62 34 106 62 34 106 62 48 106 62 48 106 62 48 106 38 48 106 38 48 124 38 48 124 38 48 124 38 62 124 50 62 124 50 62 124 50 62 142 50 62 142 50 62 142 62 62 142 62 76 142 62 76 142 62 76 88 62 76 88 38 76 88 38 76 88 38 76 88 38 90 88 38 90 106 50 90 106 50 90 106 50 90 106 50 90 106 50 90 106 62 34 124 62 34 124 62 34 124 62 34 124 62 34 124 38 34 124 38 34 142 38 48 142 38 48 142 38 48 142 50 48 142 50 48 142 50 48 88 50 48 88 50 62 88 62 62 88 62 62 88 62 62 88 62 62 106 62 62 106 38 62 106 38 76 106 38 76 106 38 76 106 38 76 124 50 76 124 50 76 124 50 76 124 50 90 124 50 90 124 62 90 142 62 90 142 62 90 142 62 90 142 62 90 142 38 34 142 38 34 88 38 34 88 38 34 88 38 34 88 50 34 88 50 34 88 50 48 106 50 48 106 50 48 106 62 48 106 62 48 106 62 48 106 62 48 124 62 62 124 38 62 124 38 62 124 38 62 124 38 62 124 38 62 142 50 62 142 50 76 142 50 76 142 50 76 142 50 76 142 62 76 88 62 76 88 62 76 88 62 90 88 62 90 88 38 90 88 38 90 106 38 90 106 38 90 106 38 90 106 50 34 106 50 34 106 50 34 124 50 34 124 50 34 124 62 34 124 62 34 124 62 48 124 62 48 142 62 48 142 38 48 142 38 48 142 38 48 142 38 48 142 38 62 88 50 62 88 50 62 88 50 62 88 50 62 88 50 62 88 62 62 106 62 76 106 62 76 106 62 76 106 62 76 106 38 76 106 38 76 124 38 76 124 38 90 124 38 90 124 50 90 124 50 90 124 50 90 142 50 90 142 50 90 142 62 34 142 62 34 142 62 34 142 62 34 88 62 34 88 38 34 88 38 34 88 38 48 88 38 48 88 38 48 106 50 48 106 50 48 106 50 48 106 50 48 106 50 62 106 62 62 124 62 62 124 62 62 124 62 62 124 62 62 124 38 62 124 38 76 142 38 76 142 38 76 142 38 76 142 50 76 142 50 76 142 50 76 88 50 90 88 50 90 88 62 90 88 62 90 88 62 90 88 62 90 106 62 90 106 38 34 106 38 34 106 38 34 106 38 34 106 38 34 124 50 34 124 50 34 124 50 48 124 50 48 124 50 48 124 62 48 142 62 48 142 62 48 142 62 48 142 62 62 142 38 62 142 38 62 88 38 62 88 38 62 88 38 62 88 50 62 88 50 76 88 50 76 106 50 76 106 50 76 106 62 76 106 62 76 106 62 76 106 62 90 124 62 90 124 38 90 124 38 90 124 38 90 124 38 90 124 38 90 142 50 34 142 50 34 142 50 34 142 50 34 142 50 34 142 62 34 88 62 34 88 62 48 88 62 48 88 62 48 88 38 48 88 38 48 106 38 48 106 38 48 106 38 62 106 50 62 106 50 62 106 50 62 124 50 62 124 50
62 106 50 62 106 50 62 106 50 62 106 50 62 106 50 62 106 62 62 124 62 76 124 62 76 124 62 76 124 62 76 124 38 76 124 38 76 142 38 76 142 38 90 142 38 90 142 50 90 142 50 90 142 50 90 88 50 90 88 50 90 88 62 34 88 62 34 88 62 34 88 62 34 106 62 34 106 38 34 106 38 34 106 38 48 106 38 48 106 38 48 124 50 48 124 50 48 124 50 48 124 50 48 124 50 62 124 62 62 142 62 62 142 62 62 142 62 62 142 62 62 142 38 62 142 38 76 88 38 76 88 38 76 88 38 76 88 50 76 88 50 76 88 50 76 106 50 90 106 50 90 106 62 90 106 62 90 106 62 90 106 62 90 124 62 90 124 38 34 124 38 34 124 38 34 124 38 34 124 38 34 142 50 34 142 50 34 142 50 48 142 50 48 142 50 48 142 62 48 88 62 48 88 62 48 88 62 48 88 62 62 88 38 62 88 38 62 106 38 62 106 38 62 106 38 62 106 50 62 106 50 76 106 50 76 124 50 76 124 50 76 124 62 76 124 62 76 124 62 76 124 62 90 142 62 90 142 38 90 142 38 90 142 38 90 142 38 90 142 38 90 88 50 34 88 50 34 88 50 34 88 50 34 88 50 34 88 62 34 106 62 34 106 62 48 106 62 48 106 62 48 106 38 48 106 38 48 124 38 48 124 38 48 124 38 62 124 50 62 124 50 62 124 50 62 142 50 62 142 50 62 142 62 62 142 62 76 142 62 76 142 62 76 88 62 76 88 38 76 88 38 76 88 38 76 88 38 90 88 38 90 106 50 90 106 50 90 106 50 90 106 50 90 106 50 90 106 62 34 124 62 34 124 62 34 124 62 34 124 62 34 124 38 34 124 38 34 142 38 48 142 38 48 142 38 48 142 50 48 142 50 48 142 50 48 88 50 48 88 50 62 88 62 62 88 62 62 88 62 62 88 62 62 106 62 62 106 38 62 106 38 76 106 38 76 106 38 76 106 38 76 124 50 76 124 50 76 124 50 76 124 50 90 124 50 90 124 62 90 142 62 90 142 62 90 142 62 90 142 62 90 142 38 34 142 38 34 88 38 34 88 38 34 88 38 34 88 50 34 88 50 34 88 50 48 106 50 48 106 50 48 106 62 48 106 62 48 106 62 48 106 62 48 124 62 62 124 38 62 124 38 62 124 38 62 124 38 62 124 38 62 142 50 62 142 50 76 142 50 76 142 50 76 142 50 76 142 62 76 88 62 76 88 62 76 88 62 90 88 62 90 88 38 90 88 38 90 106 38 90 106 38 90 106 38 90 106 50 34 106 50 34 106 50 34 124 50 34 124 50 34 124 62 34 124 62 34 124 62 48 124 62 48 142 62 48 142 38 48 142 38 48 142 38 48 142 38 48 142 38 62 88 50 62 88 50 62 88 50 62 88 50 62 88 50 62 88 62 62 106 62 76 106 62 76 106 62 76 106 62 76 106 38 76 106 38 76 124 38 76 124 38 90 124 38 90 124 50 90 124 50 90 124 50 90 142 50 90 142 50 90 142 62 34 142 62 34 142 62 34 142 62 34 88 62 34 88 38 34 88 38 34 88 38 48 88 38 48 88 38 48 106 50 48 106 50 48 106 50 48 106 50 48 106 50 62 106 62 62 124 62 62 124 62 62 124 62 62 124 62 62 124 38 62 124 38 76 142 38 76 142 38 76 142 38 76 142 50 76 142 50 76 142 50 76 88 50 90 88 50 90 88 62 90 88 62 90 88 62 90 88 62 90 106 62 90 106 38 34 106 38 34 106 38 34 106 38 34 106 38 34 124 50 34 124 50 34 124 50 48 124 50 48 124 50 48 124 62 48 142 62 48 142 62 48 142 62 48 142 62 62 142 38 62 142 38 62 88 38 62 88 38 62 88 38 62 88 50 62 88 50 76 88 50 76 106 50 76 106 50 76 106 62 76 106 62 76 106 62 76 106 62 90 124 62 90 124 38 90 124 38 90 124 38 90 124 38 90 124 38 90 142 50 34 142 50 34 142 50 34 142 50 34 142 50 34 142 62 34 88 62 34 88 62 48 88 62 48 88 62 48 88 38 48 88 38 48 106 38 48 106 38 48 106 38 62 106 50 62 106 50 62 106 50 62 124 50 62 124 50
62 106 50 62 106 50 62 106 50 62 106 50 62 106 50 62 106 62 62 124 62 76 124 62 76 124 62 76 124 62 76 124 38 76 124 38 76 142 38 76 142 38 90 142 38 90 142 50 90 142 50 90 142 50 90 88 50 90 88 50 90 88 62 34 88 62 34 88 62 34 88 62 34 106 62 34 106 38 34 106 38 34 106 38 48 106 38 48 106 38 48 124 50 48 124 50 48 124 50 48 124 50 48 124 50 62 124 62 62 142 62 62 142 62 62 142 62 62 142 62 62 142 38 62 142 38 76 88 38 76 88 38 76 88 38 76 88 50 76 88 50 76 88 50 76 106 50 90 106 50 90 106 62 90 106 62 90 106 62 90 106 62 90 124 62 90 124 38 34 124 38 34 124 38 34 124 38 34 124 38 34 142 50 34 142 50 34 142 50 48 142 50 48 142 50 48 142 62 48 88 62 48 88 62 48 88 62 48 88 62 62 88 38 62 88 38 62 106 38 62 106 38 62 106 38 62 106 50 62 106 50 76 106 50 76 124 50 76 124 50 76 124 62 76 124 62 76 124 62 76 124 62 90 142 62 90 142 38 90 142 38 90 142 38 90 142 38 90 142 38 90 88 50 34 88 50 34 88 50 34 88 50 34 88 50 34 88 62 34 106 62 34 106 62 48 106 62 48 106 62 48 106 38 48 106 38 48 124 38 48 124 38 48 124 38 62 124 50 62 124 50 62 124 50 62 142 50 62 142 50 62 142 62 62 142 62 76 142 62 76 142 62 76 88 62 76 88 38 76 88 38 76 88 38 76 88 38 90 88 38 90 106 50 90 106 50 90 106 50 90 106 50 90 106 50 90 106 62 34 124 62 34 124 62 34 124 62 34 124 62 34 124 38 34 124 38 34 142 38 48 142 38 48 142 38 48 142 50 48 142 50 48 142 50 48 88 50 48 88 50 62 88 62 62 88 62 62 88 62 62 88 62 62 106 62 62 106 38 62 106 38 76 106 38 76 106 38 76 106 38 76 124 50 76 124 50 76 124 50 76 124 50 90 124 50 90 124 62 90 142 62 90 142 62 90 142 62 90 142 62 90 142 38 34 142 38 34 88 38 34 88 38 34 88 38 34 88 50 34 88 50 34 88 50 48 106 50 48 106 50 48 106 62 48 106 62 48 106 62 48 106 62 48 124 62 62 124 38 62 124 38 62 124 38 62 124 38 62 124 38 62 142 50 62 142 50 76 142 50 76 142 50 76 142 50 76 142 62 76 88 62 76 88 62 76 88 62 90 88 62 90 88 38 90 88 38 90 106 38 90 106 38 90 106 38 90 106 50 34 106 50 34 106 50 34 124 50 34 124 50 34 124 62 34 124 62 34 124 62 48 124 62 48 142 62 48 142 38 48 142 38 48 142 38 48 142 38 48 142 38 62 88 50 62 88 50 62 88 50 62 88 50 62 88 50 62 88 62 62 106 62 76 106 62 76 106 62 76 106 62 76 106 38 76 106 38 76 124 38 76 124 38 90 124 38 90 124 50 90 124 50 90 124 50 90 142 50 90 142 50 90 142 62 34 142 62 34 142 62 34 142 62 34 88 62 34 88 38 34 88 38 34 88 38 48 88 38 48 88 38 48 106 50 48 106 50 48 106 50 48 106 50 48 106 50 62 106 62 62 124 62 62 124 62 62 124 62 62 124 62 62 124 38 62 124 38 76 142 38 76 142 38 76 142 38 76 142 50 76 142 50 76 142 50 76 88 50 90 88 50 90 88 62 90 88 62 90 88 62 90 88 62 90 106 62 90 106 38 34 106 38 34 106 38 34 106 38 34 106 38 34 124 50 34 124 50 34 124 50 48 124 50 48 124 50 48 124 62 48 142 62 48 142 62 48 142 62 48 142 62 62 142 38 62 142 38 62 88 38 62 88 38 62 88 38 62 88 50 62 88 50 76 88 50 76 106 50 76 106 50 76 106 62 76 106 62 76 106 62 76 106 62 90 124 62 90 124 38 90 124 38 90 124 38 90 124 38 90 124 38 90 142 50 34 142 50 34 142 50 34 142 50 34 142 50 34 142 62 34 88 62 34 88 62 48 88 62 48 88 62 48 88 38 48 88 38 48 106 38 48 106 38 48 106 38 62 106 50 62 106 50 62 106 50 62 124 50 62 124 50
62 124 50 62 124 50 62 124 50 62 124 50 62 124 50 62 124 62 62 142 62 76 142 62 76 142 62 76 142 62 76 142 38 76 142 38 76 88 38 76 88 38 90 88 38 90 88 50 90 88 50 90 88 50 90 106 50 90 106 50 90 106 62 34 106 62 34 106 62 34 106 62 34 124 62 34 124 38 34 124 38 34 124 38 48 124 38 48 124 38 48 142 50 48 142 50 48 142 50 48 142 50 48 142 50 62 142 62 62 88 62 62 88 62 62 88 62 62 88 62 62 88 38 62 88 38 76 106 38 76 106 38 76 106 38 76 106 50 76 106 50 76 106 50 76 124 50 90 124 50 90 124 62 90 124 62 90 124 62 90 124 62 90 142 62 90 142 38 34 142 38 34 142 38 34 142 38 34 142 38 34 88 50 34 88 50 34 88 50 48 88 50 48 88 50 48 88 62 48 106 62 48 106 62 48 106 62 48 106 62 62 106 38 62 106 38 62 124 38 62 124 38 62 124 38 62 124 50 62 124 50 76 124 50 76 142 50 76 142 50 76 142 62 76 142 62 76 142 62 76 142 62 90 88 62 90 88 38 90 88 38 90 88 38 90 88 38 90 88 38 90 106 50 34 106 50 34 106 50 34 106 50 34 106 50 34 106 62 34 124 62 34 124 62 48 124 62 48 124 62 48 124 38 48 124 38 48 142 38 48 142 38 48 142 38 62 142 50 62 142 50 62 142 50 62 88 50 62 88 50 62 88 62 62 88 62 76 88 62 76 88 62 76 106 62 76 106 38 76 106 38 76 106 38 76 106 38 90 106 38 90 124 50 90 124 50 90 124 50 90 124 50 90 124 50 90 124 62 34 142 62 34 142 62 34 142 62 34 142 62 34 142 38 34 142 38 34 88 38 48 88 38 48 88 38 48 88 50 48 88 50 48 88 50 48 106 50 48 106 50 62 106 62 62 106 62 62 106 62 62 106 62 62 124 62 62 124 38 62 124 38 76 124 38 76 124 38 76 124 38 76 142 50 76 142 50 76 142 50 76 142 50 90 142 50 90 142 62 90 88 62 90 88 62 90 88 62 90 88 62 90 88 38 34 88 38 34 106 38 34 106 38 34 106 38 34 106 50 34 106 50 34 106 50 48 124 50 48 124 50 48 124 62 48 124 62 48 124 62 48 124 62 48 142 62 62 142 38 62 142 38 62 142 38 62 142 38 62 142 38 62 88 50 62 88 50 76 88 50 76 88 50 76 88 50 76 88 62 76 106 62 76 106 62 76 106 62 90 106 62 90 106 38 90 106 38 90 124 38 90 124 38 90 124 38 90 124 50 34 124 50 34 124 50 34 142 50 34 142 50 34 142 62 34 142 62 34 142 62 48 142 62 48 88 62 48 88 38 48 88 38 48 88 38 48 88 38 48 88 38 62 106 50 62 106 50 62 106 50 62 106 50 62 106 50 62 106 62 62 124 62 76 124 62 76 124 62 76 124 62 76 124 38 76 124 38 76 142 38 76 142 38 90 142 38 90 142 50 90 142 50 90 142 50 90 88 50 90 88 50 90 88 62 34 88 62 34 88 62 34 88 62 34 106 62 34 106 38 34 106 38 34 106 38 48 106 38 48 106 38 48 124 50 48 124 50 48 124 50 48 124 50 48 124 50 62 124 62 62 142 62 62 142 62 62 142 62 62 142 62 62 142 38 62 142 38 76 88 38 76 88 38 76 88 38 76 88 50 76 88 50 76 88 50 76 106 50 90 106 50 90 106 62 90 106 62 90 106 62 90 106 62 90 124 62 90 124 38 34 124 38 34 124 38 34 124 38 34 124 38 34 142 50 34 142 50 34 142 50 48 142 50 48 142 50 48 142 62 48 88 62 48 88 62 48 88 62 48 88 62 62 88 38 62 88 38 62 106 38 62 106 38 62 106 38 62 106 50 62 106 50 76 106 50 76 124 50 76 124 50 76 124 62 76 124 62 76 124 62 76 124 62 90 142 62 90 142 38 90 142 38 90 142 38 90 142 38 90 142 38 90 88 50 34 88 50 34 88 50 34 88 50 34 88 50 34 88 62 34 106 62 34 106 62 48 106 62 48 106 62 48 106 38 48 106 38 48 124 38 48 124 38 48 124 38 62 124 50 62 124 50 62 124 50 62 142 50 62 142 50
76 124 50 76 124 50 76 124 50 76 124 50 76 124 50 76 124 62 76 142 62 90 142 62 90 142 62 90 142 62 90 142 38 90 142 38 90 88 38 90 88 38 34 88 38 34 88 50 34 88 50 34 88 50 34 106 50 34 106 50 34 106 62 48 106 62 48 106 62 48 106 62 48 124 62 48 124 38 48 124 38 48 124 38 62 124 38 62 124 38 62 142 50 62 142 50 62 142 50 62 142 50 62 142 50 76 142 62 76 88 62 76 88 62 76 88 62 76 88 62 76 88 38 76 88 38 90 106 38 90 106 38 90 106 38 90 106 50 90 106 50 90 106 50 90 124 50 34 124 50 34 124 62 34 124 62 34 124 62 34 124 62 34 142 62 34 142 38 48 142 38 48 142 38 48 142 38 48 142 38 48 88 50 48 88 50 48 88 50 62 88 50 62 88 50 62 88 62 62 106 62 62 106 62 62 106 62 62 106 62 76 106 38 76 106 38 76 124 38 76 124 38 76 124 38 76 124 50 76 124 50 90 124 50 90 142 50 90 142 50 90 142 62 90 142 62 90 142 62 90 142 62 34 88 62 34 88 38 34 88 38 34 88 38 34 88 38 34 88 38 34 106 50 48 106 50 48 106 50 48 106 50 48 106 50 48 106 62 48 124 62 48 124 62 62 124 62 62 124 62 62 124 38 62 124 38 62 142 38 62 142 38 62 142 38 76 142 50 76 142 50 76 142 50 76 88 50 76 88 50 76 88 62 76 88 62 90 88 62 90 88 62 90 106 62 90 106 38 90 106 38 90 106 38 90 106 38 34 106 38 34 124 50 34 124 50 34 124 50 34 124 50 34 124 50 34 124 62 48 142 62 48 142 62 48 142 62 48 142 62 48 142 38 48 142 38 48 88 38 62 88 38 62 88 38 62 88 50 62 88 50 62 88 50 62 106 50 62 106 50 76 106 62 76 106 62 76 106 62 76 106 62 76 124 62 76 124 38 76 124 38 90 124 38 90 124 38 90 124 38 90 142 50 90 142 50 90 142 50 90 142 50 34 142 50 34 142 62 34 88 62 34 88 62 34 88 62 34 88 62 34 88 38 48 88 38 48 106 38 48 106 38 48 106 38 48 106 50 48 106 50 48 106 50 62 124 50 62 124 50 62 124 62 62 124 62 62 124 62 62 124 62 62 142 62 76 142 38 76 142 38 76 142 38 76 142 38 76 142 38 76 88 50 76 88 50 90 88 50 90 88 50 90 88 50 90 88 62 90 106 62 90 106 62 90 106 62 34 106 62 34 106 38 34 106 38 34 124 38 34 124 38 34 124 38 34 124 50 48 124 50 48 124 50 48 142 50 48 142 50 48 142 62 48 142 62 48 142 62 62 142 62 62 88 62 62 88 38 62 88 38 62 88 38 62 88 38 62 88 38 76 106 50 76 106 50 76 106 50 76 106 50 76 106 50 76 106 62 76 124 62 90 124 62 90 124 62 90 124 62 90 124 38 90 124 38 90 142 38 90 142 38 34 142 38 34 142 50 34 142 50 34 142 50 34 88 50 34 88 50 34 88 62 48 88 62 48 88 62 48 88 62 48 106 62 48 106 38 48 106 38 48 106 38 62 106 38 62 106 38 62 124 50 62 124 50 62 124 50 62 124 50 62 124 50 76 124 62 76 142 62 76 142 62 76 142 62 76 142 62 76 142 38 76 142 38 90 88 38 90 88 38 90 88 38 90 88 50 90 88 50 90 88 50 90 106 50 34 106 50 34 106 62 34 106 62 34 106 62 34 106 62 34 124 62 34 124 38 48 124 38 48 124 38 48 124 38 48 124 38 48 142 50 48 142 50 48 142 50 62 142 50 62 142 50 62 142 62 62 88 62 62 88 62 62 88 62 62 88 62 76 88 38 76 88 38 76 106 38 76 106 38 76 106 38 76 106 50 76 106 50 90 106 50 90 124 50 90 124 50 90 124 62 90 124 62 90 124 62 90 124 62 34 142 62 34 142 38 34 142 38 34 142 38 34 142 38 34 142 38 34 88 50 48 88 50 48 88 50 48 88 50 48 88 50 48 88 62 48 106 62 48 106 62 62 106 62 62 106 62 62 106 38 62 106 38 62 124 38 62 124 38 62 124 38 76 124 50 76 124 50 76 124 50 76 142 50 76 142 50
76 124 62 76 124 62 76 124 62 76 124 62 76 124 62 76 124 38 76 142 38 90 142 38 90 142 38 90 142 38 90 142 50 90 142 50 90 88 50 90 88 50 34 88 50 34 88 62 34 88 62 34 88 62 34 106 62 34 106 62 34 106 38 48 106 38 48 106 38 48 106 38 48 124 38 48 124 50 48 124 50 48 124 50 62 124 50 62 124 50 62 142 62 62 142 62 62 142 62 62 142 62 62 142 62 76 142 38 76 88 38 76 88 38 76 88 38 76 88 38 76 88 50 76 88 50 90 106 50 90 106 50 90 106 50 90 106 62 90 106 62 90 106 62 90 124 62 34 124 62 34 124 38 34 124 38 34 124 38 34 124 38 34 142 38 34 142 50 48 142 50 48 142 50 48 142 50 48 142 50 48 88 62 48 88 62 48 88 62 62 88 62 62 88 62 62 88 38 62 106 38 62 106 38 62 106 38 62 106 38 76 106 50 76 106 50 76 124 50 76 124 50 76 124 50 76 124 62 76 124 62 90 124 62 90 142 62 90 142 62 90 142 38 90 142 38 90 142 38 90 142 38 34 88 38 34 88 50 34 88 50 34 88 50 34 88 50 34 88 50 34 106 62 48 106 62 48 106 62 48 106 62 48 106 62 48 106 38 48 124 38 48 124 38 62 124 38 62 124 38 62 124 50 62 124 50 62 142 50 62 142 50 62 142 50 76 142 62 76 142 62 76 142 62 76 88 62 76 88 62 76 88 38 76 88 38 90 88 38 90 88 38 90 106 38 90 106 50 90 106 50 90 106 50 90 106 50 34 106 50 34 124 62 34 124 62 34 124 62 34 124 62 34 124 62 34 124 38 48 142 38 48 142 38 48 142 38 48 142 38 48 142 50 48 142 50 48 88 50 62 88 50 62 88 50 62 88 62 62 88 62 62 88 62 62 106 62 62 106 62 76 106 38 76 106 38 76 106 38 76 106 38 76 124 38 76 124 50 76 124 50 90 124 50 90 124 50 90 124 50 90 142 62 90 142 62 90 142 62 90 142 62 34 142 62 34 142 38 34 88 38 34 88 38 34 88 38 34 88 38 34 88 50 48 88 50 48 106 50 48 106 50 48 106 50 48 106 62 48 106 62 48 106 62 62 124 62 62 124 62 62 124 38 62 124 38 62 124 38 62 124 38 62 142 38 76 142 50 76 142 50 76 142 50 76 142 50 76 142 50 76 88 62 76 88 62 90 88 62 90 88 62 90 88 62 90 88 38 90 106 38 90 106 38 90 106 38 34 106 38 34 106 50 34 106 50 34 124 50 34 124 50 34 124 50 34 124 62 48 124 62 48 124 62 48 142 62 48 142 62 48 142 38 48 142 38 48 142 38 62 142 38 62 88 38 62 88 50 62 88 50 62 88 50 62 88 50 62 88 50 76 106 62 76 106 62 76 106 62 76 106 62 76 106 62 76 106 38 76 124 38 90 124 38 90 124 38 90 124 38 90 124 50 90 124 50 90 142 50 90 142 50 34 142 50 34 142 62 34 142 62 34 142 62 34 88 62 34 88 62 34 88 38 48 88 38 48 88 38 48 88 38 48 106 38 48 106 50 48 106 50 48 106 50 62 106 50 62 106 50 62 124 62 62 124 62 62 124 62 62 124 62 62 124 62 76 124 38 76 142 38 76 142 38 76 142 38 76 142 38 76 142 50 76 142 50 90 88 50 90 88 50 90 88 50 90 88 62 90 88 62 90 88 62 90 106 62 34 106 62 34 106 38 34 106 38 34 106 38 34 106 38 34 124 38 34 124 50 48 124 50 48 124 50 48 124 50 48 124 50 48 142 62 48 142 62 48 142 62 62 142 62 62 142 62 62 142 38 62 88 38 62 88 38 62 88 38 62 88 38 76 88 50 76 88 50 76 106 50 76 106 50 76 106 50 76 106 62 76 106 62 90 106 62 90 124 62 90 124 62 90 124 38 90 124 38 90 124 38 90 124 38 34 142 38 34 142 50 34 142 50 34 142 50 34 142 50 34 142 50 34 88 62 48 88 62 48 88 62 48 88 62 48 88 62 48 88 38 48 106 38 48 106 38 62 106 38 62 106 38 62 106 50 62 106 50 62 124 50 62 124 50 62 124 50 76 124 62 76 124 62 76 124 62 76 142 62 76 142 62
76 124 62 76 124 62 76 124 62 76 124 62 76 124 62 76 124 38 76 142 38 90 142 38 90 142 38 90 142 38 90 142 50 90 142 50 90 88 50 90 88 50 34 88 50 34 88 62 34 88 62 34 88 62 34 106 62 34 106 62 34 106 38 48 106 38 48 106 38 48 106 38 48 124 38 48 124 50 48 124 50 48 124 50 62 124 50 62 124 50 62 142 62 62 142 62 62 142 62 62 142 62 62 142 62 76 142 38 76 88 38 76 88 38 76 88 38 76 88 38 76 88 50 76 88 50 90 106 50 90 106 50 90 106 50 90 106 62 90 106 62 90 106 62 90 124 62 34 124 62 34 124 38 34 124 38 34 124 38 34 124 38 34 142 38 34 142 50 48 142 50 48 142 50 48 142 50 48 142 50 48 88 62 48 88 62 48 88 62 62 88 62 62 88 62 62 88 38 62 106 38 62 106 38 62 106 38 62 106 38 76 106 50 76 106 50 76 124 50 76 124 50 76 124 50 76 124 62 76 124 62 90 124 62 90 142 62 90 142 62 90 142 38 90 142 38 90 142 38 90 142 38 34 88 38 34 88 50 34 88 50 34 88 50 34 88 50 34 88 50 34 106 62 48 106 62 48 106 62 48 106 62 48 106 62 48 106 38 48 124 38 48 124 38 62 124 38 62 124 38 62 124 50 62 124 50 62 142 50 62 142 50 62 142 50 76 142 62 76 142 62 76 142 62 76 88 62 76 88 62 76 88 38 76 88 38 90 88 38 90 88 38 90 106 38 90 106 50 90 106 50 90 106 50 90 106 50 34 106 50 34 124 62 34 124 62 34 124 62 34 124 62 34 124 62 34 124 38 48 142 38 48 142 38 48 142 38 48 142 38 48 142 50 48 142 50 48 88 50 62 88 50 62 88 50 62 88 62 62 88 62 62 88 62 62 106 62 62 106 62 76 106 38 76 106 38 76 106 38 76 106 38 76 124 38 76 124 50 76 124 50 90 124 50 90 124 50 90 124 50 90 142 62 90 142 62 90 142 62 90 142 62 34 142 62 34 142 38 34 88 38 34 88 38 34 88 38 34 88 38 34 88 50 48 88 50 48 106 50 48 106 50 48 106 50 48 106 62 48 106 62 48 106 62 62 124 62 62 124 62 62 124 38 62 124 38 62 124 38 62 124 38 62 142 38 76 142 50 76 142 50 76 142 50 76 142 50 76 142 50 76 88 62 76 88 62 90 88 62 90 88 62 90 88 62 90 88 38 90 106 38 90 106 38 90 106 38 34 106 38 34 106 50 34 106 50 34 124 50 34 124 50 34 124 50 34 124 62 48 124 62 48 124 62 48 142 62 48 142 62 48 142 38 48 142 38 48 142 38 62 142 38 62 88 38 62 88 50 62 88 50 62 88 50 62 88 50 62 88 50 76 106 62 76 106 62 76 106 62 76 106 62 76 106 62 76 106 38 76 124 38 90 124 38 90 124 38 90 124 38 90 124 50 90 124 50 90 142 50 90 142 50 34 142 50 34 142 62 34 142 62 34 142 62 34 88 62 34 88 62 34 88 38 48 88 38 48 88 38 48 88 38 48 106 38 48 106 50 48 106 50 48 106 50 62 106 50 62 106 50 62 124 62 62 124 62 62 124 62 62 124 62 62 124 62 76 124 38 76 142 38 76 142 38 76 142 38 76 142 38 76 142 50 76 142 50 90 88 50 90 88 50 90 88 50 90 88 62 90 88 62 90 88 62 90 106 62 34 106 62 34 106 38 34 106 38 34 106 38 34 106 38 34 124 38 34 124 50 48 124 50 48 124 50 48 124 50 48 124 50 48 142 62 48 142 62 48 142 62 62 142 62 62 142 62 62 142 38 62 88 38 62 88 38 62 88 38 62 88 38 76 88 50 76 88 50 76 106 50 76 106 50 76 106 50 76 106 62 76 106 62 90 106 62 90 124 62 90 124 62 90 124 38 90 124 38 90 124 38 90 124 38 34 142 38 34 142 50 34 142 50 34 142 50 34 142 50 34 142 50 34 88 62 48 88 62 48 88 62 48 88 62 48 88 62 48 88 38 48 106 38 48 106 38 62 106 38 62 106 38 62 106 50 62 106 50 62 124 50 62 124 50 62 124 50 76 124 62 76 124 62 76 124 62 76 142 62 76 142 62
76 124 62 76 124 62 76 124 62 76 124 62 76 124 62 76 124 38 76 142 38 90 142 38 90 142 38 90 142 38 90 142 50 90 142 50 90 88 50 90 88 50 34 88 50 34 88 62 34 88 62 34 88 62 34 106 62 34 106 62 34 106 38 48 106 38 48 106 38 48 106 38 48 124 38 48 124 50 48 124 50 48 124 50 62 124 50 62 124 50 62 142 62 62 142 62 62 142 62 62 142 62 62 142 62 76 142 38 76 88 38 76 88 38 76 88 38 76 88 38 76 88 50 76 88 50 90 106 50 90 106 50 90 106 50 90 106 62 90 106 62 90 106 62 90 124 62 34 124 62 34 124 38 34 124 38 34 124 38 34 124 38 34 142 38 34 142 50 48 142 50 48 142 50 48 142 50 48 142 50 48 88 62 48 88 62 48 88 62 62 88 62 62 88 62 62 88 38 62 106 38 62 106 38 62 106 38 62 106 38 76 106 50 76 106 50 76 124 50 76 124 50 76 124 50 76 124 62 76 124 62 90 124 62 90 142 62 90 142 62 90 142 38 90 142 38 90 142 38 90 142 38 34 88 38 34 88 50 34 88 50 34 88 50 34 88 50 34 88 50 34 106 62 48 106 62 48 106 62 48 106 62 48 106 62 48 106 38 48 124 38 48 124 38 62 124 38 62 124 38 62 124 50 62 124 50 62 142 50 62 142 50 62 142 50 76 142 62 76 142 62 76 142 62 76 88 62 76 88 62 76 88 38 76 88 38 90 88 38 90 88 38 90 106 38 90 106 50 90 106 50 90 106 50 90 106 50 34 106 50 34 124 62 34 124 62 34 124 62 34 124 62 34 124 62 34 124 38 48 142 38 48 142 38 48 142 38 48 142 38 48 142 50 48 142 50 48 88 50 62 88 50 62 88 50 62 88 62 62 88 62 62 88 62 62 106 62 62 106 62 76 106 38 76 106 38 76 106 38 76 106 38 76 124 38 76 124 50 76 124 50 90 124 50 90 124 50 90 124 50 90 142 62 90 142 62 90 142 62 90 142 62 34 142 62 34 142 38 34 88 38 34 88 38 34 88 38 34 88 38 34 88 50 48 88 50 48 106 50 48 106 50 48 106 50 48 106 62 48 106 62 48 106 62 62 124 62 62 124 62 62 124 38 62 124 38 62 124 38 62 124 38 62 142 38 76 142 50 76 142 50 76 142 50 76 142 50 76 142 50 76 88 62 76 88 62 90 88 62 90 88 62 90 88 62 90 88 38 90 106 38 90 106 38 90 106 38 34 106 38 34 106 50 34 106 50 34 124 50 34 124 50 34 124 50 34 124 62 48 124 62 48 124 62 48 142 62 48 142 62 48 142 38 48 142 38 48 142 38 62 142 38 62 88 38 62 88 50 62 88 50 62 88 50 62 88 50 62 88 50 76 106 62 76 106 62 76 106 62 76 106 62 76 106 62 76 106 38 76 124 38 90 124 38 90 124 38 90 124 38 90 124 50 90 124 50 90 142 50 90 142 50 34 142 50 34 142 62 34 142 62 34 142 62 34 88 62 34 88 62 34 88 38 48 88 38 48 88 38 48 88 38 48 106 38 48 106 50 48 106 50 48 106 50 62 106 50 62 106 50 62 124 62 62 124 62 62 124 62 62 124 62 62 124 62 76 124 38 76 142 38 76 142 38 76 142 38 76 142 38 76 142 50 76 142 50 90 88 50 90 88 50 90 88 50 90 88 62 90 88 62 90 88 62 90 106 62 34 106 62 34 106 38 34 106 38 34 106 38 34 106 38 34 124 38 34 124 50 48 124 50 48 124 50 48 124 50 48 124 50 48 142 62 48 142 62 48 142 62 62 142 62 62 142 62 62 142 38 62 88 38 62 88 38 62 88 38 62 88 38 76 88 50 76 88 50 76 106 50 76 106 50 76 106 50 76 106 62 76 106 62 90 106 62 90 124 62 90 124 62 90 124 38 90 124 38 90 124 38 90 124 38 34 142 38 34 142 50 34 142 50 34 142 50 34 142 50 34 142 50 34 88 62 48 88 62 48 88 62 48 88 62 48 88 62 48 88 38 48 106 38 48 106 38 62 106 38 62 106 38 62 106 50 62 106 50 62 124 50 62 124 50 62 124 50 76 124 62 76 124 62 76 124 62 76 142 62 76 142 62
76 124 62 76 124 62 76 124 62 76 124 62 76 124 62 76 124 38 76 142 38 90 142 38 90 142 38 90 142 38 90 142 50 90 142 50 90 88 50 90 88 50 34 88 50 34 88 62 34 88 62 34 88 62 34 106 62 34 106 62 34 106 38 48 106 38 48 106 38 48 106 38 48 124 38 48 124 50 48 124 50 48 124 50 62 124 50 62 124 50 62 142 62 62 142 62 62 142 62 62 142 62 62 142 62 76 142 38 76 88 38 76 88 38 76 88 38 76 88 38 76 88 50 76 88 50 90 106 50 90 106 50 90 106 50 90 106 62 90 106 62 90 106 62 90 124 62 34 124 62 34 124 38 34 124 38 34 124 38 34 124 38 34 142 38 34 142 50 48 142 50 48 142 50 48 142 50 48 142 50 48 88 62 48 88 62 48 88 62 62 88 62 62 88 62 62 88 38 62 106 38 62 106 38 62 106 38 62 106 38 76 106 50 76 106 50 76 124 50 76 124 50 76 124 50 76 124 62 76 124 62 90 124 62 90 142 62 90 142 62 90 142 38 90 142 38 90 142 38 90 142 38 34 88 38 34 88 50 34 88 50 34 88 50 34 88 50 34 88 50 34 106 62 48 106 62 48 106 62 48 106 62 48 106 62 48 106 38 48 124 38 48 124 38 62 124 38 62 124 38 62 124 50 62 124 50 62 142 50 62 142 50 62 142 50 76 142 62 76 142 62 76 142 62 76 88 62 76 88 62 76 88 38 76 88 38 90 88 38 90 88 38 90 106 38 90 106 50 90 106 50 90 106 50 90 106 50 34 106 50 34 124 62 34 124 62 34 124 62 34 124 62 34 124 62 34 124 38 48 142 38 48 142 38 48 142 38 48 142 38 48 142 50 48 142 50 48 88 50 62 88 50 62 88 50 62 88 62 62 88 62 62 88 62 62 106 62 62 106 62 76 106 38 76 106 38 76 106 38 76 106 38 76 124 38 76 124 50 76 124 50 90 124 50 90 124 50 90 124 50 90 142 62 90 142 62 90 142 62 90 142 62 34 142 62 34 142 38 34 88 38 34 88 38 34 88 38 34 88 38 34 88 50 48 88 50 48 106 50 48 106 50 48 106 50 48 106 62 48 106 62 48 106 62 62 124 62 62 124 62 62 124 38 62 124 38 62 124 38 62 124 38 62 142 38 76 142 50 76 142 50 76 142 50 76 142 50 76 142 50 76 88 62 76 88 62 90 88 62 90 88 62 90 88 62 90 88 38 90 106 38 90 106 38 90 106 38 34 106 38 34 106 50 34 106 50 34 124 50 34 124 50 34 124 50 34 124 62 48 124 62 48 124 62 48 142 62 48 142 62 48 142 38 48 142 38 48 142 38 62 142 38 62 88 38 62 88 50 62 88 50 62 88 50 62 88 50 62 88 50 76 106 62 76 106 62 76 106 62 76 106 62 76 106 62 76 106 38 76 124 38 90 124 38 90 124 38 90 124 38 90 124 50 90 124 50 90 142 50 90 142 50 34 142 50 34 142 62 34 142 62 34 142 62 34 88 62 34 88 62 34 88 38 48 88 38 48 88 38 48 88 38 48 106 38 48 106 50 48 106 50 48 106 50 62 106 50 62 106 50 62 124 62 62 124 62 62 124 62 62 124 62 62 124 62 76 124 38 76 142 38 76 142 38 76 142 38 76 142 38 76 142 50 76 142 50 90 88 50 90 88 50 90 88 50 90 88 62 90 88 62 90 88 62 90 106 62 34 106 62 34 106 38 34 106 38 34 106 38 34 106 38 34 124 38 34 124 50 48 124 50 48 124 50 48 124 50 48 124 50 48 142 62 48 142 62 48 142 62 62 142 62 62 142 62 62 142 38 62 88 38 62 88 38 62 88 38 62 88 38 76 88 50 76 88 50 76 106 50 76 106 50 76 106 50 76 106 62 76 106 62 90 106 62 90 124 62 90 124 62 90 124 38 90 124 38 90 124 38 90 124 38 34 142 38 34 142 50 34 142 50 34 142 50 34 142 50 34 142 50 34 88 62 48 88 62 48 88 62 48 88 62 48 88 62 48 88 38 48 106 38 48 106 38 62 106 38 62 106 38 62 106 50 62 106 50 62 124 50 62 124 50 62 124 50 76 124 62 76 124 62 76 124 62 76 142 62 76 142 62
90 124 62 90 124 62 90 124 62 90 124 62 90 124 62 90 124 38 90 142 38 34 142 38 34 142 38 34 142 38 34 142 50 34 142 50 34 88 50 34 88 50 48 88 50 48 88 62 48 88 62 48 88 62 48 106 62 48 106 62 48 106 38 62 106 38 62 106 38 62 106 38 62 124 38 62 124 50 62 124 50 62 124 50 76 124 50 76 124 50 76 142 62 76 142 62 76 142 62 76 142 62 76 142 62 90 142 38 90 88 38 90 88 38 90 88 38 90 88 38 90 88 50 90 88 50 34 106 50 34 106 50 34 106 50 34 106 62 34 106 62 34 106 62 34 124 62 48 124 62 48 124 38 48 124 38 48 124 38 48 124 38 48 142 38 48 142 50 62 142 50 62 142 50 62 142 50 62 142 50 62 88 62 62 88 62 62 88 62 76 88 62 76 88 62 76 88 38 76 106 38 76 106 38 76 106 38 76 106 38 90 106 50 90 106 50 90 124 50 90 124 50 90 124 50 90 124 62 90 124 62 34 124 62 34 142 62 34 142 62 34 142 38 34 142 38 34 142 38 34 142 38 48 88 38 48 88 50 48 88 50 48 88 50 48 88 50 48 88 50 48 106 62 62 106 62 62 106 62 62 106 62 62 106 62 62 106 38 62 124 38 62 124 38 76 124 38 76 124 38 76 124 50 76 124 50 76 142 50 76 142 50 76 142 50 90 142 62 90 142 62 90 142 62 90 88 62 90 88 62 90 88 38 90 88 38 34 88 38 34 88 38 34 106 38 34 106 50 34 106 50 34 106 50 34 106 50 48 106 50 48 124 62 48 124 62 48 124 62 48 124 62 48 124 62 48 124 38 62 142 38 62 142 38 62 142 38 62 142 38 62 142 50 62 142 50 62 88 50 76 88 50 76 88 50 76 88 62 76 88 62 76 88 62 76 106 62 76 106 62 90 106 38 90 106 38 90 106 38 90 106 38 90 124 38 90 124 50 90 124 50 34 124 50 34 124 50 34 124 50 34 142 62 34 142 62 34 142 62 34 142 62 48 142 62 48 142 38 48 88 38 48 88 38 48 88 38 48 88 38 48 88 50 62 88 50 62 106 50 62 106 50 62 106 50 62 106 62 62 106 62 62 106 62 76 124 62 76 124 62 76 124 38 76 124 38 76 124 38 76 124 38 76 142 38 90 142 50 90 142 50 90 142 50 90 142 50 90 142 50 90 88 62 90 88 62 34 88 62 34 88 62 34 88 62 34 88 38 34 106 38 34 106 38 34 106 38 48 106 38 48 106 50 48 106 50 48 124 50 48 124 50 48 124 50 48 124 62 62 124 62 62 124 62 62 142 62 62 142 62 62 142 38 62 142 38 62 142 38 76 142 38 76 88 38 76 88 50 76 88 50 76 88 50 76 88 50 76 88 50 90 106 62 90 106 62 90 106 62 90 106 62 90 106 62 90 106 38 90 124 38 34 124 38 34 124 38 34 124 38 34 124 50 34 124 50 34 142 50 34 142 50 48 142 50 48 142 62 48 142 62 48 142 62 48 88 62 48 88 62 48 88 38 62 88 38 62 88 38 62 88 38 62 106 38 62 106 50 62 106 50 62 106 50 76 106 50 76 106 50 76 124 62 76 124 62 76 124 62 76 124 62 76 124 62 90 124 38 90 142 38 90 142 38 90 142 38 90 142 38 90 142 50 90 142 50 34 88 50 34 88 50 34 88 50 34 88 62 34 88 62 34 88 62 34 106 62 48 106 62 48 106 38 48 106 38 48 106 38 48 106 38 48 124 38 48 124 50 62 124 50 62 124 50 62 124 50 62 124 50 62 142 62 62 142 62 62 142 62 76 142 62 76 142 62 76 142 38 76 88 38 76 88 38 76 88 38 76 88 38 90 88 50 90 88 50 90 106 50 90 106 50 90 106 50 90 106 62 90 106 62 34 106 62 34 124 62 34 124 62 34 124 38 34 124 38 34 124 38 34 124 38 48 142 38 48 142 50 48 142 50 48 142 50 48 142 50 48 142 50 48 88 62 62 88 62 62 88 62 62 88 62 62 88 62 62 88 38 62 106 38 62 106 38 76 106 38 76 106 38 76 106 50 76 106 50 76 124 50 76 124 50 76 124 50 90 124 62 90 124 62 90 124 62 90 142 62 90 142 62
90 142 62 90 142 62 90 142 62 90 142 62 90 142 62 90 142 38 90 88 38 34 88 38 34 88 38 34 88 38 34 88 50 34 88 50 34 106 50 34 106 50 48 106 50 48 106 62 48 106 62 48 106 62 48 124 62 48 124 62 48 124 38 62 124 38 62 124 38 62 124 38 62 142 38 62 142 50 62 142 50 62 142 50 76 142 50 76 142 50 76 88 62 76 88 62 76 88 62 76 88 62 76 88 62 90 88 38 90 106 38 90 106 38 90 106 38 90 106 38 90 106 50 90 106 50 34 124 50 34 124 50 34 124 50 34 124 62 34 124 62 34 124 62 34 142 62 48 142 62 48 142 38 48 142 38 48 142 38 48 142 38 48 88 38 48 88 50 62 88 50 62 88 50 62 88 50 62 88 50 62 106 62 62 106 62 62 106 62 76 106 62 76 106 62 76 106 38 76 124 38 76 124 38 76 124 38 76 124 38 90 124 50 90 124 50 90 142 50 90 142 50 90 142 50 90 142 62 90 142 62 34 142 62 34 88 62 34 88 62 34 88 38 34 88 38 34 88 38 34 88 38 48 106 38 48 106 50 48 106 50 48 106 50 48 106 50 48 106 50 48 124 62 62 124 62 62 124 62 62 124 62 62 124 62 62 124 38 62 142 38 62 142 38 76 142 38 76 142 38 76 142 50 76 142 50 76 88 50 76 88 50 76 88 50 90 88 62 90 88 62 90 88 62 90 106 62 90 106 62 90 106 38 90 106 38 34 106 38 34 106 38 34 124 38 34 124 50 34 124 50 34 124 50 34 124 50 48 124 50 48 142 62 48 142 62 48 142 62 48 142 62 48 142 62 48 142 38 62 88 38 62 88 38 62 88 38 62 88 38 62 88 50 62 88 50 62 106 50 76 106 50 76 106 50 76 106 62 76 106 62 76 106 62 76 124 62 76 124 62 90 124 38 90 124 38 90 124 38 90 124 38 90 142 38 90 142 50 90 142 50 34 142 50 34 142 50 34 142 50 34 88 62 34 88 62 34 88 62 34 88 62 48 88 62 48 88 38 48 106 38 48 106 38 48 106 38 48 106 38 48 106 50 62 106 50 62 124 50 62 124 50 62 124 50 62 124 62 62 124 62 62 124 62 76 142 62 76 142 62 76 142 38 76 142 38 76 142 38 76 142 38 76 88 38 90 88 50 90 88 50 90 88 50 90 88 50 90 88 50 90 106 62 90 106 62 34 106 62 34 106 62 34 106 62 34 106 38 34 124 38 34 124 38 34 124 38 48 124 38 48 124 50 48 124 50 48 142 50 48 142 50 48 142 50 48 142 62 62 142 62 62 142 62 62 88 62 62 88 62 62 88 38 62 88 38 62 88 38 76 88 38 76 106 38 76 106 50 76 106 50 76 106 50 76 106 50 76 106 50 90 124 62 90 124 62 90 124 62 90 124 62 90 124 62 90 124 38 90 142 38 34 142 38 34 142 38 34 142 38 34 142 50 34 142 50 34 88 50 34 88 50 48 88 50 48 88 62 48 88 62 48 88 62 48 106 62 48 106 62 48 106 38 62 106 38 62 106 38 62 106 38 62 124 38 62 124 50 62 124 50 62 124 50 76 124 50 76 124 50 76 142 62 76 142 62 76 142 62 76 142 62 76 142 62 90 142 38 90 88 38 90 88 38 90 88 38 90 88 38 90 88 50 90 88 50 34 106 50 34 106 50 34 106 50 34 106 62 34 106 62 34 106 62 34 124 62 48 124 62 48 124 38 48 124 38 48 124 38 48 124 38 48 142 38 48 142 50 62 142 50 62 142 50 62 142 50 62 142 50 62 88 62 62 88 62 62 88 62 76 88 62 76 88 62 76 88 38 76 106 38 76 106 38 76 106 38 76 106 38 90 106 50 90 106 50 90 124 50 90 124 50 90 124 50 90 124 62 90 124 62 34 124 62 34 142 62 34 142 62 34 142 38 34 142 38 34 142 38 34 142 38 48 88 38 48 88 50 48 88 50 48 88 50 48 88 50 48 88 50 48 106 62 62 106 62 62 106 62 62 106 62 62 106 62 62 106 38 62 124 38 62 124 38 76 124 38 76 124 38 76 124 50 76 124 50 76 142 50 76 142 50 76 142 50 90 142 62 90 142 62 90 142 62 90 88 62 90 88 62
90 142 62 90 142 62 90 142 62 90 142 62 90 142 62 90 142 38 90 88 38 34 88 38 34 88 38 34 88 38 34 88 50 34 88 50 34 106 50 34 106 50 48 106 50 48 106 62 48 106 62 48 106 62 48 124 62 48 124 62 48 124 38 62 124 38 62 124 38 62 124 38 62 142 38 62 142 50 62 142 50 62 142 50 76 142 50 76 142 50 76 88 62 76 88 62 76 88 62 76 88 62 76 88 62 90 88 38 90 106 38 90 106 38 90 106 38 90 106 38 90 106 50 90 106 50 34 124 50 34 124 50 34 124 50 34 124 62 34 124 62 34 124 62 34 142 62 48 142 62 48 142 38 48 142 38 48 142 38 48 142 38 48 88 38 48 88 50 62 88 50 62 88 50 62 88 50 62 88 50 62 106 62 62 106 62 62 106 62 76 106 62 76 106 62 76 106 38 76 124 38 76 124 38 76 124 38 76 124 38 90 124 50 90 124 50 90 142 50 90 142 50 90 142 50 90 142 62 90 142 62 34 142 62 34 88 62 34 88 62 34 88 38 34 88 38 34 88 38 34 88 38 48 106 38 48 106 50 48 106 50 48 106 50 48 106 50 48 106 50 48 124 62 62 124 62 62 124 62 62 124 62 62 124 62 62 124 38 62 142 38 62 142 38 76 142 38 76 142 38 76 142 50 76 142 50 76 88 50 76 88 50 76 88 50 90 88 62 90 88 62 90 88 62 90 106 62 90 106 62 90 106 38 90 106 38 34 106 38 34 106 38 34 124 38 34 124 50 34 124 50 34 124 50 34 124 50 48 124 50 48 142 62 48 142 62 48 142 62 48 142 62 48 142 62 48 142 38 62 88 38 62 88 38 62 88 38 62 88 38 62 88 50 62 88 50 62 106 50 76 106 50 76 106 50 76 106 62 76 106 62 76 106 62 76 124 62 76 124 62 90 124 38 90 124 38 90 124 38 90 124 38 90 142 38 90 142 50 90 142 50 34 142 50 34 142 50 34 142 50 34 88 62 34 88 62 34 88 62 34 88 62 48 88 62 48 88 38 48 106 38 48 106 38 48 106 38 48 106 38 48 106 50 62 106 50 62 124 50 62 124 50 62 124 50 62 124 62 62 124 62 62 124 62 76 142 62 76 142 62 76 142 38 76 142 38 76 142 38 76 142 38 76 88 38 90 88 50 90 88 50 90 88 50 90 88 50 90 88 50 90 106 62 90 106 62 34 106 62 34 106 62 34 106 62 34 106 38 34 124 38 34 124 38 34 124 38 48 124 38 48 124 50 48 124 50 48 142 50 48 142 50 48 142 50 48 142 62 62 142 62 62 142 62 62 88 62 62 88 62 62 88 38 62 88 38 62 88 38 76 88 38 76 106 38 76 106 50 76 106 50 76 106 50 76 106 50 76 106 50 90 124 62 90 124 62 90 124 62 90 124 62 90 124 62 90 124 38 90 142 38 34 142 38 34 142 38 34 142 38 34 142 50 34 142 50 34 88 50 34 88 50 48 88 50 48 88 62 48 88 62 48 88 62 48 106 62 48 106 62 48 106 38 62 106 38 62 106 38 62 106 38 62 124 38 62 124 50 62 124 50 62 124 50 76 124 50 76 124 50 76 142 62 76 142 62 76 142 62 76 142 62 76 142 62 90 142 38 90 88 38 90 88 38 90 88 38 90 88 38 90 88 50 90 88 50 34 106 50 34 106 50 34 106 50 34 106 62 34 106 62 34 106 62 34 124 62 48 124 62 48 124 38 48 124 38 48 124 38 48 124 38 48 142 38 48 142 50 62 142 50 62 142 50 62 142 50 62 142 50 62 88 62 62 88 62 62 88 62 76 88 62 76 88 62 76 88 38 76 106 38 76 106 38 76 106 38 76 106 38 90 106 50 90 106 50 90 124 50 90 124 50 90 124 50 90 124 62 90 124 62 34 124 62 34 142 62 34 142 62 34 142 38 34 142 38 34 142 38 34 142 38 48 88 38 48 88 50 48 88 50 48 88 50 48 88 50 48 88 50 48 106 62 62 106 62 62 106 62 62 106 62 62 106 62 62 106 38 62 124 38 62 124 38 76 124 38 76 124 38 76 124 50 76 124 50 76 142 50 76 142 50 76 142 50 90 142 62 90 142 62 90 142 62 90 88 62 90 88 62
90 142 62 90 142 62 90 142 62 90 142 62 90 142 62 90 142 38 90 88 38 34 88 38 34 88 38 34 88 38 34 88 50 34 88 50 34 106 50 34 106 50 48 106 50 48 106 62 48 106 62 48 106 62 48 124 62 48 124 62 48 124 38 62 124 38 62 124 38 62 124 38 62 142 38 62 142 50 62 142 50 62 142 50 76 142 50 76 142 50 76 88 62 76 88 62 76 88 62 76 88 62 76 88 62 90 88 38 90 106 38 90 106 38 90 106 38 90 106 38 90 106 50 90 106 50 34 124 50 34 124 50 34 124 50 34 124 62 34 124 62 34 124 62 34 142 62 48 142 62 48 142 38 48 142 38 48 142 38 48 142 38 48 88 38 48 88 50 62 88 50 62 88 50 62 88 50 62 88 50 62 106 62 62 106 62 62 106 62 76 106 62 76 106 62 76 106 38 76 124 38 76 124 38 76 124 38 76 124 38 90 124 50 90 124 50 90 142 50 90 142 50 90 142 50 90 142 62 90 142 62 34 142 62 34 88 62 34 88 62 34 88 38 34 88 38 34 88 38 34 88 38 48 106 38 48 106 50 48 106 50 48 106 50 48 106 50 48 106 50 48 124 62 62 124 62 62 124 62 62 124 62 62 124 62 62 124 38 62 142 38 62 142 38 76 142 38 76 142 38 76 142 50 76 142 50 76 88 50 76 88 50 76 88 50 90 88 62 90 88 62 90 88 62 90 106 62 90 106 62 90 106 38 90 106 38 34 106 38 34 106 38 34 124 38 34 124 50 34 124 50 34 124 50 34 124 50 48 124 50 48 142 62 48 142 62 48 142 62 48 142 62 48 142 62 48 142 38 62 88 38 62 88 38 62 88 38 62 88 38 62 88 50 62 88 50 62 106 50 76 106 50 76 106 50 76 106 62 76 106 62 76 106 62 76 124 62 76 124 62 90 124 38 90 124 38 90 124 38 90 124 38 90 142 38 90 142 50 90 142 50 34 142 50 34 142 50 34 142 50 34 88 62 34 88 62 34 88 62 34 88 62 48 88 62 48 88 38 48 106 38 48 106 38 48 106 38 48 106 38 48 106 50 62 106 50 62 124 50 62 124 50 62 124 50 62 124 62 62 124 62 62 124 62 76 142 62 76 142 62 76 142 38 76 142 38 76 142 38 76 142 38 76 88 38 90 88 50 90 88 50 90 88 50 90 88 50 90 88 50 90 106 62 90 106 62 34 106 62 34 106 62 34 106 62 34 106 38 34 124 38 34 124 38 34 124 38 48 124 38 48 124 50 48 124 50 48 142 50 48 142 50 48 142 50 48 142 62 62 142 62 62 142 62 62 88 62 62 88 62 62 88 38 62 88 38 62 88 38 76 88 38 76 106 38 76 106 50 76 106 50 76 106 50 76 106 50 76 106 50 90 124 62 90 124 62 90 124 62 90 124 62 90 124 62 90 124 38 90 142 38 34 142 38 34 142 38 34 142 38 34 142 50 34 142 50 34 88 50 34 88 50 48 88 50 48 88 62 48 88 62 48 88 62 48 106 62 48 106 62 48 106 38 62 106 38 62 106 38 62 106 38 62 124 38 62 124 50 62 124 50 62 124 50 76 124 50 76 124 50 76 142 62 76 142 62 76 142 62 76 142 62 76 142 62 90 142 38 90 88 38 90 88 38 90 88 38 90 88 38 90 88 50 90 88 50 34 106 50 34 106 50 34 106 50 34 106 62 34 106 62 34 106 62 34 124 62 48 124 62 48 124 38 48 124 38 48 124 38 48 124 38 48 142 38 48 142 50 62 142 50 62 142 50 62 142 50 62 142 50 62 88 62 62 88 62 62 88 62 76 88 62 76 88 62 76 88 38 76 106 38 76 106 38 76 106 38 76 106 38 90 106 50 90 106 50 90 124 50 90 124 50 90 124 50 90 124 62 90 124 62 34 124 62 34 142 62 34 142 62 34 142 38 34 142 38 34 142 38 34 142 38 48 88 38 48 88 50 48 88 50 48 88 50 48 88 50 48 88 50 48 106 62 62 106 62 62 106 62 62 106 62 62 106 62 62 106 38 62 124 38 62 124 38 76 124 38 76 124 38 76 124 50 76 124 50 76 142 50 76 142 50 76 142 50 90 142 62 90 142 62 90 142 62 90 88 62 90 88 62
90 142 38 90 142 38 90 142 38 90 142 38 90 142 38 90 142 50 90 88 50 34 88 50 34 88 50 34 88 50 34 88 62 34 88 62 34 106 62 34 106 62 48 106 62 48 106 38 48 106 38 48 106 38 48 124 38 48 124 38 48 124 50 62 124 50 62 124 50 62 124 50 62 142 50 62 142 62 62 142 62 62 142 62 76 142 62 76 142 62 76 88 38 76 88 38 76 88 38 76 88 38 76 88 38 90 88 50 90 106 50 90 106 50 90 106 50 90 106 50 90 106 62 90 106 62 34 124 62 34 124 62 34 124 62 34 124 38 34 124 38 34 124 38 34 142 38 48 142 38 48 142 50 48 142 50 48 142 50 48 142 50 48 88 50 48 88 62 62 88 62 62 88 62 62 88 62 62 88 62 62 106 38 62 106 38 62 106 38 76 106 38 76 106 38 76 106 50 76 124 50 76 124 50 76 124 50 76 124 50 90 124 62 90 124 62 90 142 62 90 142 62 90 142 62 90 142 38 90 142 38 34 142 38 34 88 38 34 88 38 34 88 50 34 88 50 34 88 50 34 88 50 48 106 50 48 106 62 48 106 62 48 106 62 48 106 62 48 106 62 48 124 38 62 124 38 62 124 38 62 124 38 62 124 38 62 124 50 62 142 50 62 142 50 76 142 50 76 142 50 76 142 62 76 142 62 76 88 62 76 88 62 76 88 62 90 88 38 90 88 38 90 88 38 90 106 38 90 106 38 90 106 50 90 106 50 34 106 50 34 106 50 34 124 50 34 124 62 34 124 62 34 124 62 34 124 62 48 124 62 48 142 38 48 142 38 48 142 38 48 142 38 48 142 38 48 142 50 62 88 50 62 88 50 62 88 50 62 88 50 62 88 62 62 88 62 62 106 62 76 106 62 76 106 62 76 106 38 76 106 38 76 106 38 76 124 38 76 124 38 90 124 50 90 124 50 90 124 50 90 124 50 90 142 50 90 142 62 90 142 62 34 142 62 34 142 62 34 142 62 34 88 38 34 88 38 34 88 38 34 88 38 48 88 38 48 88 50 48 106 50 48 106 50 48 106 50 48 106 50 48 106 62 62 106 62 62 124 62 62 124 62 62 124 62 62 124 38 62 124 38 62 124 38 76 142 38 76 142 38 76 142 50 76 142 50 76 142 50 76 142 50 76 88 50 90 88 62 90 88 62 90 88 62 90 88 62 90 88 62 90 106 38 90 106 38 34 106 38 34 106 38 34 106 38 34 106 50 34 124 50 34 124 50 34 124 50 48 124 50 48 124 62 48 124 62 48 142 62 48 142 62 48 142 62 48 142 38 62 142 38 62 142 38 62 88 38 62 88 38 62 88 50 62 88 50 62 88 50 76 88 50 76 106 50 76 106 62 76 106 62 76 106 62 76 106 62 76 106 62 90 124 38 90 124 38 90 124 38 90 124 38 90 124 38 90 124 50 90 142 50 34 142 50 34 142 50 34 142 50 34 142 62 34 142 62 34 88 62 34 88 62 48 88 62 48 88 38 48 88 38 48 88 38 48 106 38 48 106 38 48 106 50 62 106 50 62 106 50 62 106 50 62 124 50 62 124 62 62 124 62 62 124 62 76 124 62 76 124 62 76 142 38 76 142 38 76 142 38 76 142 38 76 142 38 90 142 50 90 88 50 90 88 50 90 88 50 90 88 50 90 88 62 90 88 62 34 106 62 34 106 62 34 106 62 34 106 38 34 106 38 34 106 38 34 124 38 48 124 38 48 124 50 48 124 50 48 124 50 48 124 50 48 142 50 48 142 62 62 142 62 62 142 62 62 142 62 62 142 62 62 88 38 62 88 38 62 88 38 76 88 38 76 88 38 76 88 50 76 106 50 76 106 50 76 106 50 76 106 50 90 106 62 90 106 62 90 124 62 90 124 62 90 124 62 90 124 38 90 124 38 34 124 38 34 142 38 34 142 38 34 142 50 34 142 50 34 142 50 34 142 50 48 88 50 48 88 62 48 88 62 48 88 62 48 88 62 48 88 62 48 106 38 62 106 38 62 106 38 62 106 38 62 106 38 62 106 50 62 124 50 62 124 50 76 124 50 76 124 50 76 124 62 76 124 62 76 142 62 76 142 62 76 142 62 90 142 38 90 142 38 90 142 38 90 88 38 90 88 38
34 142 38 34 142 38 34 142 38 34 142 38 34 142 38 34 142 50 34 88 50 48 88 50 48 88 50 48 88 50 48 88 62 48 88 62 48 106 62 48 106 62 62 106 62 62 106 38 62 106 38 62 106 38 62 124 38 62 124 38 62 124 50 76 124 50 76 124 50 76 124 50 76 142 50 76 142 62 76 142 62 76 142 62 90 142 62 90 142 62 90 88 38 90 88 38 90 88 38 90 88 38 90 88 38 34 88 50 34 106 50 34 106 50 34 106 50 34 106 50 34 106 62 34 106 62 48 124 62 48 124 62 48 124 62 48 124 38 48 124 38 48 124 38 48 142 38 62 142 38 62 142 50 62 142 50 62 142 50 62 142 50 62 88 50 62 88 62 76 88 62 76 88 62 76 88 62 76 88 62 76 106 38 76 106 38 76 106 38 90 106 38 90 106 38 90 106 50 90 124 50 90 124 50 90 124 50 90 124 50 34 124 62 34 124 62 34 142 62 34 142 62 34 142 62 34 142 38 34 142 38 48 142 38 48 88 38 48 88 38 48 88 50 48 88 50 48 88 50 48 88 50 62 106 50 62 106 62 62 106 62 62 106 62 62 106 62 62 106 62 62 124 38 76 124 38 76 124 38 76 124 38 76 124 38 76 124 50 76 142 50 76 142 50 90 142 50 90 142 50 90 142 62 90 142 62 90 88 62 90 88 62 90 88 62 34 88 38 34 88 38 34 88 38 34 106 38 34 106 38 34 106 50 34 106 50 48 106 50 48 106 50 48 124 50 48 124 62 48 124 62 48 124 62 48 124 62 62 124 62 62 142 38 62 142 38 62 142 38 62 142 38 62 142 38 62 142 50 76 88 50 76 88 50 76 88 50 76 88 50 76 88 62 76 88 62 76 106 62 90 106 62 90 106 62 90 106 38 90 106 38 90 106 38 90 124 38 90 124 38 34 124 50 34 124 50 34 124 50 34 124 50 34 142 50 34 142 62 34 142 62 48 142 62 48 142 62 48 142 62 48 88 38 48 88 38 48 88 38 48 88 38 62 88 38 62 88 50 62 106 50 62 106 50 62 106 50 62 106 50 62 106 62 76 106 62 76 124 62 76 124 62 76 124 62 76 124 38 76 124 38 76 124 38 90 142 38 90 142 38 90 142 50 90 142 50 90 142 50 90 142 50 90 88 50 34 88 62 34 88 62 34 88 62 34 88 62 34 88 62 34 106 38 34 106 38 48 106 38 48 106 38 48 106 38 48 106 50 48 124 50 48 124 50 48 124 50 62 124 50 62 124 62 62 124 62 62 142 62 62 142 62 62 142 62 62 142 38 76 142 38 76 142 38 76 88 38 76 88 38 76 88 50 76 88 50 76 88 50 90 88 50 90 106 50 90 106 62 90 106 62 90 106 62 90 106 62 90 106 62 34 124 38 34 124 38 34 124 38 34 124 38 34 124 38 34 124 50 34 142 50 48 142 50 48 142 50 48 142 50 48 142 62 48 142 62 48 88 62 48 88 62 62 88 62 62 88 38 62 88 38 62 88 38 62 106 38 62 106 38 62 106 50 76 106 50 76 106 50 76 106 50 76 124 50 76 124 62 76 124 62 76 124 62 90 124 62 90 124 62 90 142 38 90 142 38 90 142 38 90 142 38 90 142 38 34 142 50 34 88 50 34 88 50 34 88 50 34 88 50 34 88 62 34 88 62 48 106 62 48 106 62 48 106 62 48 106 38 48 106 38 48 106 38 48 124 38 62 124 38 62 124 50 62 124 50 62 124 50 62 124 50 62 142 50 62 142 62 76 142 62 76 142 62 76 142 62 76 142 62 76 88 38 76 88 38 76 88 38 90 88 38 90 88 38 90 88 50 90 106 50 90 106 50 90 106 50 90 106 50 34 106 62 34 106 62 34 124 62 34 124 62 34 124 62 34 124 38 34 124 38 48 124 38 48 142 38 48 142 38 48 142 50 48 142 50 48 142 50 48 142 50 62 88 50 62 88 62 62 88 62 62 88 62 62 88 62 62 88 62 62 106 38 76 106 38 76 106 38 76 106 38 76 106 38 76 106 50 76 124 50 76 124 50 90 124 50 90 124 50 90 124 62 90 124 62 90 142 62 90 142 62 90 142 62 34 142 38 34 142 38 34 142 38 34 88 38 34 88 38
34 142 38 34 142 38 34 142 38 34 142 38 34 142 38 34 142 50 34 88 50 48 88 50 48 88 50 48 88 50 48 88 62 48 88 62 48 106 62 48 106 62 62 106 62 62 106 38 62 106 38 62 106 38 62 124 38 62 124 38 62 124 50 76 124 50 76 124 50 76 124 50 76 142 50 76 142 62 76 142 62 76 142 62 90 142 62 90 142 62 90 88 38 90 88 38 90 88 38 90 88 38 90 88 38 34 88 50 34 106 50 34 106 50 34 106 50 34 106 50 34 106 62 34 106 62 48 124 62 48 124 62 48 124 62 48 124 38 48 124 38 48 124 38 48 142 38 62 142 38 62 142 50 62 142 50 62 142 50 62 142 50 62 88 50 62 88 62 76 88 62 76 88 62 76 88 62 76 88 62 76 106 38 76 106 38 76 106 38 90 106 38 90 106 38 90 106 50 90 124 50 90 124 50 90 124 50 90 124 50 34 124 62 34 124 62 34 142 62 34 142 62 34 142 62 34 142 38 34 142 38 48 142 38 48 88 38 48 88 38 48 88 50 48 88 50 48 88 50 48 88 50 62 106 50 62 106 62 62 106 62 62 106 62 62 106 62 62 106 62 62 124 38 76 124 38 76 124 38 76 124 38 76 124 38 76 124 50 76 142 50 76 142 50 90 142 50 90 142 50 90 142 62 90 142 62 90 88 62 90 88 62 90 88 62 34 88 38 34 88 38 34 88 38 34 106 38 34 106 38 34 106 50 34 106 50 48 106 50 48 106 50 48 124 50 48 124 62 48 124 62 48 124 62 48 124 62 62 124 62 62 142 38 62 142 38 62 142 38 62 142 38 62 142 38 62 142 50 76 88 50 76 88 50 76 88 50 76 88 50 76 88 62 76 88 62 76 106 62 90 106 62 90 106 62 90 106 38 90 106 38 90 106 38 90 124 38 90 124 38 34 124 50 34 124 50 34 124 50 34 124 50 34 142 50 34 142 62 34 142 62 48 142 62 48 142 62 48 142 62 48 88 38 48 88 38 48 88 38 48 88 38 62 88 38 62 88 50 62 106 50 62 106 50 62 106 50 62 106 50 62 106 62 76 106 62 76 124 62 76 124 62 76 124 62 76 124 38 76 124 38 76 124 38 90 142 38 90 142 38 90 142 50 90 142 50 90 142 50 90 142 50 90 88 50 34 88 62 34 88 62 34 88 62 34 88 62 34 88 62 34 106 38 34 106 38 48 106 38 48 106 38 48 106 38 48 106 50 48 124 50 48 124 50 48 124 50 62 124 50 62 124 62 62 124 62 62 142 62 62 142 62 62 142 62 62 142 38 76 142 38 76 142 38 76 88 38 76 88 38 76 88 50 76 88 50 76 88 50 90 88 50 90 106 50 90 106 62 90 106 62 90 106 62 90 106 62 90 106 62 34 124 38 34 124 38 34 124 38 34 124 38 34 124 38 34 124 50 34 142 50 48 142 50 48 142 50 48 142 50 48 142 62 48 142 62 48 88 62 48 88 62 62 88 62 62 88 38 62 88 38 62 88 38 62 106 38 62 106 38 62 106 50 76 106 50 76 106 50 76 106 50 76 124 50 76 124 62 76 124 62 76 124 62 90 124 62 90 124 62 90 142 38 90 142 38 90 142 38 90 142 38 90 142 38 34 142 50 34 88 50 34 88 50 34 88 50 34 88 50 34 88 62 34 88 62 48 106 62 48 106 62 48 106 62 48 106 38 48 106 38 48 106 38 48 124 38 62 124 38 62 124 50 62 124 50 62 124 50 62 124 50 62 142 50 62 142 62 76 142 62 76 142 62 76 142 62 76 142 62 76 88 38 76 88 38 76 88 38 90 88 38 90 88 38 90 88 50 90 106 50 90 106 50 90 106 50 90 106 50 34 106 62 34 106 62 34 124 62 34 124 62 34 124 62 34 124 38 34 124 38 48 124 38 48 142 38 48 142 38 48 142 50 48 142 50 48 142 50 48 142 50 62 88 50 62 88 62 62 88 62 62 88 62 62 88 62 62 88 62 62 106 38 76 106 38 76 106 38 76 106 38 76 106 38 76 106 50 76 124 50 76 124 50 90 124 50 90 124 50 90 124 62 90 124 62 90 142 62 90 142 62 90 142 62 34 142 38 34 142 38 34 142 38 34 88 38 34 88 38
34 142 38 34 142 38 34 142 38 34 142 38 34 142 38 34 142 50 34 88 50 48 88 50 48 88 50 48 88 50 48 88 62 48 88 62 48 106 62 48 106 62 62 106 62 62 106 38 62 106 38 62 106 38 62 124 38 62 124 38 62 124 50 76 124 50 76 124 50 76 124 50 76 142 50 76 142 62 76 142 62 76 142 62 90 142 62 90 142 62 90 88 38 90 88 38 90 88 38 90 88 38 90 88 38 34 88 50 34 106 50 34 106 50 34 106 50 34 106 50 34 106 62 34 106 62 48 124 62 48 124 62 48 124 62 48 124 38 48 124 38 48 124 38 48 142 38 62 142 38 62 142 50 62 142 50 62 142 50 62 142 50 62 88 50 62 88 62 76 88 62 76 88 62 76 88 62 76 88 62 76 106 38 76 106 38 76 106 38 90 106 38 90 106 38 90 106 50 90 124 50 90 124 50 90 124 50 90 124 50 34 124 62 34 124 62 34 142 62 34 142 62 34 142 62 34 142 38 34 142 38 48 142 38 48 88 38 48 88 38 48 88 50 48 88 50 48 88 50 48 88 50 62 106 50 62 106 62 62 106 62 62 106 62 62 106 62 62 106 62 62 124 38 76 124 38 76 124 38 76 124 38 76 124 38 76 124 50 76 142 50 76 142 50 90 142 50 90 142 50 90 142 62 90 142 62 90 88 62 90 88 62 90 88 62 34 88 38 34 88 38 34 88 38 34 106 38 34 106 38 34 106 50 34 106 50 48 106 50 48 106 50 48 124 50 48 124 62 48 124 62 48 124 62 48 124 62 62 124 62 62 142 38 62 142 38 62 142 38 62 142 38 62 142 38 62 142 50 76 88 50 76 88 50 76 88 50 76 88 50 76 88 62 76 88 62 76 106 62 90 106 62 90 106 62 90 106 38 90 106 38 90 106 38 90 124 38 90 124 38 34 124 50 34 124 50 34 124 50 34 124 50 34 142 50 34 142 62 34 142 62 48 142 62 48 142 62 48 142 62 48 88 38 48 88 38 48 88 38 48 88 38 62 88 38 62 88 50 62 106 50 62 106 50 62 106 50 62 106 50 62 106 62 76 106 62 76 124 62 76 124 62 76 124 62 76 124 38 76 124 38 76 124 38 90 142 38 90 142 38 90 142 50 90 142 50 90 142 50 90 142 50 90 88 50 34 88 62 34 88 62 34 88 62 34 88 62 34 88 62 34 106 38 34 106 38 48 106 38 48 106 38 48 106 38 48 106 50 48 124 50 48 124 50 48 124 50 62 124 50 62 124 62 62 124 62 62 142 62 62 142 62 62 142 62 62 142 38 76 142 38 76 142 38 76 88 38 76 88 38 76 88 50 76 88 50 76 88 50 90 88 50 90 106 50 90 106 62 90 106 62 90 106 62 90 106 62 90 106 62 34 124 38 34 124 38 34 124 38 34 124 38 34 124 38 34 124 50 34 142 50 48 142 50 48 142 50 48 142 50 48 142 62 48 142 62 48 88 62 48 88 62 62 88 62 62 88 38 62 88 38 62 88 38 62 106 38 62 106 38 62 106 50 76 106 50 76 106 50 76 106 50 76 124 50 76 124 62 76 124 62 76 124 62 90 124 62 90 124 62 90 142 38 90 142 38 90 142 38 90 142 38 90 142 38 34 142 50 34 88 50 34 88 50 34 88 50 34 88 50 34 88 62 34 88 62 48 106 62 48 106 62 48 106 62 48 106 38 48 106 38 48 106 38 48 124 38 62 124 38 62 124 50 62 124 50 62 124 50 62 124 50 62 142 50 62 142 62 76 142 62 76 142 62 76 142 62 76 142 62 76 88 38 76 88 38 76 88 38 90 88 38 90 88 38 90 88 50 90 106 50 90 106 50 90 106 50 90 106 50 34 106 62 34 106 62 34 124 62 34 124 62 34 124 62 34 124 38 34 124 38 48 124 38 48 142 38 48 142 38 48 142 50 48 142 50 48 142 50 48 142 50 62 88 50 62 88 62 62 88 62 62 88 62 62 88 62 62 88 62 62 106 38 76 106 38 76 106 38 76 106 38 76 106 38 76 106 50 76 124 50 76 124 50 90 124 50 90 124 50 90 124 62 90 124 62 90 142 62 90 142 62 90 142 62 34 142 38 34 142 38 34 142 38 34 88 38 34 88 38
34 88 38 34 88 38 34 88 38 34 88 38 34 88 38 34 88 50 34 106 50 48 106 50 48 106 50 48 106 50 48 106 62 48 106 62 48 124 62 48 124 62 62 124 62 62 124 38 62 124 38 62 124 38 62 142 38 62 142 38 62 142 50 76 142 50 76 142 50 76 142 50 76 88 50 76 88 62 76 88 62 76 88 62 90 88 62 90 88 62 90 106 38 90 106 38 90 106 38 90 106 38 90 106 38 34 106 50 34 124 50 34 124 50 34 124 50 34 124 50 34 124 62 34 124 62 48 142 62 48 142 62 48 142 62 48 142 38 48 142 38 48 142 38 48 88 38 62 88 38 62 88 50 62 88 50 62 88 50 62 88 50 62 106 50 62 106 62 76 106 62 76 106 62 76 106 62 76 106 62 76 124 38 76 124 38 76 124 38 90 124 38 90 124 38 90 124 50 90 142 50 90 142 50 90 142 50 90 142 50 34 142 62 34 142 62 34 88 62 34 88 62 34 88 62 34 88 38 34 88 38 48 88 38 48 106 38 48 106 38 48 106 50 48 106 50 48 106 50 48 106 50 62 124 50 62 124 62 62 124 62 62 124 62 62 124 62 62 124 62 62 142 38 76 142 38 76 142 38 76 142 38 76 142 38 76 142 50 76 88 50 76 88 50 90 88 50 90 88 50 90 88 62 90 88 62 90 106 62 90 106 62 90 106 62 34 106 38 34 106 38 34 106 38 34 124 38 34 124 38 34 124 50 34 124 50 48 124 50 48 124 50 48 142 50 48 142 62 48 142 62 48 142 62 48 142 62 62 142 62 62 88 38 62 88 38 62 88 38 62 88 38 62 88 38 62 88 50 76 106 50 76 106 50 76 106 50 76 106 50 76 106 62 76 106 62 76 124 62 90 124 62 90 124 62 90 124 38 90 124 38 90 124 38 90 142 38 90 142 38 34 142 50 34 142 50 34 142 50 34 142 50 34 88 50 34 88 62 34 88 62 48 88 62 48 88 62 48 88 62 48 106 38 48 106 38 48 106 38 48 106 38 62 106 38 62 106 50 62 124 50 62 124 50 62 124 50 62 124 50 62 124 62 76 124 62 76 142 62 76 142 62 76 142 62 76 142 38 76 142 38 76 142 38 90 88 38 90 88 38 90 88 50 90 88 50 90 88 50 90 88 50 90 106 50 34 106 62 34 106 62 34 106 62 34 106 62 34 106 62 34 124 38 34 124 38 48 124 38 48 124 38 48 124 38 48 124 50 48 142 50 48 142 50 48 142 50 62 142 50 62 142 62 62 142 62 62 88 62 62 88 62 62 88 62 62 88 38 76 88 38 76 88 38 76 106 38 76 106 38 76 106 50 76 106 50 76 106 50 90 106 50 90 124 50 90 124 62 90 124 62 90 124 62 90 124 62 90 124 62 34 142 38 34 142 38 34 142 38 34 142 38 34 142 38 34 142 50 34 88 50 48 88 50 48 88 50 48 88 50 48 88 62 48 88 62 48 106 62 48 106 62 62 106 62 62 106 38 62 106 38 62 106 38 62 124 38 62 124 38 62 124 50 76 124 50 76 124 50 76 124 50 76 142 50 76 142 62 76 142 62 76 142 62 90 142 62 90 142 62 90 88 38 90 88 38 90 88 38 90 88 38 90 88 38 34 88 50 34 106 50 34 106 50 34 106 50 34 106 50 34 106 62 34 106 62 48 124 62 48 124 62 48 124 62 48 124 38 48 124 38 48 124 38 48 142 38 62 142 38 62 142 50 62 142 50 62 142 50 62 142 50 62 88 50 62 88 62 76 88 62 76 88 62 76 88 62 76 88 62 76 106 38 76 106 38 76 106 38 90 106 38 90 106 38 90 106 50 90 124 50 90 124 50 90 124 50 90 124 50 34 124 62 34 124 62 34 142 62 34 142 62 34 142 62 34 142 38 34 142 38 48 142 38 48 88 38 48 88 38 48 88 50 48 88 50 48 88 50 48 88 50 62 106 50 62 106 62 62 106 62 62 106 62 62 106 62 62 106 62 62 124 38 76 124 38 76 124 38 76 124 38 76 124 38 76 124 50 76 142 50 76 142 50 90 142 50 90 142 50 90 142 62 90 142 62 90 88 62 90 88 62 90 88 62 34 88 38 34 88 38 34 88 38 34 106 38 34 106 38
34 88 38 34 88 38 34 88 38 34 88 38 34 88 38 34 88 50 34 106 50 48 106 50 48 106 50 48 106 50 48 106 62 48 106 62 48 124 62 48 124 62 62 124 62 62 124 38 62 124 38 62 124 38 62 142 38 62 142 38 62 142 50 76 142 50 76 142 50 76 142 50 76 88 50 76 88 62 76 88 62 76 88 62 90 88 62 90 88 62 90 106 38 90 106 38 90 106 38 90 106 38 90 106 38 34 106 50 34 124 50 34 124 50 34 124 50 34 124 50 34 124 62 34 124 62 48 142 62 48 142 62 48 142 62 48 142 38 48 142 38 48 142 38 48 88 38 62 88 38 62 88 50 62 88 50 62 88 50 62 88 50 62 106 50 62 106 62 76 106 62 76 106 62 76 106 62 76 106 62 76 124 38 76 124 38 76 124 38 90 124 38 90 124 38 90 124 50 90 142 50 90 142 50 90 142 50 90 142 50 34 142 62 34 142 62 34 88 62 34 88 62 34 88 62 34 88 38 34 88 38 48 88 38 48 106 38 48 106 38 48 106 50 48 106 50 48 106 50 48 106 50 62 124 50 62 124 62 62 124 62 62 124 62 62 124 62 62 124 62 62 142 38 76 142 38 76 142 38 76 142 38 76 142 38 76 142 50 76 88 50 76 88 50 90 88 50 90 88 50 90 88 62 90 88 62 90 106 62 90 106 62 90 106 62 34 106 38 34 106 38 34 106 38 34 124 38 34 124 38 34 124 50 34 124 50 48 124 50 48 124 50 48 142 50 48 142 62 48 142 62 48 142 62 48 142 62 62 142 62 62 88 38 62 88 38 62 88 38 62 88 38 62 88 38 62 88 50 76 106 50 76 106 50 76 106 50 76 106 50 76 106 62 76 106 62 76 124 62 90 124 62 90 124 62 90 124 38 90 124 38 90 124 38 90 142 38 90 142 38 34 142 50 34 142 50 34 142 50 34 142 50 34 88 50 34 88 62 34 88 62 48 88 62 48 88 62 48 88 62 48 106 38 48 106 38 48 106 38 48 106 38 62 106 38 62 106 50 62 124 50 62 124 50 62 124 50 62 124 50 62 124 62 76 124 62 76 142 62 76 142 62 76 142 62 76 142 38 76 142 38 76 142 38 90 88 38 90 88 38 90 88 50 90 88 50 90 88 50 90 88 50 90 106 50 34 106 62 34 106 62 34 106 62 34 106 62 34 106 62 34 124 38 34 124 38 48 124 38 48 124 38 48 124 38 48 124 50 48 142 50 48 142 50 48 142 50 62 142 50 62 142 62 62 142 62 62 88 62 62 88 62 62 88 62 62 88 38 76 88 38 76 88 38 76 106 38 76 106 38 76 106 50 76 106 50 76 106 50 90 106 50 90 124 50 90 124 62 90 124 62 90 124 62 90 124 62 90 124 62 34 142 38 34 142 38 34 142 38 34 142 38 34 142 38 34 142 50 34 88 50 48 88 50 48 88 50 48 88 50 48 88 62 48 88 62 48 106 62 48 106 62 62 106 62 62 106 38 62 106 38 62 106 38 62 124 38 62 124 38 62 124 50 76 124 50 76 124 50 76 124 50 76 142 50 76 142 62 76 142 62 76 142 62 90 142 62 90 142 62 90 88 38 90 88 38 90 88 38 90 88 38 90 88 38 34 88 50 34 106 50 34 106 50 34 106 50 34 106 50 34 106 62 34 106 62 48 124 62 48 124 62 48 124 62 48 124 38 48 124 38 48 124 38 48 142 38 62 142 38 62 142 50 62 142 50 62 142 50 62 142 50 62 88 50 62 88 62 76 88 62 76 88 62 76 88 62 76 88 62 76 106 38 76 106 38 76 106 38 90 106 38 90 106 38 90 106 50 90 124 50 90 124 50 90 124 50 90 124 50 34 124 62 34 124 62 34 142 62 34 142 62 34 142 62 34 142 38 34 142 38 48 142 38 48 88 38 48 88 38 48 88 50 48 88 50 48 88 50 48 88 50 62 106 50 62 106 62 62 106 62 62 106 62 62 106 62 62 106 62 62 124 38 76 124 38 76 124 38 76 124 38 76 124 38 76 124 50 76 142 50 76 142 50 90 142 50 90 142 50 90 142 62 90 142 62 90 88 62 90 88 62 90 88 62 34 88 38 34 88 38 34 88 38 34 106 38 34 106 38
48 88 38 48 88 38 48 88 38 48 88 38 48 88 38 48 88 50 48 106 50 62 106 50 62 106 50 62 106 50 62 106 62 62 106 62 62 124 62 62 124 62 76 124 62 76 124 38 76 124 38 76 124 38 76 142 38 76 142 38 76 142 50 90 142 50 90 142 50 90 142 50 90 88 50 90 88 62 90 88 62 90 88 62 34 88 62 34 88 62 34 106 38 34 106 38 34 106 38 34 106 38 34 106 38 48 106 50 48 124 50 48 124 50 48 124 50 48 124 50 48 124 62 48 124 62 62 142 62 62 142 62 62 142 62 62 142 38 62 142 38 62 142 38 62 88 38 76 88 38 76 88 50 76 88 50 76 88 50 76 88 50 76 106 50 76 106 62 90 106 62 90 106 62 90 106 62 90 106 62 90 124 38 90 124 38 90 124 38 34 124 38 34 124 38 34 124 50 34 142 50 34 142 50 34 142 50 34 142 50 48 142 62 48 142 62 48 88 62 48 88 62 48 88 62 48 88 38 48 88 38 62 88 38 62 106 38 62 106 38 62 106 50 62 106 50 62 106 50 62 106 50 76 124 50 76 124 62 76 124 62 76 124 62 76 124 62 76 124 62 76 142 38 90 142 38 90 142 38 90 142 38 90 142 38 90 142 50 90 88 50 90 88 50 34 88 50 34 88 50 34 88 62 34 88 62 34 106 62 34 106 62 34 106 62 48 106 38 48 106 38 48 106 38 48 124 38 48 124 38 48 124 50 48 124 50 62 124 50 62 124 50 62 142 50 62 142 62 62 142 62 62 142 62 62 142 62 76 142 62 76 88 38 76 88 38 76 88 38 76 88 38 76 88 38 76 88 50 90 106 50 90 106 50 90 106 50 90 106 50 90 106 62 90 106 62 90 124 62 34 124 62 34 124 62 34 124 38 34 124 38 34 124 38 34 142 38 34 142 38 48 142 50 48 142 50 48 142 50 48 142 50 48 88 50 48 88 62 48 88 62 62 88 62 62 88 62 62 88 62 62 106 38 62 106 38 62 106 38 62 106 38 76 106 38 76 106 50 76 124 50 76 124 50 76 124 50 76 124 50 76 124 62 90 124 62 90 142 62 90 142 62 90 142 62 90 142 38 90 142 38 90 142 38 34 88 38 34 88 38 34 88 50 34 88 50 34 88 50 34 88 50 34 106 50 48 106 62 48 106 62 48 106 62 48 106 62 48 106 62 48 124 38 48 124 38 62 124 38 62 124 38 62 124 38 62 124 50 62 142 50 62 142 50 62 142 50 76 142 50 76 142 62 76 142 62 76 88 62 76 88 62 76 88 62 76 88 38 90 88 38 90 88 38 90 106 38 90 106 38 90 106 50 90 106 50 90 106 50 34 106 50 34 124 50 34 124 62 34 124 62 34 124 62 34 124 62 34 124 62 48 142 38 48 142 38 48 142 38 48 142 38 48 142 38 48 142 50 48 88 50 62 88 50 62 88 50 62 88 50 62 88 62 62 88 62 62 106 62 62 106 62 76 106 62 76 106 38 76 106 38 76 106 38 76 124 38 76 124 38 76 124 50 90 124 50 90 124 50 90 124 50 90 142 50 90 142 62 90 142 62 90 142 62 34 142 62 34 142 62 34 88 38 34 88 38 34 88 38 34 88 38 34 88 38 48 88 50 48 106 50 48 106 50 48 106 50 48 106 50 48 106 62 48 106 62 62 124 62 62 124 62 62 124 62 62 124 38 62 124 38 62 124 38 62 142 38 76 142 38 76 142 50 76 142 50 76 142 50 76 142 50 76 88 50 76 88 62 90 88 62 90 88 62 90 88 62 90 88 62 90 106 38 90 106 38 90 106 38 34 106 38 34 106 38 34 106 50 34 124 50 34 124 50 34 124 50 34 124 50 48 124 62 48 124 62 48 142 62 48 142 62 48 142 62 48 142 38 48 142 38 62 142 38 62 88 38 62 88 38 62 88 50 62 88 50 62 88 50 62 88 50 76 106 50 76 106 62 76 106 62 76 106 62 76 106 62 76 106 62 76 124 38 90 124 38 90 124 38 90 124 38 90 124 38 90 124 50 90 142 50 90 142 50 34 142 50 34 142 50 34 142 62 34 142 62 34 88 62 34 88 62 34 88 62 48 88 38 48 88 38 48 88 38 48 106 38 48 106 38
48 88 38 48 88 38 48 88 38 48 88 38 48 88 38 48 88 50 48 106 50 62 106 50 62 106 50 62 106 50 62 106 62 62 106 62 62 124 62 62 124 62 76 124 62 76 124 38 76 124 38 76 124 38 76 142 38 76 142 38 76 142 50 90 142 50 90 142 50 90 142 50 90 88 50 90 88 62 90 88 62 90 88 62 34 88 62 34 88 62 34 106 38 34 106 38 34 106 38 34 106 38 34 106 38 48 106 50 48 124 50 48 124 50 48 124 50 48 124 50 48 124 62 48 124 62 62 142 62 62 142 62 62 142 62 62 142 38 62 142 38 62 142 38 62 88 38 76 88 38 76 88 50 76 88 50 76 88 50 76 88 50 76 106 50 76 106 62 90 106 62 90 106 62 90 106 62 90 106 62 90 124 38 90 124 38 90 124 38 34 124 38 34 124 38 34 124 50 34 142 50 34 142 50 34 142 50 34 142 50 48 142 62 48 142 62 48 88 62 48 88 62 48 88 62 48 88 38 48 88 38 62 88 38 62 106 38 62 106 38 62 106 50 62 106 50 62 106 50 62 106 50 76 124 50 76 124 62 76 124 62 76 124 62 76 124 62 76 124 62 76 142 38 90 142 38 90 142 38 90 142 38 90 142 38 90 142 50 90 88 50 90 88 50 34 88 50 34 88 50 34 88 62 34 88 62 34 106 62 34 106 62 34 106 62 48 106 38 48 106 38 48 106 38 48 124 38 48 124 38 48 124 50 48 124 50 62 124 50 62 124 50 62 142 50 62 142 62 62 142 62 62 142 62 62 142 62 76 142 62 76 88 38 76 88 38 76 88 38 76 88 38 76 88 38 76 88 50 90 106 50 90 106 50 90 106 50 90 106 50 90 106 62 90 106 62 90 124 62 34 124 62 34 124 62 34 124 38 34 124 38 34 124 38 34 142 38 34 142 38 48 142 50 48 142 50 48 142 50 48 142 50 48 88 50 48 88 62 48 88 62 62 88 62 62 88 62 62 88 62 62 106 38 62 106 38 62 106 38 62 106 38 76 106 38 76 106 50 76 124 50 76 124 50 76 124 50 76 124 50 76 124 62 90 124 62 90 142 62 90 142 62 90 142 62 90 142 38 90 142 38 90 142 38 34 88 38 34 88 38 34 88 50 34 88 50 34 88 50 34 88 50 34 106 50 48 106 62 48 106 62 48 106 62 48 106 62 48 106 62 48 124 38 48 124 38 62 124 38 62 124 38 62 124 38 62 124 50 62 142 50 62 142 50 62 142 50 76 142 50 76 142 62 76 142 62 76 88 62 76 88 62 76 88 62 76 88 38 90 88 38 90 88 38 90 106 38 90 106 38 90 106 50 90 106 50 90 106 50 34 106 50 34 124 50 34 124 62 34 124 62 34 124 62 34 124 62 34 124 62 48 142 38 48 142 38 48 142 38 48 142 38 48 142 38 48 142 50 48 88 50 62 88 50 62 88 50 62 88 50 62 88 62 62 88 62 62 106 62 62 106 62 76 106 62 76 106 38 76 106 38 76 106 38 76 124 38 76 124 38 76 124 50 90 124 50 90 124 50 90 124 50 90 142 50 90 142 62 90 142 62 90 142 62 34 142 62 34 142 62 34 88 38 34 88 38 34 88 38 34 88 38 34 88 38 48 88 50 48 106 50 48 106 50 48 106 50 48 106 50 48 106 62 48 106 62 62 124 62 62 124 62 62 124 62 62 124 38 62 124 38 62 124 38 62 142 38 76 142 38 76 142 50 76 142 50 76 142 50 76 142 50 76 88 50 76 88 62 90 88 62 90 88 62 90 88 62 90 88 62 90 106 38 90 106 38 90 106 38 34 106 38 34 106 38 34 106 50 34 124 50 34 124 50 34 124 50 34 124 50 48 124 62 48 124 62 48 142 62 48 142 62 48 142 62 48 142 38 48 142 38 62 142 38 62 88 38 62 88 38 62 88 50 62 88 50 62 88 50 62 88 50 76 106 50 76 106 62 76 106 62 76 106 62 76 106 62 76 106 62 76 124 38 90 124 38 90 124 38 90 124 38 90 124 38 90 124 50 90 142 50 90 142 50 34 142 50 34 142 50 34 142 62 34 142 62 34 88 62 34 88 62 34 88 62 48 88 38 48 88 38 48 88 38 48 106 38 48 106 38
48 88 50 48 88 50 48 88 50 48 88 50 48 88 50 48 88 62 48 106 62 62 106 62 62 106 62 62 106 62 62 106 38 62 106 38 62 124 38 62 124 38 76 124 38 76 124 50 76 124 50 76 124 50 76 142 50 76 142 50 76 142 62 90 142 62 90 142 62 90 142 62 90 88 62 90 88 38 90 88 38 90 88 38 34 88 38 34 88 38 34 106 50 34 106 50 34 106 50 34 106 50 34 106 50 48 106 62 48 124 62 48 124 62 48 124 62 48 124 62 48 124 38 48 124 38 62 142 38 62 142 38 62 142 38 62 142 50 62 142 50 62 142 50 62 88 50 76 88 50 76 88 62 76 88 62 76 88 62 76 88 62 76 106 62 76 106 38 90 106 38 90 106 38 90 106 38 90 106 38 90 124 50 90 124 50 90 124 50 34 124 50 34 124 50 34 124 62 34 142 62 34 142 62 34 142 62 34 142 62 48 142 38 48 142 38 48 88 38 48 88 38 48 88 38 48 88 50 48 88 50 62 88 50 62 106 50 62 106 50 62 106 62 62 106 62 62 106 62 62 106 62 76 124 62 76 124 38 76 124 38 76 124 38 76 124 38 76 124 38 76 142 50 90 142 50 90 142 50 90 142 50 90 142 50 90 142 62 90 88 62 90 88 62 34 88 62 34 88 62 34 88 38 34 88 38 34 106 38 34 106 38 34 106 38 48 106 50 48 106 50 48 106 50 48 124 50 48 124 50 48 124 62 48 124 62 62 124 62 62 124 62 62 142 62 62 142 38 62 142 38 62 142 38 62 142 38 76 142 38 76 88 50 76 88 50 76 88 50 76 88 50 76 88 50 76 88 62 90 106 62 90 106 62 90 106 62 90 106 62 90 106 38 90 106 38 90 124 38 34 124 38 34 124 38 34 124 50 34 124 50 34 124 50 34 142 50 34 142 50 48 142 62 48 142 62 48 142 62 48 142 62 48 88 62 48 88 38 48 88 38 62 88 38 62 88 38 62 88 38 62 106 50 62 106 50 62 106 50 62 106 50 76 106 50 76 106 62 76 124 62 76 124 62 76 124 62 76 124 62 76 124 38 90 124 38 90 142 38 90 142 38 90 142 38 90 142 50 90 142 50 90 142 50 34 88 50 34 88 50 34 88 62 34 88 62 34 88 62 34 88 62 34 106 62 48 106 38 48 106 38 48 106 38 48 106 38 48 106 38 48 124 50 48 124 50 62 124 50 62 124 50 62 124 50 62 124 62 62 142 62 62 142 62 62 142 62 76 142 62 76 142 38 76 142 38 76 88 38 76 88 38 76 88 38 76 88 50 90 88 50 90 88 50 90 106 50 90 106 50 90 106 62 90 106 62 90 106 62 34 106 62 34 124 62 34 124 38 34 124 38 34 124 38 34 124 38 34 124 38 48 142 50 48 142 50 48 142 50 48 142 50 48 142 50 48 142 62 48 88 62 62 88 62 62 88 62 62 88 62 62 88 38 62 88 38 62 106 38 62 106 38 76 106 38 76 106 50 76 106 50 76 106 50 76 124 50 76 124 50 76 124 62 90 124 62 90 124 62 90 124 62 90 142 62 90 142 38 90 142 38 90 142 38 34 142 38 34 142 38 34 88 50 34 88 50 34 88 50 34 88 50 34 88 50 48 88 62 48 106 62 48 106 62 48 106 62 48 106 62 48 106 38 48 106 38 62 124 38 62 124 38 62 124 38 62 124 50 62 124 50 62 124 50 62 142 50 76 142 50 76 142 62 76 142 62 76 142 62 76 142 62 76 88 62 76 88 38 90 88 38 90 88 38 90 88 38 90 88 38 90 106 50 90 106 50 90 106 50 34 106 50 34 106 50 34 106 62 34 124 62 34 124 62 34 124 62 34 124 62 48 124 38 48 124 38 48 142 38 48 142 38 48 142 38 48 142 50 48 142 50 62 142 50 62 88 50 62 88 50 62 88 62 62 88 62 62 88 62 62 88 62 76 106 62 76 106 38 76 106 38 76 106 38 76 106 38 76 106 38 76 124 50 90 124 50 90 124 50 90 124 50 90 124 50 90 124 62 90 142 62 90 142 62 34 142 62 34 142 62 34 142 38 34 142 38 34 88 38 34 88 38 34 88 38 48 88 50 48 88 50 48 88 50 48 106 50 48 106 50
48 88 50 48 88 50 48 88 50 48 88 50 48 88 50 48 88 62 48 106 62 62 106 62 62 106 62 62 106 62 62 106 38 62 106 38 62 124 38 62 124 38 76 124 38 76 124 50 76 124 50 76 124 50 76 142 50 76 142 50 76 142 62 90 142 62 90 142 62 90 142 62 90 88 62 90 88 38 90 88 38 90 88 38 34 88 38 34 88 38 34 106 50 34 106 50 34 106 50 34 106 50 34 106 50 48 106 62 48 124 62 48 124 62 48 124 62 48 124 62 48 124 38 48 124 38 62 142 38 62 142 38 62 142 38 62 142 50 62 142 50 62 142 50 62 88 50 76 88 50 76 88 62 76 88 62 76 88 62 76 88 62 76 106 62 76 106 38 90 106 38 90 106 38 90 106 38 90 106 38 90 124 50 90 124 50 90 124 50 34 124 50 34 124 50 34 124 62 34 142 62 34 142 62 34 142 62 34 142 62 48 142 38 48 142 38 48 88 38 48 88 38 48 88 38 48 88 50 48 88 50 62 88 50 62 106 50 62 106 50 62 106 62 62 106 62 62 106 62 62 106 62 76 124 62 76 124 38 76 124 38 76 124 38 76 124 38 76 124 38 76 142 50 90 142 50 90 142 50 90 142 50 90 142 50 90 142 62 90 88 62 90 88 62 34 88 62 34 88 62 34 88 38 34 88 38 34 106 38 34 106 38 34 106 38 48 106 50 48 106 50 48 106 50 48 124 50 48 124 50 48 124 62 48 124 62 62 124 62 62 124 62 62 142 62 62 142 38 62 142 38 62 142 38 62 142 38 76 142 38 76 88 50 76 88 50 76 88 50 76 88 50 76 88 50 76 88 62 90 106 62 90 106 62 90 106 62 90 106 62 90 106 38 90 106 38 90 124 38 34 124 38 34 124 38 34 124 50 34 124 50 34 124 50 34 142 50 34 142 50 48 142 62 48 142 62 48 142 62 48 142 62 48 88 62 48 88 38 48 88 38 62 88 38 62 88 38 62 88 38 62 106 50 62 106 50 62 106 50 62 106 50 76 106 50 76 106 62 76 124 62 76 124 62 76 124 62 76 124 62 76 124 38 90 124 38 90 142 38 90 142 38 90 142 38 90 142 50 90 142 50 90 142 50 34 88 50 34 88 50 34 88 62 34 88 62 34 88 62 34 88 62 34 106 62 48 106 38 48 106 38 48 106 38 48 106 38 48 106 38 48 124 50 48 124 50 62 124 50 62 124 50 62 124 50 62 124 62 62 142 62 62 142 62 62 142 62 76 142 62 76 142 38 76 142 38 76 88 38 76 88 38 76 88 38 76 88 50 90 88 50 90 88 50 90 106 50 90 106 50 90 106 62 90 106 62 90 106 62 34 106 62 34 124 62 34 124 38 34 124 38 34 124 38 34 124 38 34 124 38 48 142 50 48 142 50 48 142 50 48 142 50 48 142 50 48 142 62 48 88 62 62 88 62 62 88 62 62 88 62 62 88 38 62 88 38 62 106 38 62 106 38 76 106 38 76 106 50 76 106 50 76 106 50 76 124 50 76 124 50 76 124 62 90 124 62 90 124 62 90 124 62 90 142 62 90 142 38 90 142 38 90 142 38 34 142 38 34 142 38 34 88 50 34 88 50 34 88 50 34 88 50 34 88 50 48 88 62 48 106 62 48 106 62 48 106 62 48 106 62 48 106 38 48 106 38 62 124 38 62 124 38 62 124 38 62 124 50 62 124 50 62 124 50 62 142 50 76 142 50 76 142 62 76 142 62 76 142 62 76 142 62 76 88 62 76 88 38 90 88 38 90 88 38 90 88 38 90 88 38 90 106 50 90 106 50 90 106 50 34 106 50 34 106 50 34 106 62 34 124 62 34 124 62 34 124 62 34 124 62 48 124 38 48 124 38 48 142 38 48 142 38 48 142 38 48 142 50 48 142 50 62 142 50 62 88 50 62 88 50 62 88 62 62 88 62 62 88 62 62 88 62 76 106 62 76 106 38 76 106 38 76 106 38 76 106 38 76 106 38 76 124 50 90 124 50 90 124 50 90 124 50 90 124 50 90 124 62 90 142 62 90 142 62 34 142 62 34 142 62 34 142 38 34 142 38 34 88 38 34 88 38 34 88 38 48 88 50 48 88 50 48 88 50 48 106 50 48 106 50
48 88 50 48 88 50 48 88 50 48 88 50 48 88 50 48 88 62 48 106 62 62 106 62 62 106 62 62 106 62 62 106 38 62 106 38 62 124 38 62 124 38 76 124 38 76 124 50 76 124 50 76 124 50 76 142 50 76 142 50 76 142 62 90 142 62 90 142 62 90 142 62 90 88 62 90 88 38 90 88 38 90 88 38 34 88 38 34 88 38 34 106 50 34 106 50 34 106 50 34 106 50 34 106 50 48 106 62 48 124 62 48 124 62 48 124 62 48 124 62 48 124 38 48 124 38 62 142 38 62 142 38 62 142 38 62 142 50 62 142 50 62 142 50 62 88 50 76 88 50 76 88 62 76 88 62 76 88 62 76 88 62 76 106 62 76 106 38 90 106 38 90 106 38 90 106 38 90 106 38 90 124 50 90 124 50 90 124 50 34 124 50 34 124 50 34 124 62 34 142 62 34 142 62 34 142 62 34 142 62 48 142 38 48 142 38 48 88 38 48 88 38 48 88 38 48 88 50 48 88 50 62 88 50 62 106 50 62 106 50 62 106 62 62 106 62 62 106 62 62 106 62 76 124 62 76 124 38 76 124 38 76 124 38 76 124 38 76 124 38 76 142 50 90 142 50 90 142 50 90 142 50 90 142 50 90 142 62 90 88 62 90 88 62 34 88 62 34 88 62 34 88 38 34 88 38 34 106 38 34 106 38 34 106 38 48 106 50 48 106 50 48 106 50 48 124 50 48 124 50 48 124 62 48 124 62 62 124 62 62 124 62 62 142 62 62 142 38 62 142 38 62 142 38 62 142 38 76 142 38 76 88 50 76 88 50 76 88 50 76 88 50 76 88 50 76 88 62 90 106 62 90 106 62 90 106 62 90 106 62 90 106 38 90 106 38 90 124 38 34 124 38 34 124 38 34 124 50 34 124 50 34 124 50 34 142 50 34 142 50 48 142 62 48 142 62 48 142 62 48 142 62 48 88 62 48 88 38 48 88 38 62 88 38 62 88 38 62 88 38 62 106 50 62 106 50 62 106 50 62 106 50 76 106 50 76 106 62 76 124 62 76 124 62 76 124 62 76 124 62 76 124 38 90 124 38 90 142 38 90 142 38 90 142 38 90 142 50 90 142 50 90 142 50 34 88 50 34 88 50 34 88 62 34 88 62 34 88 62 34 88 62 34 106 62 48 106 38 48 106 38 48 106 38 48 106 38 48 106 38 48 124 50 48 124 50 62 124 50 62 124 50 62 124 50 62 124 62 62 142 62 62 142 62 62 142 62 76 142 62 76 142 38 76 142 38 76 88 38 76 88 38 76 88 38 76 88 50 90 88 50 90 88 50 90 106 50 90 106 50 90 106 62 90 106 62 90 106 62 34 106 62 34 124 62 34 124 38 34 124 38 34 124 38 34 124 38 34 124 38 48 142 50 48 142 50 48 142 50 48 142 50 48 142 50 48 142 62 48 88 62 62 88 62 62 88 62 62 88 62 62 88 38 62 88 38 62 106 38 62 106 38 76 106 38 76 106 50 76 106 50 76 106 50 76 124 50 76 124 50 76 124 62 90 124 62 90 124 62 90 124 62 90 142 62 90 142 38 90 142 38 90 142 38 34 142 38 34 142 38 34 88 50 34 88 50 34 88 50 34 88 50 34 88 50 48 88 62 48 106 62 48 106 62 48 106 62 48 106 62 48 106 38 48 106 38 62 124 38 62 124 38 62 124 38 62 124 50 62 124 50 62 124 50 62 142 50 76 142 50 76 142 62 76 142 62 76 142 62 76 142 62 76 88 62 76 88 38 90 88 38 90 88 38 90 88 38 90 88 38 90 106 50 90 106 50 90 106 50 34 106 50 34 106 50 34 106 62 34 124 62 34 124 62 34 124 62 34 124 62 48 124 38 48 124 38 48 142 38 48 142 38 48 142 38 48 142 50 48 142 50 62 142 50 62 88 50 62 88 50 62 88 62 62 88 62 62 88 62 62 88 62 76 106 62 76 106 38 76 106 38 76 106 38 76 106 38 76 106 38 76 124 50 90 124 50 90 124 50 90 124 50 90 124 50 90 124 62 90 142 62 90 142 62 34 142 62 34 142 62 34 142 38 34 142 38 34 88 38 34 88 38 34 88 38 48 88 50 48 88 50 48 88 50 48 106 50 48 106 50
62 106 50 62 106 50 62 106 50 62 106 50 62 106 50 62 106 62 62 124 62 76 124 62 76 124 62 76 124 62 76 124 38 76 124 38 76 142 38 76 142 38 90 142 38 90 142 50 90 142 50 90 142 50 90 88 50 90 88 50 90 88 62 34 88 62 34 88 62 34 88 62 34 106 62 34 106 38 34 106 38 34 106 38 48 106 38 48 106 38 48 124 50 48 124 50 48 124 50 48 124 50 48 124 50 62 124 62 62 142 62 62 142 62 62 142 62 62 142 62 62 142 38 62 142 38 76 88 38 76 88 38 76 88 38 76 88 50 76 88 50 76 88 50 76 106 50 90 106 50 90 106 62 90 106 62 90 106 62 90 106 62 90 124 62 90 124 38 34 124 38 34 124 38 34 124 38 34 124 38 34 142 50 34 142 50 34 142 50 48 142 50 48 142 50 48 142 62 48 88 62 48 88 62 48 88 62 48 88 62 62 88 38 62 88 38 62 106 38 62 106 38 62 106 38 62 106 50 62 106 50 76 106 50 76 124 50 76 124 50 76 124 62 76 124 62 76 124 62 76 124 62 90 142 62 90 142 38 90 142 38 90 142 38 90 142 38 90 142 38 90 88 50 34 88 50 34 88 50 34 88 50 34 88 50 34 88 62 34 106 62 34 106 62 48 106 62 48 106 62 48 106 38 48 106 38 48 124 38 48 124 38 48 124 38 62 124 50 62 124 50 62 124 50 62 142 50 62 142 50 62 142 62 62 142 62 76 142 62 76 142 62 76 88 62 76 88 38 76 88 38 76 88 38 76 88 38 90 88 38 90 106 50 90 106 50 90 106 50 90 106 50 90 106 50 90 106 62 34 124 62 34 124 62 34 124 62 34 124 62 34 124 38 34 124 38 34 142 38 48 142 38 48 142 38 48 142 50 48 142 50 48 142 50 48 88 50 48 88 50 62 88 62 62 88 62 62 88 62 62 88 62 62 106 62 62 106 38 62 106 38 76 106 38 76 106 38 76 106 38 76 124 50 76 124 50 76 124 50 76 124 50 90 124 50 90 124 62 90 142 62 90 142 62 90 142 62 90 142 62 90 142 38 34 142 38 34 88 38 34 88 38 34 88 38 34 88 50 34 88 50 34 88 50 48 106 50 48 106 50 48 106 62 48 106 62 48 106 62 48 106 62 48 124 62 62 124 38 62 124 38 62 124 38 62 124 38 62 124 38 62 142 50 62 142 50 76 142 50 76 142 50 76 142 50 76 142 62 76 88 62 76 88 62 76 88 62 90 88 62 90 88 38 90 88 38 90 106 38 90 106 38 90 106 38 90 106 50 34 106 50 34 106 50 34 124 50 34 124 50 34 124 62 34 124 62 34 124 62 48 124 62 48 142 62 48 142 38 48 142 38 48 142 38 48 142 38 48 142 38 62 88 50 62 88 50 62 88 50 62 88 50 62 88 50 62 88 62 62 106 62 76 106 62 76 106 62 76 106 62 76 106 38 76 106 38 76 124 38 76 124 38 90 124 38 90 124 50 90 124 50 90 124 50 90 142 50 90 142 50 90 142 62 34 142 62 34 142 62 34 142 62 34 88 62 34 88 38 34 88 38 34 88 38 48 88 38 48 88 38 48 106 50 48 106 50 48 106 50 48 106 50 48 106 50 62 106 62 62 124 62 62 124 62 62 124 62 62 124 62 62 124 38 62 124 38 76 142 38 76 142 38 76 142 38 76 142 50 76 142 50 76 142 50 76 88 50 90 88 50 90 88 62 90 88 62 90 88 62 90 88 62 90 106 62 90 106 38 34 106 38 34 106 38 34 106 38 34 106 38 34 124 50 34 124 50 34 124 50 48 124 50 48 124 50 48 124 62 48 142 62 48 142 62 48 142 62 48 142 62 62 142 38 62 142 38 62 88 38 62 88 38 62 88 38 62 88 50 62 88 50 76 88 50 76 106 50 76 106 50 76 106 62 76 106 62 76 106 62 76 106 62 90 124 62 90 124 38 90 124 38 90 124 38 90 124 38 90 124 38 90 142 50 34 142 50 34 142 50 34 142 50 34 142 50 34 142 62 34 88 62 34 88 62 48 88 62 48 88 62 48 88 38 48 88 38 48 106 38 48 106 38 48 106 38 62 106 50 62 106 50 62 106 50 62 124 50 62 124 50
62 106 50 62 106 50 62 106 50 62 106 50 62 106 50 62 106 62 62 124 62 76 124 62 76 124 62 76 124 62 76 124 38 76 124 38 76 142 38 76 142 38 90 142 38 90 142 50 90 142 50 90 142 50 90 88 50 90 88 50 90 88 62 34 88 62 34 88 62 34 88 62 34 106 62 34 106 38 34 106 38 34 106 38 48 106 38 48 106 38 48 124 50 48 124 50 48 124 50 48 124 50 48 124 50 62 124 62 62 142 62 62 142 62 62 142 62 62 142 62 62 142 38 62 142 38 76 88 38 76 88 38 76 88 38 76 88 50 76 88 50 76 88 50 76 106 50 90 106 50 90 106 62 90 106 62 90 106 62 90 106 62 90 124 62 90 124 38 34 124 38 34 124 38 34 124 38 34 124 38 34 142 50 34 142 50 34 142 50 48 142 50 48 142 50 48 142 62 48 88 62 48 88 62 48 88 62 48 88 62 62 88 38 62 88 38 62 106 38 62 106 38 62 106 38 62 106 50 62 106 50 76 106 50 76 124 50 76 124 50 76 124 62 76 124 62 76 124 62 76 124 62 90 142 62 90 142 38 90 142 38 90 142 38 90 142 38 90 142 38 90 88 50 34 88 50 34 88 50 34 88 50 34 88 50 34 88 62 34 106 62 34 106 62 48 106 62 48 106 62 48 106 38 48 106 38 48 124 38 48 124 38 48 124 38 62 124 50 62 124 50 62 124 50 62 142 50 62 142 50 62 142 62 62 142 62 76 142 62 76 142 62 76 88 62 76 88 38 76 88 38 76 88 38 76 88 38 90 88 38 90 106 50 90 106 50 90 106 50 90 106 50 90 106 50 90 106 62 34 124 62 34 124 62 34 124 62 34 124 62 34 124 38 34 124 38 34 142 38 48 142 38 48 142 38 48 142 50 48 142 50 48 142 50 48 88 50 48 88 50 62 88 62 62 88 62 62 88 62 62 88 62 62 106 62 62 106 38 62 106 38 76 106 38 76 106 38 76 106 38 76 124 50 76 124 50 76 124 50 76 124 50 90 124 50 90 124 62 90 142 62 90 142 62 90 142 62 90 142 62 90 142 38 34 142 38 34 88 38 34 88 38 34 88 38 34 88 50 34 88 50 34 88 50 48 106 50 48 106 50 48 106 62 48 106 62 48 106 62 48 106 62 48 124 62 62 124 38 62 124 38 62 124 38 62 124 38 62 124 38 62 142 50 62 142 50 76 142 50 76 142 50 76 142 50 76 142 62 76 88 62 76 88 62 76 88 62 90 88 62 90 88 38 90 88 38 90 106 38 90 106 38 90 106 38 90 106 50 34 106 50 34 106 50 34 124 50 34 124 50 34 124 62 34 124 62 34 124 62 48 124 62 48 142 62 48 142 38 48 142 38 48 142 38 48 142 38 48 142 38 62 88 50 62 88 50 62 88 50 62 88 50 62 88 50 62 88 62 62 106 62 76 106 62 76 106 62 76 106 62 76 106 38 76 106 38 76 124 38 76 124 38 90 124 38 90 124 50 90 124 50 90 124 50 90 142 50 90 142 50 90 142 62 34 142 62 34 142 62 34 142 62 34 88 62 34 88 38 34 88 38 34 88 38 48 88 38 48 88 38 48 106 50 48 106 50 48 106 50 48 106 50 48 106 50 62 106 62 62 124 62 62 124 62 62 124 62 62 124 62 62 124 38 62 124 38 76 142 38 76 142 38 76 142 38 76 142 50 76 142 50 76 142 50 76 88 50 90 88 50 90 88 62 90 88 62 90 88 62 90 88 62 90 106 62 90 106 38 34 106 38 34 106 38 34 106 38 34 106 38 34 124 50 34 124 50 34 124 50 48 124 50 48 124 50 48 124 62 48 142 62 48 142 62 48 142 62 48 142 62 62 142 38 62 142 38 62 88 38 62 88 38 62 88 38 62 88 50 62 88 50 76 88 50 76 106 50 76 106 50 76 106 62 76 106 62 76 106 62 76 106 62 90 124 62 90 124 38 90 124 38 90 124 38 90 124 38 90 124 38 90 142 50 34 142 50 34 142 50 34 142 50 34 142 50 34 142 62 34 88 62 34 88 62 48 88 62 48 88 62 48 88 38 48 88 38 48 106 38 48 106 38 48 106 38 62 106 50 62 106 50 62 106 50 62 124 50 62 124 50
62 106 50 62 106 50 62 106 50 62 106 50 62 106 50 62 106 62 62 124 62 76 124 62 76 124 62 76 124 62 76 124 38 76 124 38 76 142 38 76 142 38 90 142 38 90 142 50 90 142 50 90 142 50 90 88 50 90 88 50 90 88 62 34 88 62 34 88 62 34 88 62 34 106 62 34 106 38 34 106 38 34 106 38 48 106 38 48 106 38 48 124 50 48 124 50 48 124 50 48 124 50 48 124 50 62 124 62 62 142 62 62 142 62 62 142 62 62 142 62 62 142 38 62 142 38 76 88 38 76 88 38 76 88 38 76 88 50 76 88 50 76 88 50 76 106 50 90 106 50 90 106 62 90 106 62 90 106 62 90 106 62 90 124 62 90 124 38 34 124 38 34 124 38 34 124 38 34 124 38 34 142 50 34 142 50 34 142 50 48 142 50 48 142 50 48 142 62 48 88 62 48 88 62 48 88 62 48 88 62 62 88 38 62 88 38 62 106 38 62 106 38 62 106 38 62 106 50 62 106 50 76 106 50 76 124 50 76 124 50 76 124 62 76 124 62 76 124 62 76 124 62 90 142 62 90 142 38 90 142 38 90 142 38 90 142 38 90 142 38 90 88 50 34 88 50 34 88 50 34 88 50 34 88 50 34 88 62 34 106 62 34 106 62 48 106 62 48 106 62 48 106 38 48 106 38 48 124 38 48 124 38 48 124 38 62 124 50 62 124 50 62 124 50 62 142 50 62 142 50 62 142 62 62 142 62 76 142 62 76 142 62 76 88 62 76 88 38 76 88 38 76 88 38 76 88 38 90 88 38 90 106 50 90 106 50 90 106 50 90 106 50 90 106 50 90 106 62 34 124 62 34 124 62 34 124 62 34 124 62 34 124 38 34 124 38 34 142 38 48 142 38 48 142 38 48 142 50 48 142 50 48 142 50 48 88 50 48 88 50 62 88 62 62 88 62 62 88 62 62 88 62 62 106 62 62 106 38 62 106 38 76 106 38 76 106 38 76 106 38 76 124 50 76 124 50 76 124 50 76 124 50 90 124 50 90 124 62 90 142 62 90 142 62 90 142 62 90 142 62 90 142 38 34 142 38 34 88 38 34 88 38 34 88 38 34 88 50 34 88 50 34 88 50 48 106 50 48 106 50 48 106 62 48 106 62 48 106 62 48 106 62 48 124 62 62 124 38 62 124 38 62 124 38 62 124 38 62 124 38 62 142 50 62 142 50 76 142 50 76 142 50 76 142 50 76 142 62 76 88 62 76 88 62 76 88 62 90 88 62 90 88 38 90 88 38 90 106 38 90 106 38 90 106 38 90 106 50 34 106 50 34 106 50 34 124 50 34 124 50 34 124 62 34 124 62 34 124 62 48 124 62 48 142 62 48 142 38 48 142 38 48 142 38 48 142 38 48 142 38 62 88 50 62 88 50 62 88 50 62 88 50 62 88 50 62 88 62 62 106 62 76 106 62 76 106 62 76 106 62 76 106 38 76 106 38 76 124 38 76 124 38 90 124 38 90 124 50 90 124 50 90 124 50 90 142 50 90 142 50 90 142 62 34 142 62 34 142 62 34 142 62 34 88 62 34 88 38 34 88 38 34 88 38 48 88 38 48 88 38 48 106 50 48 106 50 48 106 50 48 106 50 48 106 50 62 106 62 62 124 62 62 124 62 62 124 62 62 124 62 62 124 38 62 124 38 76 142 38 76 142 38 76 142 38 76 142 50 76 142 50 76 142 50 76 88 50 90 88 50 90 88 62 90 88 62 90 88 62 90 88 62 90 106 62 90 106 38 34 106 38 34 106 38 34 106 38 34 106 38 34 124 50 34 124 50 34 124 50 48 124 50 48 124 50 48 124 62 48 142 62 48 142 62 48 142 62 48 142 62 62 142 38 62 142 38 62 88 38 62 88 38 62 88 38 62 88 50 62 88 50 76 88 50 76 106 50 76 106 50 76 106 62 76 106 62 76 106 62 76 106 62 90 124 62 90 124 38 90 124 38 90 124 38 90 124 38 90 124 38 90 142 50 34 142 50 34 142 50 34 142 50 34 142 50 34 142 62 34 88 62 34 88 62 48 88 62 48 88 62 48 88 38 48 88 38 48 106 38 48 106 38 48 106 38 62 106 50 62 106 50 62 106 50 62 124 50 62 124 50
62 106 50 62 106 50 62 106 50 62 106 50 62 106 50 62 106 62 62 124 62 76 124 62 76 124 62 76 124 62 76 124 38 76 124 38 76 142 38 76 142 38 90 142 38 90 142 50 90 142 50 90 142 50 90 88 50 90 88 50 90 88 62 34 88 62 34 88 62 34 88 62 34 106 62 34 106 38 34 106 38 34 106 38 48 106 38 48 106 38 48 124 50 48 124 50 48 124 50 48 124 50 48 124 50 62 124 62 62 142 62 62 142 62 62 142 62 62 142 62 62 142 38 62 142 38 76 88 38 76 88 38 76 88 38 76 88 50 76 88 50 76 88 50 76 106 50 90 106 50 90 106 62 90 106 62 90 106 62 90 106 62 90 124 62 90 124 38 34 124 38 34 124 38 34 124 38 34 124 38 34 142 50 34 142 50 34 142 50 48 142 50 48 142 50 48 142 62 48 88 62 48 88 62 48 88 62 48 88 62 62 88 38 62 88 38 62 106 38 62 106 38 62 106 38 62 106 50 62 106 50 76 106 50 76 124 50 76 124 50 76 124 62 76 124 62 76 124 62 76 124 62 90 142 62 90 142 38 90 142 38 90 142 38 90 142 38 90 142 38 90 88 50 34 88 50 34 88 50 34 88 50 34 88 50 34 88 62 34 106 62 34 106 62 48 106 62 48 106 62 48 106 38 48 106 38 48 124 38 48 124 38 48 124 38 62 124 50 62 124 50 62 124 50 62 142 50 62 142 50 62 142 62 62 142 62 76 142 62 76 142 62 76 88 62 76 88 38 76 88 38 76 88 38 76 88 38 90 88 38 90 106 50 90 106 50 90 106 50 90 106 50 90 106 50 90 106 62 34 124 62 34 124 62 34 124 62 34 124 62 34 124 38 34 124 38 34 142 38 48 142 38 48 142 38 48 142 50 48 142 50 48 142 50 48 88 50 48 88 50 62 88 62 62 88 62 62 88 62 62 88 62 62 106 62 62 106 38 62 106 38 76 106 38 76 106 38 76 106 38 76 124 50 76 124 50 76 124 50 76 124 50 90 124 50 90 124 62 90 142 62 90 142 62 90 142 62 90 142 62 90 142 38 34 142 38 34 88 38 34 88 38 34 88 38 34 88 50 34 88 50 34 88 50 48 106 50 48 106 50 48 106 62 48 106 62 48 106 62 48 106 62 48 124 62 62 124 38 62 124 38 62 124 38 62 124 38 62 124 38 62 142 50 62 142 50 76 142 50 76 142 50 76 142 50 76 142 62 76 88 62 76 88 62 76 88 62 90 88 62 90 88 38 90 88 38 90 106 38 90 106 38 90 106 38 90 106 50 34 106 50 34 106 50 34 124 50 34 124 50 34 124 62 34 124 62 34 124 62 48 124 62 48 142 62 48 142 38 48 142 38 48 142 38 48 142 38 48 142 38 62 88 50 62 88 50 62 88 50 62 88 50 62 88 50 62 88 62 62 106 62 76 106 62 76 106 62 76 106 62 76 106 38 76 106 38 76 124 38 76 124 38 90 124 38 90 124 50 90 124 50 90 124 50 90 142 50 90 142 50 90 142 62 34 142 62 34 142 62 34 142 62 34 88 62 34 88 38 34 88 38 34 88 38 48 88 38 48 88 38 48 106 50 48 106 50 48 106 50 48 106 50 48 106 50 62 106 62 62 124 62 62 124 62 62 124 62 62 124 62 62 124 38 62 124 38 76 142 38 76 142 38 76 142 38 76 142 50 76 142 50 76 142 50 76 88 50 90 88 50 90 88 62 90 88 62 90 88 62 90 88 62 90 106 62 90 106 38 34 106 38 34 106 38 34 106 38 34 106 38 34 124 50 34 124 50 34 124 50 48 124 50 48 124 50 48 124 62 48 142 62 48 142 62 48 142 62 48 142 62 62 142 38 62 142 38 62 88 38 62 88 38 62 88 38 62 88 50 62 88 50 76 88 50 76 106 50 76 106 50 76 106 62 76 106 62 76 106 62 76 106 62 90 124 62 90 124 38 90 124 38 90 124 38 90 124 38 90 124 38 90 142 50 34 142 50 34 142 50 34 142 50 34 142 50 34 142 62 34 88 62 34 88 62 48 88 62 48 88 62 48 88 38 48 88 38 48 106 38 48 106 38 48 106 38 62 106 50 62 106 50 62 106 50 62 124 50 62 124 50
62 106 50 62 106 50 62 106 50 62 106 50 62 106 50 62 106 62 62 124 62 76 124 62 76 124 62 76 124 62 76 124 38 76 124 38 76 142 38 76 142 38 90 142 38 90 142 50 90 142 50 90 142 50 90 88 50 90 88 50 90 88 62 34 88 62 34 88 62 34 88 62 34 106 62 34 106 38 34 106 38 34 106 38 48 106 38 48 106 38 48 124 50 48 124 50 48 124 50 48 124 50 48 124 50 62 124 62 62 142 62 62 142 62 62 142 62 62 142 62 62 142 38 62 142 38 76 88 38 76 88 38 76 88 38 76 88 50 76 88 50 76 88 50 76 106 50 90 106 50 90 106 62 90 106 62 90 106 62 90 106 62 90 124 62 90 124 38 34 124 38 34 124 38 34 124 38 34 124 38 34 142 50 34 142 50 34 142 50 48 142 50 48 142 50 48 142 62 48 88 62 48 88 62 48 88 62 48 88 62 62 88 38 62 88 38 62 106 38 62 106 38 62 106 38 62 106 50 62 106 50 76 106 50 76 124 50 76 124 50 76 124 62 76 124 62 76 124 62 76 124 62 90 142 62 90 142 38 90 142 38 90 142 38 90 142 38 90 142 38 90 88 50 34 88 50 34 88 50 34 88 50 34 88 50 34 88 62 34 106 62 34 106 62 48 106 62 48 106 62 48 106 38 48 106 38 48 124 38 48 124 38 48 124 38 62 124 50 62 124 50 62 124 50 62 142 50 62 142 50 62 142 62 62 142 62 76 142 62 76 142 62 76 88 62 76 88 38 76 88 38 76 88 38 76 88 38 90 88 38 90 106 50 90 106 50 90 106 50 90 106 50 90 106 50 90 106 62 34 124 62 34 124 62 34 124 62 34 124 62 34 124 38 34 124 38 34 142 38 48 142 38 48 142 38 48 142 50 48 142 50 48 142 50 48 88 50 48 88 50 62 88 62 62 88 62 62 88 62 62 88 62 62 106 62 62 106 38 62 106 38 76 106 38 76 106 38 76 106 38 76 124 50 76 124 50 76 124 50 76 124 50 90 124 50 90 124 62 90 142 62 90 142 62 90 142 62 90 142 62 90 142 38 34 142 38 34 88 38 34 88 38 34 88 38 34 88 50 34 88 50 34 88 50 48 106 50 48 106 50 48 106 62 48 106 62 48 106 62 48 106 62 48 124 62 62 124 38 62 124 38 62 124 38 62 124 38 62 124 38 62 142 50 62 142 50 76 142 50 76 142 50 76 142 50 76 142 62 76 88 62 76 88 62 76 88 62 90 88 62 90 88 38 90 88 38 90 106 38 90 106 38 90 106 38 90 106 50 34 106 50 34 106 50 34 124 50 34 124 50 34 124 62 34 124 62 34 124 62 48 124 62 48 142 62 48 142 38 48 142 38 48 142 38 48 142 38 48 142 38 62 88 50 62 88 50 62 88 50 62 88 50 62 88 50 62 88 62 62 106 62 76 106 62 76 106 62 76 106 62 76 106 38 76 106 38 76 124 38 76 124 38 90 124 38 90 124 50 90 124 50 90 124 50 90 142 50 90 142 50 90 142 62 34 142 62 34 142 62 34 142 62 34 88 62 34 88 38 34 88 38 34 88 38 48 88 38 48 88 38 48 106 50 48 106 50 48 106 50 48 106 50 48 106 50 62 106 62 62 124 62 62 124 62 62 124 62 62 124 62 62 124 38 62 124 38 76 142 38 76 142 38 76 142 38 76 142 50 76 142 50 76 142 50 76 88 50 90 88 50 90 88 62 90 88 62 90 88 62 90 88 62 90 106 62 90 106 38 34 106 38 34 106 38 34 106 38 34 106 38 34 124 50 34 124 50 34 124 50 48 124 50 48 124 50 48 124 62 48 142 62 48 142 62 48 142 62 48 142 62 62 142 38 62 142 38 62 88 38 62 88 38 62 88 38 62 88 50 62 88 50 76 88 50 76 106 50 76 106 50 76 106 62 76 106 62 76 106 62 76 106 62 90 124 62 90 124 38 90 124 38 90 124 38 90 124 38 90 124 38 90 142 50 34 142 50 34 142 50 34 142 50 34 142 50 34 142 62 34 88 62 34 88 62 48 88 62 48 88 62 48 88 38 48 88 38 48 106 38 48 106 38 48 106 38 62 106 50 62 106 50 62 106 50 62 124 50 62 124 50
76 106 62 76 106 62 76 106 62 76 106 62 76 106 62 76 106 38 76 124 38 90 124 38 90 124 38 90 124 38 90 124 50 90 124 50 90 142 50 90 142 50 34 142 50 34 142 62 34 142 62 34 142 62 34 88 62 34 88 62 34 88 38 48 88 38 48 88 38 48 88 38 48 106 38 48 106 50 48 106 50 48 106 50 62 106 50 62 106 50 62 124 62 62 124 62 62 124 62 62 124 62 62 124 62 76 124 38 76 142 38 76 142 38 76 142 38 76 142 38 76 142 50 76 142 50 90 88 50 90 88 50 90 88 50 90 88 62 90 88 62 90 88 62 90 106 62 34 106 62 34 106 38 34 106 38 34 106 38 34 106 38 34 124 38 34 124 50 48 124 50 48 124 50 48 124 50 48 124 50 48 142 62 48 142 62 48 142 62 62 142 62 62 142 62 62 142 38 62 88 38 62 88 38 62 88 38 62 88 38 76 88 50 76 88 50 76 106 50 76 106 50 76 106 50 76 106 62 76 106 62 90 106 62 90 124 62 90 124 62 90 124 38 90 124 38 90 124 38 90 124 38 34 142 38 34 142 50 34 142 50 34 142 50 34 142 50 34 142 50 34 88 62 48 88 62 48 88 62 48 88 62 48 88 62 48 88 38 48 106 38 48 106 38 62 106 38 62 106 38 62 106 50 62 106 50 62 124 50 62 124 50 62 124 50 76 124 62 76 124 62 76 124 62 76 142 62 76 142 62 76 142 38 76 142 38 90 142 38 90 142 38 90 88 38 90 88 50 90 88 50 90 88 50 90 88 50 34 88 50 34 106 62 34 106 62 34 106 62 34 106 62 34 106 62 34 106 38 48 124 38 48 124 38 48 124 38 48 124 38 48 124 50 48 124 50 48 142 50 62 142 50 62 142 50 62 142 62 62 142 62 62 142 62 62 88 62 62 88 62 76 88 38 76 88 38 76 88 38 76 88 38 76 106 38 76 106 50 76 106 50 90 106 50 90 106 50 90 106 50 90 124 62 90 124 62 90 124 62 90 124 62 34 124 62 34 124 38 34 142 38 34 142 38 34 142 38 34 142 38 34 142 50 48 142 50 48 88 50 48 88 50 48 88 50 48 88 62 48 88 62 48 88 62 62 106 62 62 106 62 62 106 38 62 106 38 62 106 38 62 106 38 62 124 38 76 124 50 76 124 50 76 124 50 76 124 50 76 124 50 76 142 62 76 142 62 90 142 62 90 142 62 90 142 62 90 142 38 90 88 38 90 88 38 90 88 38 34 88 38 34 88 50 34 88 50 34 106 50 34 106 50 34 106 50 34 106 62 48 106 62 48 106 62 48 124 62 48 124 62 48 124 38 48 124 38 48 124 38 62 124 38 62 142 38 62 142 50 62 142 50 62 142 50 62 142 50 62 142 50 76 88 62 76 88 62 76 88 62 76 88 62 76 88 62 76 88 38 76 106 38 90 106 38 90 106 38 90 106 38 90 106 50 90 106 50 90 124 50 90 124 50 34 124 50 34 124 62 34 124 62 34 124 62 34 142 62 34 142 62 34 142 38 48 142 38 48 142 38 48 142 38 48 88 38 48 88 50 48 88 50 48 88 50 62 88 50 62 88 50 62 106 62 62 106 62 62 106 62 62 106 62 62 106 62 76 106 38 76 124 38 76 124 38 76 124 38 76 124 38 76 124 50 76 124 50 90 142 50 90 142 50 90 142 50 90 142 62 90 142 62 90 142 62 90 88 62 34 88 62 34 88 38 34 88 38 34 88 38 34 88 38 34 106 38 34 106 50 48 106 50 48 106 50 48 106 50 48 106 50 48 124 62 48 124 62 48 124 62 62 124 62 62 124 62 62 124 38 62 142 38 62 142 38 62 142 38 62 142 38 76 142 50 76 142 50 76 88 50 76 88 50 76 88 50 76 88 62 76 88 62 90 88 62 90 106 62 90 106 62 90 106 38 90 106 38 90 106 38 90 106 38 34 124 38 34 124 50 34 124 50 34 124 50 34 124 50 34 124 50 34 142 62 48 142 62 48 142 62 48 142 62 48 142 62 48 142 38 48 88 38 48 88 38 62 88 38 62 88 38 62 88 50 62 88 50 62 106 50 62 106 50 62 106 50 76 106 62 76 106 62 76 106 62 76 124 62 76 124 62
76 106 62 76 106 62 76 106 62 76 106 62 76 106 62 76 106 38 76 124 38 90 124 38 90 124 38 90 124 38 90 124 50 90 124 50 90 142 50 90 142 50 34 142 50 34 142 62 34 142 62 34 142 62 34 88 62 34 88 62 34 88 38 48 88 38 48 88 38 48 88 38 48 106 38 48 106 50 48 106 50 48 106 50 62 106 50 62 106 50 62 124 62 62 124 62 62 124 62 62 124 62 62 124 62 76 124 38 76 142 38 76 142 38 76 142 38 76 142 38 76 142 50 76 142 50 90 88 50 90 88 50 90 88 50 90 88 62 90 88 62 90 88 62 90 106 62 34 106 62 34 106 38 34 106 38 34 106 38 34 106 38 34 124 38 34 124 50 48 124 50 48 124 50 48 124 50 48 124 50 48 142 62 48 142 62 48 142 62 62 142 62 62 142 62 62 142 38 62 88 38 62 88 38 62 88 38 62 88 38 76 88 50 76 88 50 76 106 50 76 106 50 76 106 50 76 106 62 76 106 62 90 106 62 90 124 62 90 124 62 90 124 38 90 124 38 90 124 38 90 124 38 34 142 38 34 142 50 34 142 50 34 142 50 34 142 50 34 142 50 34 88 62 48 88 62 48 88 62 48 88 62 48 88 62 48 88 38 48 106 38 48 106 38 62 106 38 62 106 38 62 106 50 62 106 50 62 124 50 62 124 50 62 124 50 76 124 62 76 124 62 76 124 62 76 142 62 76 142 62 76 142 38 76 142 38 90 142 38 90 142 38 90 88 38 90 88 50 90 88 50 90 88 50 90 88 50 34 88 50 34 106 62 34 106 62 34 106 62 34 106 62 34 106 62 34 106 38 48 124 38 48 124 38 48 124 38 48 124 38 48 124 50 48 124 50 48 142 50 62 142 50 62 142 50 62 142 62 62 142 62 62 142 62 62 88 62 62 88 62 76 88 38 76 88 38 76 88 38 76 88 38 76 106 38 76 106 50 76 106 50 90 106 50 90 106 50 90 106 50 90 124 62 90 124 62 90 124 62 90 124 62 34 124 62 34 124 38 34 142 38 34 142 38 34 142 38 34 142 38 34 142 50 48 142 50 48 88 50 48 88 50 48 88 50 48 88 62 48 88 62 48 88 62 62 106 62 62 106 62 62 106 38 62 106 38 62 106 38 62 106 38 62 124 38 76 124 50 76 124 50 76 124 50 76 124 50 76 124 50 76 142 62 76 142 62 90 142 62 90 142 62 90 142 62 90 142 38 90 88 38 90 88 38 90 88 38 34 88 38 34 88 50 34 88 50 34 106 50 34 106 50 34 106 50 34 106 62 48 106 62 48 106 62 48 124 62 48 124 62 48 124 38 48 124 38 48 124 38 62 124 38 62 142 38 62 142 50 62 142 50 62 142 50 62 142 50 62 142 50 76 88 62 76 88 62 76 88 62 76 88 62 76 88 62 76 88 38 76 106 38 90 106 38 90 106 38 90 106 38 90 106 50 90 106 50 90 124 50 90 124 50 34 124 50 34 124 62 34 124 62 34 124 62 34 142 62 34 142 62 34 142 38 48 142 38 48 142 38 48 142 38 48 88 38 48 88 50 48 88 50 48 88 50 62 88 50 62 88 50 62 106 62 62 106 62 62 106 62 62 106 62 62 106 62 76 106 38 76 124 38 76 124 38 76 124 38 76 124 38 76 124 50 76 124 50 90 142 50 90 142 50 90 142 50 90 142 62 90 142 62 90 142 62 90 88 62 34 88 62 34 88 38 34 88 38 34 88 38 34 88 38 34 106 38 34 106 50 48 106 50 48 106 50 48 106 50 48 106 50 48 124 62 48 124 62 48 124 62 62 124 62 62 124 62 62 124 38 62 142 38 62 142 38 62 142 38 62 142 38 76 142 50 76 142 50 76 88 50 76 88 50 76 88 50 76 88 62 76 88 62 90 88 62 90 106 62 90 106 62 90 106 38 90 106 38 90 106 38 90 106 38 34 124 38 34 124 50 34 124 50 34 124 50 34 124 50 34 124 50 34 142 62 48 142 62 48 142 62 48 142 62 48 142 62 48 142 38 48 88 38 48 88 38 62 88 38 62 88 38 62 88 50 62 88 50 62 106 50 62 106 50 62 106 50 76 106 62 76 106 62 76 106 62 76 124 62 76 124 62
76 124 62 76 124 62 76 124 62 76 124 62 76 124 62 76 124 38 76 142 38 90 142 38 90 142 38 90 142 38 90 142 50 90 142 50 90 88 50 90 88 50 34 88 50 34 88 62 34 88 62 34 88 62 34 106 62 34 106 62 34 106 38 48 106 38 48 106 38 48 106 38 48 124 38 48 124 50 48 124 50 48 124 50 62 124 50 62 124 50 62 142 62 62 142 62 62 142 62 62 142 62 62 142 62 76 142 38 76 88 38 76 88 38 76 88 38 76 88 38 76 88 50 76 88 50 90 106 50 90 106 50 90 106 50 90 106 62 90 106 62 90 106 62 90 124 62 34 124 62 34 124 38 34 124 38 34 124 38 34 124 38 34 142 38 34 142 50 48 142 50 48 142 50 48 142 50 48 142 50 48 88 62 48 88 62 48 88 62 62 88 62 62 88 62 62 88 38 62 106 38 62 106 38 62 106 38 62 106 38 76 106 50 76 106 50 76 124 50 76 124 50 76 124 50 76 124 62 76 124 62 90 124 62 90 142 62 90 142 62 90 142 38 90 142 38 90 142 38 90 142 38 34 88 38 34 88 50 34 88 50 34 88 50 34 88 50 34 88 50 34 106 62 48 106 62 48 106 62 48 106 62 48 106 62 48 106 38 48 124 38 48 124 38 62 124 38 62 124 38 62 124 50 62 124 50 62 142 50 62 142 50 62 142 50 76 142 62 76 142 62 76 142 62 76 88 62 76 88 62 76 88 38 76 88 38 90 88 38 90 88 38 90 106 38 90 106 50 90 106 50 90 106 50 90 106 50 34 106 50 34 124 62 34 124 62 34 124 62 34 124 62 34 124 62 34 124 38 48 142 38 48 142 38 48 142 38 48 142 38 48 142 50 48 142 50 48 88 50 62 88 50 62 88 50 62 88 62 62 88 62 62 88 62 62 106 62 62 106 62 76 106 38 76 106 38 76 106 38 76 106 38 76 124 38 76 124 50 76 124 50 90 124 50 90 124 50 90 124 50 90 142 62 90 142 62 90 142 62 90 142 62 34 142 62 34 142 38 34 88 38 34 88 38 34 88 38 34 88 38 34 88 50 48 88 50 48 106 50 48 106 50 48 106 50 48 106 62 48 106 62 48 106 62 62 124 62 62 124 62 62 124 38 62 124 38 62 124 38 62 124 38 62 142 38 76 142 50 76 142 50 76 142 50 76 142 50 76 142 50 76 88 62 76 88 62 90 88 62 90 88 62 90 88 62 90 88 38 90 106 38 90 106 38 90 106 38 34 106 38 34 106 50 34 106 50 34 124 50 34 124 50 34 124 50 34 124 62 48 124 62 48 124 62 48 142 62 48 142 62 48 142 38 48 142 38 48 142 38 62 142 38 62 88 38 62 88 50 62 88 50 62 88 50 62 88 50 62 88 50 76 106 62 76 106 62 76 106 62 76 106 62 76 106 62 76 106 38 76 124 38 90 124 38 90 124 38 90 124 38 90 124 50 90 124 50 90 142 50 90 142 50 34 142 50 34 142 62 34 142 62 34 142 62 34 88 62 34 88 62 34 88 38 48 88 38 48 88 38 48 88 38 48 106 38 48 106 50 48 106 50 48 106 50 62 106 50 62 106 50 62 124 62 62 124 62 62 124 62 62 124 62 62 124 62 76 124 38 76 142 38 76 142 38 76 142 38 76 142 38 76 142 50 76 142 50 90 88 50 90 88 50 90 88 50 90 88 62 90 88 62 90 88 62 90 106 62 34 106 62 34 106 38 34 106 38 34 106 38 34 106 38 34 124 38 34 124 50 48 124 50 48 124 50 48 124 50 48 124 50 48 142 62 48 142 62 48 142 62 62 142 62 62 142 62 62 142 38 62 88 38 62 88 38 62 88 38 62 88 38 76 88 50 76 88 50 76 106 50 76 106 50 76 106 50 76 106 62 76 106 62 90 106 62 90 124 62 90 124 62 90 124 38 90 124 38 90 124 38 90 124 38 34 142 38 34 142 50 34 142 50 34 142 50 34 142 50 34 142 50 34 88 62 48 88 62 48 88 62 48 88 62 48 88 62 48 88 38 48 106 38 48 106 38 62 106 38 62 106 38 62 106 50 62 106 50 62 124 50 62 124 50 62 124 50 76 124 62 76 124 62 76 124 62 76 142 62 76 142 62
76 124 62 76 124 62 76 124 62 76 124 62 76 124 62 76 124 38 76 142 38 90 142 38 90 142 38 90 142 38 90 142 50 90 142 50 90 88 50 90 88 50 34 88 50 34 88 62 34 88 62 34 88 62 34 106 62 34 106 62 34 106 38 48 106 38 48 106 38 48 106 38 48 124 38 48 124 50 48 124 50 48 124 50 62 124 50 62 124 50 62 142 62 62 142 62 62 142 62 62 142 62 62 142 62 76 142 38 76 88 38 76 88 38 76 88 38 76 88 38 76 88 50 76 88 50 90 106 50 90 106 50 90 106 50 90 106 62 90 106 62 90 106 62 90 124 62 34 124 62 34 124 38 34 124 38 34 124 38 34 124 38 34 142 38 34 142 50 48 142 50 48 142 50 48 142 50 48 142 50 48 88 62 48 88 62 48 88 62 62 88 62 62 88 62 62 88 38 62 106 38 62 106 38 62 106 38 62 106 38 76 106 50 76 106 50 76 124 50 76 124 50 76 124 50 76 124 62 76 124 62 90 124 62 90 142 62 90 142 62 90 142 38 90 142 38 90 142 38 90 142 38 34 88 38 34 88 50 34 88 50 34 88 50 34 88 50 34 88 50 34 106 62 48 106 62 48 106 62 48 106 62 48 106 62 48 106 38 48 124 38 48 124 38 62 124 38 62 124 38 62 124 50 62 124 50 62 142 50 62 142 50 62 142 50 76 142 62 76 142 62 76 142 62 76 88 62 76 88 62 76 88 38 76 88 38 90 88 38 90 88 38 90 106 38 90 106 50 90 106 50 90 106 50 90 106 50 34 106 50 34 124 62 34 124 62 34 124 62 34 124 62 34 124 62 34 124 38 48 142 38 48 142 38 48 142 38 48 142 38 48 142 50 48 142 50 48 88 50 62 88 50 62 88 50 62 88 62 62 88 62 62 88 62 62 106 62 62 106 62 76 106 38 76 106 38 76 106 38 76 106 38 76 124 38 76 124 50 76 124 50 90 124 50 90 124 50 90 124 50 90 142 62 90 142 62 90 142 62 90 142 62 34 142 62 34 142 38 34 88 38 34 88 38 34 88 38 34 88 38 34 88 50 48 88 50 48 106 50 48 106 50 48 106 50 48 106 62 48 106 62 48 106 62 62 124 62 62 124 62 62 124 38 62 124 38 62 124 38 62 124 38 62 142 38 76 142 50 76 142 50 76 142 50 76 142 50 76 142 50 76 88 62 76 88 62 90 88 62 90 88 62 90 88 62 90 88 38 90 106 38 90 106 38 90 106 38 34 106 38 34 106 50 34 106 50 34 124 50 34 124 50 34 124 50 34 124 62 48 124 62 48 124 62 48 142 62 48 142 62 48 142 38 48 142 38 48 142 38 62 142 38 62 88 38 62 88 50 62 88 50 62 88 50 62 88 50 62 88 50 76 106 62 76 106 62 76 106 62 76 106 62 76 106 62 76 106 38 76 124 38 90 124 38 90 124 38 90 124 38 90 124 50 90 124 50 90 142 50 90 142 50 34 142 50 34 142 62 34 142 62 34 142 62 34 88 62 34 88 62 34 88 38 48 88 38 48 88 38 48 88 38 48 106 38 48 106 50 48 106 50 48 106 50 62 106 50 62 106 50 62 124 62 62 124 62 62 124 62 62 124 62 62 124 62 76 124 38 76 142 38 76 142 38 76 142 38 76 142 38 76 142 50 76 142 50 90 88 50 90 88 50 90 88 50 90 88 62 90 88 62 90 88 62 90 106 62 34 106 62 34 106 38 34 106 38 34 106 38 34 106 38 34 124 38 34 124 50 48 124 50 48 124 50 48 124 50 48 124 50 48 142 62 48 142 62 48 142 62 62 142 62 62 142 62 62 142 38 62 88 38 62 88 38 62 88 38 62 88 38 76 88 50 76 88 50 76 106 50 76 106 50 76 106 50 76 106 62 76 106 62 90 106 62 90 124 62 90 124 62 90 124 38 90 124 38 90 124 38 90 124 38 34 142 38 34 142 50 34 142 50 34 142 50 34 142 50 34 142 50 34 88 62 48 88 62 48 88 62 48 88 62 48 88 62 48 88 38 48 106 38 48 106 38 62 106 38 62 106 38 62 106 50 62 106 50 62 124 50 62 124 50 62 124 50 76 124 62 76 124 62 76 124 62 76 142 62 76 142 62
76 124 62 76 124 62 76 124 62 76 124 62 76 124 62 76 124 38 76 142 38 90 142 38 90 142 38 90 142 38 90 142 50 90 142 50 90 88 50 90 88 50 34 88 50 34 88 62 34 88 62 34 88 62 34 106 62 34 106 62 34 106 38 48 106 38 48 106 38 48 106 38 48 124 38 48 124 50 48 124 50 48 124 50 62 124 50 62 124 50 62 142 62 62 142 62 62 142 62 62 142 62 62 142 62 76 142 38 76 88 38 76 88 38 76 88 38 76 88 38 76 88 50 76 88 50 90 106 50 90 106 50 90 106 50 90 106 62 90 106 62 90 106 62 90 124 62 34 124 62 34 124 38 34 124 38 34 124 38 34 124 38 34 142 38 34 142 50 48 142 50 48 142 50 48 142 50 48 142 50 48 88 62 48 88 62 48 88 62 62 88 62 62 88 62 62 88 38 62 106 38 62 106 38 62 106 38 62 106 38 76 106 50 76 106 50 76 124 50 76 124 50 76 124 50 76 124 62 76 124 62 90 124 62 90 142 62 90 142 62 90 142 38 90 142 38 90 142 38 90 142 38 34 88 38 34 88 50 34 88 50 34 88 50 34 88 50 34 88 50 34 106 62 48 106 62 48 106 62 48 106 62 48 106 62 48 106 38 48 124 38 48 124 38 62 124 38 62 124 38 62 124 50 62 124 50 62 142 50 62 142 50 62 142 50 76 142 62 76 142 62 76 142 62 76 88 62 76 88 62 76 88 38 76 88 38 90 88 38 90 88 38 90 106 38 90 106 50 90 106 50 90 106 50 90 106 50 34 106 50 34 124 62 34 124 62 34 124 62 34 124 62 34 124 62 34 124 38 48 142 38 48 142 38 48 142 38 48 142 38 48 142 50 48 142 50 48 88 50 62 88 50 62 88 50 62 88 62 62 88 62 62 88 62 62 106 62 62 106 62 76 106 38 76 106 38 76 106 38 76 106 38 76 124 38 76 124 50 76 124 50 90 124 50 90 124 50 90 124 50 90 142 62 90 142 62 90 142 62 90 142 62 34 142 62 34 142 38 34 88 38 34 88 38 34 88 38 34 88 38 34 88 50 48 88 50 48 106 50 48 106 50 48 106 50 48 106 62 48 106 62 48 106 62 62 124 62 62 124 62 62 124 38 62 124 38 62 124 38 62 124 38 62 142 38 76 142 50 76 142 50 76 142 50 76 142 50 76 142 50 76 88 62 76 88 62 90 88 62 90 88 62 90 88 62 90 88 38 90 106 38 90 106 38 90 106 38 34 106 38 34 106 50 34 106 50 34 124 50 34 124 50 34 124 50 34 124 62 48 124 62 48 124 62 48 142 62 48 142 62 48 142 38 48 142 38 48 142 38 62 142 38 62 88 38 62 88 50 62 88 50 62 88 50 62 88 50 62 88 50 76 106 62 76 106 62 76 106 62 76 106 62 76 106 62 76 106 38 76 124 38 90 124 38 90 124 38 90 124 38 90 124 50 90 124 50 90 142 50 90 142 50 34 142 50 34 142 62 34 142 62 34 142 62 34 88 62 34 88 62 34 88 38 48 88 38 48 88 38 48 88 38 48 106 38 48 106 50 48 106 50 48 106 50 62 106 50 62 106 50 62 124 62 62 124 62 62 124 62 62 124 62 62 124 62 76 124 38 76 142 38 76 142 38 76 142 38 76 142 38 76 142 50 76 142 50 90 88 50 90 88 50 90 88 50 90 88 62 90 88 62 90 88 62 90 106 62 34 106 62 34 106 38 34 106 38 34 106 38 34 106 38 34 124 38 34 124 50 48 124 50 48 124 50 48 124 50 48 124 50 48 142 62 48 142 62 48 142 62 62 142 62 62 142 62 62 142 38 62 88 38 62 88 38 62 88 38 62 88 38 76 88 50 76 88 50 76 106 50 76 106 50 76 106 50 76 106 62 76 106 62 90 106 62 90 124 62 90 124 62 90 124 38 90 124 38 90 124 38 90 124 38 34 142 38 34 142 50 34 142 50 34 142 50 34 142 50 34 142 50 34 88 62 48 88 62 48 88 62 48 88 62 48 88 62 48 88 38 48 106 38 48 106 38 62 106 38 62 106 38 62 106 50 62 106 50 62 124 50 62 124 50 62 124 50 76 124 62 76 124 62 76 124 62 76 142 62 76 142 62
90 124 62 90 124 62 90 124 62 90 124 62 90 124 62 90 124 38 90 142 38 34 142 38 34 142 38 34 142 38 34 142 50 34 142 50 34 88 50 34 88 50 48 88 50 48 88 62 48 88 62 48 88 62 48 106 62 48 106 62 48 106 38 62 106 38 62 106 38 62 106 38 62 124 38 62 124 50 62 124 50 62 124 50 76 124 50 76 124 50 76 142 62 76 142 62 76 142 62 76 142 62 76 142 62 90 142 38 90 88 38 90 88 38 90 88 38 90 88 38 90 88 50 90 88 50 34 106 50 34 106 50 34 106 50 34 106 62 34 106 62 34 106 62 34 124 62 48 124 62 48 124 38 48 124 38 48 124 38 48 124 38 48 142 38 48 142 50 62 142 50 62 142 50 62 142 50 62 142 50 62 88 62 62 88 62 62 88 62 76 88 62 76 88 62 76 88 38 76 106 38 76 106 38 76 106 38 76 106 38 90 106 50 90 106 50 90 124 50 90 124 50 90 124 50 90 124 62 90 124 62 34 124 62 34 142 62 34 142 62 34 142 38 34 142 38 34 142 38 34 142 38 48 88 38 48 88 50 48 88 50 48 88 50 48 88 50 48 88 50 48 106 62 62 106 62 62 106 62 62 106 62 62 106 62 62 106 38 62 124 38 62 124 38 76 124 38 76 124 38 76 124 50 76 124 50 76 142 50 76 142 50 76 142 50 90 142 62 90 142 62 90 142 62 90 88 62 90 88 62 90 88 38 90 88 38 34 88 38 34 88 38 34 106 38 34 106 50 34 106 50 34 106 50 34 106 50 48 106 50 48 124 62 48 124 62 48 124 62 48 124 62 48 124 62 48 124 38 62 142 38 62 142 38 62 142 38 62 142 38 62 142 50 62 142 50 62 88 50 76 88 50 76 88 50 76 88 62 76 88 62 76 88 62 76 106 62 76 106 62 90 106 38 90 106 38 90 106 38 90 106 38 90 124 38 90 124 50 90 124 50 34 124 50 34 124 50 34 124 50 34 142 62 34 142 62 34 142 62 34 142 62 48 142 62 48 142 38 48 88 38 48 88 38 48 88 38 48 88 38 48 88 50 62 88 50 62 106 50 62 106 50 62 106 50 62 106 62 62 106 62 62 106 62 76 124 62 76 124 62 76 124 38 76 124 38 76 124 38 76 124 38 76 142 38 90 142 50 90 142 50 90 142 50 90 142 50 90 142 50 90 88 62 90 88 62 34 88 62 34 88 62 34 88 62 34 88 38 34 106 38 34 106 38 34 106 38 48 106 38 48 106 50 48 106 50 48 124 50 48 124 50 48 124 50 48 124 62 62 124 62 62 124 62 62 142 62 62 142 62 62 142 38 62 142 38 62 142 38 76 142 38 76 88 38 76 88 50 76 88 50 76 88 50 76 88 50 76 88 50 90 106 62 90 106 62 90 106 62 90 106 62 90 106 62 90 106 38 90 124 38 34 124 38 34 124 38 34 124 38 34 124 50 34 124 50 34 142 50 34 142 50 48 142 50 48 142 62 48 142 62 48 142 62 48 88 62 48 88 62 48 88 38 62 88 38 62 88 38 62 88 38 62 106 38 62 106 50 62 106 50 62 106 50 76 106 50 76 106 50 76 124 62 76 124 62 76 124 62 76 124 62 76 124 62 90 124 38 90 142 38 90 142 38 90 142 38 90 142 38 90 142 50 90 142 50 34 88 50 34 88 50 34 88 50 34 88 62 34 88 62 34 88 62 34 106 62 48 106 62 48 106 38 48 106 38 48 106 38 48 106 38 48 124 38 48 124 50 62 124 50 62 124 50 62 124 50 62 124 50 62 142 62 62 142 62 62 142 62 76 142 62 76 142 62 76 142 38 76 88 38 76 88 38 76 88 38 76 88 38 90 88 50 90 88 50 90 106 50 90 106 50 90 106 50 90 106 62 90 106 62 34 106 62 34 124 62 34 124 62 34 124 38 34 124 38 34 124 38 34 124 38 48 142 38 48 142 50 48 142 50 48 142 50 48 142 50 48 142 50 48 88 62 62 88 62 62 88 62 62 88 62 62 88 62 62 88 38 62 106 38 62 106 38 76 106 38 76 106 38 76 106 50 76 106 50 76 124 50 76 124 50 76 124 50 90 124 62 90 124 62 90 124 62 90 142 62 90 142 62
90 124 62 90 124 62 90 124 62 90 124 62 90 124 62 90 124 38 90 142 38 34 142 38 34 142 38 34 142 38 34 142 50 34 142 50 34 88 50 34 88 50 48 88 50 48 88 62 48 88 62 48 88 62 48 106 62 48 106 62 48 106 38 62 106 38 62 106 38 62 106 38 62 124 38 62 124 50 62 124 50 62 124 50 76 124 50 76 124 50 76 142 62 76 142 62 76 142 62 76 142 62 76 142 62 90 142 38 90 88 38 90 88 38 90 88 38 90 88 38 90 88 50 90 88 50 34 106 50 34 106 50 34 106 50 34 106 62 34 106 62 34 106 62 34 124 62 48 124 62 48 124 38 48 124 38 48 124 38 48 124 38 48 142 38 48 142 50 62 142 50 62 142 50 62 142 50 62 142 50 62 88 62 62 88 62 62 88 62 76 88 62 76 88 62 76 88 38 76 106 38 76 106 38 76 106 38 76 106 38 90 106 50 90 106 50 90 124 50 90 124 50 90 124 50 90 124 62 90 124 62 34 124 62 34 142 62 34 142 62 34 142 38 34 142 38 34 142 38 34 142 38 48 88 38 48 88 50 48 88 50 48 88 50 48 88 50 48 88 50 48 106 62 62 106 62 62 106 62 62 106 62 62 106 62 62 106 38 62 124 38 62 124 38 76 124 38 76 124 38 76 124 50 76 124 50 76 142 50 76 142 50 76 142 50 90 142 62 90 142 62 90 142 62 90 88 62 90 88 62 90 88 38 90 88 38 34 88 38 34 88 38 34 106 38 34 106 50 34 106 50 34 106 50 34 106 50 48 106 50 48 124 62 48 124 62 48 124 62 48 124 62 48 124 62 48 124 38 62 142 38 62 142 38 62 142 38 62 142 38 62 142 50 62 142 50 62 88 50 76 88 50 76 88 50 76 88 62 76 88 62 76 88 62 76 106 62 76 106 62 90 106 38 90 106 38 90 106 38 90 106 38 90 124 38 90 124 50 90 124 50 34 124 50 34 124 50 34 124 50 34 142 62 34 142 62 34 142 62 34 142 62 48 142 62 48 142 38 48 88 38 48 88 38 48 88 38 48 88 38 48 88 50 62 88 50 62 106 50 62 106 50 62 106 50 62 106 62 62 106 62 62 106 62 76 124 62 76 124 62 76 124 38 76 124 38 76 124 38 76 124 38 76 142 38 90 142 50 90 142 50 90 142 50 90 142 50 90 142 50 90 88 62 90 88 62 34 88 62 34 88 62 34 88 62 34 88 38 34 106 38 34 106 38 34 106 38 48 106 38 48 106 50 48 106 50 48 124 50 48 124 50 48 124 50 48 124 62 62 124 62 62 124 62 62 142 62 62 142 62 62 142 38 62 142 38 62 142 38 76 142 38 76 88 38 76 88 50 76 88 50 76 88 50 76 88 50 76 88 50 90 106 62 90 106 62 90 106 62 90 106 62 90 106 62 90 106 38 90 124 38 34 124 38 34 124 38 34 124 38 34 124 50 34 124 50 34 142 50 34 142 50 48 142 50 48 142 62 48 142 62 48 142 62 48 88 62 48 88 62 48 88 38 62 88 38 62 88 38 62 88 38 62 106 38 62 106 50 62 106 50 62 106 50 76 106 50 76 106 50 76 124 62 76 124 62 76 124 62 76 124 62 76 124 62 90 124 38 90 142 38 90 142 38 90 142 38 90 142 38 90 142 50 90 142 50 34 88 50 34 88 50 34 88 50 34 88 62 34 88 62 34 88 62 34 106 62 48 106 62 48 106 38 48 106 38 48 106 38 48 106 38 48 124 38 48 124 50 62 124 50 62 124 50 62 124 50 62 124 50 62 142 62 62 142 62 62 142 62 76 142 62 76 142 62 76 142 38 76 88 38 76 88 38 76 88 38 76 88 38 90 88 50 90 88 50 90 106 50 90 106 50 90 106 50 90 106 62 90 106 62 34 106 62 34 124 62 34 124 62 34 124 38 34 124 38 34 124 38 34 124 38 48 142 38 48 142 50 48 142 50 48 142 50 48 142 50 48 142 50 48 88 62 62 88 62 62 88 62 62 88 62 62 88 62 62 88 38 62 106 38 62 106 38 76 106 38 76 106 38 76 106 50 76 106 50 76 124 50 76 124 50 76 124 50 90 124 62 90 124 62 90 124 62 90 142 62 90 142 62
90 124 62 90 124 62 90 124 62 90 124 62 90 124 62 90 124 38 90 142 38 34 142 38 34 142 38 34 142 38 34 142 50 34 142 50 34 88 50 34 88 50 48 88 50 48 88 62 48 88 62 48 88 62 48 106 62 48 106 62 48 106 38 62 106 38 62 106 38 62 106 38 62 124 38 62 124 50 62 124 50 62 124 50 76 124 50 76 124 50 76 142 62 76 142 62 76 142 62 76 142 62 76 142 62 90 142 38 90 88 38 90 88 38 90 88 38 90 88 38 90 88 50 90 88 50 34 106 50 34 106 50 34 106 50 34 106 62 34 106 62 34 106 62 34 124 62 48 124 62 48 124 38 48 124 38 48 124 38 48 124 38 48 142 38 48 142 50 62 142 50 62 142 50 62 142 50 62 142 50 62 88 62 62 88 62 62 88 62 76 88 62 76 88 62 76 88 38 76 106 38 76 106 38 76 106 38 76 106 38 90 106 50 90 106 50 90 124 50 90 124 50 90 124 50 90 124 62 90 124 62 34 124 62 34 142 62 34 142 62 34 142 38 34 142 38 34 142 38 34 142 38 48 88 38 48 88 50 48 88 50 48 88 50 48 88 50 48 88 50 48 106 62 62 106 62 62 106 62 62 106 62 62 106 62 62 106 38 62 124 38 62 124 38 76 124 38 76 124 38 76 124 50 76 124 50 76 142 50 76 142 50 76 142 50 90 142 62 90 142 62 90 142 62 90 88 62 90 88 62 90 88 38 90 88 38 34 88 38 34 88 38 34 106 38 34 106 50 34 106 50 34 106 50 34 106 50 48 106 50 48 124 62 48 124 62 48 124 62 48 124 62 48 124 62 48 124 38 62 142 38 62 142 38 62 142 38 62 142 38 62 142 50 62 142 50 62 88 50 76 88 50 76 88 50 76 88 62 76 88 62 76 88 62 76 106 62 76 106 62 90 106 38 90 106 38 90 106 38 90 106 38 90 124 38 90 124 50 90 124 50 34 124 50 34 124 50 34 124 50 34 142 62 34 142 62 34 142 62 34 142 62 48 142 62 48 142 38 48 88 38 48 88 38 48 88 38 48 88 38 48 88 50 62 88 50 62 106 50 62 106 50 62 106 50 62 106 62 62 106 62 62 106 62 76 124 62 76 124 62 76 124 38 76 124 38 76 124 38 76 124 38 76 142 38 90 142 50 90 142 50 90 142 50 90 142 50 90 142 50 90 88 62 90 88 62 34 88 62 34 88 62 34 88 62 34 88 38 34 106 38 34 106 38 34 106 38 48 106 38 48 106 50 48 106 50 48 124 50 48 124 50 48 124 50 48 124 62 62 124 62 62 124 62 62 142 62 62 142 62 62 142 38 62 142 38 62 142 38 76 142 38 76 88 38 76 88 50 76 88 50 76 88 50 76 88 50 76 88 50 90 106 62 90 106 62 90 106 62 90 106 62 90 106 62 90 106 38 90 124 38 34 124 38 34 124 38 34 124 38 34 124 50 34 124 50 34 142 50 34 142 50 48 142 50 48 142 62 48 142 62 48 142 62 48 88 62 48 88 62 48 88 38 62 88 38 62 88 38 62 88 38 62 106 38 62 106 50 62 106 50 62 106 50 76 106 50 76 106 50 76 124 62 76 124 62 76 124 62 76 124 62 76 124 62 90 124 38 90 142 38 90 142 38 90 142 38 90 142 38 90 142 50 90 142 50 34 88 50 34 88 50 34 88 50 34 88 62 34 88 62 34 88 62 34 106 62 48 106 62 48 106 38 48 106 38 48 106 38 48 106 38 48 124 38 48 124 50 62 124 50 62 124 50 62 124 50 62 124 50 62 142 62 62 142 62 62 142 62 76 142 62 76 142 62 76 142 38 76 88 38 76 88 38 76 88 38 76 88 38 90 88 50 90 88 50 90 106 50 90 106 50 90 106 50 90 106 62 90 106 62 34 106 62 34 124 62 34 124 62 34 124 38 34 124 38 34 124 38 34 124 38 48 142 38 48 142 50 48 142 50 48 142 50 48 142 50 48 142 50 48 88 62 62 88 62 62 88 62 62 88 62 62 88 62 62 88 38 62 106 38 62 106 38 76 106 38 76 106 38 76 106 50 76 106 50 76 124 50 76 124 50 76 124 50 90 124 62 90 124 62 90 124 62 90 142 62 90 142 62
90 124 38 90 124 38 90 124 38 90 124 38 90 124 38 90 124 50 90 142 50 34 142 50 34 142 50 34 142 50 34 142 62 34 142 62 34 88 62 34 88 62 48 88 62 48 88 38 48 88 38 48 88 38 48 106 38 48 106 38 48 106 50 62 106 50 62 106 50 62 106 50 62 124 50 62 124 62 62 124 62 62 124 62 76 124 62 76 124 62 76 142 38 76 142 38 76 142 38 76 142 38 76 142 38 90 142 50 90 88 50 90 88 50 90 88 50 90 88 50 90 88 62 90 88 62 34 106 62 34 106 62 34 106 62 34 106 38 34 106 38 34 106 38 34 124 38 48 124 38 48 124 50 48 124 50 48 124 50 48 124 50 48 142 50 48 142 62 62 142 62 62 142 62 62 142 62 62 142 62 62 88 38 62 88 38 62 88 38 76 88 38 76 88 38 76 88 50 76 106 50 76 106 50 76 106 50 76 106 50 90 106 62 90 106 62 90 124 62 90 124 62 90 124 62 90 124 38 90 124 38 34 124 38 34 142 38 34 142 38 34 142 50 34 142 50 34 142 50 34 142 50 48 88 50 48 88 62 48 88 62 48 88 62 48 88 62 48 88 62 48 106 38 62 106 38 62 106 38 62 106 38 62 106 38 62 106 50 62 124 50 62 124 50 76 124 50 76 124 50 76 124 62 76 124 62 76 142 62 76 142 62 76 142 62 90 142 38 90 142 38 90 142 38 90 88 38 90 88 38 90 88 50 90 88 50 34 88 50 34 88 50 34 106 50 34 106 62 34 106 62 34 106 62 34 106 62 48 106 62 48 124 38 48 124 38 48 124 38 48 124 38 48 124 38 48 124 50 62 142 50 62 142 50 62 142 50 62 142 50 62 142 62 62 142 62 62 88 62 76 88 62 76 88 62 76 88 38 76 88 38 76 88 38 76 106 38 76 106 38 90 106 50 90 106 50 90 106 50 90 106 50 90 124 50 90 124 62 90 124 62 34 124 62 34 124 62 34 124 62 34 142 38 34 142 38 34 142 38 34 142 38 48 142 38 48 142 50 48 88 50 48 88 50 48 88 50 48 88 50 48 88 62 62 88 62 62 106 62 62 106 62 62 106 62 62 106 38 62 106 38 62 106 38 76 124 38 76 124 38 76 124 50 76 124 50 76 124 50 76 124 50 76 142 50 90 142 62 90 142 62 90 142 62 90 142 62 90 142 62 90 88 38 90 88 38 34 88 38 34 88 38 34 88 38 34 88 50 34 106 50 34 106 50 34 106 50 48 106 50 48 106 62 48 106 62 48 124 62 48 124 62 48 124 62 48 124 38 62 124 38 62 124 38 62 142 38 62 142 38 62 142 50 62 142 50 62 142 50 76 142 50 76 88 50 76 88 62 76 88 62 76 88 62 76 88 62 76 88 62 90 106 38 90 106 38 90 106 38 90 106 38 90 106 38 90 106 50 90 124 50 34 124 50 34 124 50 34 124 50 34 124 62 34 124 62 34 142 62 34 142 62 48 142 62 48 142 38 48 142 38 48 142 38 48 88 38 48 88 38 48 88 50 62 88 50 62 88 50 62 88 50 62 106 50 62 106 62 62 106 62 62 106 62 76 106 62 76 106 62 76 124 38 76 124 38 76 124 38 76 124 38 76 124 38 90 124 50 90 142 50 90 142 50 90 142 50 90 142 50 90 142 62 90 142 62 34 88 62 34 88 62 34 88 62 34 88 38 34 88 38 34 88 38 34 106 38 48 106 38 48 106 50 48 106 50 48 106 50 48 106 50 48 124 50 48 124 62 62 124 62 62 124 62 62 124 62 62 124 62 62 142 38 62 142 38 62 142 38 76 142 38 76 142 38 76 142 50 76 88 50 76 88 50 76 88 50 76 88 50 90 88 62 90 88 62 90 106 62 90 106 62 90 106 62 90 106 38 90 106 38 34 106 38 34 124 38 34 124 38 34 124 50 34 124 50 34 124 50 34 124 50 48 142 50 48 142 62 48 142 62 48 142 62 48 142 62 48 142 62 48 88 38 62 88 38 62 88 38 62 88 38 62 88 38 62 88 50 62 106 50 62 106 50 76 106 50 76 106 50 76 106 62 76 106 62 76 124 62 76 124 62 76 124 62 90 124 38 90 124 38 90 124 38 90 142 38 90 142 38
90 142 38 90 142 38 90 142 38 90 142 38 90 142 38 90 142 50 90 88 50 34 88 50 34 88 50 34 88 50 34 88 62 34 88 62 34 106 62 34 106 62 48 106 62 48 106 38 48 106 38 48 106 38 48 124 38 48 124 38 48 124 50 62 124 50 62 124 50 62 124 50 62 142 50 62 142 62 62 142 62 62 142 62 76 142 62 76 142 62 76 88 38 76 88 38 76 88 38 76 88 38 76 88 38 90 88 50 90 106 50 90 106 50 90 106 50 90 106 50 90 106 62 90 106 62 34 124 62 34 124 62 34 124 62 34 124 38 34 124 38 34 124 38 34 142 38 48 142 38 48 142 50 48 142 50 48 142 50 48 142 50 48 88 50 48 88 62 62 88 62 62 88 62 62 88 62 62 88 62 62 106 38 62 106 38 62 106 38 76 106 38 76 106 38 76 106 50 76 124 50 76 124 50 76 124 50 76 124 50 90 124 62 90 124 62 90 142 62 90 142 62 90 142 62 90 142 38 90 142 38 34 142 38 34 88 38 34 88 38 34 88 50 34 88 50 34 88 50 34 88 50 48 106 50 48 106 62 48 106 62 48 106 62 48 106 62 48 106 62 48 124 38 62 124 38 62 124 38 62 124 38 62 124 38 62 124 50 62 142 50 62 142 50 76 142 50 76 142 50 76 142 62 76 142 62 76 88 62 76 88 62 76 88 62 90 88 38 90 88 38 90 88 38 90 106 38 90 106 38 90 106 50 90 106 50 34 106 50 34 106 50 34 124 50 34 124 62 34 124 62 34 124 62 34 124 62 48 124 62 48 142 38 48 142 38 48 142 38 48 142 38 48 142 38 48 142 50 62 88 50 62 88 50 62 88 50 62 88 50 62 88 62 62 88 62 62 106 62 76 106 62 76 106 62 76 106 38 76 106 38 76 106 38 76 124 38 76 124 38 90 124 50 90 124 50 90 124 50 90 124 50 90 142 50 90 142 62 90 142 62 34 142 62 34 142 62 34 142 62 34 88 38 34 88 38 34 88 38 34 88 38 48 88 38 48 88 50 48 106 50 48 106 50 48 106 50 48 106 50 48 106 62 62 106 62 62 124 62 62 124 62 62 124 62 62 124 38 62 124 38 62 124 38 76 142 38 76 142 38 76 142 50 76 142 50 76 142 50 76 142 50 76 88 50 90 88 62 90 88 62 90 88 62 90 88 62 90 88 62 90 106 38 90 106 38 34 106 38 34 106 38 34 106 38 34 106 50 34 124 50 34 124 50 34 124 50 48 124 50 48 124 62 48 124 62 48 142 62 48 142 62 48 142 62 48 142 38 62 142 38 62 142 38 62 88 38 62 88 38 62 88 50 62 88 50 62 88 50 76 88 50 76 106 50 76 106 62 76 106 62 76 106 62 76 106 62 76 106 62 90 124 38 90 124 38 90 124 38 90 124 38 90 124 38 90 124 50 90 142 50 34 142 50 34 142 50 34 142 50 34 142 62 34 142 62 34 88 62 34 88 62 48 88 62 48 88 38 48 88 38 48 88 38 48 106 38 48 106 38 48 106 50 62 106 50 62 106 50 62 106 50 62 124 50 62 124 62 62 124 62 62 124 62 76 124 62 76 124 62 76 142 38 76 142 38 76 142 38 76 142 38 76 142 38 90 142 50 90 88 50 90 88 50 90 88 50 90 88 50 90 88 62 90 88 62 34 106 62 34 106 62 34 106 62 34 106 38 34 106 38 34 106 38 34 124 38 48 124 38 48 124 50 48 124 50 48 124 50 48 124 50 48 142 50 48 142 62 62 142 62 62 142 62 62 142 62 62 142 62 62 88 38 62 88 38 62 88 38 76 88 38 76 88 38 76 88 50 76 106 50 76 106 50 76 106 50 76 106 50 90 106 62 90 106 62 90 124 62 90 124 62 90 124 62 90 124 38 90 124 38 34 124 38 34 142 38 34 142 38 34 142 50 34 142 50 34 142 50 34 142 50 48 88 50 48 88 62 48 88 62 48 88 62 48 88 62 48 88 62 48 106 38 62 106 38 62 106 38 62 106 38 62 106 38 62 106 50 62 124 50 62 124 50 76 124 50 76 124 50 76 124 62 76 124 62 76 142 62 76 142 62 76 142 62 90 142 38 90 142 38 90 142 38 90 88 38 90 88 38
34 142 38 34 142 38 34 142 38 34 142 38 34 142 38 34 142 50 34 88 50 48 88 50 48 88 50 48 88 50 48 88 62 48 88 62 48 106 62 48 106 62 62 106 62 62 106 38 62 106 38 62 106 38 62 124 38 62 124 38 62 124 50 76 124 50 76 124 50 76 124 50 76 142 50 76 142 62 76 142 62 76 142 62 90 142 62 90 142 62 90 88 38 90 88 38 90 88 38 90 88 38 90 88 38 34 88 50 34 106 50 34 106 50 34 106 50 34 106 50 34 106 62 34 106 62 48 124 62 48 124 62 48 124 62 48 124 38 48 124 38 48 124 38 48 142 38 62 142 38 62 142 50 62 142 50 62 142 50 62 142 50 62 88 50 62 88 62 76 88 62 76 88 62 76 88 62 76 88 62 76 106 38 76 106 38 76 106 38 90 106 38 90 106 38 90 106 50 90 124 50 90 124 50 90 124 50 90 124 50 34 124 62 34 124 62 34 142 62 34 142 62 34 142 62 34 142 38 34 142 38 48 142 38 48 88 38 48 88 38 48 88 50 48 88 50 48 88 50 48 88 50 62 106 50 62 106 62 62 106 62 62 106 62 62 106 62 62 106 62 62 124 38 76 124 38 76 124 38 76 124 38 76 124 38 76 124 50 76 142 50 76 142 50 90 142 50 90 142 50 90 142 62 90 142 62 90 88 62 90 88 62 90 88 62 34 88 38 34 88 38 34 88 38 34 106 38 34 106 38 34 106 50 34 106 50 48 106 50 48 106 50 48 124 50 48 124 62 48 124 62 48 124 62 48 124 62 62 124 62 62 142 38 62 142 38 62 142 38 62 142 38 62 142 38 62 142 50 76 88 50 76 88 50 76 88 50 76 88 50 76 88 62 76 88 62 76 106 62 90 106 62 90 106 62 90 106 38 90 106 38 90 106 38 90 124 38 90 124 38 34 124 50 34 124 50 34 124 50 34 124 50 34 142 50 34 142 62 34 142 62 48 142 62 48 142 62 48 142 62 48 88 38 48 88 38 48 88 38 48 88 38 62 88 38 62 88 50 62 106 50 62 106 50 62 106 50 62 106 50 62 106 62 76 106 62 76 124 62 76 124 62 76 124 62 76 124 38 76 124 38 76 124 38 90 142 38 90 142 38 90 142 50 90 142 50 90 142 50 90 142 50 90 88 50 34 88 62 34 88 62 34 88 62 34 88 62 34 88 62 34 106 38 34 106 38 48 106 38 48 106 38 48 106 38 48 106 50 48 124 50 48 124 50 48 124 50 62 124 50 62 124 62 62 124 62 62 142 62 62 142 62 62 142 62 62 142 38 76 142 38 76 142 38 76 88 38 76 88 38 76 88 50 76 88 50 76 88 50 90 88 50 90 106 50 90 106 62 90 106 62 90 106 62 90 106 62 90 106 62 34 124 38 34 124 38 34 124 38 34 124 38 34 124 38 34 124 50 34 142 50 48 142 50 48 142 50 48 142 50 48 142 62 48 142 62 48 88 62 48 88 62 62 88 62 62 88 38 62 88 38 62 88 38 62 106 38 62 106 38 62 106 50 76 106 50 76 106 50 76 106 50 76 124 50 76 124 62 76 124 62 76 124 62 90 124 62 90 124 62 90 142 38 90 142 38 90 142 38 90 142 38 90 142 38 34 142 50 34 88 50 34 88 50 34 88 50 34 88 50 34 88 62 34 88 62 48 106 62 48 106 62 48 106 62 48 106 38 48 106 38 48 106 38 48 124 38 62 124 38 62 124 50 62 124 50 62 124 50 62 124 50 62 142 50 62 142 62 76 142 62 76 142 62 76 142 62 76 142 62 76 88 38 76 88 38 76 88 38 90 88 38 90 88 38 90 88 50 90 106 50 90 106 50 90 106 50 90 106 50 34 106 62 34 106 62 34 124 62 34 124 62 34 124 62 34 124 38 34 124 38 48 124 38 48 142 38 48 142 38 48 142 50 48 142 50 48 142 50 48 142 50 62 88 50 62 88 62 62 88 62 62 88 62 62 88 62 62 88 62 62 106 38 76 106 38 76 106 38 76 106 38 76 106 38 76 106 50 76 124 50 76 124 50 90 124 50 90 124 50 90 124 62 90 124 62 90 142 62 90 142 62 90 142 62 34 142 38 34 142 38 34 142 38 34 88 38 34 88 38
34 142 38 34 142 38 34 142 38 34 142 38 34 142 38 34 142 50 34 88 50 48 88 50 48 88 50 48 88 50 48 88 62 48 88 62 48 106 62 48 106 62 62 106 62 62 106 38 62 106 38 62 106 38 62 124 38 62 124 38 62 124 50 76 124 50 76 124 50 76 124 50 76 142 50 76 142 62 76 142 62 76 142 62 90 142 62 90 142 62 90 88 38 90 88 38 90 88 38 90 88 38 90 88 38 34 88 50 34 106 50 34 106 50 34 106 50 34 106 50 34 106 62 34 106 62 48 124 62 48 124 62 48 124 62 48 124 38 48 124 38 48 124 38 48 142 38 62 142 38 62 142 50 62 142 50 62 142 50 62 142 50 62 88 50 62 88 62 76 88 62 76 88 62 76 88 62 76 88 62 76 106 38 76 106 38 76 106 38 90 106 38 90 106 38 90 106 50 90 124 50 90 124 50 90 124 50 90 124 50 34 124 62 34 124 62 34 142 62 34 142 62 34 142 62 34 142 38 34 142 38 48 142 38 48 88 38 48 88 38 48 88 50 48 88 50 48 88 50 48 88 50 62 106 50 62 106 62 62 106 62 62 106 62 62 106 62 62 106 62 62 124 38 76 124 38 76 124 38 76 124 38 76 124 38 76 124 50 76 142 50 76 142 50 90 142 50 90 142 50 90 142 62 90 142 62 90 88 62 90 88 62 90 88 62 34 88 38 34 88 38 34 88 38 34 106 38 34 106 38 34 106 50 34 106 50 48 106 50 48 106 50 48 124 50 48 124 62 48 124 62 48 124 62 48 124 62 62 124 62 62 142 38 62 142 38 62 142 38 62 142 38 62 142 38 62 142 50 76 88 50 76 88 50 76 88 50 76 88 50 76 88 62 76 88 62 76 106 62 90 106 62 90 106 62 90 106 38 90 106 38 90 106 38 90 124 38 90 124 38 34 124 50 34 124 50 34 124 50 34 124 50 34 142 50 34 142 62 34 142 62 48 142 62 48 142 62 48 142 62 48 88 38 48 88 38 48 88 38 48 88 38 62 88 38 62 88 50 62 106 50 62 106 50 62 106 50 62 106 50 62 106 62 76 106 62 76 124 62 76 124 62 76 124 62 76 124 38 76 124 38 76 124 38 90 142 38 90 142 38 90 142 50 90 142 50 90 142 50 90 142 50 90 88 50 34 88 62 34 88 62 34 88 62 34 88 62 34 88 62 34 106 38 34 106 38 48 106 38 48 106 38 48 106 38 48 106 50 48 124 50 48 124 50 48 124 50 62 124 50 62 124 62 62 124 62 62 142 62 62 142 62 62 142 62 62 142 38 76 142 38 76 142 38 76 88 38 76 88 38 76 88 50 76 88 50 76 88 50 90 88 50 90 106 50 90 106 62 90 106 62 90 106 62 90 106 62 90 106 62 34 124 38 34 124 38 34 124 38 34 124 38 34 124 38 34 124 50 34 142 50 48 142 50 48 142 50 48 142 50 48 142 62 48 142 62 48 88 62 48 88 62 62 88 62 62 88 38 62 88 38 62 88 38 62 106 38 62 106 38 62 106 50 76 106 50 76 106 50 76 106 50 76 124 50 76 124 62 76 124 62 76 124 62 90 124 62 90 124 62 90 142 38 90 142 38 90 142 38 90 142 38 90 142 38 34 142 50 34 88 50 34 88 50 34 88 50 34 88 50 34 88 62 34 88 62 48 106 62 48 106 62 48 106 62 48 106 38 48 106 38 48 106 38 48 124 38 62 124 38 62 124 50 62 124 50 62 124 50 62 124 50 62 142 50 62 142 62 76 142 62 76 142 62 76 142 62 76 142 62 76 88 38 76 88 38 76 88 38 90 88 38 90 88 38 90 88 50 90 106 50 90 106 50 90 106 50 90 106 50 34 106 62 34 106 62 34 124 62 34 124 62 34 124 62 34 124 38 34 124 38 48 124 38 48 142 38 48 142 38 48 142 50 48 142 50 48 142 50 48 142 50 62 88 50 62 88 62 62 88 62 62 88 62 62 88 62 62 88 62 62 106 38 76 106 38 76 106 38 76 106 38 76 106 38 76 106 50 76 124 50 76 124 50 90 124 50 90 124 50 90 124 62 90 124 62 90 142 62 90 142 62 90 142 62 34 142 38 34 142 38 34 142 38 34 88 38 34 88 38
34 142 38 34 142 38 34 142 38 34 142 38 34 142 38 34 142 50 34 88 50 48 88 50 48 88 50 48 88 50 48 88 62 48 88 62 48 106 62 48 106 62 62 106 62 62 106 38 62 106 38 62 106 38 62 124 38 62 124 38 62 124 50 76 124 50 76 124 50 76 124 50 76 142 50 76 142 62 76 142 62 76 142 62 90 142 62 90 142 62 90 88 38 90 88 38 90 88 38 90 88 38 90 88 38 34 88 50 34 106 50 34 106 50 34 106 50 34 106 50 34 106 62 34 106 62 48 124 62 48 124 62 48 124 62 48 124 38 48 124 38 48 124 38 48 142 38 62 142 38 62 142 50 62 142 50 62 142 50 62 142 50 62 88 50 62 88 62 76 88 62 76 88 62 76 88 62 76 88 62 76 106 38 76 106 38 76 106 38 90 106 38 90 106 38 90 106 50 90 124 50 90 124 50 90 124 50 90 124 50 34 124 62 34 124 62 34 142 62 34 142 62 34 142 62 34 142 38 34 142 38 48 142 38 48 88 38 48 88 38 48 88 50 48 88 50 48 88 50 48 88 50 62 106 50 62 106 62 62 106 62 62 106 62 62 106 62 62 106 62 62 124 38 76 124 38 76 124 38 76 124 38 76 124 38 76 124 50 76 142 50 76 142 50 90 142 50 90 142 50 90 142 62 90 142 62 90 88 62 90 88 62 90 88 62 34 88 38 34 88 38 34 88 38 34 106 38 34 106 38 34 106 50 34 106 50 48 106 50 48 106 50 48 124 50 48 124 62 48 124 62 48 124 62 48 124 62 62 124 62 62 142 38 62 142 38 62 142 38 62 142 38 62 142 38 62 142 50 76 88 50 76 88 50 76 88 50 76 88 50 76 88 62 76 88 62 76 106 62 90 106 62 90 106 62 90 106 38 90 106 38 90 106 38 90 124 38 90 124 38 34 124 50 34 124 50 34 124 50 34 124 50 34 142 50 34 142 62 34 142 62 48 142 62 48 142 62 48 142 62 48 88 38 48 88 38 48 88 38 48 88 38 62 88 38 62 88 50 62 106 50 62 106 50 62 106 50 62 106 50 62 106 62 76 106 62 76 124 62 76 124 62 76 124 62 76 124 38 76 124 38 76 124 38 90 142 38 90 142 38 90 142 50 90 142 50 90 142 50 90 142 50 90 88 50 34 88 62 34 88 62 34 88 62 34 88 62 34 88 62 34 106 38 34 106 38 48 106 38 48 106 38 48 106 38 48 106 50 48 124 50 48 124 50 48 124 50 62 124 50 62 124 62 62 124 62 62 142 62 62 142 62 62 142 62 62 142 38 76 142 38 76 142 38 76 88 38 76 88 38 76 88 50 76 88 50 76 88 50 90 88 50 90 106 50 90 106 62 90 106 62 90 106 62 90 106 62 90 106 62 34 124 38 34 124 38 34 124 38 34 124 38 34 124 38 34 124 50 34 142 50 48 142 50 48 142 50 48 142 50 48 142 62 48 142 62 48 88 62 48 88 62 62 88 62 62 88 38 62 88 38 62 88 38 62 106 38 62 106 38 62 106 50 76 106 50 76 106 50 76 106 50 76 124 50 76 124 62 76 124 62 76 124 62 90 124 62 90 124 62 90 142 38 90 142 38 90 142 38 90 142 38 90 142 38 34 142 50 34 88 50 34 88 50 34 88 50 34 88 50 34 88 62 34 88 62 48 106 62 48 106 62 48 106 62 48 106 38 48 106 38 48 106 38 48 124 38 62 124 38 62 124 50 62 124 50 62 124 50 62 124 50 62 142 50 62 142 62 76 142 62 76 142 62 76 142 62 76 142 62 76 88 38 76 88 38 76 88 38 90 88 38 90 88 38 90 88 50 90 106 50 90 106 50 90 106 50 90 106 50 34 106 62 34 106 62 34 124 62 34 124 62 34 124 62 34 124 38 34 124 38 48 124 38 48 142 38 48 142 38 48 142 50 48 142 50 48 142 50 48 142 50 62 88 50 62 88 62 62 88 62 62 88 62 62 88 62 62 88 62 62 106 38 76 106 38 76 106 38 76 106 38 76 106 38 76 106 50 76 124 50 76 124 50 90 124 50 90 124 50 90 124 62 90 124 62 90 142 62 90 142 62 90 142 62 34 142 38 34 142 38 34 142 38 34 88 38 34 88 38
34 142 38 34 142 38 34 142 38 34 142 38 34 142 38 34 142 50 34 88 50 48 88 50 48 88 50 48 88 50 48 88 62 48 88 62 48 106 62 48 106 62 62 106 62 62 106 38 62 106 38 62 106 38 62 124 38 62 124 38 62 124 50 76 124 50 76 124 50 76 124 50 76 142 50 76 142 62 76 142 62 76 142 62 90 142 62 90 142 62 90 88 38 90 88 38 90 88 38 90 88 38 90 88 38 34 88 50 34 106 50 34 106 50 34 106 50 34 106 50 34 106 62 34 106 62 48 124 62 48 124 62 48 124 62 48 124 38 48 124 38 48 124 38 48 142 38 62 142 38 62 142 50 62 142 50 62 142 50 62 142 50 62 88 50 62 88 62 76 88 62 76 88 62 76 88 62 76 88 62 76 106 38 76 106 38 76 106 38 90 106 38 90 106 38 90 106 50 90 124 50 90 124 50 90 124 50 90 124 50 34 124 62 34 124 62 34 142 62 34 142 62 34 142 62 34 142 38 34 142 38 48 142 38 48 88 38 48 88 38 48 88 50 48 88 50 48 88 50 48 88 50 62 106 50 62 106 62 62 106 62 62 106 62 62 106 62 62 106 62 62 124 38 76 124 38 76 124 38 76 124 38 76 124 38 76 124 50 76 142 50 76 142 50 90 142 50 90 142 50 90 142 62 90 142 62 90 88 62 90 88 62 90 88 62 34 88 38 34 88 38 34 88 38 34 106 38 34 106 38 34 106 50 34 106 50 48 106 50 48 106 50 48 124 50 48 124 62 48 124 62 48 124 62 48 124 62 62 124 62 62 142 38 62 142 38 62 142 38 62 142 38 62 142 38 62 142 50 76 88 50 76 88 50 76 88 50 76 88 50 76 88 62 76 88 62 76 106 62 90 106 62 90 106 62 90 106 38 90 106 38 90 106 38 90 124 38 90 124 38 34 124 50 34 124 50 34 124 50 34 124 50 34 142 50 34 142 62 34 142 62 48 142 62 48 142 62 48 142 62 48 88 38 48 88 38 48 88 38 48 88 38 62 88 38 62 88 50 62 106 50 62 106 50 62 106 50 62 106 50 62 106 62 76 106 62 76 124 62 76 124 62 76 124 62 76 124 38 76 124 38 76 124 38 90 142 38 90 142 38 90 142 50 90 142 50 90 142 50 90 142 50 90 88 50 34 88 62 34 88 62 34 88 62 34 88 62 34 88 62 34 106 38 34 106 38 48 106 38 48 106 38 48 106 38 48 106 50 48 124 50 48 124 50 48 124 50 62 124 50 62 124 62 62 124 62 62 142 62 62 142 62 62 142 62 62 142 38 76 142 38 76 142 38 76 88 38 76 88 38 76 88 50 76 88 50 76 88 50 90 88 50 90 106 50 90 106 62 90 106 62 90 106 62 90 106 62 90 106 62 34 124 38 34 124 38 34 124 38 34 124 38 34 124 38 34 124 50 34 142 50 48 142 50 48 142 50 48 142 50 48 142 62 48 142 62 48 88 62 48 88 62 62 88 62 62 88 38 62 88 38 62 88 38 62 106 38 62 106 38 62 106 50 76 106 50 76 106 50 76 106 50 76 124 50 76 124 62 76 124 62 76 124 62 90 124 62 90 124 62 90 142 38 90 142 38 90 142 38 90 142 38 90 142 38 34 142 50 34 88 50 34 88 50 34 88 50 34 88 50 34 88 62 34 88 62 48 106 62 48 106 62 48 106 62 48 106 38 48 106 38 48 106 38 48 124 38 62 124 38 62 124 50 62 124 50 62 124 50 62 124 50 62 142 50 62 142 62 76 142 62 76 142 62 76 142 62 76 142 62 76 88 38 76 88 38 76 88 38 90 88 38 90 88 38 90 88 50 90 106 50 90 106 50 90 106 50 90 106 50 34 106 62 34 106 62 34 124 62 34 124 62 34 124 62 34 124 38 34 124 38 48 124 38 48 142 38 48 142 38 48 142 50 48 142 50 48 142 50 48 142 50 62 88 50 62 88 62 62 88 62 62 88 62 62 88 62 62 88 62 62 106 38 76 106 38 76 106 38 76 106 38 76 106 38 76 106 50 76 124 50 76 124 50 90 124 50 90 124 50 90 124 62 90 124 62 90 142 62 90 142 62 90 142 62 34 142 38 34 142 38 34 142 38 34 88 38 34 88 38
34 142 38 34 142 38 34 142 38 34 142 38 34 142 38 34 142 50 34 88 50 48 88 50 48 88 50 48 88 50 48 88 62 48 88 62 48 106 62 48 106 62 62 106 62 62 106 38 62 106 38 62 106 38 62 124 38 62 124 38 62 124 50 76 124 50 76 124 50 76 124 50 76 142 50 76 142 62 76 142 62 76 142 62 90 142 62 90 142 62 90 88 38 90 88 38 90 88 38 90 88 38 90 88 38 34 88 50 34 106 50 34 106 50 34 106 50 34 106 50 34 106 62 34 106 62 48 124 62 48 124 62 48 124 62 48 124 38 48 124 38 48 124 38 48 142 38 62 142 38 62 142 50 62 142 50 62 142 50 62 142 50 62 88 50 62 88 62 76 88 62 76 88 62 76 88 62 76 88 62 76 106 38 76 106 38 76 106 38 90 106 38 90 106 38 90 106 50 90 124 50 90 124 50 90 124 50 90 124 50 34 124 62 34 124 62 34 142 62 34 142 62 34 142 62 34 142 38 34 142 38 48 142 38 48 88 38 48 88 38 48 88 50 48 88 50 48 88 50 48 88 50 62 106 50 62 106 62 62 106 62 62 106 62 62 106 62 62 106 62 62 124 38 76 124 38 76 124 38 76 124 38 76 124 38 76 124 50 76 142 50 76 142 50 90 142 50 90 142 50 90 142 62 90 142 62 90 88 62 90 88 62 90 88 62 34 88 38 34 88 38 34 88 38 34 106 38 34 106 38 34 106 50 34 106 50 48 106 50 48 106 50 48 124 50 48 124 62 48 124 62 48 124 62 48 124 62 62 124 62 62 142 38 62 142 38 62 142 38 62 142 38 62 142 38 62 142 50 76 88 50 76 88 50 76 88 50 76 88 50 76 88 62 76 88 62 76 106 62 90 106 62 90 106 62 90 106 38 90 106 38 90 106 38 90 124 38 90 124 38 34 124 50 34 124 50 34 124 50 34 124 50 34 142 50 34 142 62 34 142 62 48 142 62 48 142 62 48 142 62 48 88 38 48 88 38 48 88 38 48 88 38 62 88 38 62 88 50 62 106 50 62 106 50 62 106 50 62 106 50 62 106 62 76 106 62 76 124 62 76 124 62 76 124 62 76 124 38 76 124 38 76 124 38 90 142 38 90 142 38 90 142 50 90 142 50 90 142 50 90 142 50 90 88 50 34 88 62 34 88 62 34 88 62 34 88 62 34 88 62 34 106 38 34 106 38 48 106 38 48 106 38 48 106 38 48 106 50 48 124 50 48 124 50 48 124 50 62 124 50 62 124 62 62 124 62 62 142 62 62 142 62 62 142 62 62 142 38 76 142 38 76 142 38 76 88 38 76 88 38 76 88 50 76 88 50 76 88 50 90 88 50 90 106 50 90 106 62 90 106 62 90 106 62 90 106 62 90 106 62 34 124 38 34 124 38 34 124 38 34 124 38 34 124 38 34 124 50 34 142 50 48 142 50 48 142 50 48 142 50 48 142 62 48 142 62 48 88 62 48 88 62 62 88 62 62 88 38 62 88 38 62 88 38 62 106 38 62 106 38 62 106 50 76 106 50 76 106 50 76 106 50 76 124 50 76 124 62 76 124 62 76 124 62 90 124 62 90 124 62 90 142 38 90 142 38 90 142 38 90 142 38 90 142 38 34 142 50 34 88 50 34 88 50 34 88 50 34 88 50 34 88 62 34 88 62 48 106 62 48 106 62 48 106 62 48 106 38 48 106 38 48 106 38 48 124 38 62 124 38 62 124 50 62 124 50 62 124 50 62 124 50 62 142 50 62 142 62 76 142 62 76 142 62 76 142 62 76 142 62 76 88 38 76 88 38 76 88 38 90 88 38 90 88 38 90 88 50 90 106 50 90 106 50 90 106 50 90 106 50 34 106 62 34 106 62 34 124 62 34 124 62 34 124 62 34 124 38 34 124 38 48 124 38 48 142 38 48 142 38 48 142 50 48 142 50 48 142 50 48 142 50 62 88 50 62 88 62 62 88 62 62 88 62 62 88 62 62 88 62 62 106 38 76 106 38 76 106 38 76 106 38 76 106 38 76 106 50 76 124 50 76 124 50 90 124 50 90 124 50 90 124 62 90 124 62 90 142 62 90 142 62 90 142 62 34 142 38 34 142 38 34 142 38 34 88 38 34 88 38
48 142 38 48 142 38 48 142 38 48 142 38 48 142 38 48 142 50 48 88 50 62 88 50 62 88 50 62 88 50 62 88 62 62 88 62 62 106 62 62 106 62 76 106 62 76 106 38 76 106 38 76 106 38 76 124 38 76 124 38 76 124 50 90 124 50 90 124 50 90 124 50 90 142 50 90 142 62 90 142 62 90 142 62 34 142 62 34 142 62 34 88 38 34 88 38 34 88 38 34 88 38 34 88 38 48 88 50 48 106 50 48 106 50 48 106 50 48 106 50 48 106 62 48 106 62 62 124 62 62 124 62 62 124 62 62 124 38 62 124 38 62 124 38 62 142 38 76 142 38 76 142 50 76 142 50 76 142 50 76 142 50 76 88 50 76 88 62 90 88 62 90 88 62 90 88 62 90 88 62 90 106 38 90 106 38 90 106 38 34 106 38 34 106 38 34 106 50 34 124 50 34 124 50 34 124 50 34 124 50 48 124 62 48 124 62 48 142 62 48 142 62 48 142 62 48 142 38 48 142 38 62 142 38 62 88 38 62 88 38 62 88 50 62 88 50 62 88 50 62 88 50 76 106 50 76 106 62 76 106 62 76 106 62 76 106 62 76 106 62 76 124 38 90 124 38 90 124 38 90 124 38 90 124 38 90 124 50 90 142 50 90 142 50 34 142 50 34 142 50 34 142 62 34 142 62 34 88 62 34 88 62 34 88 62 48 88 38 48 88 38 48 88 38 48 106 38 48 106 38 48 106 50 48 106 50 62 106 50 62 106 50 62 124 50 62 124 62 62 124 62 62 124 62 62 124 62 76 124 62 76 142 38 76 142 38 76 142 38 76 142 38 76 142 38 76 142 50 90 88 50 90 88 50 90 88 50 90 88 50 90 88 62 90 88 62 90 106 62 34 106 62 34 106 62 34 106 38 34 106 38 34 106 38 34 124 38 34 124 38 48 124 50 48 124 50 48 124 50 48 124 50 48 142 50 48 142 62 48 142 62 62 142 62 62 142 62 62 142 62 62 88 38 62 88 38 62 88 38 62 88 38 76 88 38 76 88 50 76 106 50 76 106 50 76 106 50 76 106 50 76 106 62 90 106 62 90 124 62 90 124 62 90 124 62 90 124 38 90 124 38 90 124 38 34 142 38 34 142 38 34 142 50 34 142 50 34 142 50 34 142 50 34 88 50 48 88 62 48 88 62 48 88 62 48 88 62 48 88 62 48 106 38 48 106 38 62 106 38 62 106 38 62 106 38 62 106 50 62 124 50 62 124 50 62 124 50 76 124 50 76 124 62 76 124 62 76 142 62 76 142 62 76 142 62 76 142 38 90 142 38 90 142 38 90 88 38 90 88 38 90 88 50 90 88 50 90 88 50 34 88 50 34 106 50 34 106 62 34 106 62 34 106 62 34 106 62 34 106 62 48 124 38 48 124 38 48 124 38 48 124 38 48 124 38 48 124 50 48 142 50 62 142 50 62 142 50 62 142 50 62 142 62 62 142 62 62 88 62 62 88 62 76 88 62 76 88 38 76 88 38 76 88 38 76 106 38 76 106 38 76 106 50 90 106 50 90 106 50 90 106 50 90 124 50 90 124 62 90 124 62 90 124 62 34 124 62 34 124 62 34 142 38 34 142 38 34 142 38 34 142 38 34 142 38 48 142 50 48 88 50 48 88 50 48 88 50 48 88 50 48 88 62 48 88 62 62 106 62 62 106 62 62 106 62 62 106 38 62 106 38 62 106 38 62 124 38 76 124 38 76 124 50 76 124 50 76 124 50 76 124 50 76 142 50 76 142 62 90 142 62 90 142 62 90 142 62 90 142 62 90 88 38 90 88 38 90 88 38 34 88 38 34 88 38 34 88 50 34 106 50 34 106 50 34 106 50 34 106 50 48 106 62 48 106 62 48 124 62 48 124 62 48 124 62 48 124 38 48 124 38 62 124 38 62 142 38 62 142 38 62 142 50 62 142 50 62 142 50 62 142 50 76 88 50 76 88 62 76 88 62 76 88 62 76 88 62 76 88 62 76 106 38 90 106 38 90 106 38 90 106 38 90 106 38 90 106 50 90 124 50 90 124 50 34 124 50 34 124 50 34 124 62 34 124 62 34 142 62 34 142 62 34 142 62 48 142 38 48 142 38 48 142 38 48 88 38 48 88 38
48 88 50 48 88 50 48 88 50 48 88 50 48 88 50 48 88 62 48 106 62 62 106 62 62 106 62 62 106 62 62 106 38 62 106 38 62 124 38 62 124 38 76 124 38 76 124 50 76 124 50 76 124 50 76 142 50 76 142 50 76 142 62 90 142 62 90 142 62 90 142 62 90 88 62 90 88 38 90 88 38 90 88 38 34 88 38 34 88 38 34 106 50 34 106 50 34 106 50 34 106 50 34 106 50 48 106 62 48 124 62 48 124 62 48 124 62 48 124 62 48 124 38 48 124 38 62 142 38 62 142 38 62 142 38 62 142 50 62 142 50 62 142 50 62 88 50 76 88 50 76 88 62 76 88 62 76 88 62 76 88 62 76 106 62 76 106 38 90 106 38 90 106 38 90 106 38 90 106 38 90 124 50 90 124 50 90 124 50 34 124 50 34 124 50 34 124 62 34 142 62 34 142 62 34 142 62 34 142 62 48 142 38 48 142 38 48 88 38 48 88 38 48 88 38 48 88 50 48 88 50 62 88 50 62 106 50 62 106 50 62 106 62 62 106 62 62 106 62 62 106 62 76 124 62 76 124 38 76 124 38 76 124 38 76 124 38 76 124 38 76 142 50 90 142 50 90 142 50 90 142 50 90 142 50 90 142 62 90 88 62 90 88 62 34 88 62 34 88 62 34 88 38 34 88 38 34 106 38 34 106 38 34 106 38 48 106 50 48 106 50 48 106 50 48 124 50 48 124 50 48 124 62 48 124 62 62 124 62 62 124 62 62 142 62 62 142 38 62 142 38 62 142 38 62 142 38 76 142 38 76 88 50 76 88 50 76 88 50 76 88 50 76 88 50 76 88 62 90 106 62 90 106 62 90 106 62 90 106 62 90 106 38 90 106 38 90 124 38 34 124 38 34 124 38 34 124 50 34 124 50 34 124 50 34 142 50 34 142 50 48 142 62 48 142 62 48 142 62 48 142 62 48 88 62 48 88 38 48 88 38 62 88 38 62 88 38 62 88 38 62 106 50 62 106 50 62 106 50 62 106 50 76 106 50 76 106 62 76 124 62 76 124 62 76 124 62 76 124 62 76 124 38 90 124 38 90 142 38 90 142 38 90 142 38 90 142 50 90 142 50 90 142 50 34 88 50 34 88 50 34 88 62 34 88 62 34 88 62 34 88 62 34 106 62 48 106 38 48 106 38 48 106 38 48 106 38 48 106 38 48 124 50 48 124 50 62 124 50 62 124 50 62 124 50 62 124 62 62 142 62 62 142 62 62 142 62 76 142 62 76 142 38 76 142 38 76 88 38 76 88 38 76 88 38 76 88 50 90 88 50 90 88 50 90 106 50 90 106 50 90 106 62 90 106 62 90 106 62 34 106 62 34 124 62 34 124 38 34 124 38 34 124 38 34 124 38 34 124 38 48 142 50 48 142 50 48 142 50 48 142 50 48 142 50 48 142 62 48 88 62 62 88 62 62 88 62 62 88 62 62 88 38 62 88 38 62 106 38 62 106 38 76 106 38 76 106 50 76 106 50 76 106 50 76 124 50 76 124 50 76 124 62 90 124 62 90 124 62 90 124 62 90 142 62 90 142 38 90 142 38 90 142 38 34 142 38 34 142 38 34 88 50 34 88 50 34 88 50 34 88 50 34 88 50 48 88 62 48 106 62 48 106 62 48 106 62 48 106 62 48 106 38 48 106 38 62 124 38 62 124 38 62 124 38 62 124 50 62 124 50 62 124 50 62 142 50 76 142 50 76 142 62 76 142 62 76 142 62 76 142 62 76 88 62 76 88 38 90 88 38 90 88 38 90 88 38 90 88 38 90 106 50 90 106 50 90 106 50 34 106 50 34 106 50 34 106 62 34 124 62 34 124 62 34 124 62 34 124 62 48 124 38 48 124 38 48 142 38 48 142 38 48 142 38 48 142 50 48 142 50 62 142 50 62 88 50 62 88 50 62 88 62 62 88 62 62 88 62 62 88 62 76 106 62 76 106 38 76 106 38 76 106 38 76 106 38 76 106 38 76 124 50 90 124 50 90 124 50 90 124 50 90 124 50 90 124 62 90 142 62 90 142 62 34 142 62 34 142 62 34 142 38 34 142 38 34 88 38 34 88 38 34 88 38 48 88 50 48 88 50 48 88 50 48 106 50 48 106 50
48 88 50 48 88 50 48 88 50 48 88 50 48 88 50 48 88 62 48 106 62 62 106 62 62 106 62 62 106 62 62 106 38 62 106 38 62 124 38 62 124 38 76 124 38 76 124 50 76 124 50 76 124 50 76 142 50 76 142 50 76 142 62 90 142 62 90 142 62 90 142 62 90 88 62 90 88 38 90 88 38 90 88 38 34 88 38 34 88 38 34 106 50 34 106 50 34 106 50 34 106 50 34 106 50 48 106 62 48 124 62 48 124 62 48 124 62 48 124 62 48 124 38 48 124 38 62 142 38 62 142 38 62 142 38 62 142 50 62 142 50 62 142 50 62 88 50 76 88 50 76 88 62 76 88 62 76 88 62 76 88 62 76 106 62 76 106 38 90 106 38 90 106 38 90 106 38 90 106 38 90 124 50 90 124 50 90 124 50 34 124 50 34 124 50 34 124 62 34 142 62 34 142 62 34 142 62 34 142 62 48 142 38 48 142 38 48 88 38 48 88 38 48 88 38 48 88 50 48 88 50 62 88 50 62 106 50 62 106 50 62 106 62 62 106 62 62 106 62 62 106 62 76 124 62 76 124 38 76 124 38 76 124 38 76 124 38 76 124 38 76 142 50 90 142 50 90 142 50 90 142 50 90 142 50 90 142 62 90 88 62 90 88 62 34 88 62 34 88 62 34 88 38 34 88 38 34 106 38 34 106 38 34 106 38 48 106 50 48 106 50 48 106 50 48 124 50 48 124 50 48 124 62 48 124 62 62 124 62 62 124 62 62 142 62 62 142 38 62 142 38 62 142 38 62 142 38 76 142 38 76 88 50 76 88 50 76 88 50 76 88 50 76 88 50 76 88 62 90 106 62 90 106 62 90 106 62 90 106 62 90 106 38 90 106 38 90 124 38 34 124 38 34 124 38 34 124 50 34 124 50 34 124 50 34 142 50 34 142 50 48 142 62 48 142 62 48 142 62 48 142 62 48 88 62 48 88 38 48 88 38 62 88 38 62 88 38 62 88 38 62 106 50 62 106 50 62 106 50 62 106 50 76 106 50 76 106 62 76 124 62 76 124 62 76 124 62 76 124 62 76 124 38 90 124 38 90 142 38 90 142 38 90 142 38 90 142 50 90 142 50 90 142 50 34 88 50 34 88 50 34 88 62 34 88 62 34 88 62 34 88 62 34 106 62 48 106 38 48 106 38 48 106 38 48 106 38 48 106 38 48 124 50 48 124 50 62 124 50 62 124 50 62 124 50 62 124 62 62 142 62 62 142 62 62 142 62 76 142 62 76 142 38 76 142 38 76 88 38 76 88 38 76 88 38 76 88 50 90 88 50 90 88 50 90 106 50 90 106 50 90 106 62 90 106 62 90 106 62 34 106 62 34 124 62 34 124 38 34 124 38 34 124 38 34 124 38 34 124 38 48 142 50 48 142 50 48 142 50 48 142 50 48 142 50 48 142 62 48 88 62 62 88 62 62 88 62 62 88 62 62 88 38 62 88 38 62 106 38 62 106 38 76 106 38 76 106 50 76 106 50 76 106 50 76 124 50 76 124 50 76 124 62 90 124 62 90 124 62 90 124 62 90 142 62 90 142 38 90 142 38 90 142 38 34 142 38 34 142 38 34 88 50 34 88 50 34 88 50 34 88 50 34 88 50 48 88 62 48 106 62 48 106 62 48 106 62 48 106 62 48 106 38 48 106 38 62 124 38 62 124 38 62 124 38 62 124 50 62 124 50 62 124 50 62 142 50 76 142 50 76 142 62 76 142 62 76 142 62 76 142 62 76 88 62 76 88 38 90 88 38 90 88 38 90 88 38 90 88 38 90 106 50 90 106 50 90 106 50 34 106 50 34 106 50 34 106 62 34 124 62 34 124 62 34 124 62 34 124 62 48 124 38 48 124 38 48 142 38 48 142 38 48 142 38 48 142 50 48 142 50 62 142 50 62 88 50 62 88 50 62 88 62 62 88 62 62 88 62 62 88 62 76 106 62 76 106 38 76 106 38 76 106 38 76 106 38 76 106 38 76 124 50 90 124 50 90 124 50 90 124 50 90 124 50 90 124 62 90 142 62 90 142 62 34 142 62 34 142 62 34 142 38 34 142 38 34 88 38 34 88 38 34 88 38 48 88 50 48 88 50 48 88 50 48 106 50 48 106 50
48 88 50 48 88 50 48 88 50 48 88 50 48 88 50 48 88 62 48 106 62 62 106 62 62 106 62 62 106 62 62 106 38 62 106 38 62 124 38 62 124 38 76 124 38 76 124 50 76 124 50 76 124 50 76 142 50 76 142 50 76 142 62 90 142 62 90 142 62 90 142 62 90 88 62 90 88 38 90 88 38 90 88 38 34 88 38 34 88 38 34 106 50 34 106 50 34 106 50 34 106 50 34 106 50 48 106 62 48 124 62 48 124 62 48 124 62 48 124 62 48 124 38 48 124 38 62 142 38 62 142 38 62 142 38 62 142 50 62 142 50 62 142 50 62 88 50 76 88 50 76 88 62 76 88 62 76 88 62 76 88 62 76 106 62 76 106 38 90 106 38 90 106 38 90 106 38 90 106 38 90 124 50 90 124 50 90 124 50 34 124 50 34 124 50 34 124 62 34 142 62 34 142 62 34 142 62 34 142 62 48 142 38 48 142 38 48 88 38 48 88 38 48 88 38 48 88 50 48 88 50 62 88 50 62 106 50 62 106 50 62 106 62 62 106 62 62 106 62 62 106 62 76 124 62 76 124 38 76 124 38 76 124 38 76 124 38 76 124 38 76 142 50 90 142 50 90 142 50 90 142 50 90 142 50 90 142 62 90 88 62 90 88 62 34 88 62 34 88 62 34 88 38 34 88 38 34 106 38 34 106 38 34 106 38 48 106 50 48 106 50 48 106 50 48 124 50 48 124 50 48 124 62 48 124 62 62 124 62 62 124 62 62 142 62 62 142 38 62 142 38 62 142 38 62 142 38 76 142 38 76 88 50 76 88 50 76 88 50 76 88 50 76 88 50 76 88 62 90 106 62 90 106 62 90 106 62 90 106 62 90 106 38 90 106 38 90 124 38 34 124 38 34 124 38 34 124 50 34 124 50 34 124 50 34 142 50 34 142 50 48 142 62 48 142 62 48 142 62 48 142 62 48 88 62 48 88 38 48 88 38 62 88 38 62 88 38 62 88 38 62 106 50 62 106 50 62 106 50 62 106 50 76 106 50 76 106 62 76 124 62 76 124 62 76 124 62 76 124 62 76 124 38 90 124 38 90 142 38 90 142 38 90 142 38 90 142 50 90 142 50 90 142 50 34 88 50 34 88 50 34 88 62 34 88 62 34 88 62 34 88 62 34 106 62 48 106 38 48 106 38 48 106 38 48 106 38 48 106 38 48 124 50 48 124 50 62 124 50 62 124 50 62 124 50 62 124 62 62 142 62 62 142 62 62 142 62 76 142 62 76 142 38 76 142 38 76 88 38 76 88 38 76 88 38 76 88 50 90 88 50 90 88 50 90 106 50 90 106 50 90 106 62 90 106 62 90 106 62 34 106 62 34 124 62 34 124 38 34 124 38 34 124 38 34 124 38 34 124 38 48 142 50 48 142 50 48 142 50 48 142 50 48 142 50 48 142 62 48 88 62 62 88 62 62 88 62 62 88 62 62 88 38 62 88 38 62 106 38 62 106 38 76 106 38 76 106 50 76 106 50 76 106 50 76 124 50 76 124 50 76 124 62 90 124 62 90 124 62 90 124 62 90 142 62 90 142 38 90 142 38 90 142 38 34 142 38 34 142 38 34 88 50 34 88 50 34 88 50 34 88 50 34 88 50 48 88 62 48 106 62 48 106 62 48 106 62 48 106 62 48 106 38 48 106 38 62 124 38 62 124 38 62 124 38 62 124 50 62 124 50 62 124 50 62 142 50 76 142 50 76 142 62 76 142 62 76 142 62 76 142 62 76 88 62 76 88 38 90 88 38 90 88 38 90 88 38 90 88 38 90 106 50 90 106 50 90 106 50 34 106 50 34 106 50 34 106 62 34 124 62 34 124 62 34 124 62 34 124 62 48 124 38 48 124 38 48 142 38 48 142 38 48 142 38 48 142 50 48 142 50 62 142 50 62 88 50 62 88 50 62 88 62 62 88 62 62 88 62 62 88 62 76 106 62 76 106 38 76 106 38 76 106 38 76 106 38 76 106 38 76 124 50 90 124 50 90 124 50 90 124 50 90 124 50 90 124 62 90 142 62 90 142 62 34 142 62 34 142 62 34 142 38 34 142 38 34 88 38 34 88 38 34 88 38 48 88 50 48 88 50 48 88 50 48 106 50 48 106 50
48 88 50 48 88 50 48 88 50 48 88 50 48 88 50 48 88 62 48 106 62 62 106 62 62 106 62 62 106 62 62 106 38 62 106 38 62 124 38 62 124 38 76 124 38 76 124 50 76 124 50 76 124 50 76 142 50 76 142 50 76 142 62 90 142 62 90 142 62 90 142 62 90 88 62 90 88 38 90 88 38 90 88 38 34 88 38 34 88 38 34 106 50 34 106 50 34 106 50 34 106 50 34 106 50 48 106 62 48 124 62 48 124 62 48 124 62 48 124 62 48 124 38 48 124 38 62 142 38 62 142 38 62 142 38 62 142 50 62 142 50 62 142 50 62 88 50 76 88 50 76 88 62 76 88 62 76 88 62 76 88 62 76 106 62 76 106 38 90 106 38 90 106 38 90 106 38 90 106 38 90 124 50 90 124 50 90 124 50 34 124 50 34 124 50 34 124 62 34 142 62 34 142 62 34 142 62 34 142 62 48 142 38 48 142 38 48 88 38 48 88 38 48 88 38 48 88 50 48 88 50 62 88 50 62 106 50 62 106 50 62 106 62 62 106 62 62 106 62 62 106 62 76 124 62 76 124 38 76 124 38 76 124 38 76 124 38 76 124 38 76 142 50 90 142 50 90 142 50 90 142 50 90 142 50 90 142 62 90 88 62 90 88 62 34 88 62 34 88 62 34 88 38 34 88 38 34 106 38 34 106 38 34 106 38 48 106 50 48 106 50 48 106 50 48 124 50 48 124 50 48 124 62 48 124 62 62 124 62 62 124 62 62 142 62 62 142 38 62 142 38 62 142 38 62 142 38 76 142 38 76 88 50 76 88 50 76 88 50 76 88 50 76 88 50 76 88 62 90 106 62 90 106 62 90 106 62 90 106 62 90 106 38 90 106 38 90 124 38 34 124 38 34 124 38 34 124 50 34 124 50 34 124 50 34 142 50 34 142 50 48 142 62 48 142 62 48 142 62 48 142 62 48 88 62 48 88 38 48 88 38 62 88 38 62 88 38 62 88 38 62 106 50 62 106 50 62 106 50 62 106 50 76 106 50 76 106 62 76 124 62 76 124 62 76 124 62 76 124 62 76 124 38 90 124 38 90 142 38 90 142 38 90 142 38 90 142 50 90 142 50 90 142 50 34 88 50 34 88 50 34 88 62 34 88 62 34 88 62 34 88 62 34 106 62 48 106 38 48 106 38 48 106 38 48 106 38 48 106 38 48 124 50 48 124 50 62 124 50 62 124 50 62 124 50 62 124 62 62 142 62 62 142 62 62 142 62 76 142 62 76 142 38 76 142 38 76 88 38 76 88 38 76 88 38 76 88 50 90 88 50 90 88 50 90 106 50 90 106 50 90 106 62 90 106 62 90 106 62 34 106 62 34 124 62 34 124 38 34 124 38 34 124 38 34 124 38 34 124 38 48 142 50 48 142 50 48 142 50 48 142 50 48 142 50 48 142 62 48 88 62 62 88 62 62 88 62 62 88 62 62 88 38 62 88 38 62 106 38 62 106 38 76 106 38 76 106 50 76 106 50 76 106 50 76 124 50 76 124 50 76 124 62 90 124 62 90 124 62 90 124 62 90 142 62 90 142 38 90 142 38 90 142 38 34 142 38 34 142 38 34 88 50 34 88 50 34 88 50 34 88 50 34 88 50 48 88 62 48 106 62 48 106 62 48 106 62 48 106 62 48 106 38 48 106 38 62 124 38 62 124 38 62 124 38 62 124 50 62 124 50 62 124 50 62 142 50 76 142 50 76 142 62 76 142 62 76 142 62 76 142 62 76 88 62 76 88 38 90 88 38 90 88 38 90 88 38 90 88 38 90 106 50 90 106 50 90 106 50 34 106 50 34 106 50 34 106 62 34 124 62 34 124 62 34 124 62 34 124 62 48 124 38 48 124 38 48 142 38 48 142 38 48 142 38 48 142 50 48 142 50 62 142 50 62 88 50 62 88 50 62 88 62 62 88 62 62 88 62 62 88 62 76 106 62 76 106 38 76 106 38 76 106 38 76 106 38 76 106 38 76 124 50 90 124 50 90 124 50 90 124 50 90 124 50 90 124 62 90 142 62 90 142 62 34 142 62 34 142 62 34 142 38 34 142 38 34 88 38 34 88 38 34 88 38 48 88 50 48 88 50 48 88 50 48 106 50 48 106 50
62 88 50 62 88 50 62 88 50 62 88 50 62 88 50 62 88 62 62 106 62 76 106 62 76 106 62 76 106 62 76 106 38 76 106 38 76 124 38 76 124 38 90 124 38 90 124 50 90 124 50 90 124 50 90 142 50 90 142 50 90 142 62 34 142 62 34 142 62 34 142 62 34 88 62 34 88 38 34 88 38 34 88 38 48 88 38 48 88 38 48 106 50 48 106 50 48 106 50 48 106 50 48 106 50 62 106 62 62 124 62 62 124 62 62 124 62 62 124 62 62 124 38 62 124 38 76 142 38 76 142 38 76 142 38 76 142 50 76 142 50 76 142 50 76 88 50 90 88 50 90 88 62 90 88 62 90 88 62 90 88 62 90 106 62 90 106 38 34 106 38 34 106 38 34 106 38 34 106 38 34 124 50 34 124 50 34 124 50 48 124 50 48 124 50 48 124 62 48 142 62 48 142 62 48 142 62 48 142 62 62 142 38 62 142 38 62 88 38 62 88 38 62 88 38 62 88 50 62 88 50 76 88 50 76 106 50 76 106 50 76 106 62 76 106 62 76 106 62 76 106 62 90 124 62 90 124 38 90 124 38 90 124 38 90 124 38 90 124 38 90 142 50 34 142 50 34 142 50 34 142 50 34 142 50 34 142 62 34 88 62 34 88 62 48 88 62 48 88 62 48 88 38 48 88 38 48 106 38 48 106 38 48 106 38 62 106 50 62 106 50 62 106 50 62 124 50 62 124 50 62 124 62 62 124 62 76 124 62 76 124 62 76 142 62 76 142 38 76 142 38 76 142 38 76 142 38 90 142 38 90 88 50 90 88 50 90 88 50 90 88 50 90 88 50 90 88 62 34 106 62 34 106 62 34 106 62 34 106 62 34 106 38 34 106 38 34 124 38 48 124 38 48 124 38 48 124 50 48 124 50 48 124 50 48 142 50 48 142 50 62 142 62 62 142 62 62 142 62 62 142 62 62 88 62 62 88 38 62 88 38 76 88 38 76 88 38 76 88 38 76 106 50 76 106 50 76 106 50 76 106 50 90 106 50 90 106 62 90 124 62 90 124 62 90 124 62 90 124 62 90 124 38 34 124 38 34 142 38 34 142 38 34 142 38 34 142 50 34 142 50 34 142 50 48 88 50 48 88 50 48 88 62 48 88 62 48 88 62 48 88 62 48 106 62 62 106 38 62 106 38 62 106 38 62 106 38 62 106 38 62 124 50 62 124 50 76 124 50 76 124 50 76 124 50 76 124 62 76 142 62 76 142 62 76 142 62 90 142 62 90 142 38 90 142 38 90 88 38 90 88 38 90 88 38 90 88 50 34 88 50 34 88 50 34 106 50 34 106 50 34 106 62 34 106 62 34 106 62 48 106 62 48 124 62 48 124 38 48 124 38 48 124 38 48 124 38 48 124 38 62 142 50 62 142 50 62 142 50 62 142 50 62 142 50 62 142 62 62 88 62 76 88 62 76 88 62 76 88 62 76 88 38 76 88 38 76 106 38 76 106 38 90 106 38 90 106 50 90 106 50 90 106 50 90 124 50 90 124 50 90 124 62 34 124 62 34 124 62 34 124 62 34 142 62 34 142 38 34 142 38 34 142 38 48 142 38 48 142 38 48 88 50 48 88 50 48 88 50 48 88 50 48 88 50 62 88 62 62 106 62 62 106 62 62 106 62 62 106 62 62 106 38 62 106 38 76 124 38 76 124 38 76 124 38 76 124 50 76 124 50 76 124 50 76 142 50 90 142 50 90 142 62 90 142 62 90 142 62 90 142 62 90 88 62 90 88 38 34 88 38 34 88 38 34 88 38 34 88 38 34 106 50 34 106 50 34 106 50 48 106 50 48 106 50 48 106 62 48 124 62 48 124 62 48 124 62 48 124 62 62 124 38 62 124 38 62 142 38 62 142 38 62 142 38 62 142 50 62 142 50 76 142 50 76 88 50 76 88 50 76 88 62 76 88 62 76 88 62 76 88 62 90 106 62 90 106 38 90 106 38 90 106 38 90 106 38 90 106 38 90 124 50 34 124 50 34 124 50 34 124 50 34 124 50 34 124 62 34 142 62 34 142 62 48 142 62 48 142 62 48 142 38 48 142 38 48 88 38 48 88 38 48 88 38 62 88 50 62 88 50 62 88 50 62 106 50 62 106 50
62 88 50 62 88 50 62 88 50 62 88 50 62 88 50 62 88 62 62 106 62 76 106 62 76 106 62 76 106 62 76 106 38 76 106 38 76 124 38 76 124 38 90 124 38 90 124 50 90 124 50 90 124 50 90 142 50 90 142 50 90 142 62 34 142 62 34 142 62 34 142 62 34 88 62 34 88 38 34 88 38 34 88 38 48 88 38 48 88 38 48 106 50 48 106 50 48 106 50 48 106 50 48 106 50 62 106 62 62 124 62 62 124 62 62 124 62 62 124 62 62 124 38 62 124 38 76 142 38 76 142 38 76 142 38 76 142 50 76 142 50 76 142 50 76 88 50 90 88 50 90 88 62 90 88 62 90 88 62 90 88 62 90 106 62 90 106 38 34 106 38 34 106 38 34 106 38 34 106 38 34 124 50 34 124 50 34 124 50 48 124 50 48 124 50 48 124 62 48 142 62 48 142 62 48 142 62 48 142 62 62 142 38 62 142 38 62 88 38 62 88 38 62 88 38 62 88 50 62 88 50 76 88 50 76 106 50 76 106 50 76 106 62 76 106 62 76 106 62 76 106 62 90 124 62 90 124 38 90 124 38 90 124 38 90 124 38 90 124 38 90 142 50 34 142 50 34 142 50 34 142 50 34 142 50 34 142 62 34 88 62 34 88 62 48 88 62 48 88 62 48 88 38 48 88 38 48 106 38 48 106 38 48 106 38 62 106 50 62 106 50 62 106 50 62 124 50 62 124 50 62 124 62 62 124 62 76 124 62 76 124 62 76 142 62 76 142 38 76 142 38 76 142 38 76 142 38 90 142 38 90 88 50 90 88 50 90 88 50 90 88 50 90 88 50 90 88 62 34 106 62 34 106 62 34 106 62 34 106 62 34 106 38 34 106 38 34 124 38 48 124 38 48 124 38 48 124 50 48 124 50 48 124 50 48 142 50 48 142 50 62 142 62 62 142 62 62 142 62 62 142 62 62 88 62 62 88 38 62 88 38 76 88 38 76 88 38 76 88 38 76 106 50 76 106 50 76 106 50 76 106 50 90 106 50 90 106 62 90 124 62 90 124 62 90 124 62 90 124 62 90 124 38 34 124 38 34 142 38 34 142 38 34 142 38 34 142 50 34 142 50 34 142 50 48 88 50 48 88 50 48 88 62 48 88 62 48 88 62 48 88 62 48 106 62 62 106 38 62 106 38 62 106 38 62 106 38 62 106 38 62 124 50 62 124 50 76 124 50 76 124 50 76 124 50 76 124 62 76 142 62 76 142 62 76 142 62 90 142 62 90 142 38 90 142 38 90 88 38 90 88 38 90 88 38 90 88 50 34 88 50 34 88 50 34 106 50 34 106 50 34 106 62 34 106 62 34 106 62 48 106 62 48 124 62 48 124 38 48 124 38 48 124 38 48 124 38 48 124 38 62 142 50 62 142 50 62 142 50 62 142 50 62 142 50 62 142 62 62 88 62 76 88 62 76 88 62 76 88 62 76 88 38 76 88 38 76 106 38 76 106 38 90 106 38 90 106 50 90 106 50 90 106 50 90 124 50 90 124 50 90 124 62 34 124 62 34 124 62 34 124 62 34 142 62 34 142 38 34 142 38 34 142 38 48 142 38 48 142 38 48 88 50 48 88 50 48 88 50 48 88 50 48 88 50 62 88 62 62 106 62 62 106 62 62 106 62 62 106 62 62 106 38 62 106 38 76 124 38 76 124 38 76 124 38 76 124 50 76 124 50 76 124 50 76 142 50 90 142 50 90 142 62 90 142 62 90 142 62 90 142 62 90 88 62 90 88 38 34 88 38 34 88 38 34 88 38 34 88 38 34 106 50 34 106 50 34 106 50 48 106 50 48 106 50 48 106 62 48 124 62 48 124 62 48 124 62 48 124 62 62 124 38 62 124 38 62 142 38 62 142 38 62 142 38 62 142 50 62 142 50 76 142 50 76 88 50 76 88 50 76 88 62 76 88 62 76 88 62 76 88 62 90 106 62 90 106 38 90 106 38 90 106 38 90 106 38 90 106 38 90 124 50 34 124 50 34 124 50 34 124 50 34 124 50 34 124 62 34 142 62 34 142 62 48 142 62 48 142 62 48 142 38 48 142 38 48 88 38 48 88 38 48 88 38 62 88 50 62 88 50 62 88 50 62 106 50 62 106 50
62 88 50 62 88 50 62 88 50 62 88 50 62 88 50 62 88 62 62 106 62 76 106 62 76 106 62 76 106 62 76 106 38 76 106 38 76 124 38 76 124 38 90 124 38 90 124 50 90 124 50 90 124 50 90 142 50 90 142 50 90 142 62 34 142 62 34 142 62 34 142 62 34 88 62 34 88 38 34 88 38 34 88 38 48 88 38 48 88 38 48 106 50 48 106 50 48 106 50 48 106 50 48 106 50 62 106 62 62 124 62 62 124 62 62 124 62 62 124 62 62 124 38 62 124 38 76 142 38 76 142 38 76 142 38 76 142 50 76 142 50 76 142 50 76 88 50 90 88 50 90 88 62 90 88 62 90 88 62 90 88 62 90 106 62 90 106 38 34 106 38 34 106 38 34 106 38 34 106 38 34 124 50 34 124 50 34 124 50 48 124 50 48 124 50 48 124 62 48 142 62 48 142 62 48 142 62 48 142 62 62 142 38 62 142 38 62 88 38 62 88 38 62 88 38 62 88 50 62 88 50 76 88 50 76 106 50 76 106 50 76 106 62 76 106 62 76 106 62 76 106 62 90 124 62 90 124 38 90 124 38 90 124 38 90 124 38 90 124 38 90 142 50 34 142 50 34 142 50 34 142 50 34 142 50 34 142 62 34 88 62 34 88 62 48 88 62 48 88 62 48 88 38 48 88 38 48 106 38 48 106 38 48 106 38 62 106 50 62 106 50 62 106 50 62 124 50 62 124 50 62 124 62 62 124 62 76 124 62 76 124 62 76 142 62 76 142 38 76 142 38 76 142 38 76 142 38 90 142 38 90 88 50 90 88 50 90 88 50 90 88 50 90 88 50 90 88 62 34 106 62 34 106 62 34 106 62 34 106 62 34 106 38 34 106 38 34 124 38 48 124 38 48 124 38 48 124 50 48 124 50 48 124 50 48 142 50 48 142 50 62 142 62 62 142 62 62 142 62 62 142 62 62 88 62 62 88 38 62 88 38 76 88 38 76 88 38 76 88 38 76 106 50 76 106 50 76 106 50 76 106 50 90 106 50 90 106 62 90 124 62 90 124 62 90 124 62 90 124 62 90 124 38 34 124 38 34 142 38 34 142 38 34 142 38 34 142 50 34 142 50 34 142 50 48 88 50 48 88 50 48 88 62 48 88 62 48 88 62 48 88 62 48 106 62 62 106 38 62 106 38 62 106 38 62 106 38 62 106 38 62 124 50 62 124 50 76 124 50 76 124 50 76 124 50 76 124 62 76 142 62 76 142 62 76 142 62 90 142 62 90 142 38 90 142 38 90 88 38 90 88 38 90 88 38 90 88 50 34 88 50 34 88 50 34 106 50 34 106 50 34 106 62 34 106 62 34 106 62 48 106 62 48 124 62 48 124 38 48 124 38 48 124 38 48 124 38 48 124 38 62 142 50 62 142 50 62 142 50 62 142 50 62 142 50 62 142 62 62 88 62 76 88 62 76 88 62 76 88 62 76 88 38 76 88 38 76 106 38 76 106 38 90 106 38 90 106 50 90 106 50 90 106 50 90 124 50 90 124 50 90 124 62 34 124 62 34 124 62 34 124 62 34 142 62 34 142 38 34 142 38 34 142 38 48 142 38 48 142 38 48 88 50 48 88 50 48 88 50 48 88 50 48 88 50 62 88 62 62 106 62 62 106 62 62 106 62 62 106 62 62 106 38 62 106 38 76 124 38 76 124 38 76 124 38 76 124 50 76 124 50 76 124 50 76 142 50 90 142 50 90 142 62 90 142 62 90 142 62 90 142 62 90 88 62 90 88 38 34 88 38 34 88 38 34 88 38 34 88 38 34 106 50 34 106 50 34 106 50 48 106 50 48 106 50 48 106 62 48 124 62 48 124 62 48 124 62 48 124 62 62 124 38 62 124 38 62 142 38 62 142 38 62 142 38 62 142 50 62 142 50 76 142 50 76 88 50 76 88 50 76 88 62 76 88 62 76 88 62 76 88 62 90 106 62 90 106 38 90 106 38 90 106 38 90 106 38 90 106 38 90 124 50 34 124 50 34 124 50 34 124 50 34 124 50 34 124 62 34 142 62 34 142 62 48 142 62 48 142 62 48 142 38 48 142 38 48 88 38 48 88 38 48 88 38 62 88 50 62 88 50 62 88 50 62 106 50 62 106 50
62 106 50 62 106 50 62 106 50 62 106 50 62 106 50 62 106 62 62 124 62 76 124 62 76 124 62 76 124 62 76 124 38 76 124 38 76 142 38 76 142 38 90 142 38 90 142 50 90 142 50 90 142 50 90 88 50 90 88 50 90 88 62 34 88 62 34 88 62 34 88 62 34 106 62 34 106 38 34 106 38 34 106 38 48 106 38 48 106 38 48 124 50 48 124 50 48 124 50 48 124 50 48 124 50 62 124 62 62 142 62 62 142 62 62 142 62 62 142 62 62 142 38 62 142 38 76 88 38 76 88 38 76 88 38 76 88 50 76 88 50 76 88 50 76 106 50 90 106 50 90 106 62 90 106 62 90 106 62 90 106 62 90 124 62 90 124 38 34 124 38 34 124 38 34 124 38 34 124 38 34 142 50 34 142 50 34 142 50 48 142 50 48 142 50 48 142 62 48 88 62 48 88 62 48 88 62 48 88 62 62 88 38 62 88 38 62 106 38 62 106 38 62 106 38 62 106 50 62 106 50 76 106 50 76 124 50 76 124 50 76 124 62 76 124 62 76 124 62 76 124 62 90 142 62 90 142 38 90 142 38 90 142 38 90 142 38 90 142 38 90 88 50 34 88 50 34 88 50 34 88 50 34 88 50 34 88 62 34 106 62 34 106 62 48 106 62 48 106 62 48 106 38 48 106 38 48 124 38 48 124 38 48 124 38 62 124 50 62 124 50 62 124 50 62 142 50 62 142 50 62 142 62 62 142 62 76 142 62 76 142 62 76 88 62 76 88 38 76 88 38 76 88 38 76 88 38 90 88 38 90 106 50 90 106 50 90 106 50 90 106 50 90 106 50 90 106 62 34 124 62 34 124 62 34 124 62 34 124 62 34 124 38 34 124 38 34 142 38 48 142 38 48 142 38 48 142 50 48 142 50 48 142 50 48 88 50 48 88 50 62 88 62 62 88 62 62 88 62 62 88 62 62 106 62 62 106 38 62 106 38 76 106 38 76 106 38 76 106 38 76 124 50 76 124 50 76 124 50 76 124 50 90 124 50 90 124 62 90 142 62 90 142 62 90 142 62 90 142 62 90 142 38 34 142 38 34 88 38 34 88 38 34 88 38 34 88 50 34 88 50 34 88 50 48 106 50 48 106 50 48 106 62 48 106 62 48 106 62 48 106 62 48 124 62 62 124 38 62 124 38 62 124 38 62 124 38 62 124 38 62 142 50 62 142 50 76 142 50 76 142 50 76 142 50 76 142 62 76 88 62 76 88 62 76 88 62 90 88 62 90 88 38 90 88 38 90 106 38 90 106 38 90 106 38 90 106 50 34 106 50 34 106 50 34 124 50 34 124 50 34 124 62 34 124 62 34 124 62 48 124 62 48 142 62 48 142 38 48 142 38 48 142 38 48 142 38 48 142 38 62 88 50 62 88 50 62 88 50 62 88 50 62 88 50 62 88 62 62 106 62 76 106 62 76 106 62 76 106 62 76 106 38 76 106 38 76 124 38 76 124 38 90 124 38 90 124 50 90 124 50 90 124 50 90 142 50 90 142 50 90 142 62 34 142 62 34 142 62 34 142 62 34 88 62 34 88 38 34 88 38 34 88 38 48 88 38 48 88 38 48 106 50 48 106 50 48 106 50 48 106 50 48 106 50 62 106 62 62 124 62 62 124 62 62 124 62 62 124 62 62 124 38 62 124 38 76 142 38 76 142 38 76 142 38 76 142 50 76 142 50 76 142 50 76 88 50 90 88 50 90 88 62 90 88 62 90 88 62 90 88 62 90 106 62 90 106 38 34 106 38 34 106 38 34 106 38 34 106 38 34 124 50 34 124 50 34 124 50 48 124 50 48 124 50 48 124 62 48 142 62 48 142 62 48 142 62 48 142 62 62 142 38 62 142 38 62 88 38 62 88 38 62 88 38 62 88 50 62 88 50 76 88 50 76 106 50 76 106 50 76 106 62 76 106 62 76 106 62 76 106 62 90 124 62 90 124 38 90 124 38 90 124 38 90 124 38 90 124 38 90 142 50 34 142 50 34 142 50 34 142 50 34 142 50 34 142 62 34 88 62 34 88 62 48 88 62 48 88 62 48 88 38 48 88 38 48 106 38 48 106 38 48 106 38 62 106 50 62 106 50 62 106 50 62 124 50 62 124 50
62 106 62 62 106 62 62 106 62 62 106 62 62 106 62 62 106 38 62 124 38 76 124 38 76 124 38 76 124 38 76 124 50 76 124 50 76 142 50 76 142 50 90 142 50 90 142 62 90 142 62 90 142 62 90 88 62 90 88 62 90 88 38 34 88 38 34 88 38 34 88 38 34 106 38 34 106 50 34 106 50 34 106 50 48 106 50 48 106 50 48 124 62 48 124 62 48 124 62 48 124 62 48 124 62 62 124 38 62 142 38 62 142 38 62 142 38 62 142 38 62 142 50 62 142 50 76 88 50 76 88 50 76 88 50 76 88 62 76 88 62 76 88 62 76 106 62 90 106 62 90 106 38 90 106 38 90 106 38 90 106 38 90 124 38 90 124 50 34 124 50 34 124 50 34 124 50 34 124 50 34 142 62 34 142 62 34 142 62 48 142 62 48 142 62 48 142 38 48 88 38 48 88 38 48 88 38 48 88 38 62 88 50 62 88 50 62 106 50 62 106 50 62 106 50 62 106 62 62 106 62 76 106 62 76 124 62 76 124 62 76 124 38 76 124 38 76 124 38 76 124 38 90 142 38 90 142 50 90 142 50 90 142 50 90 142 50 90 142 50 90 88 62 34 88 62 34 88 62 34 88 62 34 88 62 34 88 38 34 106 38 34 106 38 48 106 38 48 106 38 48 106 50 48 106 50 48 124 50 48 124 50 48 124 50 62 124 62 62 124 62 62 124 62 62 142 62 62 142 62 62 142 38 62 142 38 76 142 38 76 142 38 76 88 38 76 88 50 76 88 50 76 88 50 76 88 50 90 88 50 90 106 62 90 106 62 90 106 62 90 106 62 90 106 62 90 106 38 34 124 38 34 124 38 34 124 38 34 124 38 34 124 50 34 124 50 34 142 50 48 142 50 48 142 50 48 142 62 48 142 62 48 142 62 48 88 62 48 88 62 62 88 38 62 88 38 62 88 38 62 88 38 62 106 38 62 106 50 62 106 50 76 106 50 76 106 50 76 106 50 76 124 62 76 124 62 76 124 62 76 124 62 90 124 62 90 124 38 90 142 38 90 142 38 90 142 38 90 142 38 90 142 50 34 142 50 34 88 50 34 88 50 34 88 50 34 88 62 34 88 62 34 88 62 48 106 62 48 106 62 48 106 38 48 106 38 48 106 38 48 106 38 48 124 38 62 124 50 62 124 50 62 124 50 62 124 50 62 124 50 62 142 62 62 142 62 76 142 62 76 142 62 76 142 62 76 142 38 76 88 38 76 88 38 76 88 38 90 88 38 90 88 50 90 88 50 90 106 50 90 106 50 90 106 50 90 106 62 34 106 62 34 106 62 34 124 62 34 124 62 34 124 38 34 124 38 34 124 38 48 124 38 48 142 38 48 142 50 48 142 50 48 142 50 48 142 50 48 142 50 62 88 62 62 88 62 62 88 62 62 88 62 62 88 62 62 88 38 62 106 38 76 106 38 76 106 38 76 106 38 76 106 50 76 106 50 76 124 50 76 124 50 90 124 50 90 124 62 90 124 62 90 124 62 90 142 62 90 142 62 90 142 38 34 142 38 34 142 38 34 142 38 34 88 38 34 88 50 34 88 50 34 88 50 48 88 50 48 88 50 48 106 62 48 106 62 48 106 62 48 106 62 48 106 62 62 106 38 62 124 38 62 124 38 62 124 38 62 124 38 62 124 50 62 124 50 76 142 50 76 142 50 76 142 50 76 142 62 76 142 62 76 142 62 76 88 62 90 88 62 90 88 38 90 88 38 90 88 38 90 88 38 90 106 38 90 106 50 34 106 50 34 106 50 34 106 50 34 106 50 34 124 62 34 124 62 34 124 62 48 124 62 48 124 62 48 124 38 48 142 38 48 142 38 48 142 38 48 142 38 62 142 50 62 142 50 62 88 50 62 88 50 62 88 50 62 88 62 62 88 62 76 88 62 76 106 62 76 106 62 76 106 38 76 106 38 76 106 38 76 106 38 90 124 38 90 124 50 90 124 50 90 124 50 90 124 50 90 124 50 90 142 62 34 142 62 34 142 62 34 142 62 34 142 62 34 142 38 34 88 38 34 88 38 48 88 38 48 88 38 48 88 50 48 88 50 48 106 50 48 106 50 48 106 50 62 106 62 62 106 62 62 106 62 62 124 62 62 124 62
76 106 62 76 106 62 76 106 62 76 106 62 76 106 62 76 106 38 76 124 38 90 124 38 90 124 38 90 124 38 90 124 50 90 124 50 90 142 50 90 142 50 34 142 50 34 142 62 34 142 62 34 142 62 34 88 62 34 88 62 34 88 38 48 88 38 48 88 38 48 88 38 48 106 38 48 106 50 48 106 50 48 106 50 62 106 50 62 106 50 62 124 62 62 124 62 62 124 62 62 124 62 62 124 62 76 124 38 76 142 38 76 142 38 76 142 38 76 142 38 76 142 50 76 142 50 90 88 50 90 88 50 90 88 50 90 88 62 90 88 62 90 88 62 90 106 62 34 106 62 34 106 38 34 106 38 34 106 38 34 106 38 34 124 38 34 124 50 48 124 50 48 124 50 48 124 50 48 124 50 48 142 62 48 142 62 48 142 62 62 142 62 62 142 62 62 142 38 62 88 38 62 88 38 62 88 38 62 88 38 76 88 50 76 88 50 76 106 50 76 106 50 76 106 50 76 106 62 76 106 62 90 106 62 90 124 62 90 124 62 90 124 38 90 124 38 90 124 38 90 124 38 34 142 38 34 142 50 34 142 50 34 142 50 34 142 50 34 142 50 34 88 62 48 88 62 48 88 62 48 88 62 48 88 62 48 88 38 48 106 38 48 106 38 62 106 38 62 106 38 62 106 50 62 106 50 62 124 50 62 124 50 62 124 50 76 124 62 76 124 62 76 124 62 76 142 62 76 142 62 76 142 38 76 142 38 90 142 38 90 142 38 90 88 38 90 88 50 90 88 50 90 88 50 90 88 50 34 88 50 34 106 62 34 106 62 34 106 62 34 106 62 34 106 62 34 106 38 48 124 38 48 124 38 48 124 38 48 124 38 48 124 50 48 124 50 48 142 50 62 142 50 62 142 50 62 142 62 62 142 62 62 142 62 62 88 62 62 88 62 76 88 38 76 88 38 76 88 38 76 88 38 76 106 38 76 106 50 76 106 50 90 106 50 90 106 50 90 106 50 90 124 62 90 124 62 90 124 62 90 124 62 34 124 62 34 124 38 34 142 38 34 142 38 34 142 38 34 142 38 34 142 50 48 142 50 48 88 50 48 88 50 48 88 50 48 88 62 48 88 62 48 88 62 62 106 62 62 106 62 62 106 38 62 106 38 62 106 38 62 106 38 62 124 38 76 124 50 76 124 50 76 124 50 76 124 50 76 124 50 76 142 62 76 142 62 90 142 62 90 142 62 90 142 62 90 142 38 90 88 38 90 88 38 90 88 38 34 88 38 34 88 50 34 88 50 34 106 50 34 106 50 34 106 50 34 106 62 48 106 62 48 106 62 48 124 62 48 124 62 48 124 38 48 124 38 48 124 38 62 124 38 62 142 38 62 142 50 62 142 50 62 142 50 62 142 50 62 142 50 76 88 62 76 88 62 76 88 62 76 88 62 76 88 62 76 88 38 76 106 38 90 106 38 90 106 38 90 106 38 90 106 50 90 106 50 90 124 50 90 124 50 34 124 50 34 124 62 34 124 62 34 124 62 34 142 62 34 142 62 34 142 38 48 142 38 48 142 38 48 142 38 48 88 38 48 88 50 48 88 50 48 88 50 62 88 50 62 88 50 62 106 62 62 106 62 62 106 62 62 106 62 62 106 62 76 106 38 76 124 38 76 124 38 76 124 38 76 124 38 76 124 50 76 124 50 90 142 50 90 142 50 90 142 50 90 142 62 90 142 62 90 142 62 90 88 62 34 88 62 34 88 38 34 88 38 34 88 38 34 88 38 34 106 38 34 106 50 48 106 50 48 106 50 48 106 50 48 106 50 48 124 62 48 124 62 48 124 62 62 124 62 62 124 62 62 124 38 62 142 38 62 142 38 62 142 38 62 142 38 76 142 50 76 142 50 76 88 50 76 88 50 76 88 50 76 88 62 76 88 62 90 88 62 90 106 62 90 106 62 90 106 38 90 106 38 90 106 38 90 106 38 34 124 38 34 124 50 34 124 50 34 124 50 34 124 50 34 124 50 34 142 62 48 142 62 48 142 62 48 142 62 48 142 62 48 142 38 48 88 38 48 88 38 62 88 38 62 88 38 62 88 50 62 88 50 62 106 50 62 106 50 62 106 50 76 106 62 76 106 62 76 106 62 76 124 62 76 124 62
76 106 62 76 106 62 76 106 62 76 106 62 76 106 62 76 106 38 76 124 38 90 124 38 90 124 38 90 124 38 90 124 50 90 124 50 90 142 50 90 142 50 34 142 50 34 142 62 34 142 62 34 142 62 34 88 62 34 88 62 34 88 38 48 88 38 48 88 38 48 88 38 48 106 38 48 106 50 48 106 50 48 106 50 62 106 50 62 106 50 62 124 62 62 124 62 62 124 62 62 124 62 62 124 62 76 124 38 76 142 38 76 142 38 76 142 38 76 142 38 76 142 50 76 142 50 90 88 50 90 88 50 90 88 50 90 88 62 90 88 62 90 88 62 90 106 62 34 106 62 34 106 38 34 106 38 34 106 38 34 106 38 34 124 38 34 124 50 48 124 50 48 124 50 48 124 50 48 124 50 48 142 62 48 142 62 48 142 62 62 142 62 62 142 62 62 142 38 62 88 38 62 88 38 62 88 38 62 88 38 76 88 50 76 88 50 76 106 50 76 106 50 76 106 50 76 106 62 76 106 62 90 106 62 90 124 62 90 124 62 90 124 38 90 124 38 90 124 38 90 124 38 34 142 38 34 142 50 34 142 50 34 142 50 34 142 50 34 142 50 34 88 62 48 88 62 48 88 62 48 88 62 48 88 62 48 88 38 48 106 38 48 106 38 62 106 38 62 106 38 62 106 50 62 106 50 62 124 50 62 124 50 62 124 50 76 124 62 76 124 62 76 124 62 76 142 62 76 142 62 76 142 38 76 142 38 90 142 38 90 142 38 90 88 38 90 88 50 90 88 50 90 88 50 90 88 50 34 88 50 34 106 62 34 106 62 34 106 62 34 106 62 34 106 62 34 106 38 48 124 38 48 124 38 48 124 38 48 124 38 48 124 50 48 124 50 48 142 50 62 142 50 62 142 50 62 142 62 62 142 62 62 142 62 62 88 62 62 88 62 76 88 38 76 88 38 76 88 38 76 88 38 76 106 38 76 106 50 76 106 50 90 106 50 90 106 50 90 106 50 90 124 62 90 124 62 90 124 62 90 124 62 34 124 62 34 124 38 34 142 38 34 142 38 34 142 38 34 142 38 34 142 50 48 142 50 48 88 50 48 88 50 48 88 50 48 88 62 48 88 62 48 88 62 62 106 62 62 106 62 62 106 38 62 106 38 62 106 38 62 106 38 62 124 38 76 124 50 76 124 50 76 124 50 76 124 50 76 124 50 76 142 62 76 142 62 90 142 62 90 142 62 90 142 62 90 142 38 90 88 38 90 88 38 90 88 38 34 88 38 34 88 50 34 88 50 34 106 50 34 106 50 34 106 50 34 106 62 48 106 62 48 106 62 48 124 62 48 124 62 48 124 38 48 124 38 48 124 38 62 124 38 62 142 38 62 142 50 62 142 50 62 142 50 62 142 50 62 142 50 76 88 62 76 88 62 76 88 62 76 88 62 76 88 62 76 88 38 76 106 38 90 106 38 90 106 38 90 106 38 90 106 50 90 106 50 90 124 50 90 124 50 34 124 50 34 124 62 34 124 62 34 124 62 34 142 62 34 142 62 34 142 38 48 142 38 48 142 38 48 142 38 48 88 38 48 88 50 48 88 50 48 88 50 62 88 50 62 88 50 62 106 62 62 106 62 62 106 62 62 106 62 62 106 62 76 106 38 76 124 38 76 124 38 76 124 38 76 124 38 76 124 50 76 124 50 90 142 50 90 142 50 90 142 50 90 142 62 90 142 62 90 142 62 90 88 62 34 88 62 34 88 38 34 88 38 34 88 38 34 88 38 34 106 38 34 106 50 48 106 50 48 106 50 48 106 50 48 106 50 48 124 62 48 124 62 48 124 62 62 124 62 62 124 62 62 124 38 62 142 38 62 142 38 62 142 38 62 142 38 76 142 50 76 142 50 76 88 50 76 88 50 76 88 50 76 88 62 76 88 62 90 88 62 90 106 62 90 106 62 90 106 38 90 106 38 90 106 38 90 106 38 34 124 38 34 124 50 34 124 50 34 124 50 34 124 50 34 124 50 34 142 62 48 142 62 48 142 62 48 142 62 48 142 62 48 142 38 48 88 38 48 88 38 62 88 38 62 88 38 62 88 50 62 88 50 62 106 50 62 106 50 62 106 50 76 106 62 76 106 62 76 106 62 76 124 62 76 124 62
76 106 62 76 106 62 76 106 62 76 106 62 76 106 62 76 106 38 76 124 38 90 124 38 90 124 38 90 124 38 90 124 50 90 124 50 90 142 50 90 142 50 34 142 50 34 142 62 34 142 62 34 142 62 34 88 62 34 88 62 34 88 38 48 88 38 48 88 38 48 88 38 48 106 38 48 106 50 48 106 50 48 106 50 62 106 50 62 106 50 62 124 62 62 124 62 62 124 62 62 124 62 62 124 62 76 124 38 76 142 38 76 142 38 76 142 38 76 142 38 76 142 50 76 142 50 90 88 50 90 88 50 90 88 50 90 88 62 90 88 62 90 88 62 90 106 62 34 106 62 34 106 38 34 106 38 34 106 38 34 106 38 34 124 38 34 124 50 48 124 50 48 124 50 48 124 50 48 124 50 48 142 62 48 142 62 48 142 62 62 142 62 62 142 62 62 142 38 62 88 38 62 88 38 62 88 38 62 88 38 76 88 50 76 88 50 76 106 50 76 106 50 76 106 50 76 106 62 76 106 62 90 106 62 90 124 62 90 124 62 90 124 38 90 124 38 90 124 38 90 124 38 34 142 38 34 142 50 34 142 50 34 142 50 34 142 50 34 142 50 34 88 62 48 88 62 48 88 62 48 88 62 48 88 62 48 88 38 48 106 38 48 106 38 62 106 38 62 106 38 62 106 50 62 106 50 62 124 50 62 124 50 62 124 50 76 124 62 76 124 62 76 124 62 76 142 62 76 142 62 76 142 38 76 142 38 90 142 38 90 142 38 90 88 38 90 88 50 90 88 50 90 88 50 90 88 50 34 88 50 34 106 62 34 106 62 34 106 62 34 106 62 34 106 62 34 106 38 48 124 38 48 124 38 48 124 38 48 124 38 48 124 50 48 124 50 48 142 50 62 142 50 62 142 50 62 142 62 62 142 62 62 142 62 62 88 62 62 88 62 76 88 38 76 88 38 76 88 38 76 88 38 76 106 38 76 106 50 76 106 50 90 106 50 90 106 50 90 106 50 90 124 62 90 124 62 90 124 62 90 124 62 34 124 62 34 124 38 34 142 38 34 142 38 34 142 38 34 142 38 34 142 50 48 142 50 48 88 50 48 88 50 48 88 50 48 88 62 48 88 62 48 88 62 62 106 62 62 106 62 62 106 38 62 106 38 62 106 38 62 106 38 62 124 38 76 124 50 76 124 50 76 124 50 76 124 50 76 124 50 76 142 62 76 142 62 90 142 62 90 142 62 90 142 62 90 142 38 90 88 38 90 88 38 90 88 38 34 88 38 34 88 50 34 88 50 34 106 50 34 106 50 34 106 50 34 106 62 48 106 62 48 106 62 48 124 62 48 124 62 48 124 38 48 124 38 48 124 38 62 124 38 62 142 38 62 142 50 62 142 50 62 142 50 62 142 50 62 142 50 76 88 62 76 88 62 76 88 62 76 88 62 76 88 62 76 88 38 76 106 38 90 106 38 90 106 38 90 106 38 90 106 50 90 106 50 90 124 50 90 124 50 34 124 50 34 124 62 34 124 62 34 124 62 34 142 62 34 142 62 34 142 38 48 142 38 48 142 38 48 142 38 48 88 38 48 88 50 48 88 50 48 88 50 62 88 50 62 88 50 62 106 62 62 106 62 62 106 62 62 106 62 62 106 62 76 106 38 76 124 38 76 124 38 76 124 38 76 124 38 76 124 50 76 124 50 90 142 50 90 142 50 90 142 50 90 142 62 90 142 62 90 142 62 90 88 62 34 88 62 34 88 38 34 88 38 34 88 38 34 88 38 34 106 38 34 106 50 48 106 50 48 106 50 48 106 50 48 106 50 48 124 62 48 124 62 48 124 62 62 124 62 62 124 62 62 124 38 62 142 38 62 142 38 62 142 38 62 142 38 76 142 50 76 142 50 76 88 50 76 88 50 76 88 50 76 88 62 76 88 62 90 88 62 90 106 62 90 106 62 90 106 38 90 106 38 90 106 38 90 106 38 34 124 38 34 124 50 34 124 50 34 124 50 34 124 50 34 124 50 34 142 62 48 142 62 48 142 62 48 142 62 48 142 62 48 142 38 48 88 38 48 88 38 62 88 38 62 88 38 62 88 50 62 88 50 62 106 50 62 106 50 62 106 50 76 106 62 76 106 62 76 106 62 76 124 62 76 124 62
76 106 62 76 106 62 76 106 62 76 106 62 76 106 62 76 106 38 76 124 38 90 124 38 90 124 38 90 124 38 90 124 50 90 124 50 90 142 50 90 142 50 34 142 50 34 142 62 34 142 62 34 142 62 34 88 62 34 88 62 34 88 38 48 88 38 48 88 38 48 88 38 48 106 38 48 106 50 48 106 50 48 106 50 62 106 50 62 106 50 62 124 62 62 124 62 62 124 62 62 124 62 62 124 62 76 124 38 76 142 38 76 142 38 76 142 38 76 142 38 76 142 50 76 142 50 90 88 50 90 88 50 90 88 50 90 88 62 90 88 62 90 88 62 90 106 62 34 106 62 34 106 38 34 106 38 34 106 38 34 106 38 34 124 38 34 124 50 48 124 50 48 124 50 48 124 50 48 124 50 48 142 62 48 142 62 48 142 62 62 142 62 62 142 62 62 142 38 62 88 38 62 88 38 62 88 38 62 88 38 76 88 50 76 88 50 76 106 50 76 106 50 76 106 50 76 106 62 76 106 62 90 106 62 90 124 62 90 124 62 90 124 38 90 124 38 90 124 38 90 124 38 34 142 38 34 142 50 34 142 50 34 142 50 34 142 50 34 142 50 34 88 62 48 88 62 48 88 62 48 88 62 48 88 62 48 88 38 48 106 38 48 106 38 62 106 38 62 106 38 62 106 50 62 106 50 62 124 50 62 124 50 62 124 50 76 124 62 76 124 62 76 124 62 76 142 62 76 142 62 76 142 38 76 142 38 90 142 38 90 142 38 90 88 38 90 88 50 90 88 50 90 88 50 90 88 50 34 88 50 34 106 62 34 106 62 34 106 62 34 106 62 34 106 62 34 106 38 48 124 38 48 124 38 48 124 38 48 124 38 48 124 50 48 124 50 48 142 50 62 142 50 62 142 50 62 142 62 62 142 62 62 142 62 62 88 62 62 88 62 76 88 38 76 88 38 76 88 38 76 88 38 76 106 38 76 106 50 76 106 50 90 106 50 90 106 50 90 106 50 90 124 62 90 124 62 90 124 62 90 124 62 34 124 62 34 124 38 34 142 38 34 142 38 34 142 38 34 142 38 34 142 50 48 142 50 48 88 50 48 88 50 48 88 50 48 88 62 48 88 62 48 88 62 62 106 62 62 106 62 62 106 38 62 106 38 62 106 38 62 106 38 62 124 38 76 124 50 76 124 50 76 124 50 76 124 50 76 124 50 76 142 62 76 142 62 90 142 62 90 142 62 90 142 62 90 142 38 90 88 38 90 88 38 90 88 38 34 88 38 34 88 50 34 88 50 34 106 50 34 106 50 34 106 50 34 106 62 48 106 62 48 106 62 48 124 62 48 124 62 48 124 38 48 124 38 48 124 38 62 124 38 62 142 38 62 142 50 62 142 50 62 142 50 62 142 50 62 142 50 76 88 62 76 88 62 76 88 62 76 88 62 76 88 62 76 88 38 76 106 38 90 106 38 90 106 38 90 106 38 90 106 50 90 106 50 90 124 50 90 124 50 34 124 50 34 124 62 34 124 62 34 124 62 34 142 62 34 142 62 34 142 38 48 142 38 48 142 38 48 142 38 48 88 38 48 88 50 48 88 50 48 88 50 62 88 50 62 88 50 62 106 62 62 106 62 62 106 62 62 106 62 62 106 62 76 106 38 76 124 38 76 124 38 76 124 38 76 124 38 76 124 50 76 124 50 90 142 50 90 142 50 90 142 50 90 142 62 90 142 62 90 142 62 90 88 62 34 88 62 34 88 38 34 88 38 34 88 38 34 88 38 34 106 38 34 106 50 48 106 50 48 106 50 48 106 50 48 106 50 48 124 62 48 124 62 48 124 62 62 124 62 62 124 62 62 124 38 62 142 38 62 142 38 62 142 38 62 142 38 76 142 50 76 142 50 76 88 50 76 88 50 76 88 50 76 88 62 76 88 62 90 88 62 90 106 62 90 106 62 90 106 38 90 106 38 90 106 38 90 106 38 34 124 38 34 124 50 34 124 50 34 124 50 34 124 50 34 124 50 34 142 62 48 142 62 48 142 62 48 142 62 48 142 62 48 142 38 48 88 38 48 88 38 62 88 38 62 88 38 62 88 50 62 88 50 62 106 50 62 106 50 62 106 50 76 106 62 76 106 62 76 106 62 76 124 62 76 124 62
76 106 62 76 106 62 76 106 62 76 106 62 76 106 62 76 106 38 76 124 38 90 124 38 90 124 38 90 124 38 90 124 50 90 124 50 90 142 50 90 142 50 34 142 50 34 142 62 34 142 62 34 142 62 34 88 62 34 88 62 34 88 38 48 88 38 48 88 38 48 88 38 48 106 38 48 106 50 48 106 50 48 106 50 62 106 50 62 106 50 62 124 62 62 124 62 62 124 62 62 124 62 62 124 62 76 124 38 76 142 38 76 142 38 76 142 38 76 142 38 76 142 50 76 142 50 90 88 50 90 88 50 90 88 50 90 88 62 90 88 62 90 88 62 90 106 62 34 106 62 34 106 38 34 106 38 34 106 38 34 106 38 34 124 38 34 124 50 48 124 50 48 124 50 48 124 50 48 124 50 48 142 62 48 142 62 48 142 62 62 142 62 62 142 62 62 142 38 62 88 38 62 88 38 62 88 38 62 88 38 76 88 50 76 88 50 76 106 50 76 106 50 76 106 50 76 106 62 76 106 62 90 106 62 90 124 62 90 124 62 90 124 38 90 124 38 90 124 38 90 124 38 34 142 38 34 142 50 34 142 50 34 142 50 34 142 50 34 142 50 34 88 62 48 88 62 48 88 62 48 88 62 48 88 62 48 88 38 48 106 38 48 106 38 62 106 38 62 106 38 62 106 50 62 106 50 62 124 50 62 124 50 62 124 50 76 124 62 76 124 62 76 124 62 76 142 62 76 142 62 76 142 38 76 142 38 90 142 38 90 142 38 90 88 38 90 88 50 90 88 50 90 88 50 90 88 50 34 88 50 34 106 62 34 106 62 34 106 62 34 106 62 34 106 62 34 106 38 48 124 38 48 124 38 48 124 38 48 124 38 48 124 50 48 124 50 48 142 50 62 142 50 62 142 50 62 142 62 62 142 62 62 142 62 62 88 62 62 88 62 76 88 38 76 88 38 76 88 38 76 88 38 76 106 38 76 106 50 76 106 50 90 106 50 90 106 50 90 106 50 90 124 62 90 124 62 90 124 62 90 124 62 34 124 62 34 124 38 34 142 38 34 142 38 34 142 38 34 142 38 34 142 50 48 142 50 48 88 50 48 88 50 48 88 50 48 88 62 48 88 62 48 88 62 62 106 62 62 106 62 62 106 38 62 106 38 62 106 38 62 106 38 62 124 38 76 124 50 76 124 50 76 124 50 76 124 50 76 124 50 76 142 62 76 142 62 90 142 62 90 142 62 90 142 62 90 142 38 90 88 38 90 88 38 90 88 38 34 88 38 34 88 50 34 88 50 34 106 50 34 106 50 34 106 50 34 106 62 48 106 62 48 106 62 48 124 62 48 124 62 48 124 38 48 124 38 48 124 38 62 124 38 62 142 38 62 142 50 62 142 50 62 142 50 62 142 50 62 142 50 76 88 62 76 88 62 76 88 62 76 88 62 76 88 62 76 88 38 76 106 38 90 106 38 90 106 38 90 106 38 90 106 50 90 106 50 90 124 50 90 124 50 34 124 50 34 124 62 34 124 62 34 124 62 34 142 62 34 142 62 34 142 38 48 142 38 48 142 38 48 142 38 48 88 38 48 88 50 48 88 50 48 88 50 62 88 50 62 88 50 62 106 62 62 106 62 62 106 62 62 106 62 62 106 62 76 106 38 76 124 38 76 124 38 76 124 38 76 124 38 76 124 50 76 124 50 90 142 50 90 142 50 90 142 50 90 142 62 90 142 62 90 142 62 90 88 62 34 88 62 34 88 38 34 88 38 34 88 38 34 88 38 34 106 38 34 106 50 48 106 50 48 106 50 48 106 50 48 106 50 48 124 62 48 124 62 48 124 62 62 124 62 62 124 62 62 124 38 62 142 38 62 142 38 62 142 38 62 142 38 76 142 50 76 142 50 76 88 50 76 88 50 76 88 50 76 88 62 76 88 62 90 88 62 90 106 62 90 106 62 90 106 38 90 106 38 90 106 38 90 106 38 34 124 38 34 124 50 34 124 50 34 124 50 34 124 50 34 124 50 34 142 62 48 142 62 48 142 62 48 142 62 48 142 62 48 142 38 48 88 38 48 88 38 62 88 38 62 88 38 62 88 50 62 88 50 62 106 50 62 106 50 62 106 50 76 106 62 76 106 62 76 106 62 76 124 62 76 124 62
90 124 62 90 124 62 90 124 62 90 124 62 90 124 62 90 124 38 90 142 38 34 142 38 34 142 38 34 142 38 34 142 50 34 142 50 34 88 50 34 88 50 48 88 50 48 88 62 48 88 62 48 88 62 48 106 62 48 106 62 48 106 38 62 106 38 62 106 38 62 106 38 62 124 38 62 124 50 62 124 50 62 124 50 76 124 50 76 124 50 76 142 62 76 142 62 76 142 62 76 142 62 76 142 62 90 142 38 90 88 38 90 88 38 90 88 38 90 88 38 90 88 50 90 88 50 34 106 50 34 106 50 34 106 50 34 106 62 34 106 62 34 106 62 34 124 62 48 124 62 48 124 38 48 124 38 48 124 38 48 124 38 48 142 38 48 142 50 62 142 50 62 142 50 62 142 50 62 142 50 62 88 62 62 88 62 62 88 62 76 88 62 76 88 62 76 88 38 76 106 38 76 106 38 76 106 38 76 106 38 90 106 50 90 106 50 90 124 50 90 124 50 90 124 50 90 124 62 90 124 62 34 124 62 34 142 62 34 142 62 34 142 38 34 142 38 34 142 38 34 142 38 48 88 38 48 88 50 48 88 50 48 88 50 48 88 50 48 88 50 48 106 62 62 106 62 62 106 62 62 106 62 62 106 62 62 106 38 62 124 38 62 124 38 76 124 38 76 124 38 76 124 50 76 124 50 76 142 50 76 142 50 76 142 50 90 142 62 90 142 62 90 142 62 90 88 62 90 88 62 90 88 38 90 88 38 34 88 38 34 88 38 34 106 38 34 106 50 34 106 50 34 106 50 34 106 50 48 106 50 48 124 62 48 124 62 48 124 62 48 124 62 48 124 62 48 124 38 62 142 38 62 142 38 62 142 38 62 142 38 62 142 50 62 142 50 62 88 50 76 88 50 76 88 50 76 88 62 76 88 62 76 88 62 76 106 62 76 106 62 90 106 38 90 106 38 90 106 38 90 106 38 90 124 38 90 124 50 90 124 50 34 124 50 34 124 50 34 124 50 34 142 62 34 142 62 34 142 62 34 142 62 48 142 62 48 142 38 48 88 38 48 88 38 48 88 38 48 88 38 48 88 50 62 88 50 62 106 50 62 106 50 62 106 50 62 106 62 62 106 62 62 106 62 76 124 62 76 124 62 76 124 38 76 124 38 76 124 38 76 124 38 76 142 38 90 142 50 90 142 50 90 142 50 90 142 50 90 142 50 90 88 62 90 88 62 34 88 62 34 88 62 34 88 62 34 88 38 34 106 38 34 106 38 34 106 38 48 106 38 48 106 50 48 106 50 48 124 50 48 124 50 48 124 50 48 124 62 62 124 62 62 124 62 62 142 62 62 142 62 62 142 38 62 142 38 62 142 38 76 142 38 76 88 38 76 88 50 76 88 50 76 88 50 76 88 50 76 88 50 90 106 62 90 106 62 90 106 62 90 106 62 90 106 62 90 106 38 90 124 38 34 124 38 34 124 38 34 124 38 34 124 50 34 124 50 34 142 50 34 142 50 48 142 50 48 142 62 48 142 62 48 142 62 48 88 62 48 88 62 48 88 38 62 88 38 62 88 38 62 88 38 62 106 38 62 106 50 62 106 50 62 106 50 76 106 50 76 106 50 76 124 62 76 124 62 76 124 62 76 124 62 76 124 62 90 124 38 90 142 38 90 142 38 90 142 38 90 142 38 90 142 50 90 142 50 34 88 50 34 88 50 34 88 50 34 88 62 34 88 62 34 88 62 34 106 62 48 106 62 48 106 38 48 106 38 48 106 38 48 106 38 48 124 38 48 124 50 62 124 50 62 124 50 62 124 50 62 124 50 62 142 62 62 142 62 62 142 62 76 142 62 76 142 62 76 142 38 76 88 38 76 88 38 76 88 38 76 88 38 90 88 50 90 88 50 90 106 50 90 106 50 90 106 50 90 106 62 90 106 62 34 106 62 34 124 62 34 124 62 34 124 38 34 124 38 34 124 38 34 124 38 48 142 38 48 142 50 48 142 50 48 142 50 48 142 50 48 142 50 48 88 62 62 88 62 62 88 62 62 88 62 62 88 62 62 88 38 62 106 38 62 106 38 76 106 38 76 106 38 76 106 50 76 106 50 76 124 50 76 124 50 76 124 50 90 124 62 90 124 62 90 124 62 90 142 62 90 142 62
90 124 62 90 124 62 90 124 62 90 124 62 90 124 62 90 124 38 90 142 38 34 142 38 34 142 38 34 142 38 34 142 50 34 142 50 34 88 50 34 88 50 48 88 50 48 88 62 48 88 62 48 88 62 48 106 62 48 106 62 48 106 38 62 106 38 62 106 38 62 106 38 62 124 38 62 124 50 62 124 50 62 124 50 76 124 50 76 124 50 76 142 62 76 142 62 76 142 62 76 142 62 76 142 62 90 142 38 90 88 38 90 88 38 90 88 38 90 88 38 90 88 50 90 88 50 34 106 50 34 106 50 34 106 50 34 106 62 34 106 62 34 106 62 34 124 62 48 124 62 48 124 38 48 124 38 48 124 38 48 124 38 48 142 38 48 142 50 62 142 50 62 142 50 62 142 50 62 142 50 62 88 62 62 88 62 62 88 62 76 88 62 76 88 62 76 88 38 76 106 38 76 106 38 76 106 38 76 106 38 90 106 50 90 106 50 90 124 50 90 124 50 90 124 50 90 124 62 90 124 62 34 124 62 34 142 62 34 142 62 34 142 38 34 142 38 34 142 38 34 142 38 48 88 38 48 88 50 48 88 50 48 88 50 48 88 50 48 88 50 48 106 62 62 106 62 62 106 62 62 106 62 62 106 62 62 106 38 62 124 38 62 124 38 76 124 38 76 124 38 76 124 50 76 124 50 76 142 50 76 142 50 76 142 50 90 142 62 90 142 62 90 142 62 90 88 62 90 88 62 90 88 38 90 88 38 34 88 38 34 88 38 34 106 38 34 106 50 34 106 50 34 106 50 34 106 50 48 106 50 48 124 62 48 124 62 48 124 62 48 124 62 48 124 62 48 124 38 62 142 38 62 142 38 62 142 38 62 142 38 62 142 50 62 142 50 62 88 50 76 88 50 76 88 50 76 88 62 76 88 62 76 88 62 76 106 62 76 106 62 90 106 38 90 106 38 90 106 38 90 106 38 90 124 38 90 124 50 90 124 50 34 124 50 34 124 50 34 124 50 34 142 62 34 142 62 34 142 62 34 142 62 48 142 62 48 142 38 48 88 38 48 88 38 48 88 38 48 88 38 48 88 50 62 88 50 62 106 50 62 106 50 62 106 50 62 106 62 62 106 62 62 106 62 76 124 62 76 124 62 76 124 38 76 124 38 76 124 38 76 124 38 76 142 38 90 142 50 90 142 50 90 142 50 90 142 50 90 142 50 90 88 62 90 88 62 34 88 62 34 88 62 34 88 62 34 88 38 34 106 38 34 106 38 34 106 38 48 106 38 48 106 50 48 106 50 48 124 50 48 124 50 48 124 50 48 124 62 62 124 62 62 124 62 62 142 62 62 142 62 62 142 38 62 142 38 62 142 38 76 142 38 76 88 38 76 88 50 76 88 50 76 88 50 76 88 50 76 88 50 90 106 62 90 106 62 90 106 62 90 106 62 90 106 62 90 106 38 90 124 38 34 124 38 34 124 38 34 124 38 34 124 50 34 124 50 34 142 50 34 142 50 48 142 50 48 142 62 48 142 62 48 142 62 48 88 62 48 88 62 48 88 38 62 88 38 62 88 38 62 88 38 62 106 38 62 106 50 62 106 50 62 106 50 76 106 50 76 106 50 76 124 62 76 124 62 76 124 62 76 124 62 76 124 62 90 124 38 90 142 38 90 142 38 90 142 38 90 142 38 90 142 50 90 142 50 34 88 50 34 88 50 34 88 50 34 88 62 34 88 62 34 88 62 34 106 62 48 106 62 48 106 38 48 106 38 48 106 38 48 106 38 48 124 38 48 124 50 62 124 50 62 124 50 62 124 50 62 124 50 62 142 62 62 142 62 62 142 62 76 142 62 76 142 62 76 142 38 76 88 38 76 88 38 76 88 38 76 88 38 90 88 50 90 88 50 90 106 50 90 106 50 90 106 50 90 106 62 90 106 62 34 106 62 34 124 62 34 124 62 34 124 38 34 124 38 34 124 38 34 124 38 48 142 38 48 142 50 48 142 50 48 142 50 48 142 50 48 142 50 48 88 62 62 88 62 62 88 62 62 88 62 62 88 62 62 88 38 62 106 38 62 106 38 76 106 38 76 106 38 76 106 50 76 106 50 76 124 50 76 124 50 76 124 50 90 124 62 90 124 62 90 124 62 90 142 62 90 142 62
90 124 38 90 124 38 90 124 38 90 124 38 90 124 38 90 124 50 90 142 50 34 142 50 34 142 50 34 142 50 34 142 62 34 142 62 34 88 62 34 88 62 48 88 62 48 88 38 48 88 38 48 88 38 48 106 38 48 106 38 48 106 50 62 106 50 62 106 50 62 106 50 62 124 50 62 124 62 62 124 62 62 124 62 76 124 62 76 124 62 76 142 38 76 142 38 76 142 38 76 142 38 76 142 38 90 142 50 90 88 50 90 88 50 90 88 50 90 88 50 90 88 62 90 88 62 34 106 62 34 106 62 34 106 62 34 106 38 34 106 38 34 106 38 34 124 38 48 124 38 48 124 50 48 124 50 48 124 50 48 124 50 48 142 50 48 142 62 62 142 62 62 142 62 62 142 62 62 142 62 62 88 38 62 88 38 62 88 38 76 88 38 76 88 38 76 88 50 76 106 50 76 106 50 76 106 50 76 106 50 90 106 62 90 106 62 90 124 62 90 124 62 90 124 62 90 124 38 90 124 38 34 124 38 34 142 38 34 142 38 34 142 50 34 142 50 34 142 50 34 142 50 48 88 50 48 88 62 48 88 62 48 88 62 48 88 62 48 88 62 48 106 38 62 106 38 62 106 38 62 106 38 62 106 38 62 106 50 62 124 50 62 124 50 76 124 50 76 124 50 76 124 62 76 124 62 76 142 62 76 142 62 76 142 62 90 142 38 90 142 38 90 142 38 90 88 38 90 88 38 90 88 50 90 88 50 34 88 50 34 88 50 34 106 50 34 106 62 34 106 62 34 106 62 34 106 62 48 106 62 48 124 38 48 124 38 48 124 38 48 124 38 48 124 38 48 124 50 62 142 50 62 142 50 62 142 50 62 142 50 62 142 62 62 142 62 62 88 62 76 88 62 76 88 62 76 88 38 76 88 38 76 88 38 76 106 38 76 106 38 90 106 50 90 106 50 90 106 50 90 106 50 90 124 50 90 124 62 90 124 62 34 124 62 34 124 62 34 124 62 34 142 38 34 142 38 34 142 38 34 142 38 48 142 38 48 142 50 48 88 50 48 88 50 48 88 50 48 88 50 48 88 62 62 88 62 62 106 62 62 106 62 62 106 62 62 106 38 62 106 38 62 106 38 76 124 38 76 124 38 76 124 50 76 124 50 76 124 50 76 124 50 76 142 50 90 142 62 90 142 62 90 142 62 90 142 62 90 142 62 90 88 38 90 88 38 34 88 38 34 88 38 34 88 38 34 88 50 34 106 50 34 106 50 34 106 50 48 106 50 48 106 62 48 106 62 48 124 62 48 124 62 48 124 62 48 124 38 62 124 38 62 124 38 62 142 38 62 142 38 62 142 50 62 142 50 62 142 50 76 142 50 76 88 50 76 88 62 76 88 62 76 88 62 76 88 62 76 88 62 90 106 38 90 106 38 90 106 38 90 106 38 90 106 38 90 106 50 90 124 50 34 124 50 34 124 50 34 124 50 34 124 62 34 124 62 34 142 62 34 142 62 48 142 62 48 142 38 48 142 38 48 142 38 48 88 38 48 88 38 48 88 50 62 88 50 62 88 50 62 88 50 62 106 50 62 106 62 62 106 62 62 106 62 76 106 62 76 106 62 76 124 38 76 124 38 76 124 38 76 124 38 76 124 38 90 124 50 90 142 50 90 142 50 90 142 50 90 142 50 90 142 62 90 142 62 34 88 62 34 88 62 34 88 62 34 88 38 34 88 38 34 88 38 34 106 38 48 106 38 48 106 50 48 106 50 48 106 50 48 106 50 48 124 50 48 124 62 62 124 62 62 124 62 62 124 62 62 124 62 62 142 38 62 142 38 62 142 38 76 142 38 76 142 38 76 142 50 76 88 50 76 88 50 76 88 50 76 88 50 90 88 62 90 88 62 90 106 62 90 106 62 90 106 62 90 106 38 90 106 38 34 106 38 34 124 38 34 124 38 34 124 50 34 124 50 34 124 50 34 124 50 48 142 50 48 142 62 48 142 62 48 142 62 48 142 62 48 142 62 48 88 38 62 88 38 62 88 38 62 88 38 62 88 38 62 88 50 62 106 50 62 106 50 76 106 50 76 106 50 76 106 62 76 106 62 76 124 62 76 124 62 76 124 62 90 124 38 90 124 38 90 124 38 90 142 38 90 142 38
90 124 38 90 124 38 90 124 38 90 124 38 90 124 38 90 124 50 90 142 50 34 142 50 34 142 50 34 142 50 34 142 62 34 142 62 34 88 62 34 88 62 48 88 62 48 88 38 48 88 38 48 88 38 48 106 38 48 106 38 48 106 50 62 106 50 62 106 50 62 106 50 62 124 50 62 124 62 62 124 62 62 124 62 76 124 62 76 124 62 76 142 38 76 142 38 76 142 38 76 142 38 76 142 38 90 142 50 90 88 50 90 88 50 90 88 50 90 88 50 90 88 62 90 88 62 34 106 62 34 106 62 34 106 62 34 106 38 34 106 38 34 106 38 34 124 38 48 124 38 48 124 50 48 124 50 48 124 50 48 124 50 48 142 50 48 142 62 62 142 62 62 142 62 62 142 62 62 142 62 62 88 38 62 88 38 62 88 38 76 88 38 76 88 38 76 88 50 76 106 50 76 106 50 76 106 50 76 106 50 90 106 62 90 106 62 90 124 62 90 124 62 90 124 62 90 124 38 90 124 38 34 124 38 34 142 38 34 142 38 34 142 50 34 142 50 34 142 50 34 142 50 48 88 50 48 88 62 48 88 62 48 88 62 48 88 62 48 88 62 48 106 38 62 106 38 62 106 38 62 106 38 62 106 38 62 106 50 62 124 50 62 124 50 76 124 50 76 124 50 76 124 62 76 124 62 76 142 62 76 142 62 76 142 62 90 142 38 90 142 38 90 142 38 90 88 38 90 88 38 90 88 50 90 88 50 34 88 50 34 88 50 34 106 50 34 106 62 34 106 62 34 106 62 34 106 62 48 106 62 48 124 38 48 124 38 48 124 38 48 124 38 48 124 38 48 124 50 62 142 50 62 142 50 62 142 50 62 142 50 62 142 62 62 142 62 62 88 62 76 88 62 76 88 62 76 88 38 76 88 38 76 88 38 76 106 38 76 106 38 90 106 50 90 106 50 90 106 50 90 106 50 90 124 50 90 124 62 90 124 62 34 124 62 34 124 62 34 124 62 34 142 38 34 142 38 34 142 38 34 142 38 48 142 38 48 142 50 48 88 50 48 88 50 48 88 50 48 88 50 48 88 62 62 88 62 62 106 62 62 106 62 62 106 62 62 106 38 62 106 38 62 106 38 76 124 38 76 124 38 76 124 50 76 124 50 76 124 50 76 124 50 76 142 50 90 142 62 90 142 62 90 142 62 90 142 62 90 142 62 90 88 38 90 88 38 34 88 38 34 88 38 34 88 38 34 88 50 34 106 50 34 106 50 34 106 50 48 106 50 48 106 62 48 106 62 48 124 62 48 124 62 48 124 62 48 124 38 62 124 38 62 124 38 62 142 38 62 142 38 62 142 50 62 142 50 62 142 50 76 142 50 76 88 50 76 88 62 76 88 62 76 88 62 76 88 62 76 88 62 90 106 38 90 106 38 90 106 38 90 106 38 90 106 38 90 106 50 90 124 50 34 124 50 34 124 50 34 124 50 34 124 62 34 124 62 34 142 62 34 142 62 48 142 62 48 142 38 48 142 38 48 142 38 48 88 38 48 88 38 48 88 50 62 88 50 62 88 50 62 88 50 62 106 50 62 106 62 62 106 62 62 106 62 76 106 62 76 106 62 76 124 38 76 124 38 76 124 38 76 124 38 76 124 38 90 124 50 90 142 50 90 142 50 90 142 50 90 142 50 90 142 62 90 142 62 34 88 62 34 88 62 34 88 62 34 88 38 34 88 38 34 88 38 34 106 38 48 106 38 48 106 50 48 106 50 48 106 50 48 106 50 48 124 50 48 124 62 62 124 62 62 124 62 62 124 62 62 124 62 62 142 38 62 142 38 62 142 38 76 142 38 76 142 38 76 142 50 76 88 50 76 88 50 76 88 50 76 88 50 90 88 62 90 88 62 90 106 62 90 106 62 90 106 62 90 106 38 90 106 38 34 106 38 34 124 38 34 124 38 34 124 50 34 124 50 34 124 50 34 124 50 48 142 50 48 142 62 48 142 62 48 142 62 48 142 62 48 142 62 48 88 38 62 88 38 62 88 38 62 88 38 62 88 38 62 88 50 62 106 50 62 106 50 76 106 50 76 106 50 76 106 62 76 106 62 76 124 62 76 124 62 76 124 62 90 124 38 90 124 38 90 124 38 90 142 38 90 142 38
90 124 38 90 124 38 90 124 38 90 124 38 90 124 38 90 124 50 90 142 50 34 142 50 34 142 50 34 142 50 34 142 62 34 142 62 34 88 62 34 88 62 48 88 62 48 88 38 48 88 38 48 88 38 48 106 38 48 106 38 48 106 50 62 106 50 62 106 50 62 106 50 62 124 50 62 124 62 62 124 62 62 124 62 76 124 62 76 124 62 76 142 38 76 142 38 76 142 38 76 142 38 76 142 38 90 142 50 90 88 50 90 88 50 90 88 50 90 88 50 90 88 62 90 88 62 34 106 62 34 106 62 34 106 62 34 106 38 34 106 38 34 106 38 34 124 38 48 124 38 48 124 50 48 124 50 48 124 50 48 124 50 48 142 50 48 142 62 62 142 62 62 142 62 62 142 62 62 142 62 62 88 38 62 88 38 62 88 38 76 88 38 76 88 38 76 88 50 76 106 50 76 106 50 76 106 50 76 106 50 90 106 62 90 106 62 90 124 62 90 124 62 90 124 62 90 124 38 90 124 38 34 124 38 34 142 38 34 142 38 34 142 50 34 142 50 34 142 50 34 142 50 48 88 50 48 88 62 48 88 62 48 88 62 48 88 62 48 88 62 48 106 38 62 106 38 62 106 38 62 106 38 62 106 38 62 106 50 62 124 50 62 124 50 76 124 50 76 124 50 76 124 62 76 124 62 76 142 62 76 142 62 76 142 62 90 142 38 90 142 38 90 142 38 90 88 38 90 88 38 90 88 50 90 88 50 34 88 50 34 88 50 34 106 50 34 106 62 34 106 62 34 106 62 34 106 62 48 106 62 48 124 38 48 124 38 48 124 38 48 124 38 48 124 38 48 124 50 62 142 50 62 142 50 62 142 50 62 142 50 62 142 62 62 142 62 62 88 62 76 88 62 76 88 62 76 88 38 76 88 38 76 88 38 76 106 38 76 106 38 90 106 50 90 106 50 90 106 50 90 106 50 90 124 50 90 124 62 90 124 62 34 124 62 34 124 62 34 124 62 34 142 38 34 142 38 34 142 38 34 142 38 48 142 38 48 142 50 48 88 50 48 88 50 48 88 50 48 88 50 48 88 62 62 88 62 62 106 62 62 106 62 62 106 62 62 106 38 62 106 38 62 106 38 76 124 38 76 124 38 76 124 50 76 124 50 76 124 50 76 124 50 76 142 50 90 142 62 90 142 62 90 142 62 90 142 62 90 142 62 90 88 38 90 88 38 34 88 38 34 88 38 34 88 38 34 88 50 34 106 50 34 106 50 34 106 50 48 106 50 48 106 62 48 106 62 48 124 62 48 124 62 48 124 62 48 124 38 62 124 38 62 124 38 62 142 38 62 142 38 62 142 50 62 142 50 62 142 50 76 142 50 76 88 50 76 88 62 76 88 62 76 88 62 76 88 62 76 88 62 90 106 38 90 106 38 90 106 38 90 106 38 90 106 38 90 106 50 90 124 50 34 124 50 34 124 50 34 124 50 34 124 62 34 124 62 34 142 62 34 142 62 48 142 62 48 142 38 48 142 38 48 142 38 48 88 38 48 88 38 48 88 50 62 88 50 62 88 50 62 88 50 62 106 50 62 106 62 62 106 62 62 106 62 76 106 62 76 106 62 76 124 38 76 124 38 76 124 38 76 124 38 76 124 38 90 124 50 90 142 50 90 142 50 90 142 50 90 142 50 90 142 62 90 142 62 34 88 62 34 88 62 34 88 62 34 88 38 34 88 38 34 88 38 34 106 38 48 106 38 48 106 50 48 106 50 48 106 50 48 106 50 48 124 50 48 124 62 62 124 62 62 124 62 62 124 62 62 124 62 62 142 38 62 142 38 62 142 38 76 142 38 76 142 38 76 142 50 76 88 50 76 88 50 76 88 50 76 88 50 90 88 62 90 88 62 90 106 62 90 106 62 90 106 62 90 106 38 90 106 38 34 106 38 34 124 38 34 124 38 34 124 50 34 124 50 34 124 50 34 124 50 48 142 50 48 142 62 48 142 62 48 142 62 48 142 62 48 142 62 48 88 38 62 88 38 62 88 38 62 88 38 62 88 38 62 88 50 62 106 50 62 106 50 76 106 50 76 106 50 76 106 62 76 106 62 76 124 62 76 124 62 76 124 62 90 124 38 90 124 38 90 124 38 90 142 38 90 142 38
34 124 38 34 124 38 34 124 38 34 124 38 34 124 38 34 124 50 34 142 50 48 142 50 48 142 50 48 142 50 48 142 62 48 142 62 48 88 62 48 88 62 62 88 62 62 88 38 62 88 38 62 88 38 62 106 38 62 106 38 62 106 50 76 106 50 76 106 50 76 106 50 76 124 50 76 124 62 76 124 62 76 124 62 90 124 62 90 124 62 90 142 38 90 142 38 90 142 38 90 142 38 90 142 38 34 142 50 34 88 50 34 88 50 34 88 50 34 88 50 34 88 62 34 88 62 48 106 62 48 106 62 48 106 62 48 106 38 48 106 38 48 106 38 48 124 38 62 124 38 62 124 50 62 124 50 62 124 50 62 124 50 62 142 50 62 142 62 76 142 62 76 142 62 76 142 62 76 142 62 76 88 38 76 88 38 76 88 38 90 88 38 90 88 38 90 88 50 90 106 50 90 106 50 90 106 50 90 106 50 34 106 62 34 106 62 34 124 62 34 124 62 34 124 62 34 124 38 34 124 38 48 124 38 48 142 38 48 142 38 48 142 50 48 142 50 48 142 50 48 142 50 62 88 50 62 88 62 62 88 62 62 88 62 62 88 62 62 88 62 62 106 38 76 106 38 76 106 38 76 106 38 76 106 38 76 106 50 76 124 50 76 124 50 90 124 50 90 124 50 90 124 62 90 124 62 90 142 62 90 142 62 90 142 62 34 142 38 34 142 38 34 142 38 34 88 38 34 88 38 34 88 50 34 88 50 48 88 50 48 88 50 48 106 50 48 106 62 48 106 62 48 106 62 48 106 62 62 106 62 62 124 38 62 124 38 62 124 38 62 124 38 62 124 38 62 124 50 76 142 50 76 142 50 76 142 50 76 142 50 76 142 62 76 142 62 76 88 62 90 88 62 90 88 62 90 88 38 90 88 38 90 88 38 90 106 38 90 106 38 34 106 50 34 106 50 34 106 50 34 106 50 34 124 50 34 124 62 34 124 62 48 124 62 48 124 62 48 124 62 48 142 38 48 142 38 48 142 38 48 142 38 62 142 38 62 142 50 62 88 50 62 88 50 62 88 50 62 88 50 62 88 62 76 88 62 76 106 62 76 106 62 76 106 62 76 106 38 76 106 38 76 106 38 90 124 38 90 124 38 90 124 50 90 124 50 90 124 50 90 124 50 90 142 50 34 142 62 34 142 62 34 142 62 34 142 62 34 142 62 34 88 38 34 88 38 48 88 38 48 88 38 48 88 38 48 88 50 48 106 50 48 106 50 48 106 50 62 106 50 62 106 62 62 106 62 62 124 62 62 124 62 62 124 62 62 124 38 76 124 38 76 124 38 76 142 38 76 142 38 76 142 50 76 142 50 76 142 50 90 142 50 90 88 50 90 88 62 90 88 62 90 88 62 90 88 62 90 88 62 34 106 38 34 106 38 34 106 38 34 106 38 34 106 38 34 106 50 34 124 50 48 124 50 48 124 50 48 124 50 48 124 62 48 124 62 48 142 62 48 142 62 62 142 62 62 142 38 62 142 38 62 142 38 62 88 38 62 88 38 62 88 50 76 88 50 76 88 50 76 88 50 76 106 50 76 106 62 76 106 62 76 106 62 90 106 62 90 106 62 90 124 38 90 124 38 90 124 38 90 124 38 90 124 38 34 124 50 34 142 50 34 142 50 34 142 50 34 142 50 34 142 62 34 142 62 48 88 62 48 88 62 48 88 62 48 88 38 48 88 38 48 88 38 48 106 38 62 106 38 62 106 50 62 106 50 62 106 50 62 106 50 62 124 50 62 124 62 76 124 62 76 124 62 76 124 62 76 124 62 76 142 38 76 142 38 76 142 38 90 142 38 90 142 38 90 142 50 90 88 50 90 88 50 90 88 50 90 88 50 34 88 62 34 88 62 34 106 62 34 106 62 34 106 62 34 106 38 34 106 38 48 106 38 48 124 38 48 124 38 48 124 50 48 124 50 48 124 50 48 124 50 62 142 50 62 142 62 62 142 62 62 142 62 62 142 62 62 142 62 62 88 38 76 88 38 76 88 38 76 88 38 76 88 38 76 88 50 76 106 50 76 106 50 90 106 50 90 106 50 90 106 62 90 106 62 90 124 62 90 124 62 90 124 62 34 124 38 34 124 38 34 124 38 34 142 38 34 142 38
34 124 38 34 124 38 34 124 38 34 124 38 34 124 38 34 124 50 34 142 50 48 142 50 48 142 50 48 142 50 48 142 62 48 142 62 48 88 62 48 88 62 62 88 62 62 88 38 62 88 38 62 88 38 62 106 38 62 106 38 62 106 50 76 106 50 76 106 50 76 106 50 76 124 50 76 124 62 76 124 62 76 124 62 90 124 62 90 124 62 90 142 38 90 142 38 90 142 38 90 142 38 90 142 38 34 142 50 34 88 50 34 88 50 34 88 50 34 88 50 34 88 62 34 88 62 48 106 62 48 106 62 48 106 62 48 106 38 48 106 38 48 106 38 48 124 38 62 124 38 62 124 50 62 124 50 62 124 50 62 124 50 62 142 50 62 142 62 76 142 62 76 142 62 76 142 62 76 142 62 76 88 38 76 88 38 76 88 38 90 88 38 90 88 38 90 88 50 90 106 50 90 106 50 90 106 50 90 106 50 34 106 62 34 106 62 34 124 62 34 124 62 34 124 62 34 124 38 34 124 38 48 124 38 48 142 38 48 142 38 48 142 50 48 142 50 48 142 50 48 142 50 62 88 50 62 88 62 62 88 62 62 88 62 62 88 62 62 88 62 62 106 38 76 106 38 76 106 38 76 106 38 76 106 38 76 106 50 76 124 50 76 124 50 90 124 50 90 124 50 90 124 62 90 124 62 90 142 62 90 142 62 90 142 62 34 142 38 34 142 38 34 142 38 34 88 38 34 88 38 34 88 50 34 88 50 48 88 50 48 88 50 48 106 50 48 106 62 48 106 62 48 106 62 48 106 62 62 106 62 62 124 38 62 124 38 62 124 38 62 124 38 62 124 38 62 124 50 76 142 50 76 142 50 76 142 50 76 142 50 76 142 62 76 142 62 76 88 62 90 88 62 90 88 62 90 88 38 90 88 38 90 88 38 90 106 38 90 106 38 34 106 50 34 106 50 34 106 50 34 106 50 34 124 50 34 124 62 34 124 62 48 124 62 48 124 62 48 124 62 48 142 38 48 142 38 48 142 38 48 142 38 62 142 38 62 142 50 62 88 50 62 88 50 62 88 50 62 88 50 62 88 62 76 88 62 76 106 62 76 106 62 76 106 62 76 106 38 76 106 38 76 106 38 90 124 38 90 124 38 90 124 50 90 124 50 90 124 50 90 124 50 90 142 50 34 142 62 34 142 62 34 142 62 34 142 62 34 142 62 34 88 38 34 88 38 48 88 38 48 88 38 48 88 38 48 88 50 48 106 50 48 106 50 48 106 50 62 106 50 62 106 62 62 106 62 62 124 62 62 124 62 62 124 62 62 124 38 76 124 38 76 124 38 76 142 38 76 142 38 76 142 50 76 142 50 76 142 50 90 142 50 90 88 50 90 88 62 90 88 62 90 88 62 90 88 62 90 88 62 34 106 38 34 106 38 34 106 38 34 106 38 34 106 38 34 106 50 34 124 50 48 124 50 48 124 50 48 124 50 48 124 62 48 124 62 48 142 62 48 142 62 62 142 62 62 142 38 62 142 38 62 142 38 62 88 38 62 88 38 62 88 50 76 88 50 76 88 50 76 88 50 76 106 50 76 106 62 76 106 62 76 106 62 90 106 62 90 106 62 90 124 38 90 124 38 90 124 38 90 124 38 90 124 38 34 124 50 34 142 50 34 142 50 34 142 50 34 142 50 34 142 62 34 142 62 48 88 62 48 88 62 48 88 62 48 88 38 48 88 38 48 88 38 48 106 38 62 106 38 62 106 50 62 106 50 62 106 50 62 106 50 62 124 50 62 124 62 76 124 62 76 124 62 76 124 62 76 124 62 76 142 38 76 142 38 76 142 38 90 142 38 90 142 38 90 142 50 90 88 50 90 88 50 90 88 50 90 88 50 34 88 62 34 88 62 34 106 62 34 106 62 34 106 62 34 106 38 34 106 38 48 106 38 48 124 38 48 124 38 48 124 50 48 124 50 48 124 50 48 124 50 62 142 50 62 142 62 62 142 62 62 142 62 62 142 62 62 142 62 62 88 38 76 88 38 76 88 38 76 88 38 76 88 38 76 88 50 76 106 50 76 106 50 90 106 50 90 106 50 90 106 62 90 106 62 90 124 62 90 124 62 90 124 62 34 124 38 34 124 38 34 124 38 34 142 38 34 142 38
34 142 38 34 142 38 34 142 38 34 142 38 34 142 38 34 142 50 34 88 50 48 88 50 48 88 50 48 88 50 48 88 62 48 88 62 48 106 62 48 106 62 62 106 62 62 106 38 62 106 38 62 106 38 62 124 38 62 124 38 62 124 50 76 124 50 76 124 50 76 124 50 76 142 50 76 142 62 76 142 62 76 142 62 90 142 62 90 142 62 90 88 38 90 88 38 90 88 38 90 88 38 90 88 38 34 88 50 34 106 50 34 106 50 34 106 50 34 106 50 34 106 62 34 106 62 48 124 62 48 124 62 48 124 62 48 124 38 48 124 38 48 124 38 48 142 38 62 142 38 62 142 50 62 142 50 62 142 50 62 142 50 62 88 50 62 88 62 76 88 62 76 88 62 76 88 62 76 88 62 76 106 38 76 106 38 76 106 38 90 106 38 90 106 38 90 106 50 90 124 50 90 124 50 90 124 50 90 124 50 34 124 62 34 124 62 34 142 62 34 142 62 34 142 62 34 142 38 34 142 38 48 142 38 48 88 38 48 88 38 48 88 50 48 88 50 48 88 50 48 88 50 62 106 50 62 106 62 62 106 62 62 106 62 62 106 62 62 106 62 62 124 38 76 124 38 76 124 38 76 124 38 76 124 38 76 124 50 76 142 50 76 142 50 90 142 50 90 142 50 90 142 62 90 142 62 90 88 62 90 88 62 90 88 62 34 88 38 34 88 38 34 88 38 34 106 38 34 106 38 34 106 50 34 106 50 48 106 50 48 106 50 48 124 50 48 124 62 48 124 62 48 124 62 48 124 62 62 124 62 62 142 38 62 142 38 62 142 38 62 142 38 62 142 38 62 142 50 76 88 50 76 88 50 76 88 50 76 88 50 76 88 62 76 88 62 76 106 62 90 106 62 90 106 62 90 106 38 90 106 38 90 106 38 90 124 38 90 124 38 34 124 50 34 124 50 34 124 50 34 124 50 34 142 50 34 142 62 34 142 62 48 142 62 48 142 62 48 142 62 48 88 38 48 88 38 48 88 38 48 88 38 62 88 38 62 88 50 62 106 50 62 106 50 62 106 50 62 106 50 62 106 62 76 106 62 76 124 62 76 124 62 76 124 62 76 124 38 76 124 38 76 124 38 90 142 38 90 142 38 90 142 50 90 142 50 90 142 50 90 142 50 90 88 50 34 88 62 34 88 62 34 88 62 34 88 62 34 88 62 34 106 38 34 106 38 48 106 38 48 106 38 48 106 38 48 106 50 48 124 50 48 124 50 48 124 50 62 124 50 62 124 62 62 124 62 62 142 62 62 142 62 62 142 62 62 142 38 76 142 38 76 142 38 76 88 38 76 88 38 76 88 50 76 88 50 76 88 50 90 88 50 90 106 50 90 106 62 90 106 62 90 106 62 90 106 62 90 106 62 34 124 38 34 124 38 34 124 38 34 124 38 34 124 38 34 124 50 34 142 50 48 142 50 48 142 50 48 142 50 48 142 62 48 142 62 48 88 62 48 88 62 62 88 62 62 88 38 62 88 38 62 88 38 62 106 38 62 106 38 62 106 50 76 106 50 76 106 50 76 106 50 76 124 50 76 124 62 76 124 62 76 124 62 90 124 62 90 124 62 90 142 38 90 142 38 90 142 38 90 142 38 90 142 38 34 142 50 34 88 50 34 88 50 34 88 50 34 88 50 34 88 62 34 88 62 48 106 62 48 106 62 48 106 62 48 106 38 48 106 38 48 106 38 48 124 38 62 124 38 62 124 50 62 124 50 62 124 50 62 124 50 62 142 50 62 142 62 76 142 62 76 142 62 76 142 62 76 142 62 76 88 38 76 88 38 76 88 38 90 88 38 90 88 38 90 88 50 90 106 50 90 106 50 90 106 50 90 106 50 34 106 62 34 106 62 34 124 62 34 124 62 34 124 62 34 124 38 34 124 38 48 124 38 48 142 38 48 142 38 48 142 50 48 142 50 48 142 50 48 142 50 62 88 50 62 88 62 62 88 62 62 88 62 62 88 62 62 88 62 62 106 38 76 106 38 76 106 38 76 106 38 76 106 38 76 106 50 76 124 50 76 124 50 90 124 50 90 124 50 90 124 62 90 124 62 90 142 62 90 142 62 90 142 62 34 142 38 34 142 38 34 142 38 34 88 38 34 88 38
34 142 38 34 142 38 34 142 38 34 142 38 34 142 38 34 142 50 34 88 50 48 88 50 48 88 50 48 88 50 48 88 62 48 88 62 48 106 62 48 106 62 62 106 62 62 106 38 62 106 38 62 106 38 62 124 38 62 124 38 62 124 50 76 124 50 76 124 50 76 124 50 76 142 50 76 142 62 76 142 62 76 142 62 90 142 62 90 142 62 90 88 38 90 88 38 90 88 38 90 88 38 90 88 38 34 88 50 34 106 50 34 106 50 34 106 50 34 106 50 34 106 62 34 106 62 48 124 62 48 124 62 48 124 62 48 124 38 48 124 38 48 124 38 48 142 38 62 142 38 62 142 50 62 142 50 62 142 50 62 142 50 62 88 50 62 88 62 76 88 62 76 88 62 76 88 62 76 88 62 76 106 38 76 106 38 76 106 38 90 106 38 90 106 38 90 106 50 90 124 50 90 124 50 90 124 50 90 124 50 34 124 62 34 124 62 34 142 62 34 142 62 34 142 62 34 142 38 34 142 38 48 142 38 48 88 38 48 88 38 48 88 50 48 88 50 48 88 50 48 88 50 62 106 50 62 106 62 62 106 62 62 106 62 62 106 62 62 106 62 62 124 38 76 124 38 76 124 38 76 124 38 76 124 38 76 124 50 76 142 50 76 142 50 90 142 50 90 142 50 90 142 62 90 142 62 90 88 62 90 88 62 90 88 62 34 88 38 34 88 38 34 88 38 34 106 38 34 106 38 34 106 50 34 106 50 48 106 50 48 106 50 48 124 50 48 124 62 48 124 62 48 124 62 48 124 62 62 124 62 62 142 38 62 142 38 62 142 38 62 142 38 62 142 38 62 142 50 76 88 50 76 88 50 76 88 50 76 88 50 76 88 62 76 88 62 76 106 62 90 106 62 90 106 62 90 106 38 90 106 38 90 106 38 90 124 38 90 124 38 34 124 50 34 124 50 34 124 50 34 124 50 34 142 50 34 142 62 34 142 62 48 142 62 48 142 62 48 142 62 48 88 38 48 88 38 48 88 38 48 88 38 62 88 38 62 88 50 62 106 50 62 106 50 62 106 50 62 106 50 62 106 62 76 106 62 76 124 62 76 124 62 76 124 62 76 124 38 76 124 38 76 124 38 90 142 38 90 142 38 90 142 50 90 142 50 90 142 50 90 142 50 90 88 50 34 88 62 34 88 62 34 88 62 34 88 62 34 88 62 34 106 38 34 106 38 48 106 38 48 106 38 48 106 38 48 106 50 48 124 50 48 124 50 48 124 50 62 124 50 62 124 62 62 124 62 62 142 62 62 142 62 62 142 62 62 142 38 76 142 38 76 142 38 76 88 38 76 88 38 76 88 50 76 88 50 76 88 50 90 88 50 90 106 50 90 106 62 90 106 62 90 106 62 90 106 62 90 106 62 34 124 38 34 124 38 34 124 38 34 124 38 34 124 38 34 124 50 34 142 50 48 142 50 48 142 50 48 142 50 48 142 62 48 142 62 48 88 62 48 88 62 62 88 62 62 88 38 62 88 38 62 88 38 62 106 38 62 106 38 62 106 50 76 106 50 76 106 50 76 106 50 76 124 50 76 124 62 76 124 62 76 124 62 90 124 62 90 124 62 90 142 38 90 142 38 90 142 38 90 142 38 90 142 38 34 142 50 34 88 50 34 88 50 34 88 50 34 88 50 34 88 62 34 88 62 48 106 62 48 106 62 48 106 62 48 106 38 48 106 38 48 106 38 48 124 38 62 124 38 62 124 50 62 124 50 62 124 50 62 124 50 62 142 50 62 142 62 76 142 62 76 142 62 76 142 62 76 142 62 76 88 38 76 88 38 76 88 38 90 88 38 90 88 38 90 88 50 90 106 50 90 106 50 90 106 50 90 106 50 34 106 62 34 106 62 34 124 62 34 124 62 34 124 62 34 124 38 34 124 38 48 124 38 48 142 38 48 142 38 48 142 50 48 142 50 48 142 50 48 142 50 62 88 50 62 88 62 62 88 62 62 88 62 62 88 62 62 88 62 62 106 38 76 106 38 76 106 38 76 106 38 76 106 38 76 106 50 76 124 50 76 124 50 90 124 50 90 124 50 90 124 62 90 124 62 90 142 62 90 142 62 90 142 62 34 142 38 34 142 38 34 142 38 34 88 38 34 88 38
34 142 38 34 142 38 34 142 38 34 142 38 34 142 38 34 142 50 34 88 50 48 88 50 48 88 50 48 88 50 48 88 62 48 88 62 48 106 62 48 106 62 62 106 62 62 106 38 62 106 38 62 106 38 62 124 38 62 124 38 62 124 50 76 124 50 76 124 50 76 124 50 76 142 50 76 142 62 76 142 62 76 142 62 90 142 62 90 142 62 90 88 38 90 88 38 90 88 38 90 88 38 90 88 38 34 88 50 34 106 50 34 106 50 34 106 50 34 106 50 34 106 62 34 106 62 48 124 62 48 124 62 48 124 62 48 124 38 48 124 38 48 124 38 48 142 38 62 142 38 62 142 50 62 142 50 62 142 50 62 142 50 62 88 50 62 88 62 76 88 62 76 88 62 76 88 62 76 88 62 76 106 38 76 106 38 76 106 38 90 106 38 90 106 38 90 106 50 90 124 50 90 124 50 90 124 50 90 124 50 34 124 62 34 124 62 34 142 62 34 142 62 34 142 62 34 142 38 34 142 38 48 142 38 48 88 38 48 88 38 48 88 50 48 88 50 48 88 50 48 88 50 62 106 50 62 106 62 62 106 62 62 106 62 62 106 62 62 106 62 62 124 38 76 124 38 76 124 38 76 124 38 76 124 38 76 124 50 76 142 50 76 142 50 90 142 50 90 142 50 90 142 62 90 142 62 90 88 62 90 88 62 90 88 62 34 88 38 34 88 38 34 88 38 34 106 38 34 106 38 34 106 50 34 106 50 48 106 50 48 106 50 48 124 50 48 124 62 48 124 62 48 124 62 48 124 62 62 124 62 62 142 38 62 142 38 62 142 38 62 142 38 62 142 38 62 142 50 76 88 50 76 88 50 76 88 50 76 88 50 76 88 62 76 88 62 76 106 62 90 106 62 90 106 62 90 106 38 90 106 38 90 106 38 90 124 38 90 124 38 34 124 50 34 124 50 34 124 50 34 124 50 34 142 50 34 142 62 34 142 62 48 142 62 48 142 62 48 142 62 48 88 38 48 88 38 48 88 38 48 88 38 62 88 38 62 88 50 62 106 50 62 106 50 62 106 50 62 106 50 62 106 62 76 106 62 76 124 62 76 124 62 76 124 62 76 124 38 76 124 38 76 124 38 90 142 38 90 142 38 90 142 50 90 142 50 90 142 50 90 142 50 90 88 50 34 88 62 34 88 62 34 88 62 34 88 62 34 88 62 34 106 38 34 106 38 48 106 38 48 106 38 48 106 38 48 106 50 48 124 50 48 124 50 48 124 50 62 124 50 62 124 62 62 124 62 62 142 62 62 142 62 62 142 62 62 142 38 76 142 38 76 142 38 76 88 38 76 88 38 76 88 50 76 88 50 76 88 50 90 88 50 90 106 50 90 106 62 90 106 62 90 106 62 90 106 62 90 106 62 34 124 38 34 124 38 34 124 38 34 124 38 34 124 38 34 124 50 34 142 50 48 142 50 48 142 50 48 142 50 48 142 62 48 142 62 48 88 62 48 88 62 62 88 62 62 88 38 62 88 38 62 88 38 62 106 38 62 106 38 62 106 50 76 106 50 76 106 50 76 106 50 76 124 50 76 124 62 76 124 62 76 124 62 90 124 62 90 124 62 90 142 38 90 142 38 90 142 38 90 142 38 90 142 38 34 142 50 34 88 50 34 88 50 34 88 50 34 88 50 34 88 62 34 88 62 48 106 62 48 106 62 48 106 62 48 106 38 48 106 38 48 106 38 48 124 38 62 124 38 62 124 50 62 124 50 62 124 50 62 124 50 62 142 50 62 142 62 76 142 62 76 142 62 76 142 62 76 142 62 76 88 38 76 88 38 76 88 38 90 88 38 90 88 38 90 88 50 90 106 50 90 106 50 90 106 50 90 106 50 34 106 62 34 106 62 34 124 62 34 124 62 34 124 62 34 124 38 34 124 38 48 124 38 48 142 38 48 142 38 48 142 50 48 142 50 48 142 50 48 142 50 62 88 50 62 88 62 62 88 62 62 88 62 62 88 62 62 88 62 62 106 38 76 106 38 76 106 38 76 106 38 76 106 38 76 106 50 76 124 50 76 124 50 90 124 50 90 124 50 90 124 62 90 124 62 90 142 62 90 142 62 90 142 62 34 142 38 34 142 38 34 142 38 34 88 38 34 88 38
48 142 50 48 142 50 48 142 50 48 142 50 48 142 50 48 142 62 48 88 62 62 88 62 62 88 62 62 88 62 62 88 38 62 88 38 62 106 38 62 106 38 76 106 38 76 106 50 76 106 50 76 106 50 76 124 50 76 124 50 76 124 62 90 124 62 90 124 62 90 124 62 90 142 62 90 142 38 90 142 38 90 142 38 34 142 38 34 142 38 34 88 50 34 88 50 34 88 50 34 88 50 34 88 50 48 88 62 48 106 62 48 106 62 48 106 62 48 106 62 48 106 38 48 106 38 62 124 38 62 124 38 62 124 38 62 124 50 62 124 50 62 124 50 62 142 50 76 142 50 76 142 62 76 142 62 76 142 62 76 142 62 76 88 62 76 88 38 90 88 38 90 88 38 90 88 38 90 88 38 90 106 50 90 106 50 90 106 50 34 106 50 34 106 50 34 106 62 34 124 62 34 124 62 34 124 62 34 124 62 48 124 38 48 124 38 48 142 38 48 142 38 48 142 38 48 142 50 48 142 50 62 142 50 62 88 50 62 88 50 62 88 62 62 88 62 62 88 62 62 88 62 76 106 62 76 106 38 76 106 38 76 106 38 76 106 38 76 106 38 76 124 50 90 124 50 90 124 50 90 124 50 90 124 50 90 124 62 90 142 62 90 142 62 34 142 62 34 142 62 34 142 38 34 142 38 34 88 38 34 88 38 34 88 38 48 88 50 48 88 50 48 88 50 48 106 50 48 106 50 48 106 62 48 106 62 62 106 62 62 106 62 62 124 62 62 124 38 62 124 38 62 124 38 62 124 38 76 124 38 76 142 50 76 142 50 76 142 50 76 142 50 76 142 50 76 142 62 90 88 62 90 88 62 90 88 62 90 88 62 90 88 38 90 88 38 90 106 38 34 106 38 34 106 38 34 106 50 34 106 50 34 106 50 34 124 50 34 124 50 48 124 62 48 124 62 48 124 62 48 124 62 48 142 62 48 142 38 48 142 38 62 142 38 62 142 38 62 142 38 62 88 50 62 88 50 62 88 50 62 88 50 76 88 50 76 88 62 76 106 62 76 106 62 76 106 62 76 106 62 76 106 38 90 106 38 90 124 38 90 124 38 90 124 38 90 124 50 90 124 50 90 124 50 34 142 50 34 142 50 34 142 62 34 142 62 34 142 62 34 142 62 34 88 62 48 88 38 48 88 38 48 88 38 48 88 38 48 88 38 48 106 50 48 106 50 62 106 50 62 106 50 62 106 50 62 106 62 62 124 62 62 124 62 62 124 62 76 124 62 76 124 38 76 124 38 76 142 38 76 142 38 76 142 38 76 142 50 90 142 50 90 142 50 90 88 50 90 88 50 90 88 62 90 88 62 90 88 62 34 88 62 34 106 62 34 106 38 34 106 38 34 106 38 34 106 38 34 106 38 48 124 50 48 124 50 48 124 50 48 124 50 48 124 50 48 124 62 48 142 62 62 142 62 62 142 62 62 142 62 62 142 38 62 142 38 62 88 38 62 88 38 76 88 38 76 88 50 76 88 50 76 88 50 76 106 50 76 106 50 76 106 62 90 106 62 90 106 62 90 106 62 90 124 62 90 124 38 90 124 38 90 124 38 34 124 38 34 124 38 34 142 50 34 142 50 34 142 50 34 142 50 34 142 50 48 142 62 48 88 62 48 88 62 48 88 62 48 88 62 48 88 38 48 88 38 62 106 38 62 106 38 62 106 38 62 106 50 62 106 50 62 106 50 62 124 50 76 124 50 76 124 62 76 124 62 76 124 62 76 124 62 76 142 62 76 142 38 90 142 38 90 142 38 90 142 38 90 142 38 90 88 50 90 88 50 90 88 50 34 88 50 34 88 50 34 88 62 34 106 62 34 106 62 34 106 62 34 106 62 48 106 38 48 106 38 48 124 38 48 124 38 48 124 38 48 124 50 48 124 50 62 124 50 62 142 50 62 142 50 62 142 62 62 142 62 62 142 62 62 142 62 76 88 62 76 88 38 76 88 38 76 88 38 76 88 38 76 88 38 76 106 50 90 106 50 90 106 50 90 106 50 90 106 50 90 106 62 90 124 62 90 124 62 34 124 62 34 124 62 34 124 38 34 124 38 34 142 38 34 142 38 34 142 38 48 142 50 48 142 50 48 142 50 48 88 50 48 88 50
48 142 50 48 142 50 48 142 50 48 142 50 48 142 50 48 142 62 48 88 62 62 88 62 62 88 62 62 88 62 62 88 38 62 88 38 62 106 38 62 106 38 76 106 38 76 106 50 76 106 50 76 106 50 76 124 50 76 124 50 76 124 62 90 124 62 90 124 62 90 124 62 90 142 62 90 142 38 90 142 38 90 142 38 34 142 38 34 142 38 34 88 50 34 88 50 34 88 50 34 88 50 34 88 50 48 88 62 48 106 62 48 106 62 48 106 62 48 106 62 48 106 38 48 106 38 62 124 38 62 124 38 62 124 38 62 124 50 62 124 50 62 124 50 62 142 50 76 142 50 76 142 62 76 142 62 76 142 62 76 142 62 76 88 62 76 88 38 90 88 38 90 88 38 90 88 38 90 88 38 90 106 50 90 106 50 90 106 50 34 106 50 34 106 50 34 106 62 34 124 62 34 124 62 34 124 62 34 124 62 48 124 38 48 124 38 48 142 38 48 142 38 48 142 38 48 142 50 48 142 50 62 142 50 62 88 50 62 88 50 62 88 62 62 88 62 62 88 62 62 88 62 76 106 62 76 106 38 76 106 38 76 106 38 76 106 38 76 106 38 76 124 50 90 124 50 90 124 50 90 124 50 90 124 50 90 124 62 90 142 62 90 142 62 34 142 62 34 142 62 34 142 38 34 142 38 34 88 38 34 88 38 34 88 38 48 88 50 48 88 50 48 88 50 48 106 50 48 106 50 48 106 62 48 106 62 62 106 62 62 106 62 62 124 62 62 124 38 62 124 38 62 124 38 62 124 38 76 124 38 76 142 50 76 142 50 76 142 50 76 142 50 76 142 50 76 142 62 90 88 62 90 88 62 90 88 62 90 88 62 90 88 38 90 88 38 90 106 38 34 106 38 34 106 38 34 106 50 34 106 50 34 106 50 34 124 50 34 124 50 48 124 62 48 124 62 48 124 62 48 124 62 48 142 62 48 142 38 48 142 38 62 142 38 62 142 38 62 142 38 62 88 50 62 88 50 62 88 50 62 88 50 76 88 50 76 88 62 76 106 62 76 106 62 76 106 62 76 106 62 76 106 38 90 106 38 90 124 38 90 124 38 90 124 38 90 124 50 90 124 50 90 124 50 34 142 50 34 142 50 34 142 62 34 142 62 34 142 62 34 142 62 34 88 62 48 88 38 48 88 38 48 88 38 48 88 38 48 88 38 48 106 50 48 106 50 62 106 50 62 106 50 62 106 50 62 106 62 62 124 62 62 124 62 62 124 62 76 124 62 76 124 38 76 124 38 76 142 38 76 142 38 76 142 38 76 142 50 90 142 50 90 142 50 90 88 50 90 88 50 90 88 62 90 88 62 90 88 62 34 88 62 34 106 62 34 106 38 34 106 38 34 106 38 34 106 38 34 106 38 48 124 50 48 124 50 48 124 50 48 124 50 48 124 50 48 124 62 48 142 62 62 142 62 62 142 62 62 142 62 62 142 38 62 142 38 62 88 38 62 88 38 76 88 38 76 88 50 76 88 50 76 88 50 76 106 50 76 106 50 76 106 62 90 106 62 90 106 62 90 106 62 90 124 62 90 124 38 90 124 38 90 124 38 34 124 38 34 124 38 34 142 50 34 142 50 34 142 50 34 142 50 34 142 50 48 142 62 48 88 62 48 88 62 48 88 62 48 88 62 48 88 38 48 88 38 62 106 38 62 106 38 62 106 38 62 106 50 62 106 50 62 106 50 62 124 50 76 124 50 76 124 62 76 124 62 76 124 62 76 124 62 76 142 62 76 142 38 90 142 38 90 142 38 90 142 38 90 142 38 90 88 50 90 88 50 90 88 50 34 88 50 34 88 50 34 88 62 34 106 62 34 106 62 34 106 62 34 106 62 48 106 38 48 106 38 48 124 38 48 124 38 48 124 38 48 124 50 48 124 50 62 124 50 62 142 50 62 142 50 62 142 62 62 142 62 62 142 62 62 142 62 76 88 62 76 88 38 76 88 38 76 88 38 76 88 38 76 88 38 76 106 50 90 106 50 90 106 50 90 106 50 90 106 50 90 106 62 90 124 62 90 124 62 34 124 62 34 124 62 34 124 38 34 124 38 34 142 38 34 142 38 34 142 38 48 142 50 48 142 50 48 142 50 48 88 50 48 88 50
48 142 50 48 142 50 48 142 50 48 142 50 48 142 50 48 142 62 48 88 62 62 88 62 62 88 62 62 88 62 62 88 38 62 88 38 62 106 38 62 106 38 76 106 38 76 106 50 76 106 50 76 106 50 76 124 50 76 124 50 76 124 62 90 124 62 90 124 62 90 124 62 90 142 62 90 142 38 90 142 38 90 142 38 34 142 38 34 142 38 34 88 50 34 88 50 34 88 50 34 88 50 34 88 50 48 88 62 48 106 62 48 106 62 48 106 62 48 106 62 48 106 38 48 106 38 62 124 38 62 124 38 62 124 38 62 124 50 62 124 50 62 124 50 62 142 50 76 142 50 76 142 62 76 142 62 76 142 62 76 142 62 76 88 62 76 88 38 90 88 38 90 88 38 90 88 38 90 88 38 90 106 50 90 106 50 90 106 50 34 106 50 34 106 50 34 106 62 34 124 62 34 124 62 34 124 62 34 124 62 48 124 38 48 124 38 48 142 38 48 142 38 48 142 38 48 142 50 48 142 50 62 142 50 62 88 50 62 88 50 62 88 62 62 88 62 62 88 62 62 88 62 76 106 62 76 106 38 76 106 38 76 106 38 76 106 38 76 106 38 76 124 50 90 124 50 90 124 50 90 124 50 90 124 50 90 124 62 90 142 62 90 142 62 34 142 62 34 142 62 34 142 38 34 142 38 34 88 38 34 88 38 34 88 38 48 88 50 48 88 50 48 88 50 48 106 50 48 106 50 48 106 62 48 106 62 62 106 62 62 106 62 62 124 62 62 124 38 62 124 38 62 124 38 62 124 38 76 124 38 76 142 50 76 142 50 76 142 50 76 142 50 76 142 50 76 142 62 90 88 62 90 88 62 90 88 62 90 88 62 90 88 38 90 88 38 90 106 38 34 106 38 34 106 38 34 106 50 34 106 50 34 106 50 34 124 50 34 124 50 48 124 62 48 124 62 48 124 62 48 124 62 48 142 62 48 142 38 48 142 38 62 142 38 62 142 38 62 142 38 62 88 50 62 88 50 62 88 50 62 88 50 76 88 50 76 88 62 76 106 62 76 106 62 76 106 62 76 106 62 76 106 38 90 106 38 90 124 38 90 124 38 90 124 38 90 124 50 90 124 50 90 124 50 34 142 50 34 142 50 34 142 62 34 142 62 34 142 62 34 142 62 34 88 62 48 88 38 48 88 38 48 88 38 48 88 38 48 88 38 48 106 50 48 106 50 62 106 50 62 106 50 62 106 50 62 106 62 62 124 62 62 124 62 62 124 62 76 124 62 76 124 38 76 124 38 76 142 38 76 142 38 76 142 38 76 142 50 90 142 50 90 142 50 90 88 50 90 88 50 90 88 62 90 88 62 90 88 62 34 88 62 34 106 62 34 106 38 34 106 38 34 106 38 34 106 38 34 106 38 48 124 50 48 124 50 48 124 50 48 124 50 48 124 50 48 124 62 48 142 62 62 142 62 62 142 62 62 142 62 62 142 38 62 142 38 62 88 38 62 88 38 76 88 38 76 88 50 76 88 50 76 88 50 76 106 50 76 106 50 76 106 62 90 106 62 90 106 62 90 106 62 90 124 62 90 124 38 90 124 38 90 124 38 34 124 38 34 124 38 34 142 50 34 142 50 34 142 50 34 142 50 34 142 50 48 142 62 48 88 62 48 88 62 48 88 62 48 88 62 48 88 38 48 88 38 62 106 38 62 106 38 62 106 38 62 106 50 62 106 50 62 106 50 62 124 50 76 124 50 76 124 62 76 124 62 76 124 62 76 124 62 76 142 62 76 142 38 90 142 38 90 142 38 90 142 38 90 142 38 90 88 50 90 88 50 90 88 50 34 88 50 34 88 50 34 88 62 34 106 62 34 106 62 34 106 62 34 106 62 48 106 38 48 106 38 48 124 38 48 124 38 48 124 38 48 124 50 48 124 50 62 124 50 62 142 50 62 142 50 62 142 62 62 142 62 62 142 62 62 142 62 76 88 62 76 88 38 76 88 38 76 88 38 76 88 38 76 88 38 76 106 50 90 106 50 90 106 50 90 106 50 90 106 50 90 106 62 90 124 62 90 124 62 34 124 62 34 124 62 34 124 38 34 124 38 34 142 38 34 142 38 34 142 38 48 142 50 48 142 50 48 142 50 48 88 50 48 88 50
48 142 50 48 142 50 48 142 50 48 142 50 48 142 50 48 142 62 48 88 62 62 88 62 62 88 62 62 88 62 62 88 38 62 88 38 62 106 38 62 106 38 76 106 38 76 106 50 76 106 50 76 106 50 76 124 50 76 124 50 76 124 62 90 124 62 90 124 62 90 124 62 90 142 62 90 142 38 90 142 38 90 142 38 34 142 38 34 142 38 34 88 50 34 88 50 34 88 50 34 88 50 34 88 50 48 88 62 48 106 62 48 106 62 48 106 62 48 106 62 48 106 38 48 106 38 62 124 38 62 124 38 62 124 38 62 124 50 62 124 50 62 124 50 62 142 50 76 142 50 76 142 62 76 142 62 76 142 62 76 142 62 76 88 62 76 88 38 90 88 38 90 88 38 90 88 38 90 88 38 90 106 50 90 106 50 90 106 50 34 106 50 34 106 50 34 106 62 34 124 62 34 124 62 34 124 62 34 124 62 48 124 38 48 124 38 48 142 38 48 142 38 48 142 38 48 142 50 48 142 50 62 142 50 62 88 50 62 88 50 62 88 62 62 88 62 62 88 62 62 88 62 76 106 62 76 106 38 76 106 38 76 106 38 76 106 38 76 106 38 76 124 50 90 124 50 90 124 50 90 124 50 90 124 50 90 124 62 90 142 62 90 142 62 34 142 62 34 142 62 34 142 38 34 142 38 34 88 38 34 88 38 34 88 38 48 88 50 48 88 50 48 88 50 48 106 50 48 106 50 48 106 62 48 106 62 62 106 62 62 106 62 62 124 62 62 124 38 62 124 38 62 124 38 62 124 38 76 124 38 76 142 50 76 142 50 76 142 50 76 142 50 76 142 50 76 142 62 90 88 62 90 88 62 90 88 62 90 88 62 90 88 38 90 88 38 90 106 38 34 106 38 34 106 38 34 106 50 34 106 50 34 106 50 34 124 50 34 124 50 48 124 62 48 124 62 48 124 62 48 124 62 48 142 62 48 142 38 48 142 38 62 142 38 62 142 38 62 142 38 62 88 50 62 88 50 62 88 50 62 88 50 76 88 50 76 88 62 76 106 62 76 106 62 76 106 62 76 106 62 76 106 38 90 106 38 90 124 38 90 124 38 90 124 38 90 124 50 90 124 50 90 124 50 34 142 50 34 142 50 34 142 62 34 142 62 34 142 62 34 142 62 34 88 62 48 88 38 48 88 38 48 88 38 48 88 38 48 88 38 48 106 50 48 106 50 62 106 50 62 106 50 62 106 50 62 106 62 62 124 62 62 124 62 62 124 62 76 124 62 76 124 38 76 124 38 76 142 38 76 142 38 76 142 38 76 142 50 90 142 50 90 142 50 90 88 50 90 88 50 90 88 62 90 88 62 90 88 62 34 88 62 34 106 62 34 106 38 34 106 38 34 106 38 34 106 38 34 106 38 48 124 50 48 124 50 48 124 50 48 124 50 48 124 50 48 124 62 48 142 62 62 142 62 62 142 62 62 142 62 62 142 38 62 142 38 62 88 38 62 88 38 76 88 38 76 88 50 76 88 50 76 88 50 76 106 50 76 106 50 76 106 62 90 106 62 90 106 62 90 106 62 90 124 62 90 124 38 90 124 38 90 124 38 34 124 38 34 124 38 34 142 50 34 142 50 34 142 50 34 142 50 34 142 50 48 142 62 48 88 62 48 88 62 48 88 62 48 88 62 48 88 38 48 88 38 62 106 38 62 106 38 62 106 38 62 106 50 62 106 50 62 106 50 62 124 50 76 124 50 76 124 62 76 124 62 76 124 62 76 124 62 76 142 62 76 142 38 90 142 38 90 142 38 90 142 38 90 142 38 90 88 50 90 88 50 90 88 50 34 88 50 34 88 50 34 88 62 34 106 62 34 106 62 34 106 62 34 106 62 48 106 38 48 106 38 48 124 38 48 124 38 48 124 38 48 124 50 48 124 50 62 124 50 62 142 50 62 142 50 62 142 62 62 142 62 62 142 62 62 142 62 76 88 62 76 88 38 76 88 38 76 88 38 76 88 38 76 88 38 76 106 50 90 106 50 90 106 50 90 106 50 90 106 50 90 106 62 90 124 62 90 124 62 34 124 62 34 124 62 34 124 38 34 124 38 34 142 38 34 142 38 34 142 38 48 142 50 48 142 50 48 142 50 48 88 50 48 88 50
48 88 50 48 88 50 48 88 50 48 88 50 48 88 50 48 88 62 48 106 62 62 106 62 62 106 62 62 106 62 62 106 38 62 106 38 62 124 38 62 124 38 76 124 38 76 124 50 76 124 50 76 124 50 76 142 50 76 142 50 76 142 62 90 142 62 90 142 62 90 142 62 90 88 62 90 88 38 90 88 38 90 88 38 34 88 38 34 88 38 34 106 50 34 106 50 34 106 50 34 106 50 34 106 50 48 106 62 48 124 62 48 124 62 48 124 62 48 124 62 48 124 38 48 124 38 62 142 38 62 142 38 62 142 38 62 142 50 62 142 50 62 142 50 62 88 50 76 88 50 76 88 62 76 88 62 76 88 62 76 88 62 76 106 62 76 106 38 90 106 38 90 106 38 90 106 38 90 106 38 90 124 50 90 124 50 90 124 50 34 124 50 34 124 50 34 124 62 34 142 62 34 142 62 34 142 62 34 142 62 48 142 38 48 142 38 48 88 38 48 88 38 48 88 38 48 88 50 48 88 50 62 88 50 62 106 50 62 106 50 62 106 62 62 106 62 62 106 62 62 106 62 76 124 62 76 124 38 76 124 38 76 124 38 76 124 38 76 124 38 76 142 50 90 142 50 90 142 50 90 142 50 90 142 50 90 142 62 90 88 62 90 88 62 34 88 62 34 88 62 34 88 38 34 88 38 34 106 38 34 106 38 34 106 38 48 106 50 48 106 50 48 106 50 48 124 50 48 124 50 48 124 62 48 124 62 62 124 62 62 124 62 62 142 62 62 142 38 62 142 38 62 142 38 62 142 38 76 142 38 76 88 50 76 88 50 76 88 50 76 88 50 76 88 50 76 88 62 90 106 62 90 106 62 90 106 62 90 106 62 90 106 38 90 106 38 90 124 38 34 124 38 34 124 38 34 124 50 34 124 50 34 124 50 34 142 50 34 142 50 48 142 62 48 142 62 48 142 62 48 142 62 48 88 62 48 88 38 48 88 38 62 88 38 62 88 38 62 88 38 62 106 50 62 106 50 62 106 50 62 106 50 76 106 50 76 106 62 76 124 62 76 124 62 76 124 62 76 124 62 76 124 38 90 124 38 90 142 38 90 142 38 90 142 38 90 142 50 90 142 50 90 142 50 34 88 50 34 88 50 34 88 62 34 88 62 34 88 62 34 88 62 34 106 62 48 106 38 48 106 38 48 106 38 48 106 38 48 106 38 48 124 50 48 124 50 62 124 50 62 124 50 62 124 50 62 124 62 62 142 62 62 142 62 62 142 62 76 142 62 76 142 38 76 142 38 76 88 38 76 88 38 76 88 38 76 88 50 90 88 50 90 88 50 90 106 50 90 106 50 90 106 62 90 106 62 90 106 62 34 106 62 34 124 62 34 124 38 34 124 38 34 124 38 34 124 38 34 124 38 48 142 50 48 142 50 48 142 50 48 142 50 48 142 50 48 142 62 48 88 62 62 88 62 62 88 62 62 88 62 62 88 38 62 88 38 62 106 38 62 106 38 76 106 38 76 106 50 76 106 50 76 106 50 76 124 50 76 124 50 76 124 62 90 124 62 90 124 62 90 124 62 90 142 62 90 142 38 90 142 38 90 142 38 34 142 38 34 142 38 34 88 50 34 88 50 34 88 50 34 88 50 34 88 50 48 88 62 48 106 62 48 106 62 48 106 62 48 106 62 48 106 38 48 106 38 62 124 38 62 124 38 62 124 38 62 124 50 62 124 50 62 124 50 62 142 50 76 142 50 76 142 62 76 142 62 76 142 62 76 142 62 76 88 62 76 88 38 90 88 38 90 88 38 90 88 38 90 88 38 90 106 50 90 106 50 90 106 50 34 106 50 34 106 50 34 106 62 34 124 62 34 124 62 34 124 62 34 124 62 48 124 38 48 124 38 48 142 38 48 142 38 48 142 38 48 142 50 48 142 50 62 142 50 62 88 50 62 88 50 62 88 62 62 88 62 62 88 62 62 88 62 76 106 62 76 106 38 76 106 38 76 106 38 76 106 38 76 106 38 76 124 50 90 124 50 90 124 50 90 124 50 90 124 50 90 124 62 90 142 62 90 142 62 34 142 62 34 142 62 34 142 38 34 142 38 34 88 38 34 88 38 34 88 38 48 88 50 48 88 50 48 88 50 48 106 50 48 106 50
62 88 50 62 88 50 62 88 50 62 88 50 62 88 50 62 88 62 62 106 62 76 106 62 76 106 62 76 106 62 76 106 38 76 106 38 76 124 38 76 124 38 90 124 38 90 124 50 90 124 50 90 124 50 90 142 50 90 142 50 90 142 62 34 142 62 34 142 62 34 142 62 34 88 62 34 88 38 34 88 38 34 88 38 48 88 38 48 88 38 48 106 50 48 106 50 48 106 50 48 106 50 48 106 50 62 106 62 62 124 62 62 124 62 62 124 62 62 124 62 62 124 38 62 124 38 76 142 38 76 142 38 76 142 38 76 142 50 76 142 50 76 142 50 76 88 50 90 88 50 90 88 62 90 88 62 90 88 62 90 88 62 90 106 62 90 106 38 34 106 38 34 106 38 34 106 38 34 106 38 34 124 50 34 124 50 34 124 50 48 124 50 48 124 50 48 124 62 48 142 62 48 142 62 48 142 62 48 142 62 62 142 38 62 142 38 62 88 38 62 88 38 62 88 38 62 88 50 62 88 50 76 88 50 76 106 50 76 106 50 76 106 62 76 106 62 76 106 62 76 106 62 90 124 62 90 124 38 90 124 38 90 124 38 90 124 38 90 124 38 90 142 50 34 142 50 34 142 50 34 142 50 34 142 50 34 142 62 34 88 62 34 88 62 48 88 62 48 88 62 48 88 38 48 88 38 48 106 38 48 106 38 48 106 38 62 106 50 62 106 50 62 106 50 62 124 50 62 124 50 62 124 62 62 124 62 76 124 62 76 124 62 76 142 62 76 142 38 76 142 38 76 142 38 76 142 38 90 142 38 90 88 50 90 88 50 90 88 50 90 88 50 90 88 50 90 88 62 34 106 62 34 106 62 34 106 62 34 106 62 34 106 38 34 106 38 34 124 38 48 124 38 48 124 38 48 124 50 48 124 50 48 124 50 48 142 50 48 142 50 62 142 62 62 142 62 62 142 62 62 142 62 62 88 62 62 88 38 62 88 38 76 88 38 76 88 38 76 88 38 76 106 50 76 106 50 76 106 50 76 106 50 90 106 50 90 106 62 90 124 62 90 124 62 90 124 62 90 124 62 90 124 38 34 124 38 34 142 38 34 142 38 34 142 38 34 142 50 34 142 50 34 142 50 48 88 50 48 88 50 48 88 62 48 88 62 48 88 62 48 88 62 48 106 62 62 106 38 62 106 38 62 106 38 62 106 38 62 106 38 62 124 50 62 124 50 76 124 50 76 124 50 76 124 50 76 124 62 76 142 62 76 142 62 76 142 62 90 142 62 90 142 38 90 142 38 90 88 38 90 88 38 90 88 38 90 88 50 34 88 50 34 88 50 34 106 50 34 106 50 34 106 62 34 106 62 34 106 62 48 106 62 48 124 62 48 124 38 48 124 38 48 124 38 48 124 38 48 124 38 62 142 50 62 142 50 62 142 50 62 142 50 62 142 50 62 142 62 62 88 62 76 88 62 76 88 62 76 88 62 76 88 38 76 88 38 76 106 38 76 106 38 90 106 38 90 106 50 90 106 50 90 106 50 90 124 50 90 124 50 90 124 62 34 124 62 34 124 62 34 124 62 34 142 62 34 142 38 34 142 38 34 142 38 48 142 38 48 142 38 48 88 50 48 88 50 48 88 50 48 88 50 48 88 50 62 88 62 62 106 62 62 106 62 62 106 62 62 106 62 62 106 38 62 106 38 76 124 38 76 124 38 76 124 38 76 124 50 76 124 50 76 124 50 76 142 50 90 142 50 90 142 62 90 142 62 90 142 62 90 142 62 90 88 62 90 88 38 34 88 38 34 88 38 34 88 38 34 88 38 34 106 50 34 106 50 34 106 50 48 106 50 48 106 50 48 106 62 48 124 62 48 124 62 48 124 62 48 124 62 62 124 38 62 124 38 62 142 38 62 142 38 62 142 38 62 142 50 62 142 50 76 142 50 76 88 50 76 88 50 76 88 62 76 88 62 76 88 62 76 88 62 90 106 62 90 106 38 90 106 38 90 106 38 90 106 38 90 106 38 90 124 50 34 124 50 34 124 50 34 124 50 34 124 50 34 124 62 34 142 62 34 142 62 48 142 62 48 142 62 48 142 38 48 142 38 48 88 38 48 88 38 48 88 38 62 88 50 62 88 50 62 88 50 62 106 50 62 106 50
62 88 50 62 88 50 62 88 50 62 88 50 62 88 50 62 88 62 62 106 62 76 106 62 76 106 62 76 106 62 76 106 38 76 106 38 76 124 38 76 124 38 90 124 38 90 124 50 90 124 50 90 124 50 90 142 50 90 142 50 90 142 62 34 142 62 34 142 62 34 142 62 34 88 62 34 88 38 34 88 38 34 88 38 48 88 38 48 88 38 48 106 50 48 106 50 48 106 50 48 106 50 48 106 50 62 106 62 62 124 62 62 124 62 62 124 62 62 124 62 62 124 38 62 124 38 76 142 38 76 142 38 76 142 38 76 142 50 76 142 50 76 142 50 76 88 50 90 88 50 90 88 62 90 88 62 90 88 62 90 88 62 90 106 62 90 106 38 34 106 38 34 106 38 34 106 38 34 106 38 34 124 50 34 124 50 34 124 50 48 124 50 48 124 50 48 124 62 48 142 62 48 142 62 48 142 62 48 142 62 62 142 38 62 142 38 62 88 38 62 88 38 62 88 38 62 88 50 62 88 50 76 88 50 76 106 50 76 106 50 76 106 62 76 106 62 76 106 62 76 106 62 90 124 62 90 124 38 90 124 38 90 124 38 90 124 38 90 124 38 90 142 50 34 142 50 34 142 50 34 142 50 34 142 50 34 142 62 34 88 62 34 88 62 48 88 62 48 88 62 48 88 38 48 88 38 48 106 38 48 106 38 48 106 38 62 106 50 62 106 50 62 106 50 62 124 50 62 124 50 62 124 62 62 124 62 76 124 62 76 124 62 76 142 62 76 142 38 76 142 38 76 142 38 76 142 38 90 142 38 90 88 50 90 88 50 90 88 50 90 88 50 90 88 50 90 88 62 34 106 62 34 106 62 34 106 62 34 106 62 34 106 38 34 106 38 34 124 38 48 124 38 48 124 38 48 124 50 48 124 50 48 124 50 48 142 50 48 142 50 62 142 62 62 142 62 62 142 62 62 142 62 62 88 62 62 88 38 62 88 38 76 88 38 76 88 38 76 88 38 76 106 50 76 106 50 76 106 50 76 106 50 90 106 50 90 106 62 90 124 62 90 124 62 90 124 62 90 124 62 90 124 38 34 124 38 34 142 38 34 142 38 34 142 38 34 142 50 34 142 50 34 142 50 48 88 50 48 88 50 48 88 62 48 88 62 48 88 62 48 88 62 48 106 62 62 106 38 62 106 38 62 106 38 62 106 38 62 106 38 62 124 50 62 124 50 76 124 50 76 124 50 76 124 50 76 124 62 76 142 62 76 142 62 76 142 62 90 142 62 90 142 38 90 142 38 90 88 38 90 88 38 90 88 38 90 88 50 34 88 50 34 88 50 34 106 50 34 106 50 34 106 62 34 106 62 34 106 62 48 106 62 48 124 62 48 124 38 48 124 38 48 124 38 48 124 38 48 124 38 62 142 50 62 142 50 62 142 50 62 142 50 62 142 50 62 142 62 62 88 62 76 88 62 76 88 62 76 88 62 76 88 38 76 88 38 76 106 38 76 106 38 90 106 38 90 106 50 90 106 50 90 106 50 90 124 50 90 124 50 90 124 62 34 124 62 34 124 62 34 124 62 34 142 62 34 142 38 34 142 38 34 142 38 48 142 38 48 142 38 48 88 50 48 88 50 48 88 50 48 88 50 48 88 50 62 88 62 62 106 62 62 106 62 62 106 62 62 106 62 62 106 38 62 106 38 76 124 38 76 124 38 76 124 38 76 124 50 76 124 50 76 124 50 76 142 50 90 142 50 90 142 62 90 142 62 90 142 62 90 142 62 90 88 62 90 88 38 34 88 38 34 88 38 34 88 38 34 88 38 34 106 50 34 106 50 34 106 50 48 106 50 48 106 50 48 106 62 48 124 62 48 124 62 48 124 62 48 124 62 62 124 38 62 124 38 62 142 38 62 142 38 62 142 38 62 142 50 62 142 50 76 142 50 76 88 50 76 88 50 76 88 62 76 88 62 76 88 62 76 88 62 90 106 62 90 106 38 90 106 38 90 106 38 90 106 38 90 106 38 90 124 50 34 124 50 34 124 50 34 124 50 34 124 50 34 124 62 34 142 62 34 142 62 48 142 62 48 142 62 48 142 38 48 142 38 48 88 38 48 88 38 48 88 38 62 88 50 62 88 50 62 88 50 62 106 50 62 106 50
62 88 50 62 88 50 62 88 50 62 88 50 62 88 50 62 88 62 62 106 62 76 106 62 76 106 62 76 106 62 76 106 38 76 106 38 76 124 38 76 124 38 90 124 38 90 124 50 90 124 50 90 124 50 90 142 50 90 142 50 90 142 62 34 142 62 34 142 62 34 142 62 34 88 62 34 88 38 34 88 38 34 88 38 48 88 38 48 88 38 48 106 50 48 106 50 48 106 50 48 106 50 48 106 50 62 106 62 62 124 62 62 124 62 62 124 62 62 124 62 62 124 38 62 124 38 76 142 38 76 142 38 76 142 38 76 142 50 76 142 50 76 142 50 76 88 50 90 88 50 90 88 62 90 88 62 90 88 62 90 88 62 90 106 62 90 106 38 34 106 38 34 106 38 34 106 38 34 106 38 34 124 50 34 124 50 34 124 50 48 124 50 48 124 50 48 124 62 48 142 62 48 142 62 48 142 62 48 142 62 62 142 38 62 142 38 62 88 38 62 88 38 62 88 38 62 88 50 62 88 50 76 88 50 76 106 50 76 106 50 76 106 62 76 106 62 76 106 62 76 106 62 90 124 62 90 124 38 90 124 38 90 124 38 90 124 38 90 124 38 90 142 50 34 142 50 34 142 50 34 142 50 34 142 50 34 142 62 34 88 62 34 88 62 48 88 62 48 88 62 48 88 38 48 88 38 48 106 38 48 106 38 48 106 38 62 106 50 62 106 50 62 106 50 62 124 50 62 124 50 62 124 62 62 124 62 76 124 62 76 124 62 76 142 62 76 142 38 76 142 38 76 142 38 76 142 38 90 142 38 90 88 50 90 88 50 90 88 50 90 88 50 90 88 50 90 88 62 34 106 62 34 106 62 34 106 62 34 106 62 34 106 38 34 106 38 34 124 38 48 124 38 48 124 38 48 124 50 48 124 50 48 124 50 48 142 50 48 142 50 62 142 62 62 142 62 62 142 62 62 142 62 62 88 62 62 88 38 62 88 38 76 88 38 76 88 38 76 88 38 76 106 50 76 106 50 76 106 50 76 106 50 90 106 50 90 106 62 90 124 62 90 124 62 90 124 62 90 124 62 90 124 38 34 124 38 34 142 38 34 142 38 34 142 38 34 142 50 34 142 50 34 142 50 48 88 50 48 88 50 48 88 62 48 88 62 48 88 62 48 88 62 48 106 62 62 106 38 62 106 38 62 106 38 62 106 38 62 106 38 62 124 50 62 124 50 76 124 50 76 124 50 76 124 50 76 124 62 76 142 62 76 142 62 76 142 62 90 142 62 90 142 38 90 142 38 90 88 38 90 88 38 90 88 38 90 88 50 34 88 50 34 88 50 34 106 50 34 106 50 34 106 62 34 106 62 34 106 62 48 106 62 48 124 62 48 124 38 48 124 38 48 124 38 48 124 38 48 124 38 62 142 50 62 142 50 62 142 50 62 142 50 62 142 50 62 142 62 62 88 62 76 88 62 76 88 62 76 88 62 76 88 38 76 88 38 76 106 38 76 106 38 90 106 38 90 106 50 90 106 50 90 106 50 90 124 50 90 124 50 90 124 62 34 124 62 34 124 62 34 124 62 34 142 62 34 142 38 34 142 38 34 142 38 48 142 38 48 142 38 48 88 50 48 88 50 48 88 50 48 88 50 48 88 50 62 88 62 62 106 62 62 106 62 62 106 62 62 106 62 62 106 38 62 106 38 76 124 38 76 124 38 76 124 38 76 124 50 76 124 50 76 124 50 76 142 50 90 142 50 90 142 62 90 142 62 90 142 62 90 142 62 90 88 62 90 88 38 34 88 38 34 88 38 34 88 38 34 88 38 34 106 50 34 106 50 34 106 50 48 106 50 48 106 50 48 106 62 48 124 62 48 124 62 48 124 62 48 124 62 62 124 38 62 124 38 62 142 38 62 142 38 62 142 38 62 142 50 62 142 50 76 142 50 76 88 50 76 88 50 76 88 62 76 88 62 76 88 62 76 88 62 90 106 62 90 106 38 90 106 38 90 106 38 90 106 38 90 106 38 90 124 50 34 124 50 34 124 50 34 124 50 34 124 50 34 124 62 34 142 62 34 142 62 48 142 62 48 142 62 48 142 38 48 142 38 48 88 38 48 88 38 48 88 38 62 88 50 62 88 50 62 88 50 62 106 50 62 106 50
62 88 62 62 88 62 62 88 62 62 88 62 62 88 62 62 88 38 62 106 38 76 106 38 76 106 38 76 106 38 76 106 50 76 106 50 76 124 50 76 124 50 90 124 50 90 124 62 90 124 62 90 124 62 90 142 62 90 142 62 90 142 38 34 142 38 34 142 38 34 142 38 34 88 38 34 88 50 34 88 50 34 88 50 48 88 50 48 88 50 48 106 62 48 106 62 48 106 62 48 106 62 48 106 62 62 106 38 62 124 38 62 124 38 62 124 38 62 124 38 62 124 50 62 124 50 76 142 50 76 142 50 76 142 50 76 142 62 76 142 62 76 142 62 76 88 62 90 88 62 90 88 38 90 88 38 90 88 38 90 88 38 90 106 38 90 106 50 34 106 50 34 106 50 34 106 50 34 106 50 34 124 62 34 124 62 34 124 62 48 124 62 48 124 62 48 124 38 48 142 38 48 142 38 48 142 38 48 142 38 62 142 50 62 142 50 62 88 50 62 88 50 62 88 50 62 88 62 62 88 62 76 88 62 76 106 62 76 106 62 76 106 38 76 106 38 76 106 38 76 106 38 90 124 38 90 124 50 90 124 50 90 124 50 90 124 50 90 124 50 90 142 62 34 142 62 34 142 62 34 142 62 34 142 62 34 142 38 34 88 38 34 88 38 48 88 38 48 88 38 48 88 50 48 88 50 48 106 50 48 106 50 48 106 50 62 106 62 62 106 62 62 106 62 62 124 62 62 124 62 62 124 38 62 124 38 76 124 38 76 124 38 76 142 38 76 142 50 76 142 50 76 142 50 76 142 50 90 142 50 90 88 62 90 88 62 90 88 62 90 88 62 90 88 62 90 88 38 34 106 38 34 106 38 34 106 38 34 106 38 34 106 50 34 106 50 34 124 50 48 124 50 48 124 50 48 124 62 48 124 62 48 124 62 48 142 62 48 142 62 62 142 38 62 142 38 62 142 38 62 142 38 62 88 38 62 88 50 62 88 50 76 88 50 76 88 50 76 88 50 76 106 62 76 106 62 76 106 62 76 106 62 90 106 62 90 106 38 90 124 38 90 124 38 90 124 38 90 124 38 90 124 50 34 124 50 34 142 50 34 142 50 34 142 50 34 142 62 34 142 62 34 142 62 48 88 62 48 88 62 48 88 38 48 88 38 48 88 38 48 88 38 48 106 38 62 106 50 62 106 50 62 106 50 62 106 50 62 106 50 62 124 62 62 124 62 76 124 62 76 124 62 76 124 62 76 124 38 76 142 38 76 142 38 76 142 38 90 142 38 90 142 50 90 142 50 90 88 50 90 88 50 90 88 50 90 88 62 34 88 62 34 88 62 34 106 62 34 106 62 34 106 38 34 106 38 34 106 38 48 106 38 48 124 38 48 124 50 48 124 50 48 124 50 48 124 50 48 124 50 62 142 62 62 142 62 62 142 62 62 142 62 62 142 62 62 142 38 62 88 38 76 88 38 76 88 38 76 88 38 76 88 50 76 88 50 76 106 50 76 106 50 90 106 50 90 106 62 90 106 62 90 106 62 90 124 62 90 124 62 90 124 38 34 124 38 34 124 38 34 124 38 34 142 38 34 142 50 34 142 50 34 142 50 48 142 50 48 142 50 48 88 62 48 88 62 48 88 62 48 88 62 48 88 62 62 88 38 62 106 38 62 106 38 62 106 38 62 106 38 62 106 50 62 106 50 76 124 50 76 124 50 76 124 50 76 124 62 76 124 62 76 124 62 76 142 62 90 142 62 90 142 38 90 142 38 90 142 38 90 142 38 90 88 38 90 88 50 34 88 50 34 88 50 34 88 50 34 88 50 34 106 62 34 106 62 34 106 62 48 106 62 48 106 62 48 106 38 48 124 38 48 124 38 48 124 38 48 124 38 62 124 50 62 124 50 62 142 50 62 142 50 62 142 50 62 142 62 62 142 62 76 142 62 76 88 62 76 88 62 76 88 38 76 88 38 76 88 38 76 88 38 90 106 38 90 106 50 90 106 50 90 106 50 90 106 50 90 106 50 90 124 62 34 124 62 34 124 62 34 124 62 34 124 62 34 124 38 34 142 38 34 142 38 48 142 38 48 142 38 48 142 50 48 142 50 48 88 50 48 88 50 48 88 50 62 88 62 62 88 62 62 88 62 62 106 62 62 106 62
62 88 62 62 88 62 62 88 62 62 88 62 62 88 62 62 88 38 62 106 38 76 106 38 76 106 38 76 106 38 76 106 50 76 106 50 76 124 50 76 124 50 90 124 50 90 124 62 90 124 62 90 124 62 90 142 62 90 142 62 90 142 38 34 142 38 34 142 38 34 142 38 34 88 38 34 88 50 34 88 50 34 88 50 48 88 50 48 88 50 48 106 62 48 106 62 48 106 62 48 106 62 48 106 62 62 106 38 62 124 38 62 124 38 62 124 38 62 124 38 62 124 50 62 124 50 76 142 50 76 142 50 76 142 50 76 142 62 76 142 62 76 142 62 76 88 62 90 88 62 90 88 38 90 88 38 90 88 38 90 88 38 90 106 38 90 106 50 34 106 50 34 106 50 34 106 50 34 106 50 34 124 62 34 124 62 34 124 62 48 124 62 48 124 62 48 124 38 48 142 38 48 142 38 48 142 38 48 142 38 62 142 50 62 142 50 62 88 50 62 88 50 62 88 50 62 88 62 62 88 62 76 88 62 76 106 62 76 106 62 76 106 38 76 106 38 76 106 38 76 106 38 90 124 38 90 124 50 90 124 50 90 124 50 90 124 50 90 124 50 90 142 62 34 142 62 34 142 62 34 142 62 34 142 62 34 142 38 34 88 38 34 88 38 48 88 38 48 88 38 48 88 50 48 88 50 48 106 50 48 106 50 48 106 50 62 106 62 62 106 62 62 106 62 62 124 62 62 124 62 62 124 38 62 124 38 76 124 38 76 124 38 76 142 38 76 142 50 76 142 50 76 142 50 76 142 50 90 142 50 90 88 62 90 88 62 90 88 62 90 88 62 90 88 62 90 88 38 34 106 38 34 106 38 34 106 38 34 106 38 34 106 50 34 106 50 34 124 50 48 124 50 48 124 50 48 124 62 48 124 62 48 124 62 48 142 62 48 142 62 62 142 38 62 142 38 62 142 38 62 142 38 62 88 38 62 88 50 62 88 50 76 88 50 76 88 50 76 88 50 76 106 62 76 106 62 76 106 62 76 106 62 90 106 62 90 106 38 90 124 38 90 124 38 90 124 38 90 124 38 90 124 50 34 124 50 34 142 50 34 142 50 34 142 50 34 142 62 34 142 62 34 142 62 48 88 62 48 88 62 48 88 38 48 88 38 48 88 38 48 88 38 48 106 38 62 106 50 62 106 50 62 106 50 62 106 50 62 106 50 62 124 62 62 124 62 76 124 62 76 124 62 76 124 62 76 124 38 76 142 38 76 142 38 76 142 38 90 142 38 90 142 50 90 142 50 90 88 50 90 88 50 90 88 50 90 88 62 34 88 62 34 88 62 34 106 62 34 106 62 34 106 38 34 106 38 34 106 38 48 106 38 48 124 38 48 124 50 48 124 50 48 124 50 48 124 50 48 124 50 62 142 62 62 142 62 62 142 62 62 142 62 62 142 62 62 142 38 62 88 38 76 88 38 76 88 38 76 88 38 76 88 50 76 88 50 76 106 50 76 106 50 90 106 50 90 106 62 90 106 62 90 106 62 90 124 62 90 124 62 90 124 38 34 124 38 34 124 38 34 124 38 34 142 38 34 142 50 34 142 50 34 142 50 48 142 50 48 142 50 48 88 62 48 88 62 48 88 62 48 88 62 48 88 62 62 88 38 62 106 38 62 106 38 62 106 38 62 106 38 62 106 50 62 106 50 76 124 50 76 124 50 76 124 50 76 124 62 76 124 62 76 124 62 76 142 62 90 142 62 90 142 38 90 142 38 90 142 38 90 142 38 90 88 38 90 88 50 34 88 50 34 88 50 34 88 50 34 88 50 34 106 62 34 106 62 34 106 62 48 106 62 48 106 62 48 106 38 48 124 38 48 124 38 48 124 38 48 124 38 62 124 50 62 124 50 62 142 50 62 142 50 62 142 50 62 142 62 62 142 62 76 142 62 76 88 62 76 88 62 76 88 38 76 88 38 76 88 38 76 88 38 90 106 38 90 106 50 90 106 50 90 106 50 90 106 50 90 106 50 90 124 62 34 124 62 34 124 62 34 124 62 34 124 62 34 124 38 34 142 38 34 142 38 48 142 38 48 142 38 48 142 50 48 142 50 48 88 50 48 88 50 48 88 50 62 88 62 62 88 62 62 88 62 62 106 62 62 106 62
76 88 62 76 88 62 76 88 62 76 88 62 76 88 62 76 88 38 76 106 38 90 106 38 90 106 38 90 106 38 90 106 50 90 106 50 90 124 50 90 124 50 34 124 50 34 124 62 34 124 62 34 124 62 34 142 62 34 142 62 34 142 38 48 142 38 48 142 38 48 142 38 48 88 38 48 88 50 48 88 50 48 88 50 62 88 50 62 88 50 62 106 62 62 106 62 62 106 62 62 106 62 62 106 62 76 106 38 76 124 38 76 124 38 76 124 38 76 124 38 76 124 50 76 124 50 90 142 50 90 142 50 90 142 50 90 142 62 90 142 62 90 142 62 90 88 62 34 88 62 34 88 38 34 88 38 34 88 38 34 88 38 34 106 38 34 106 50 48 106 50 48 106 50 48 106 50 48 106 50 48 124 62 48 124 62 48 124 62 62 124 62 62 124 62 62 124 38 62 142 38 62 142 38 62 142 38 62 142 38 76 142 50 76 142 50 76 88 50 76 88 50 76 88 50 76 88 62 76 88 62 90 88 62 90 106 62 90 106 62 90 106 38 90 106 38 90 106 38 90 106 38 34 124 38 34 124 50 34 124 50 34 124 50 34 124 50 34 124 50 34 142 62 48 142 62 48 142 62 48 142 62 48 142 62 48 142 38 48 88 38 48 88 38 62 88 38 62 88 38 62 88 50 62 88 50 62 106 50 62 106 50 62 106 50 76 106 62 76 106 62 76 106 62 76 124 62 76 124 62 76 124 38 76 124 38 90 124 38 90 124 38 90 142 38 90 142 50 90 142 50 90 142 50 90 142 50 34 142 50 34 88 62 34 88 62 34 88 62 34 88 62 34 88 62 34 88 38 48 106 38 48 106 38 48 106 38 48 106 38 48 106 50 48 106 50 48 124 50 62 124 50 62 124 50 62 124 62 62 124 62 62 124 62 62 142 62 62 142 62 76 142 38 76 142 38 76 142 38 76 142 38 76 88 38 76 88 50 76 88 50 90 88 50 90 88 50 90 88 50 90 106 62 90 106 62 90 106 62 90 106 62 34 106 62 34 106 38 34 124 38 34 124 38 34 124 38 34 124 38 34 124 50 48 124 50 48 142 50 48 142 50 48 142 50 48 142 62 48 142 62 48 142 62 62 88 62 62 88 62 62 88 38 62 88 38 62 88 38 62 88 38 62 106 38 76 106 50 76 106 50 76 106 50 76 106 50 76 106 50 76 124 62 76 124 62 90 124 62 90 124 62 90 124 62 90 124 38 90 142 38 90 142 38 90 142 38 34 142 38 34 142 50 34 142 50 34 88 50 34 88 50 34 88 50 34 88 62 48 88 62 48 88 62 48 106 62 48 106 62 48 106 38 48 106 38 48 106 38 62 106 38 62 124 38 62 124 50 62 124 50 62 124 50 62 124 50 62 124 50 76 142 62 76 142 62 76 142 62 76 142 62 76 142 62 76 142 38 76 88 38 90 88 38 90 88 38 90 88 38 90 88 50 90 88 50 90 106 50 90 106 50 34 106 50 34 106 62 34 106 62 34 106 62 34 124 62 34 124 62 34 124 38 48 124 38 48 124 38 48 124 38 48 142 38 48 142 50 48 142 50 48 142 50 62 142 50 62 142 50 62 88 62 62 88 62 62 88 62 62 88 62 62 88 62 76 88 38 76 106 38 76 106 38 76 106 38 76 106 38 76 106 50 76 106 50 90 124 50 90 124 50 90 124 50 90 124 62 90 124 62 90 124 62 90 142 62 34 142 62 34 142 38 34 142 38 34 142 38 34 142 38 34 88 38 34 88 50 48 88 50 48 88 50 48 88 50 48 88 50 48 106 62 48 106 62 48 106 62 62 106 62 62 106 62 62 106 38 62 124 38 62 124 38 62 124 38 62 124 38 76 124 50 76 124 50 76 142 50 76 142 50 76 142 50 76 142 62 76 142 62 90 142 62 90 88 62 90 88 62 90 88 38 90 88 38 90 88 38 90 88 38 34 106 38 34 106 50 34 106 50 34 106 50 34 106 50 34 106 50 34 124 62 48 124 62 48 124 62 48 124 62 48 124 62 48 124 38 48 142 38 48 142 38 62 142 38 62 142 38 62 142 50 62 142 50 62 88 50 62 88 50 62 88 50 76 88 62 76 88 62 76 88 62 76 106 62 76 106 62
76 106 62 76 106 62 76 106 62 76 106 62 76 106 62 76 106 38 76 124 38 90 124 38 90 124 38 90 124 38 90 124 50 90 124 50 90 142 50 90 142 50 34 142 50 34 142 62 34 142 62 34 142 62 34 88 62 34 88 62 34 88 38 48 88 38 48 88 38 48 88 38 48 106 38 48 106 50 48 106 50 48 106 50 62 106 50 62 106 50 62 124 62 62 124 62 62 124 62 62 124 62 62 124 62 76 124 38 76 142 38 76 142 38 76 142 38 76 142 38 76 142 50 76 142 50 90 88 50 90 88 50 90 88 50 90 88 62 90 88 62 90 88 62 90 106 62 34 106 62 34 106 38 34 106 38 34 106 38 34 106 38 34 124 38 34 124 50 48 124 50 48 124 50 48 124 50 48 124 50 48 142 62 48 142 62 48 142 62 62 142 62 62 142 62 62 142 38 62 88 38 62 88 38 62 88 38 62 88 38 76 88 50 76 88 50 76 106 50 76 106 50 76 106 50 76 106 62 76 106 62 90 106 62 90 124 62 90 124 62 90 124 38 90 124 38 90 124 38 90 124 38 34 142 38 34 142 50 34 142 50 34 142 50 34 142 50 34 142 50 34 88 62 48 88 62 48 88 62 48 88 62 48 88 62 48 88 38 48 106 38 48 106 38 62 106 38 62 106 38 62 106 50 62 106 50 62 124 50 62 124 50 62 124 50 76 124 62 76 124 62 76 124 62 76 142 62 76 142 62 76 142 38 76 142 38 90 142 38 90 142 38 90 88 38 90 88 50 90 88 50 90 88 50 90 88 50 34 88 50 34 106 62 34 106 62 34 106 62 34 106 62 34 106 62 34 106 38 48 124 38 48 124 38 48 124 38 48 124 38 48 124 50 48 124 50 48 142 50 62 142 50 62 142 50 62 142 62 62 142 62 62 142 62 62 88 62 62 88 62 76 88 38 76 88 38 76 88 38 76 88 38 76 106 38 76 106 50 76 106 50 90 106 50 90 106 50 90 106 50 90 124 62 90 124 62 90 124 62 90 124 62 34 124 62 34 124 38 34 142 38 34 142 38 34 142 38 34 142 38 34 142 50 48 142 50 48 88 50 48 88 50 48 88 50 48 88 62 48 88 62 48 88 62 62 106 62 62 106 62 62 106 38 62 106 38 62 106 38 62 106 38 62 124 38 76 124 50 76 124 50 76 124 50 76 124 50 76 124 50 76 142 62 76 142 62 90 142 62 90 142 62 90 142 62 90 142 38 90 88 38 90 88 38 90 88 38 34 88 38 34 88 50 34 88 50 34 106 50 34 106 50 34 106 50 34 106 62 48 106 62 48 106 62 48 124 62 48 124 62 48 124 38 48 124 38 48 124 38 62 124 38 62 142 38 62 142 50 62 142 50 62 142 50 62 142 50 62 142 50 76 88 62 76 88 62 76 88 62 76 88 62 76 88 62 76 88 38 76 106 38 90 106 38 90 106 38 90 106 38 90 106 50 90 106 50 90 124 50 90 124 50 34 124 50 34 124 62 34 124 62 34 124 62 34 142 62 34 142 62 34 142 38 48 142 38 48 142 38 48 142 38 48 88 38 48 88 50 48 88 50 48 88 50 62 88 50 62 88 50 62 106 62 62 106 62 62 106 62 62 106 62 62 106 62 76 106 38 76 124 38 76 124 38 76 124 38 76 124 38 76 124 50 76 124 50 90 142 50 90 142 50 90 142 50 90 142 62 90 142 62 90 142 62 90 88 62 34 88 62 34 88 38 34 88 38 34 88 38 34 88 38 34 106 38 34 106 50 48 106 50 48 106 50 48 106 50 48 106 50 48 124 62 48 124 62 48 124 62 62 124 62 62 124 62 62 124 38 62 142 38 62 142 38 62 142 38 62 142 38 76 142 50 76 142 50 76 88 50 76 88 50 76 88 50 76 88 62 76 88 62 90 88 62 90 106 62 90 106 62 90 106 38 90 106 38 90 106 38 90 106 38 34 124 38 34 124 50 34 124 50 34 124 50 34 124 50 34 124 50 34 142 62 48 142 62 48 142 62 48 142 62 48 142 62 48 142 38 48 88 38 48 88 38 62 88 38 62 88 38 62 88 50 62 88 50 62 106 50 62 106 50 62 106 50 76 106 62 76 106 62 76 106 62 76 124 62 76 124 62
76 106 62 76 106 62 76 106 62 76 106 62 76 106 62 76 106 38 76 124 38 90 124 38 90 124 38 90 124 38 90 124 50 90 124 50 90 142 50 90 142 50 34 142 50 34 142 62 34 142 62 34 142 62 34 88 62 34 88 62 34 88 38 48 88 38 48 88 38 48 88 38 48 106 38 48 106 50 48 106 50 48 106 50 62 106 50 62 106 50 62 124 62 62 124 62 62 124 62 62 124 62 62 124 62 76 124 38 76 142 38 76 142 38 76 142 38 76 142 38 76 142 50 76 142 50 90 88 50 90 88 50 90 88 50 90 88 62 90 88 62 90 88 62 90 106 62 34 106 62 34 106 38 34 106 38 34 106 38 34 106 38 34 124 38 34 124 50 48 124 50 48 124 50 48 124 50 48 124 50 48 142 62 48 142 62 48 142 62 62 142 62 62 142 62 62 142 38 62 88 38 62 88 38 62 88 38 62 88 38 76 88 50 76 88 50 76 106 50 76 106 50 76 106 50 76 106 62 76 106 62 90 106 62 90 124 62 90 124 62 90 124 38 90 124 38 90 124 38 90 124 38 34 142 38 34 142 50 34 142 50 34 142 50 34 142 50 34 142 50 34 88 62 48 88 62 48 88 62 48 88 62 48 88 62 48 88 38 48 106 38 48 106 38 62 106 38 62 106 38 62 106 50 62 106 50 62 124 50 62 124 50 62 124 50 76 124 62 76 124 62 76 124 62 76 142 62 76 142 62 76 142 38 76 142 38 90 142 38 90 142 38 90 88 38 90 88 50 90 88 50 90 88 50 90 88 50 34 88 50 34 106 62 34 106 62 34 106 62 34 106 62 34 106 62 34 106 38 48 124 38 48 124 38 48 124 38 48 124 38 48 124 50 48 124 50 48 142 50 62 142 50 62 142 50 62 142 62 62 142 62 62 142 62 62 88 62 62 88 62 76 88 38 76 88 38 76 88 38 76 88 38 76 106 38 76 106 50 76 106 50 90 106 50 90 106 50 90 106 50 90 124 62 90 124 62 90 124 62 90 124 62 34 124 62 34 124 38 34 142 38 34 142 38 34 142 38 34 142 38 34 142 50 48 142 50 48 88 50 48 88 50 48 88 50 48 88 62 48 88 62 48 88 62 62 106 62 62 106 62 62 106 38 62 106 38 62 106 38 62 106 38 62 124 38 76 124 50 76 124 50 76 124 50 76 124 50 76 124 50 76 142 62 76 142 62 90 142 62 90 142 62 90 142 62 90 142 38 90 88 38 90 88 38 90 88 38 34 88 38 34 88 50 34 88 50 34 106 50 34 106 50 34 106 50 34 106 62 48 106 62 48 106 62 48 124 62 48 124 62 48 124 38 48 124 38 48 124 38 62 124 38 62 142 38 62 142 50 62 142 50 62 142 50 62 142 50 62 142 50 76 88 62 76 88 62 76 88 62 76 88 62 76 88 62 76 88 38 76 106 38 90 106 38 90 106 38 90 106 38 90 106 50 90 106 50 90 124 50 90 124 50 34 124 50 34 124 62 34 124 62 34 124 62 34 142 62 34 142 62 34 142 38 48 142 38 48 142 38 48 142 38 48 88 38 48 88 50 48 88 50 48 88 50 62 88 50 62 88 50 62 106 62 62 106 62 62 106 62 62 106 62 62 106 62 76 106 38 76 124 38 76 124 38 76 124 38 76 124 38 76 124 50 76 124 50 90 142 50 90 142 50 90 142 50 90 142 62 90 142 62 90 142 62 90 88 62 34 88 62 34 88 38 34 88 38 34 88 38 34 88 38 34 106 38 34 106 50 48 106 50 48 106 50 48 106 50 48 106 50 48 124 62 48 124 62 48 124 62 62 124 62 62 124 62 62 124 38 62 142 38 62 142 38 62 142 38 62 142 38 76 142 50 76 142 50 76 88 50 76 88 50 76 88 50 76 88 62 76 88 62 90 88 62 90 106 62 90 106 62 90 106 38 90 106 38 90 106 38 90 106 38 34 124 38 34 124 50 34 124 50 34 124 50 34 124 50 34 124 50 34 142 62 48 142 62 48 142 62 48 142 62 48 142 62 48 142 38 48 88 38 48 88 38 62 88 38 62 88 38 62 88 50 62 88 50 62 106 50 62 106 50 62 106 50 76 106 62 76 106 62 76 106 62 76 124 62 76 124 62
76 106 62 76 106 62 76 106 62 76 106 62 76 106 62 76 106 38 76 124 38 90 124 38 90 124 38 90 124 38 90 124 50 90 124 50 90 142 50 90 142 50 34 142 50 34 142 62 34 142 62 34 142 62 34 88 62 34 88 62 34 88 38 48 88 38 48 88 38 48 88 38 48 106 38 48 106 50 48 106 50 48 106 50 62 106 50 62 106 50 62 124 62 62 124 62 62 124 62 62 124 62 62 124 62 76 124 38 76 142 38 76 142 38 76 142 38 76 142 38 76 142 50 76 142 50 90 88 50 90 88 50 90 88 50 90 88 62 90 88 62 90 88 62 90 106 62 34 106 62 34 106 38 34 106 38 34 106 38 34 106 38 34 124 38 34 124 50 48 124 50 48 124 50 48 124 50 48 124 50 48 142 62 48 142 62 48 142 62 62 142 62 62 142 62 62 142 38 62 88 38 62 88 38 62 88 38 62 88 38 76 88 50 76 88 50 76 106 50 76 106 50 76 106 50 76 106 62 76 106 62 90 106 62 90 124 62 90 124 62 90 124 38 90 124 38 90 124 38 90 124 38 34 142 38 34 142 50 34 142 50 34 142 50 34 142 50 34 142 50 34 88 62 48 88 62 48 88 62 48 88 62 48 88 62 48 88 38 48 106 38 48 106 38 62 106 38 62 106 38 62 106 50 62 106 50 62 124 50 62 124 50 62 124 50 76 124 62 76 124 62 76 124 62 76 142 62 76 142 62 76 142 38 76 142 38 90 142 38 90 142 38 90 88 38 90 88 50 90 88 50 90 88 50 90 88 50 34 88 50 34 106 62 34 106 62 34 106 62 34 106 62 34 106 62 34 106 38 48 124 38 48 124 38 48 124 38 48 124 38 48 124 50 48 124 50 48 142 50 62 142 50 62 142 50 62 142 62 62 142 62 62 142 62 62 88 62 62 88 62 76 88 38 76 88 38 76 88 38 76 88 38 76 106 38 76 106 50 76 106 50 90 106 50 90 106 50 90 106 50 90 124 62 90 124 62 90 124 62 90 124 62 34 124 62 34 124 38 34 142 38 34 142 38 34 142 38 34 142 38 34 142 50 48 142 50 48 88 50 48 88 50 48 88 50 48 88 62 48 88 62 48 88 62 62 106 62 62 106 62 62 106 38 62 106 38 62 106 38 62 106 38 62 124 38 76 124 50 76 124 50 76 124 50 76 124 50 76 124 50 76 142 62 76 142 62 90 142 62 90 142 62 90 142 62 90 142 38 90 88 38 90 88 38 90 88 38 34 88 38 34 88 50 34 88 50 34 106 50 34 106 50 34 106 50 34 106 62 48 106 62 48 106 62 48 124 62 48 124 62 48 124 38 48 124 38 48 124 38 62 124 38 62 142 38 62 142 50 62 142 50 62 142 50 62 142 50 62 142 50 76 88 62 76 88 62 76 88 62 76 88 62 76 88 62 76 88 38 76 106 38 90 106 38 90 106 38 90 106 38 90 106 50 90 106 50 90 124 50 90 124 50 34 124 50 34 124 62 34 124 62 34 124 62 34 142 62 34 142 62 34 142 38 48 142 38 48 142 38 48 142 38 48 88 38 48 88 50 48 88 50 48 88 50 62 88 50 62 88 50 62 106 62 62 106 62 62 106 62 62 106 62 62 106 62 76 106 38 76 124 38 76 124 38 76 124 38 76 124 38 76 124 50 76 124 50 90 142 50 90 142 50 90 142 50 90 142 62 90 142 62 90 142 62 90 88 62 34 88 62 34 88 38 34 88 38 34 88 38 34 88 38 34 106 38 34 106 50 48 106 50 48 106 50 48 106 50 48 106 50 48 124 62 48 124 62 48 124 62 62 124 62 62 124 62 62 124 38 62 142 38 62 142 38 62 142 38 62 142 38 76 142 50 76 142 50 76 88 50 76 88 50 76 88 50 76 88 62 76 88 62 90 88 62 90 106 62 90 106 62 90 106 38 90 106 38 90 106 38 90 106 38 34 124 38 34 124 50 34 124 50 34 124 50 34 124 50 34 124 50 34 142 62 48 142 62 48 142 62 48 142 62 48 142 62 48 142 38 48 88 38 48 88 38 62 88 38 62 88 38 62 88 50 62 88 50 62 106 50 62 106 50 62 106 50 76 106 62 76 106 62 76 106 62 76 124 62 76 124 62
76 106 62 76 106 62 76 106 62 76 106 62 76 106 62 76 106 38 76 124 38 90 124 38 90 124 38 90 124 38 90 124 50 90 124 50 90 142 50 90 142 50 34 142 50 34 142 62 34 142 62 34 142 62 34 88 62 34 88 62 34 88 38 48 88 38 48 88 38 48 88 38 48 106 38 48 106 50 48 106 50 48 106 50 62 106 50 62 106 50 62 124 62 62 124 62 62 124 62 62 124 62 62 124 62 76 124 38 76 142 38 76 142 38 76 142 38 76 142 38 76 142 50 76 142 50 90 88 50 90 88 50 90 88 50 90 88 62 90 88 62 90 88 62 90 106 62 34 106 62 34 106 38 34 106 38 34 106 38 34 106 38 34 124 38 34 124 50 48 124 50 48 124 50 48 124 50 48 124 50 48 142 62 48 142 62 48 142 62 62 142 62 62 142 62 62 142 38 62 88 38 62 88 38 62 88 38 62 88 38 76 88 50 76 88 50 76 106 50 76 106 50 76 106 50 76 106 62 76 106 62 90 106 62 90 124 62 90 124 62 90 124 38 90 124 38 90 124 38 90 124 38 34 142 38 34 142 50 34 142 50 34 142 50 34 142 50 34 142 50 34 88 62 48 88 62 48 88 62 48 88 62 48 88 62 48 88 38 48 106 38 48 106 38 62 106 38 62 106 38 62 106 50 62 106 50 62 124 50 62 124 50 62 124 50 76 124 62 76 124 62 76 124 62 76 142 62 76 142 62 76 142 38 76 142 38 90 142 38 90 142 38 90 88 38 90 88 50 90 88 50 90 88 50 90 88 50 34 88 50 34 106 62 34 106 62 34 106 62 34 106 62 34 106 62 34 106 38 48 124 38 48 124 38 48 124 38 48 124 38 48 124 50 48 124 50 48 142 50 62 142 50 62 142 50 62 142 62 62 142 62 62 142 62 62 88 62 62 88 62 76 88 38 76 88 38 76 88 38 76 88 38 76 106 38 76 106 50 76 106 50 90 106 50 90 106 50 90 106 50 90 124 62 90 124 62 90 124 62 90 124 62 34 124 62 34 124 38 34 142 38 34 142 38 34 142 38 34 142 38 34 142 50 48 142 50 48 88 50 48 88 50 48 88 50 48 88 62 48 88 62 48 88 62 62 106 62 62 106 62 62 106 38 62 106 38 62 106 38 62 106 38 62 124 38 76 124 50 76 124 50 76 124 50 76 124 50 76 124 50 76 142 62 76 142 62 90 142 62 90 142 62 90 142 62 90 142 38 90 88 38 90 88 38 90 88 38 34 88 38 34 88 50 34 88 50 34 106 50 34 106 50 34 106 50 34 106 62 48 106 62 48 106 62 48 124 62 48 124 62 48 124 38 48 124 38 48 124 38 62 124 38 62 142 38 62 142 50 62 142 50 62 142 50 62 142 50 62 142 50 76 88 62 76 88 62 76 88 62 76 88 62 76 88 62 76 88 38 76 106 38 90 106 38 90 106 38 90 106 38 90 106 50 90 106 50 90 124 50 90 124 50 34 124 50 34 124 62 34 124 62 34 124 62 34 142 62 34 142 62 34 142 38 48 142 38 48 142 38 48 142 38 48 88 38 48 88 50 48 88 50 48 88 50 62 88 50 62 88 50 62 106 62 62 106 62 62 106 62 62 106 62 62 106 62 76 106 38 76 124 38 76 124 38 76 124 38 76 124 38 76 124 50 76 124 50 90 142 50 90 142 50 90 142 50 90 142 62 90 142 62 90 142 62 90 88 62 34 88 62 34 88 38 34 88 38 34 88 38 34 88 38 34 106 38 34 106 50 48 106 50 48 106 50 48 106 50 48 106 50 48 124 62 48 124 62 48 124 62 62 124 62 62 124 62 62 124 38 62 142 38 62 142 38 62 142 38 62 142 38 76 142 50 76 142 50 76 88 50 76 88 50 76 88 50 76 88 62 76 88 62 90 88 62 90 106 62 90 106 62 90 106 38 90 106 38 90 106 38 90 106 38 34 124 38 34 124 50 34 124 50 34 124 50 34 124 50 34 124 50 34 142 62 48 142 62 48 142 62 48 142 62 48 142 62 48 142 38 48 88 38 48 88 38 62 88 38 62 88 38 62 88 50 62 88 50 62 106 50 62 106 50 62 106 50 76 106 62 76 106 62 76 106 62 76 124 62 76 124 62
90 106 62 90 106 62 90 106 62 90 106 62 90 106 62 90 106 38 90 124 38 34 124 38 34 124 38 34 124 38 34 124 50 34 124 50 34 142 50 34 142 50 48 142 50 48 142 62 48 142 62 48 142 62 48 88 62 48 88 62 48 88 38 62 88 38 62 88 38 62 88 38 62 106 38 62 106 50 62 106 50 62 106 50 76 106 50 76 106 50 76 124 62 76 124 62 76 124 62 76 124 62 76 124 62 90 124 38 90 142 38 90 142 38 90 142 38 90 142 38 90 142 50 90 142 50 34 88 50 34 88 50 34 88 50 34 88 62 34 88 62 34 88 62 34 106 62 48 106 62 48 106 38 48 106 38 48 106 38 48 106 38 48 124 38 48 124 50 62 124 50 62 124 50 62 124 50 62 124 50 62 142 62 62 142 62 62 142 62 76 142 62 76 142 62 76 142 38 76 88 38 76 88 38 76 88 38 76 88 38 90 88 50 90 88 50 90 106 50 90 106 50 90 106 50 90 106 62 90 106 62 34 106 62 34 124 62 34 124 62 34 124 38 34 124 38 34 124 38 34 124 38 48 142 38 48 142 50 48 142 50 48 142 50 48 142 50 48 142 50 48 88 62 62 88 62 62 88 62 62 88 62 62 88 62 62 88 38 62 106 38 62 106 38 76 106 38 76 106 38 76 106 50 76 106 50 76 124 50 76 124 50 76 124 50 90 124 62 90 124 62 90 124 62 90 142 62 90 142 62 90 142 38 90 142 38 34 142 38 34 142 38 34 88 38 34 88 50 34 88 50 34 88 50 34 88 50 48 88 50 48 106 62 48 106 62 48 106 62 48 106 62 48 106 62 48 106 38 62 124 38 62 124 38 62 124 38 62 124 38 62 124 50 62 124 50 62 142 50 76 142 50 76 142 50 76 142 62 76 142 62 76 142 62 76 88 62 76 88 62 90 88 38 90 88 38 90 88 38 90 88 38 90 106 38 90 106 50 90 106 50 34 106 50 34 106 50 34 106 50 34 124 62 34 124 62 34 124 62 34 124 62 48 124 62 48 124 38 48 142 38 48 142 38 48 142 38 48 142 38 48 142 50 62 142 50 62 88 50 62 88 50 62 88 50 62 88 62 62 88 62 62 88 62 76 106 62 76 106 62 76 106 38 76 106 38 76 106 38 76 106 38 76 124 38 90 124 50 90 124 50 90 124 50 90 124 50 90 124 50 90 142 62 90 142 62 34 142 62 34 142 62 34 142 62 34 142 38 34 88 38 34 88 38 34 88 38 48 88 38 48 88 50 48 88 50 48 106 50 48 106 50 48 106 50 48 106 62 62 106 62 62 106 62 62 124 62 62 124 62 62 124 38 62 124 38 62 124 38 76 124 38 76 142 38 76 142 50 76 142 50 76 142 50 76 142 50 76 142 50 90 88 62 90 88 62 90 88 62 90 88 62 90 88 62 90 88 38 90 106 38 34 106 38 34 106 38 34 106 38 34 106 50 34 106 50 34 124 50 34 124 50 48 124 50 48 124 62 48 124 62 48 124 62 48 142 62 48 142 62 48 142 38 62 142 38 62 142 38 62 142 38 62 88 38 62 88 50 62 88 50 62 88 50 76 88 50 76 88 50 76 106 62 76 106 62 76 106 62 76 106 62 76 106 62 90 106 38 90 124 38 90 124 38 90 124 38 90 124 38 90 124 50 90 124 50 34 142 50 34 142 50 34 142 50 34 142 62 34 142 62 34 142 62 34 88 62 48 88 62 48 88 38 48 88 38 48 88 38 48 88 38 48 106 38 48 106 50 62 106 50 62 106 50 62 106 50 62 106 50 62 124 62 62 124 62 62 124 62 76 124 62 76 124 62 76 124 38 76 142 38 76 142 38 76 142 38 76 142 38 90 142 50 90 142 50 90 88 50 90 88 50 90 88 50 90 88 62 90 88 62 34 88 62 34 106 62 34 106 62 34 106 38 34 106 38 34 106 38 34 106 38 48 124 38 48 124 50 48 124 50 48 124 50 48 124 50 48 124 50 48 142 62 62 142 62 62 142 62 62 142 62 62 142 62 62 142 38 62 88 38 62 88 38 76 88 38 76 88 38 76 88 50 76 88 50 76 106 50 76 106 50 76 106 50 90 106 62 90 106 62 90 106 62 90 124 62 90 124 62
90 106 38 90 106 38 90 106 38 90 106 38 90 106 38 90 106 50 90 124 50 34 124 50 34 124 50 34 124 50 34 124 62 34 124 62 34 142 62 34 142 62 48 142 62 48 142 38 48 142 38 48 142 38 48 88 38 48 88 38 48 88 50 62 88 50 62 88 50 62 88 50 62 106 50 62 106 62 62 106 62 62 106 62 76 106 62 76 106 62 76 124 38 76 124 38 76 124 38 76 124 38 76 124 38 90 124 50 90 142 50 90 142 50 90 142 50 90 142 50 90 142 62 90 142 62 34 88 62 34 88 62 34 88 62 34 88 38 34 88 38 34 88 38 34 106 38 48 106 38 48 106 50 48 106 50 48 106 50 48 106 50 48 124 50 48 124 62 62 124 62 62 124 62 62 124 62 62 124 62 62 142 38 62 142 38 62 142 38 76 142 38 76 142 38 76 142 50 76 88 50 76 88 50 76 88 50 76 88 50 90 88 62 90 88 62 90 106 62 90 106 62 90 106 62 90 106 38 90 106 38 34 106 38 34 124 38 34 124 38 34 124 50 34 124 50 34 124 50 34 124 50 48 142 50 48 142 62 48 142 62 48 142 62 48 142 62 48 142 62 48 88 38 62 88 38 62 88 38 62 88 38 62 88 38 62 88 50 62 106 50 62 106 50 76 106 50 76 106 50 76 106 62 76 106 62 76 124 62 76 124 62 76 124 62 90 124 38 90 124 38 90 124 38 90 142 38 90 142 38 90 142 50 90 142 50 34 142 50 34 142 50 34 88 50 34 88 62 34 88 62 34 88 62 34 88 62 48 88 62 48 106 38 48 106 38 48 106 38 48 106 38 48 106 38 48 106 50 62 124 50 62 124 50 62 124 50 62 124 50 62 124 62 62 124 62 62 142 62 76 142 62 76 142 62 76 142 38 76 142 38 76 142 38 76 88 38 76 88 38 90 88 50 90 88 50 90 88 50 90 88 50 90 106 50 90 106 62 90 106 62 34 106 62 34 106 62 34 106 62 34 124 38 34 124 38 34 124 38 34 124 38 48 124 38 48 124 50 48 142 50 48 142 50 48 142 50 48 142 50 48 142 62 62 142 62 62 88 62 62 88 62 62 88 62 62 88 38 62 88 38 62 88 38 76 106 38 76 106 38 76 106 50 76 106 50 76 106 50 76 106 50 76 124 50 90 124 62 90 124 62 90 124 62 90 124 62 90 124 62 90 142 38 90 142 38 34 142 38 34 142 38 34 142 38 34 142 50 34 88 50 34 88 50 34 88 50 48 88 50 48 88 62 48 88 62 48 106 62 48 106 62 48 106 62 48 106 38 62 106 38 62 106 38 62 124 38 62 124 38 62 124 50 62 124 50 62 124 50 76 124 50 76 142 50 76 142 62 76 142 62 76 142 62 76 142 62 76 142 62 90 88 38 90 88 38 90 88 38 90 88 38 90 88 38 90 88 50 90 106 50 34 106 50 34 106 50 34 106 50 34 106 62 34 106 62 34 124 62 34 124 62 48 124 62 48 124 38 48 124 38 48 124 38 48 142 38 48 142 38 48 142 50 62 142 50 62 142 50 62 142 50 62 88 50 62 88 62 62 88 62 62 88 62 76 88 62 76 88 62 76 106 38 76 106 38 76 106 38 76 106 38 76 106 38 90 106 50 90 124 50 90 124 50 90 124 50 90 124 50 90 124 62 90 124 62 34 142 62 34 142 62 34 142 62 34 142 38 34 142 38 34 142 38 34 88 38 48 88 38 48 88 50 48 88 50 48 88 50 48 88 50 48 106 50 48 106 62 62 106 62 62 106 62 62 106 62 62 106 62 62 124 38 62 124 38 62 124 38 76 124 38 76 124 38 76 124 50 76 142 50 76 142 50 76 142 50 76 142 50 90 142 62 90 142 62 90 88 62 90 88 62 90 88 62 90 88 38 90 88 38 34 88 38 34 106 38 34 106 38 34 106 50 34 106 50 34 106 50 34 106 50 48 124 50 48 124 62 48 124 62 48 124 62 48 124 62 48 124 62 48 142 38 62 142 38 62 142 38 62 142 38 62 142 38 62 142 50 62 88 50 62 88 50 76 88 50 76 88 50 76 88 62 76 88 62 76 106 62 76 106 62 76 106 62 90 106 38 90 106 38 90 106 38 90 124 38 90 124 38
90 106 38 90 106 38 90 106 38 90 106 38 90 106 38 90 106 50 90 124 50 34 124 50 34 124 50 34 124 50 34 124 62 34 124 62 34 142 62 34 142 62 48 142 62 48 142 38 48 142 38 48 142 38 48 88 38 48 88 38 48 88 50 62 88 50 62 88 50 62 88 50 62 106 50 62 106 62 62 106 62 62 106 62 76 106 62 76 106 62 76 124 38 76 124 38 76 124 38 76 124 38 76 124 38 90 124 50 90 142 50 90 142 50 90 142 50 90 142 50 90 142 62 90 142 62 34 88 62 34 88 62 34 88 62 34 88 38 34 88 38 34 88 38 34 106 38 48 106 38 48 106 50 48 106 50 48 106 50 48 106 50 48 124 50 48 124 62 62 124 62 62 124 62 62 124 62 62 124 62 62 142 38 62 142 38 62 142 38 76 142 38 76 142 38 76 142 50 76 88 50 76 88 50 76 88 50 76 88 50 90 88 62 90 88 62 90 106 62 90 106 62 90 106 62 90 106 38 90 106 38 34 106 38 34 124 38 34 124 38 34 124 50 34 124 50 34 124 50 34 124 50 48 142 50 48 142 62 48 142 62 48 142 62 48 142 62 48 142 62 48 88 38 62 88 38 62 88 38 62 88 38 62 88 38 62 88 50 62 106 50 62 106 50 76 106 50 76 106 50 76 106 62 76 106 62 76 124 62 76 124 62 76 124 62 90 124 38 90 124 38 90 124 38 90 142 38 90 142 38 90 142 50 90 142 50 34 142 50 34 142 50 34 88 50 34 88 62 34 88 62 34 88 62 34 88 62 48 88 62 48 106 38 48 106 38 48 106 38 48 106 38 48 106 38 48 106 50 62 124 50 62 124 50 62 124 50 62 124 50 62 124 62 62 124 62 62 142 62 76 142 62 76 142 62 76 142 38 76 142 38 76 142 38 76 88 38 76 88 38 90 88 50 90 88 50 90 88 50 90 88 50 90 106 50 90 106 62 90 106 62 34 106 62 34 106 62 34 106 62 34 124 38 34 124 38 34 124 38 34 124 38 48 124 38 48 124 50 48 142 50 48 142 50 48 142 50 48 142 50 48 142 62 62 142 62 62 88 62 62 88 62 62 88 62 62 88 38 62 88 38 62 88 38 76 106 38 76 106 38 76 106 50 76 106 50 76 106 50 76 106 50 76 124 50 90 124 62 90 124 62 90 124 62 90 124 62 90 124 62 90 142 38 90 142 38 34 142 38 34 142 38 34 142 38 34 142 50 34 88 50 34 88 50 34 88 50 48 88 50 48 88 62 48 88 62 48 106 62 48 106 62 48 106 62 48 106 38 62 106 38 62 106 38 62 124 38 62 124 38 62 124 50 62 124 50 62 124 50 76 124 50 76 142 50 76 142 62 76 142 62 76 142 62 76 142 62 76 142 62 90 88 38 90 88 38 90 88 38 90 88 38 90 88 38 90 88 50 90 106 50 34 106 50 34 106 50 34 106 50 34 106 62 34 106 62 34 124 62 34 124 62 48 124 62 48 124 38 48 124 38 48 124 38 48 142 38 48 142 38 48 142 50 62 142 50 62 142 50 62 142 50 62 88 50 62 88 62 62 88 62 62 88 62 76 88 62 76 88 62 76 106 38 76 106 38 76 106 38 76 106 38 76 106 38 90 106 50 90 124 50 90 124 50 90 124 50 90 124 50 90 124 62 90 124 62 34 142 62 34 142 62 34 142 62 34 142 38 34 142 38 34 142 38 34 88 38 48 88 38 48 88 50 48 88 50 48 88 50 48 88 50 48 106 50 48 106 62 62 106 62 62 106 62 62 106 62 62 106 62 62 124 38 62 124 38 62 124 38 76 124 38 76 124 38 76 124 50 76 142 50 76 142 50 76 142 50 76 142 50 90 142 62 90 142 62 90 88 62 90 88 62 90 88 62 90 88 38 90 88 38 34 88 38 34 106 38 34 106 38 34 106 50 34 106 50 34 106 50 34 106 50 48 124 50 48 124 62 48 124 62 48 124 62 48 124 62 48 124 62 48 142 38 62 142 38 62 142 38 62 142 38 62 142 38 62 142 50 62 88 50 62 88 50 76 88 50 76 88 50 76 88 62 76 88 62 76 106 62 76 106 62 76 106 62 90 106 38 90 106 38 90 106 38 90 124 38 90 124 38
90 124 38 90 124 38 90 124 38 90 124 38 90 124 38 90 124 50 90 142 50 34 142 50 34 142 50 34 142 50 34 142 62 34 142 62 34 88 62 34 88 62 48 88 62 48 88 38 48 88 38 48 88 38 48 106 38 48 106 38 48 106 50 62 106 50 62 106 50 62 106 50 62 124 50 62 124 62 62 124 62 62 124 62 76 124 62 76 124 62 76 142 38 76 142 38 76 142 38 76 142 38 76 142 38 90 142 50 90 88 50 90 88 50 90 88 50 90 88 50 90 88 62 90 88 62 34 106 62 34 106 62 34 106 62 34 106 38 34 106 38 34 106 38 34 124 38 48 124 38 48 124 50 48 124 50 48 124 50 48 124 50 48 142 50 48 142 62 62 142 62 62 142 62 62 142 62 62 142 62 62 88 38 62 88 38 62 88 38 76 88 38 76 88 38 76 88 50 76 106 50 76 106 50 76 106 50 76 106 50 90 106 62 90 106 62 90 124 62 90 124 62 90 124 62 90 124 38 90 124 38 34 124 38 34 142 38 34 142 38 34 142 50 34 142 50 34 142 50 34 142 50 48 88 50 48 88 62 48 88 62 48 88 62 48 88 62 48 88 62 48 106 38 62 106 38 62 106 38 62 106 38 62 106 38 62 106 50 62 124 50 62 124 50 76 124 50 76 124 50 76 124 62 76 124 62 76 142 62 76 142 62 76 142 62 90 142 38 90 142 38 90 142 38 90 88 38 90 88 38 90 88 50 90 88 50 34 88 50 34 88 50 34 106 50 34 106 62 34 106 62 34 106 62 34 106 62 48 106 62 48 124 38 48 124 38 48 124 38 48 124 38 48 124 38 48 124 50 62 142 50 62 142 50 62 142 50 62 142 50 62 142 62 62 142 62 62 88 62 76 88 62 76 88 62 76 88 38 76 88 38 76 88 38 76 106 38 76 106 38 90 106 50 90 106 50 90 106 50 90 106 50 90 124 50 90 124 62 90 124 62 34 124 62 34 124 62 34 124 62 34 142 38 34 142 38 34 142 38 34 142 38 48 142 38 48 142 50 48 88 50 48 88 50 48 88 50 48 88 50 48 88 62 62 88 62 62 106 62 62 106 62 62 106 62 62 106 38 62 106 38 62 106 38 76 124 38 76 124 38 76 124 50 76 124 50 76 124 50 76 124 50 76 142 50 90 142 62 90 142 62 90 142 62 90 142 62 90 142 62 90 88 38 90 88 38 34 88 38 34 88 38 34 88 38 34 88 50 34 106 50 34 106 50 34 106 50 48 106 50 48 106 62 48 106 62 48 124 62 48 124 62 48 124 62 48 124 38 62 124 38 62 124 38 62 142 38 62 142 38 62 142 50 62 142 50 62 142 50 76 142 50 76 88 50 76 88 62 76 88 62 76 88 62 76 88 62 76 88 62 90 106 38 90 106 38 90 106 38 90 106 38 90 106 38 90 106 50 90 124 50 34 124 50 34 124 50 34 124 50 34 124 62 34 124 62 34 142 62 34 142 62 48 142 62 48 142 38 48 142 38 48 142 38 48 88 38 48 88 38 48 88 50 62 88 50 62 88 50 62 88 50 62 106 50 62 106 62 62 106 62 62 106 62 76 106 62 76 106 62 76 124 38 76 124 38 76 124 38 76 124 38 76 124 38 90 124 50 90 142 50 90 142 50 90 142 50 90 142 50 90 142 62 90 142 62 34 88 62 34 88 62 34 88 62 34 88 38 34 88 38 34 88 38 34 106 38 48 106 38 48 106 50 48 106 50 48 106 50 48 106 50 48 124 50 48 124 62 62 124 62 62 124 62 62 124 62 62 124 62 62 142 38 62 142 38 62 142 38 76 142 38 76 142 38 76 142 50 76 88 50 76 88 50 76 88 50 76 88 50 90 88 62 90 88 62 90 106 62 90 106 62 90 106 62 90 106 38 90 106 38 34 106 38 34 124 38 34 124 38 34 124 50 34 124 50 34 124 50 34 124 50 48 142 50 48 142 62 48 142 62 48 142 62 48 142 62 48 142 62 48 88 38 62 88 38 62 88 38 62 88 38 62 88 38 62 88 50 62 106 50 62 106 50 76 106 50 76 106 50 76 106 62 76 106 62 76 124 62 76 124 62 76 124 62 90 124 38 90 124 38 90 124 38 90 142 38 90 142 38
90 124 38 90 124 38 90 124 38 90 124 38 90 124 38 90 124 50 90 142 50 34 142 50 34 142 50 34 142 50 34 142 62 34 142 62 34 88 62 34 88 62 48 88 62 48 88 38 48 88 38 48 88 38 48 106 38 48 106 38 48 106 50 62 106 50 62 106 50 62 106 50 62 124 50 62 124 62 62 124 62 62 124 62 76 124 62 76 124 62 76 142 38 76 142 38 76 142 38 76 142 38 76 142 38 90 142 50 90 88 50 90 88 50 90 88 50 90 88 50 90 88 62 90 88 62 34 106 62 34 106 62 34 106 62 34 106 38 34 106 38 34 106 38 34 124 38 48 124 38 48 124 50 48 124 50 48 124 50 48 124 50 48 142 50 48 142 62 62 142 62 62 142 62 62 142 62 62 142 62 62 88 38 62 88 38 62 88 38 76 88 38 76 88 38 76 88 50 76 106 50 76 106 50 76 106 50 76 106 50 90 106 62 90 106 62 90 124 62 90 124 62 90 124 62 90 124 38 90 124 38 34 124 38 34 142 38 34 142 38 34 142 50 34 142 50 34 142 50 34 142 50 48 88 50 48 88 62 48 88 62 48 88 62 48 88 62 48 88 62 48 106 38 62 106 38 62 106 38 62 106 38 62 106 38 62 106 50 62 124 50 62 124 50 76 124 50 76 124 50 76 124 62 76 124 62 76 142 62 76 142 62 76 142 62 90 142 38 90 142 38 90 142 38 90 88 38 90 88 38 90 88 50 90 88 50 34 88 50 34 88 50 34 106 50 34 106 62 34 106 62 34 106 62 34 106 62 48 106 62 48 124 38 48 124 38 48 124 38 48 124 38 48 124 38 48 124 50 62 142 50 62 142 50 62 142 50 62 142 50 62 142 62 62 142 62 62 88 62 76 88 62 76 88 62 76 88 38 76 88 38 76 88 38 76 106 38 76 106 38 90 106 50 90 106 50 90 106 50 90 106 50 90 124 50 90 124 62 90 124 62 34 124 62 34 124 62 34 124 62 34 142 38 34 142 38 34 142 38 34 142 38 48 142 38 48 142 50 48 88 50 48 88 50 48 88 50 48 88 50 48 88 62 62 88 62 62 106 62 62 106 62 62 106 62 62 106 38 62 106 38 62 106 38 76 124 38 76 124 38 76 124 50 76 124 50 76 124 50 76 124 50 76 142 50 90 142 62 90 142 62 90 142 62 90 142 62 90 142 62 90 88 38 90 88 38 34 88 38 34 88 38 34 88 38 34 88 50 34 106 50 34 106 50 34 106 50 48 106 50 48 106 62 48 106 62 48 124 62 48 124 62 48 124 62 48 124 38 62 124 38 62 124 38 62 142 38 62 142 38 62 142 50 62 142 50 62 142 50 76 142 50 76 88 50 76 88 62 76 88 62 76 88 62 76 88 62 76 88 62 90 106 38 90 106 38 90 106 38 90 106 38 90 106 38 90 106 50 90 124 50 34 124 50 34 124 50 34 124 50 34 124 62 34 124 62 34 142 62 34 142 62 48 142 62 48 142 38 48 142 38 48 142 38 48 88 38 48 88 38 48 88 50 62 88 50 62 88 50 62 88 50 62 106 50 62 106 62 62 106 62 62 106 62 76 106 62 76 106 62 76 124 38 76 124 38 76 124 38 76 124 38 76 124 38 90 124 50 90 142 50 90 142 50 90 142 50 90 142 50 90 142 62 90 142 62 34 88 62 34 88 62 34 88 62 34 88 38 34 88 38 34 88 38 34 106 38 48 106 38 48 106 50 48 106 50 48 106 50 48 106 50 48 124 50 48 124 62 62 124 62 62 124 62 62 124 62 62 124 62 62 142 38 62 142 38 62 142 38 76 142 38 76 142 38 76 142 50 76 88 50 76 88 50 76 88 50 76 88 50 90 88 62 90 88 62 90 106 62 90 106 62 90 106 62 90 106 38 90 106 38 34 106 38 34 124 38 34 124 38 34 124 50 34 124 50 34 124 50 34 124 50 48 142 50 48 142 62 48 142 62 48 142 62 48 142 62 48 142 62 48 88 38 62 88 38 62 88 38 62 88 38 62 88 38 62 88 50 62 106 50 62 106 50 76 106 50 76 106 50 76 106 62 76 106 62 76 124 62 76 124 62 76 124 62 90 124 38 90 124 38 90 124 38 90 142 38 90 142 38
34 124 38 34 124 38 34 124 38 34 124 38 34 124 38 34 124 50 34 142 50 48 142 50 48 142 50 48 142 50 48 142 62 48 142 62 48 88 62 48 88 62 62 88 62 62 88 38 62 88 38 62 88 38 62 106 38 62 106 38 62 106 50 76 106 50 76 106 50 76 106 50 76 124 50 76 124 62 76 124 62 76 124 62 90 124 62 90 124 62 90 142 38 90 142 38 90 142 38 90 142 38 90 142 38 34 142 50 34 88 50 34 88 50 34 88 50 34 88 50 34 88 62 34 88 62 48 106 62 48 106 62 48 106 62 48 106 38 48 106 38 48 106 38 48 124 38 62 124 38 62 124 50 62 124 50 62 124 50 62 124 50 62 142 50 62 142 62 76 142 62 76 142 62 76 142 62 76 142 62 76 88 38 76 88 38 76 88 38 90 88 38 90 88 38 90 88 50 90 106 50 90 106 50 90 106 50 90 106 50 34 106 62 34 106 62 34 124 62 34 124 62 34 124 62 34 124 38 34 124 38 48 124 38 48 142 38 48 142 38 48 142 50 48 142 50 48 142 50 48 142 50 62 88 50 62 88 62 62 88 62 62 88 62 62 88 62 62 88 62 62 106 38 76 106 38 76 106 38 76 106 38 76 106 38 76 106 50 76 124 50 76 124 50 90 124 50 90 124 50 90 124 62 90 124 62 90 142 62 90 142 62 90 142 62 34 142 38 34 142 38 34 142 38 34 88 38 34 88 38 34 88 50 34 88 50 48 88 50 48 88 50 48 106 50 48 106 62 48 106 62 48 106 62 48 106 62 62 106 62 62 124 38 62 124 38 62 124 38 62 124 38 62 124 38 62 124 50 76 142 50 76 142 50 76 142 50 76 142 50 76 142 62 76 142 62 76 88 62 90 88 62 90 88 62 90 88 38 90 88 38 90 88 38 90 106 38 90 106 38 34 106 50 34 106 50 34 106 50 34 106 50 34 124 50 34 124 62 34 124 62 48 124 62 48 124 62 48 124 62 48 142 38 48 142 38 48 142 38 48 142 38 62 142 38 62 142 50 62 88 50 62 88 50 62 88 50 62 88 50 62 88 62 76 88 62 76 106 62 76 106 62 76 106 62 76 106 38 76 106 38 76 106 38 90 124 38 90 124 38 90 124 50 90 124 50 90 124 50 90 124 50 90 142 50 34 142 62 34 142 62 34 142 62 34 142 62 34 142 62 34 88 38 34 88 38 48 88 38 48 88 38 48 88 38 48 88 50 48 106 50 48 106 50 48 106 50 62 106 50 62 106 62 62 106 62 62 124 62 62 124 62 62 124 62 62 124 38 76 124 38 76 124 38 76 142 38 76 142 38 76 142 50 76 142 50 76 142 50 90 142 50 90 88 50 90 88 62 90 88 62 90 88 62 90 88 62 90 88 62 34 106 38 34 106 38 34 106 38 34 106 38 34 106 38 34 106 50 34 124 50 48 124 50 48 124 50 48 124 50 48 124 62 48 124 62 48 142 62 48 142 62 62 142 62 62 142 38 62 142 38 62 142 38 62 88 38 62 88 38 62 88 50 76 88 50 76 88 50 76 88 50 76 106 50 76 106 62 76 106 62 76 106 62 90 106 62 90 106 62 90 124 38 90 124 38 90 124 38 90 124 38 90 124 38 34 124 50 34 142 50 34 142 50 34 142 50 34 142 50 34 142 62 34 142 62 48 88 62 48 88 62 48 88 62 48 88 38 48 88 38 48 88 38 48 106 38 62 106 38 62 106 50 62 106 50 62 106 50 62 106 50 62 124 50 62 124 62 76 124 62 76 124 62 76 124 62 76 124 62 76 142 38 76 142 38 76 142 38 90 142 38 90 142 38 90 142 50 90 88 50 90 88 50 90 88 50 90 88 50 34 88 62 34 88 62 34 106 62 34 106 62 34 106 62 34 106 38 34 106 38 48 106 38 48 124 38 48 124 38 48 124 50 48 124 50 48 124 50 48 124 50 62 142 50 62 142 62 62 142 62 62 142 62 62 142 62 62 142 62 62 88 38 76 88 38 76 88 38 76 88 38 76 88 38 76 88 50 76 106 50 76 106 50 90 106 50 90 106 50 90 106 62 90 106 62 90 124 62 90 124 62 90 124 62 34 124 38 34 124 38 34 124 38 34 142 38 34 142 38
34 124 38 34 124 38 34 124 38 34 124 38 34 124 38 34 124 50 34 142 50 48 142 50 48 142 50 48 142 50 48 142 62 48 142 62 48 88 62 48 88 62 62 88 62 62 88 38 62 88 38 62 88 38 62 106 38 62 106 38 62 106 50 76 106 50 76 106 50 76 106 50 76 124 50 76 124 62 76 124 62 76 124 62 90 124 62 90 124 62 90 142 38 90 142 38 90 142 38 90 142 38 90 142 38 34 142 50 34 88 50 34 88 50 34 88 50 34 88 50 34 88 62 34 88 62 48 106 62 48 106 62 48 106 62 48 106 38 48 106 38 48 106 38 48 124 38 62 124 38 62 124 50 62 124 50 62 124 50 62 124 50 62 142 50 62 142 62 76 142 62 76 142 62 76 142 62 76 142 62 76 88 38 76 88 38 76 88 38 90 88 38 90 88 38 90 88 50 90 106 50 90 106 50 90 106 50 90 106 50 34 106 62 34 106 62 34 124 62 34 124 62 34 124 62 34 124 38 34 124 38 48 124 38 48 142 38 48 142 38 48 142 50 48 142 50 48 142 50 48 142 50 62 88 50 62 88 62 62 88 62 62 88 62 62 88 62 62 88 62 62 106 38 76 106 38 76 106 38 76 106 38 76 106 38 76 106 50 76 124 50 76 124 50 90 124 50 90 124 50 90 124 62 90 124 62 90 142 62 90 142 62 90 142 62 34 142 38 34 142 38 34 142 38 34 88 38 34 88 38 34 88 50 34 88 50 48 88 50 48 88 50 48 106 50 48 106 62 48 106 62 48 106 62 48 106 62 62 106 62 62 124 38 62 124 38 62 124 38 62 124 38 62 124 38 62 124 50 76 142 50 76 142 50 76 142 50 76 142 50 76 142 62 76 142 62 76 88 62 90 88 62 90 88 62 90 88 38 90 88 38 90 88 38 90 106 38 90 106 38 34 106 50 34 106 50 34 106 50 34 106 50 34 124 50 34 124 62 34 124 62 48 124 62 48 124 62 48 124 62 48 142 38 48 142 38 48 142 38 48 142 38 62 142 38 62 142 50 62 88 50 62 88 50 62 88 50 62 88 50 62 88 62 76 88 62 76 106 62 76 106 62 76 106 62 76 106 38 76 106 38 76 106 38 90 124 38 90 124 38 90 124 50 90 124 50 90 124 50 90 124 50 90 142 50 34 142 62 34 142 62 34 142 62 34 142 62 34 142 62 34 88 38 34 88 38 48 88 38 48 88 38 48 88 38 48 88 50 48 106 50 48 106 50 48 106 50 62 106 50 62 106 62 62 106 62 62 124 62 62 124 62 62 124 62 62 124 38 76 124 38 76 124 38 76 142 38 76 142 38 76 142 50 76 142 50 76 142 50 90 142 50 90 88 50 90 88 62 90 88 62 90 88 62 90 88 62 90 88 62 34 106 38 34 106 38 34 106 38 34 106 38 34 106 38 34 106 50 34 124 50 48 124 50 48 124 50 48 124 50 48 124 62 48 124 62 48 142 62 48 142 62 62 142 62 62 142 38 62 142 38 62 142 38 62 88 38 62 88 38 62 88 50 76 88 50 76 88 50 76 88 50 76 106 50 76 106 62 76 106 62 76 106 62 90 106 62 90 106 62 90 124 38 90 124 38 90 124 38 90 124 38 90 124 38 34 124 50 34 142 50 34 142 50 34 142 50 34 142 50 34 142 62 34 142 62 48 88 62 48 88 62 48 88 62 48 88 38 48 88 38 48 88 38 48 106 38 62 106 38 62 106 50 62 106 50 62 106 50 62 106 50 62 124 50 62 124 62 76 124 62 76 124 62 76 124 62 76 124 62 76 142 38 76 142 38 76 142 38 90 142 38 90 142 38 90 142 50 90 88 50 90 88 50 90 88 50 90 88 50 34 88 62 34 88 62 34 106 62 34 106 62 34 106 62 34 106 38 34 106 38 48 106 38 48 124 38 48 124 38 48 124 50 48 124 50 48 124 50 48 124 50 62 142 50 62 142 62 62 142 62 62 142 62 62 142 62 62 142 62 62 88 38 76 88 38 76 88 38 76 88 38 76 88 38 76 88 50 76 106 50 76 106 50 90 106 50 90 106 50 90 106 62 90 106 62 90 124 62 90 124 62 90 124 62 34 124 38 34 124 38 34 124 38 34 142 38 34 142 38
34 124 38 34 124 38 34 124 38 34 124 38 34 124 38 34 124 50 34 142 50 48 142 50 48 142 50 48 142 50 48 142 62 48 142 62 48 88 62 48 88 62 62 88 62 62 88 38 62 88 38 62 88 38 62 106 38 62 106 38 62 106 50 76 106 50 76 106 50 76 106 50 76 124 50 76 124 62 76 124 62 76 124 62 90 124 62 90 124 62 90 142 38 90 142 38 90 142 38 90 142 38 90 142 38 34 142 50 34 88 50 34 88 50 34 88 50 34 88 50 34 88 62 34 88 62 48 106 62 48 106 62 48 106 62 48 106 38 48 106 38 48 106 38 48 124 38 62 124 38 62 124 50 62 124 50 62 124 50 62 124 50 62 142 50 62 142 62 76 142 62 76 142 62 76 142 62 76 142 62 76 88 38 76 88 38 76 88 38 90 88 38 90 88 38 90 88 50 90 106 50 90 106 50 90 106 50 90 106 50 34 106 62 34 106 62 34 124 62 34 124 62 34 124 62 34 124 38 34 124 38 48 124 38 48 142 38 48 142 38 48 142 50 48 142 50 48 142 50 48 142 50 62 88 50 62 88 62 62 88 62 62 88 62 62 88 62 62 88 62 62 106 38 76 106 38 76 106 38 76 106 38 76 106 38 76 106 50 76 124 50 76 124 50 90 124 50 90 124 50 90 124 62 90 124 62 90 142 62 90 142 62 90 142 62 34 142 38 34 142 38 34 142 38 34 88 38 34 88 38 34 88 50 34 88 50 48 88 50 48 88 50 48 106 50 48 106 62 48 106 62 48 106 62 48 106 62 62 106 62 62 124 38 62 124 38 62 124 38 62 124 38 62 124 38 62 124 50 76 142 50 76 142 50 76 142 50 76 142 50 76 142 62 76 142 62 76 88 62 90 88 62 90 88 62 90 88 38 90 88 38 90 88 38 90 106 38 90 106 38 34 106 50 34 106 50 34 106 50 34 106 50 34 124 50 34 124 62 34 124 62 48 124 62 48 124 62 48 124 62 48 142 38 48 142 38 48 142 38 48 142 38 62 142 38 62 142 50 62 88 50 62 88 50 62 88 50 62 88 50 62 88 62 76 88 62 76 106 62 76 106 62 76 106 62 76 106 38 76 106 38 76 106 38 90 124 38 90 124 38 90 124 50 90 124 50 90 124 50 90 124 50 90 142 50 34 142 62 34 142 62 34 142 62 34 142 62 34 142 62 34 88 38 34 88 38 48 88 38 48 88 38 48 88 38 48 88 50 48 106 50 48 106 50 48 106 50 62 106 50 62 106 62 62 106 62 62 124 62 62 124 62 62 124 62 62 124 38 76 124 38 76 124 38 76 142 38 76 142 38 76 142 50 76 142 50 76 142 50 90 142 50 90 88 50 90 88 62 90 88 62 90 88 62 90 88 62 90 88 62 34 106 38 34 106 38 34 106 38 34 106 38 34 106 38 34 106 50 34 124 50 48 124 50 48 124 50 48 124 50 48 124 62 48 124 62 48 142 62 48 142 62 62 142 62 62 142 38 62 142 38 62 142 38 62 88 38 62 88 38 62 88 50 76 88 50 76 88 50 76 88 50 76 106 50 76 106 62 76 106 62 76 106 62 90 106 62 90 106 62 90 124 38 90 124 38 90 124 38 90 124 38 90 124 38 34 124 50 34 142 50 34 142 50 34 142 50 34 142 50 34 142 62 34 142 62 48 88 62 48 88 62 48 88 62 48 88 38 48 88 38 48 88 38 48 106 38 62 106 38 62 106 50 62 106 50 62 106 50 62 106 50 62 124 50 62 124 62 76 124 62 76 124 62 76 124 62 76 124 62 76 142 38 76 142 38 76 142 38 90 142 38 90 142 38 90 142 50 90 88 50 90 88 50 90 88 50 90 88 50 34 88 62 34 88 62 34 106 62 34 106 62 34 106 62 34 106 38 34 106 38 48 106 38 48 124 38 48 124 38 48 124 50 48 124 50 48 124 50 48 124 50 62 142 50 62 142 62 62 142 62 62 142 62 62 142 62 62 142 62 62 88 38 76 88 38 76 88 38 76 88 38 76 88 38 76 88 50 76 106 50 76 106 50 90 106 50 90 106 50 90 106 62 90 106 62 90 124 62 90 124 62 90 124 62 34 124 38 34 124 38 34 124 38 34 142 38 34 142 38
34 124 38 34 124 38 34 124 38 34 124 38 34 124 38 34 124 50 34 142 50 48 142 50 48 142 50 48 142 50 48 142 62 48 142 62 48 88 62 48 88 62 62 88 62 62 88 38 62 88 38 62 88 38 62 106 38 62 106 38 62 106 50 76 106 50 76 106 50 76 106 50 76 124 50 76 124 62 76 124 62 76 124 62 90 124 62 90 124 62 90 142 38 90 142 38 90 142 38 90 142 38 90 142 38 34 142 50 34 88 50 34 88 50 34 88 50 34 88 50 34 88 62 34 88 62 48 106 62 48 106 62 48 106 62 48 106 38 48 106 38 48 106 38 48 124 38 62 124 38 62 124 50 62 124 50 62 124 50 62 124 50 62 142 50 62 142 62 76 142 62 76 142 62 76 142 62 76 142 62 76 88 38 76 88 38 76 88 38 90 88 38 90 88 38 90 88 50 90 106 50 90 106 50 90 106 50 90 106 50 34 106 62 34 106 62 34 124 62 34 124 62 34 124 62 34 124 38 34 124 38 48 124 38 48 142 38 48 142 38 48 142 50 48 142 50 48 142 50 48 142 50 62 88 50 62 88 62 62 88 62 62 88 62 62 88 62 62 88 62 62 106 38 76 106 38 76 106 38 76 106 38 76 106 38 76 106 50 76 124 50 76 124 50 90 124 50 90 124 50 90 124 62 90 124 62 90 142 62 90 142 62 90 142 62 34 142 38 34 142 38 34 142 38 34 88 38 34 88 38 34 88 50 34 88 50 48 88 50 48 88 50 48 106 50 48 106 62 48 106 62 48 106 62 48 106 62 62 106 62 62 124 38 62 124 38 62 124 38 62 124 38 62 124 38 62 124 50 76 142 50 76 142 50 76 142 50 76 142 50 76 142 62 76 142 62 76 88 62 90 88 62 90 88 62 90 88 38 90 88 38 90 88 38 90 106 38 90 106 38 34 106 50 34 106 50 34 106 50 34 106 50 34 124 50 34 124 62 34 124 62 48 124 62 48 124 62 48 124 62 48 142 38 48 142 38 48 142 38 48 142 38 62 142 38 62 142 50 62 88 50 62 88 50 62 88 50 62 88 50 62 88 62 76 88 62 76 106 62 76 106 62 76 106 62 76 106 38 76 106 38 76 106 38 90 124 38 90 124 38 90 124 50 90 124 50 90 124 50 90 124 50 90 142 50 34 142 62 34 142 62 34 142 62 34 142 62 34 142 62 34 88 38 34 88 38 48 88 38 48 88 38 48 88 38 48 88 50 48 106 50 48 106 50 48 106 50 62 106 50 62 106 62 62 106 62 62 124 62 62 124 62 62 124 62 62 124 38 76 124 38 76 124 38 76 142 38 76 142 38 76 142 50 76 142 50 76 142 50 90 142 50 90 88 50 90 88 62 90 88 62 90 88 62 90 88 62 90 88 62 34 106 38 34 106 38 34 106 38 34 106 38 34 106 38 34 106 50 34 124 50 48 124 50 48 124 50 48 124 50 48 124 62 48 124 62 48 142 62 48 142 62 62 142 62 62 142 38 62 142 38 62 142 38 62 88 38 62 88 38 62 88 50 76 88 50 76 88 50 76 88 50 76 106 50 76 106 62 76 106 62 76 106 62 90 106 62 90 106 62 90 124 38 90 124 38 90 124 38 90 124 38 90 124 38 34 124 50 34 142 50 34 142 50 34 142 50 34 142 50 34 142 62 34 142 62 48 88 62 48 88 62 48 88 62 48 88 38 48 88 38 48 88 38 48 106 38 62 106 38 62 106 50 62 106 50 62 106 50 62 106 50 62 124 50 62 124 62 76 124 62 76 124 62 76 124 62 76 124 62 76 142 38 76 142 38 76 142 38 90 142 38 90 142 38 90 142 50 90 88 50 90 88 50 90 88 50 90 88 50 34 88 62 34 88 62 34 106 62 34 106 62 34 106 62 34 106 38 34 106 38 48 106 38 48 124 38 48 124 38 48 124 50 48 124 50 48 124 50 48 124 50 62 142 50 62 142 62 62 142 62 62 142 62 62 142 62 62 142 62 62 88 38 76 88 38 76 88 38 76 88 38 76 88 38 76 88 50 76 106 50 76 106 50 90 106 50 90 106 50 90 106 62 90 106 62 90 124 62 90 124 62 90 124 62 34 124 38 34 124 38 34 124 38 34 142 38 34 142 38
34 124 50 34 124 50 34 124 50 34 124 50 34 124 50 34 124 62 34 142 62 48 142 62 48 142 62 48 142 62 48 142 38 48 142 38 48 88 38 48 88 38 62 88 38 62 88 50 62 88 50 62 88 50 62 106 50 62 106 50 62 106 62 76 106 62 76 106 62 76 106 62 76 124 62 76 124 38 76 124 38 76 124 38 90 124 38 90 124 38 90 142 50 90 142 50 90 142 50 90 142 50 90 142 50 34 142 62 34 88 62 34 88 62 34 88 62 34 88 62 34 88 38 34 88 38 48 106 38 48 106 38 48 106 38 48 106 50 48 106 50 48 106 50 48 124 50 62 124 50 62 124 62 62 124 62 62 124 62 62 124 62 62 142 62 62 142 38 76 142 38 76 142 38 76 142 38 76 142 38 76 88 50 76 88 50 76 88 50 90 88 50 90 88 50 90 88 62 90 106 62 90 106 62 90 106 62 90 106 62 34 106 38 34 106 38 34 124 38 34 124 38 34 124 38 34 124 50 34 124 50 48 124 50 48 142 50 48 142 50 48 142 62 48 142 62 48 142 62 48 142 62 62 88 62 62 88 38 62 88 38 62 88 38 62 88 38 62 88 38 62 106 50 76 106 50 76 106 50 76 106 50 76 106 50 76 106 62 76 124 62 76 124 62 90 124 62 90 124 62 90 124 38 90 124 38 90 142 38 90 142 38 90 142 38 34 142 50 34 142 50 34 142 50 34 88 50 34 88 50 34 88 62 34 88 62 48 88 62 48 88 62 48 106 62 48 106 38 48 106 38 48 106 38 48 106 38 62 106 38 62 124 50 62 124 50 62 124 50 62 124 50 62 124 50 62 124 62 76 142 62 76 142 62 76 142 62 76 142 62 76 142 38 76 142 38 76 88 38 90 88 38 90 88 38 90 88 50 90 88 50 90 88 50 90 106 50 90 106 50 34 106 62 34 106 62 34 106 62 34 106 62 34 124 62 34 124 38 34 124 38 48 124 38 48 124 38 48 124 38 48 142 50 48 142 50 48 142 50 48 142 50 62 142 50 62 142 62 62 88 62 62 88 62 62 88 62 62 88 62 62 88 38 76 88 38 76 106 38 76 106 38 76 106 38 76 106 50 76 106 50 76 106 50 90 124 50 90 124 50 90 124 62 90 124 62 90 124 62 90 124 62 90 142 62 34 142 38 34 142 38 34 142 38 34 142 38 34 142 38 34 88 50 34 88 50 48 88 50 48 88 50 48 88 50 48 88 62 48 106 62 48 106 62 48 106 62 62 106 62 62 106 38 62 106 38 62 124 38 62 124 38 62 124 38 62 124 50 76 124 50 76 124 50 76 142 50 76 142 50 76 142 62 76 142 62 76 142 62 90 142 62 90 88 62 90 88 38 90 88 38 90 88 38 90 88 38 90 88 38 34 106 50 34 106 50 34 106 50 34 106 50 34 106 50 34 106 62 34 124 62 48 124 62 48 124 62 48 124 62 48 124 38 48 124 38 48 142 38 48 142 38 62 142 38 62 142 50 62 142 50 62 142 50 62 88 50 62 88 50 62 88 62 76 88 62 76 88 62 76 88 62 76 106 62 76 106 38 76 106 38 76 106 38 90 106 38 90 106 38 90 124 50 90 124 50 90 124 50 90 124 50 90 124 50 34 124 62 34 142 62 34 142 62 34 142 62 34 142 62 34 142 38 34 142 38 48 88 38 48 88 38 48 88 38 48 88 50 48 88 50 48 88 50 48 106 50 62 106 50 62 106 62 62 106 62 62 106 62 62 106 62 62 124 62 62 124 38 76 124 38 76 124 38 76 124 38 76 124 38 76 142 50 76 142 50 76 142 50 90 142 50 90 142 50 90 142 62 90 88 62 90 88 62 90 88 62 90 88 62 34 88 38 34 88 38 34 106 38 34 106 38 34 106 38 34 106 50 34 106 50 48 106 50 48 124 50 48 124 50 48 124 62 48 124 62 48 124 62 48 124 62 62 142 62 62 142 38 62 142 38 62 142 38 62 142 38 62 142 38 62 88 50 76 88 50 76 88 50 76 88 50 76 88 50 76 88 62 76 106 62 76 106 62 90 106 62 90 106 62 90 106 38 90 106 38 90 124 38 90 124 38 90 124 38 34 124 50 34 124 50 34 124 50 34 142 50 34 142 50
48 142 50 48 142 50 48 142 50 48 142 50 48 142 50 48 142 62 48 88 62 62 88 62 62 88 62 62 88 62 62 88 38 62 88 38 62 106 38 62 106 38 76 106 38 76 106 50 76 106 50 76 106 50 76 124 50 76 124 50 76 124 62 90 124 62 90 124 62 90 124 62 90 142 62 90 142 38 90 142 38 90 142 38 34 142 38 34 142 38 34 88 50 34 88 50 34 88 50 34 88 50 34 88 50 48 88 62 48 106 62 48 106 62 48 106 62 48 106 62 48 106 38 48 106 38 62 124 38 62 124 38 62 124 38 62 124 50 62 124 50 62 124 50 62 142 50 76 142 50 76 142 62 76 142 62 76 142 62 76 142 62 76 88 62 76 88 38 90 88 38 90 88 38 90 88 38 90 88 38 90 106 50 90 106 50 90 106 50 34 106 50 34 106 50 34 106 62 34 124 62 34 124 62 34 124 62 34 124 62 48 124 38 48 124 38 48 142 38 48 142 38 48 142 38 48 142 50 48 142 50 62 142 50 62 88 50 62 88 50 62 88 62 62 88 62 62 88 62 62 88 62 76 106 62 76 106 38 76 106 38 76 106 38 76 106 38 76 106 38 76 124 50 90 124 50 90 124 50 90 124 50 90 124 50 90 124 62 90 142 62 90 142 62 34 142 62 34 142 62 34 142 38 34 142 38 34 88 38 34 88 38 34 88 38 48 88 50 48 88 50 48 88 50 48 106 50 48 106 50 48 106 62 48 106 62 62 106 62 62 106 62 62 124 62 62 124 38 62 124 38 62 124 38 62 124 38 76 124 38 76 142 50 76 142 50 76 142 50 76 142 50 76 142 50 76 142 62 90 88 62 90 88 62 90 88 62 90 88 62 90 88 38 90 88 38 90 106 38 34 106 38 34 106 38 34 106 50 34 106 50 34 106 50 34 124 50 34 124 50 48 124 62 48 124 62 48 124 62 48 124 62 48 142 62 48 142 38 48 142 38 62 142 38 62 142 38 62 142 38 62 88 50 62 88 50 62 88 50 62 88 50 76 88 50 76 88 62 76 106 62 76 106 62 76 106 62 76 106 62 76 106 38 90 106 38 90 124 38 90 124 38 90 124 38 90 124 50 90 124 50 90 124 50 34 142 50 34 142 50 34 142 62 34 142 62 34 142 62 34 142 62 34 88 62 48 88 38 48 88 38 48 88 38 48 88 38 48 88 38 48 106 50 48 106 50 62 106 50 62 106 50 62 106 50 62 106 62 62 124 62 62 124 62 62 124 62 76 124 62 76 124 38 76 124 38 76 142 38 76 142 38 76 142 38 76 142 50 90 142 50 90 142 50 90 88 50 90 88 50 90 88 62 90 88 62 90 88 62 34 88 62 34 106 62 34 106 38 34 106 38 34 106 38 34 106 38 34 106 38 48 124 50 48 124 50 48 124 50 48 124 50 48 124 50 48 124 62 48 142 62 62 142 62 62 142 62 62 142 62 62 142 38 62 142 38 62 88 38 62 88 38 76 88 38 76 88 50 76 88 50 76 88 50 76 106 50 76 106 50 76 106 62 90 106 62 90 106 62 90 106 62 90 124 62 90 124 38 90 124 38 90 124 38 34 124 38 34 124 38 34 142 50 34 142 50 34 142 50 34 142 50 34 142 50 48 142 62 48 88 62 48 88 62 48 88 62 48 88 62 48 88 38 48 88 38 62 106 38 62 106 38 62 106 38 62 106 50 62 106 50 62 106 50 62 124 50 76 124 50 76 124 62 76 124 62 76 124 62 76 124 62 76 142 62 76 142 38 90 142 38 90 142 38 90 142 38 90 142 38 90 88 50 90 88 50 90 88 50 34 88 50 34 88 50 34 88 62 34 106 62 34 106 62 34 106 62 34 106 62 48 106 38 48 106 38 48 124 38 48 124 38 48 124 38 48 124 50 48 124 50 62 124 50 62 142 50 62 142 50 62 142 62 62 142 62 62 142 62 62 142 62 76 88 62 76 88 38 76 88 38 76 88 38 76 88 38 76 88 38 76 106 50 90 106 50 90 106 50 90 106 50 90 106 50 90 106 62 90 124 62 90 124 62 34 124 62 34 124 62 34 124 38 34 124 38 34 142 38 34 142 38 34 142 38 48 142 50 48 142 50 48 142 50 48 88 50 48 88 50
48 142 50 48 142 50 48 142 50 48 142 50 48 142 50 48 142 62 48 88 62 62 88 62 62 88 62 62 88 62 62 88 38 62 88 38 62 106 38 62 106 38 76 106 38 76 106 50 76 106 50 76 106 50 76 124 50 76 124 50 76 124 62 90 124 62 90 124 62 90 124 62 90 142 62 90 142 38 90 142 38 90 142 38 34 142 38 34 142 38 34 88 50 34 88 50 34 88 50 34 88 50 34 88 50 48 88 62 48 106 62 48 106 62 48 106 62 48 106 62 48 106 38 48 106 38 62 124 38 62 124 38 62 124 38 62 124 50 62 124 50 62 124 50 62 142 50 76 142 50 76 142 62 76 142 62 76 142 62 76 142 62 76 88 62 76 88 38 90 88 38 90 88 38 90 88 38 90 88 38 90 106 50 90 106 50 90 106 50 34 106 50 34 106 50 34 106 62 34 124 62 34 124 62 34 124 62 34 124 62 48 124 38 48 124 38 48 142 38 48 142 38 48 142 38 48 142 50 48 142 50 62 142 50 62 88 50 62 88 50 62 88 62 62 88 62 62 88 62 62 88 62 76 106 62 76 106 38 76 106 38 76 106 38 76 106 38 76 106 38 76 124 50 90 124 50 90 124 50 90 124 50 90 124 50 90 124 62 90 142 62 90 142 62 34 142 62 34 142 62 34 142 38 34 142 38 34 88 38 34 88 38 34 88 38 48 88 50 48 88 50 48 88 50 48 106 50 48 106 50 48 106 62 48 106 62 62 106 62 62 106 62 62 124 62 62 124 38 62 124 38 62 124 38 62 124 38 76 124 38 76 142 50 76 142 50 76 142 50 76 142 50 76 142 50 76 142 62 90 88 62 90 88 62 90 88 62 90 88 62 90 88 38 90 88 38 90 106 38 34 106 38 34 106 38 34 106 50 34 106 50 34 106 50 34 124 50 34 124 50 48 124 62 48 124 62 48 124 62 48 124 62 48 142 62 48 142 38 48 142 38 62 142 38 62 142 38 62 142 38 62 88 50 62 88 50 62 88 50 62 88 50 76 88 50 76 88 62 76 106 62 76 106 62 76 106 62 76 106 62 76 106 38 90 106 38 90 124 38 90 124 38 90 124 38 90 124 50 90 124 50 90 124 50 34 142 50 34 142 50 34 142 62 34 142 62 34 142 62 34 142 62 34 88 62 48 88 38 48 88 38 48 88 38 48 88 38 48 88 38 48 106 50 48 106 50 62 106 50 62 106 50 62 106 50 62 106 62 62 124 62 62 124 62 62 124 62 76 124 62 76 124 38 76 124 38 76 142 38 76 142 38 76 142 38 76 142 50 90 142 50 90 142 50 90 88 50 90 88 50 90 88 62 90 88 62 90 88 62 34 88 62 34 106 62 34 106 38 34 106 38 34 106 38 34 106 38 34 106 38 48 124 50 48 124 50 48 124 50 48 124 50 48 124 50 48 124 62 48 142 62 62 142 62 62 142 62 62 142 62 62 142 38 62 142 38 62 88 38 62 88 38 76 88 38 76 88 50 76 88 50 76 88 50 76 106 50 76 106 50 76 106 62 90 106 62 90 106 62 90 106 62 90 124 62 90 124 38 90 124 38 90 124 38 34 124 38 34 124 38 34 142 50 34 142 50 34 142 50 34 142 50 34 142 50 48 142 62 48 88 62 48 88 62 48 88 62 48 88 62 48 88 38 48 88 38 62 106 38 62 106 38 62 106 38 62 106 50 62 106 50 62 106 50 62 124 50 76 124 50 76 124 62 76 124 62 76 124 62 76 124 62 76 142 62 76 142 38 90 142 38 90 142 38 90 142 38 90 142 38 90 88 50 90 88 50 90 88 50 34 88 50 34 88 50 34 88 62 34 106 62 34 106 62 34 106 62 34 106 62 48 106 38 48 106 38 48 124 38 48 124 38 48 124 38 48 124 50 48 124 50 62 124 50 62 142 50 62 142 50 62 142 62 62 142 62 62 142 62 62 142 62 76 88 62 76 88 38 76 88 38 76 88 38 76 88 38 76 88 38 76 106 50 90 106 50 90 106 50 90 106 50 90 106 50 90 106 62 90 124 62 90 124 62 34 124 62 34 124 62 34 124 38 34 124 38 34 142 38 34 142 38 34 142 38 48 142 50 48 142 50 48 142 50 48 88 50 48 88 50
48 142 50 48 142 50 48 142 50 48 142 50 48 142 50 48 142 62 48 88 62 62 88 62 62 88 62 62 88 62 62 88 38 62 88 38 62 106 38 62 106 38 76 106 38 76 106 50 76 106 50 76 106 50 76 124 50 76 124 50 76 124 62 90 124 62 90 124 62 90 124 62 90 142 62 90 142 38 90 142 38 90 142 38 34 142 38 34 142 38 34 88 50 34 88 50 34 88 50 34 88 50 34 88 50 48 88 62 48 106 62 48 106 62 48 106 62 48 106 62 48 106 38 48 106 38 62 124 38 62 124 38 62 124 38 62 124 50 62 124 50 62 124 50 62 142 50 76 142 50 76 142 62 76 142 62 76 142 62 76 142 62 76 88 62 76 88 38 90 88 38 90 88 38 90 88 38 90 88 38 90 106 50 90 106 50 90 106 50 34 106 50 34 106 50 34 106 62 34 124 62 34 124 62 34 124 62 34 124 62 48 124 38 48 124 38 48 142 38 48 142 38 48 142 38 48 142 50 48 142 50 62 142 50 62 88 50 62 88 50 62 88 62 62 88 62 62 88 62 62 88 62 76 106 62 76 106 38 76 106 38 76 106 38 76 106 38 76 106 38 76 124 50 90 124 50 90 124 50 90 124 50 90 124 50 90 124 62 90 142 62 90 142 62 34 142 62 34 142 62 34 142 38 34 142 38 34 88 38 34 88 38 34 88 38 48 88 50 48 88 50 48 88 50 48 106 50 48 106 50 48 106 62 48 106 62 62 106 62 62 106 62 62 124 62 62 124 38 62 124 38 62 124 38 62 124 38 76 124 38 76 142 50 76 142 50 76 142 50 76 142 50 76 142 50 76 142 62 90 88 62 90 88 62 90 88 62 90 88 62 90 88 38 90 88 38 90 106 38 34 106 38 34 106 38 34 106 50 34 106 50 34 106 50 34 124 50 34 124 50 48 124 62 48 124 62 48 124 62 48 124 62 48 142 62 48 142 38 48 142 38 62 142 38 62 142 38 62 142 38 62 88 50 62 88 50 62 88 50 62 88 50 76 88 50 76 88 62 76 106 62 76 106 62 76 106 62 76 106 62 76 106 38 90 106 38 90 124 38 90 124 38 90 124 38 90 124 50 90 124 50 90 124 50 34 142 50 34 142 50 34 142 62 34 142 62 34 142 62 34 142 62 34 88 62 48 88 38 48 88 38 48 88 38 48 88 38 48 88 38 48 106 50 48 106 50 62 106 50 62 106 50 62 106 50 62 106 62 62 124 62 62 124 62 62 124 62 76 124 62 76 124 38 76 124 38 76 142 38 76 142 38 76 142 38 76 142 50 90 142 50 90 142 50 90 88 50 90 88 50 90 88 62 90 88 62 90 88 62 34 88 62 34 106 62 34 106 38 34 106 38 34 106 38 34 106 38 34 106 38 48 124 50 48 124 50 48 124 50 48 124 50 48 124 50 48 124 62 48 142 62 62 142 62 62 142 62 62 142 62 62 142 38 62 142 38 62 88 38 62 88 38 76 88 38 76 88 50 76 88 50 76 88 50 76 106 50 76 106 50 76 106 62 90 106 62 90 106 62 90 106 62 90 124 62 90 124 38 90 124 38 90 124 38 34 124 38 34 124 38 34 142 50 34 142 50 34 142 50 34 142 50 34 142 50 48 142 62 48 88 62 48 88 62 48 88 62 48 88 62 48 88 38 48 88 38 62 106 38 62 106 38 62 106 38 62 106 50 62 106 50 62 106 50 62 124 50 76 124 50 76 124 62 76 124 62 76 124 62 76 124 62 76 142 62 76 142 38 90 142 38 90 142 38 90 142 38 90 142 38 90 88 50 90 88 50 90 88 50 34 88 50 34 88 50 34 88 62 34 106 62 34 106 62 34 106 62 34 106 62 48 106 38 48 106 38 48 124 38 48 124 38 48 124 38 48 124 50 48 124 50 62 124 50 62 142 50 62 142 50 62 142 62 62 142 62 62 142 62 62 142 62 76 88 62 76 88 38 76 88 38 76 88 38 76 88 38 76 88 38 76 106 50 90 106 50 90 106 50 90 106 50 90 106 50 90 106 62 90 124 62 90 124 62 34 124 62 34 124 62 34 124 38 34 124 38 34 142 38 34 142 38 34 142 38 48 142 50 48 142 50 48 142 50 48 88 50 48 88 50
48 142 50 48 142 50 48 142 50 48 142 50 48 142 50 48 142 62 48 88 62 62 88 62 62 88 62 62 88 62 62 88 38 62 88 38 62 106 38 62 106 38 76 106 38 76 106 50 76 106 50 76 106 50 76 124 50 76 124 50 76 124 62 90 124 62 90 124 62 90 124 62 90 142 62 90 142 38 90 142 38 90 142 38 34 142 38 34 142 38 34 88 50 34 88 50 34 88 50 34 88 50 34 88 50 48 88 62 48 106 62 48 106 62 48 106 62 48 106 62 48 106 38 48 106 38 62 124 38 62 124 38 62 124 38 62 124 50 62 124 50 62 124 50 62 142 50 76 142 50 76 142 62 76 142 62 76 142 62 76 142 62 76 88 62 76 88 38 90 88 38 90 88 38 90 88 38 90 88 38 90 106 50 90 106 50 90 106 50 34 106 50 34 106 50 34 106 62 34 124 62 34 124 62 34 124 62 34 124 62 48 124 38 48 124 38 48 142 38 48 142 38 48 142 38 48 142 50 48 142 50 62 142 50 62 88 50 62 88 50 62 88 62 62 88 62 62 88 62 62 88 62 76 106 62 76 106 38 76 106 38 76 106 38 76 106 38 76 106 38 76 124 50 90 124 50 90 124 50 90 124 50 90 124 50 90 124 62 90 142 62 90 142 62 34 142 62 34 142 62 34 142 38 34 142 38 34 88 38 34 88 38 34 88 38 48 88 50 48 88 50 48 88 50 48 106 50 48 106 50 48 106 62 48 106 62 62 106 62 62 106 62 62 124 62 62 124 38 62 124 38 62 124 38 62 124 38 76 124 38 76 142 50 76 142 50 76 142 50 76 142 50 76 142 50 76 142 62 90 88 62 90 88 62 90 88 62 90 88 62 90 88 38 90 88 38 90 106 38 34 106 38 34 106 38 34 106 50 34 106 50 34 106 50 34 124 50 34 124 50 48 124 62 48 124 62 48 124 62 48 124 62 48 142 62 48 142 38 48 142 38 62 142 38 62 142 38 62 142 38 62 88 50 62 88 50 62 88 50 62 88 50 76 88 50 76 88 62 76 106 62 76 106 62 76 106 62 76 106 62 76 106 38 90 106 38 90 124 38 90 124 38 90 124 38 90 124 50 90 124 50 90 124 50 34 142 50 34 142 50 34 142 62 34 142 62 34 142 62 34 142 62 34 88 62 48 88 38 48 88 38 48 88 38 48 88 38 48 88 38 48 106 50 48 106 50 62 106 50 62 106 50 62 106 50 62 106 62 62 124 62 62 124 62 62 124 62 76 124 62 76 124 38 76 124 38 76 142 38 76 142 38 76 142 38 76 142 50 90 142 50 90 142 50 90 88 50 90 88 50 90 88 62 90 88 62 90 88 62 34 88 62 34 106 62 34 106 38 34 106 38 34 106 38 34 106 38 34 106 38 48 124 50 48 124 50 48 124 50 48 124 50 48 124 50 48 124 62 48 142 62 62 142 62 62 142 62 62 142 62 62 142 38 62 142 38 62 88 38 62 88 38 76 88 38 76 88 50 76 88 50 76 88 50 76 106 50 76 106 50 76 106 62 90 106 62 90 106 62 90 106 62 90 124 62 90 124 38 90 124 38 90 124 38 34 124 38 34 124 38 34 142 50 34 142 50 34 142 50 34 142 50 34 142 50 48 142 62 48 88 62 48 88 62 48 88 62 48 88 62 48 88 38 48 88 38 62 106 38 62 106 38 62 106 38 62 106 50 62 106 50 62 106 50 62 124 50 76 124 50 76 124 62 76 124 62 76 124 62 76 124 62 76 142 62 76 142 38 90 142 38 90 142 38 90 142 38 90 142 38 90 88 50 90 88 50 90 88 50 34 88 50 34 88 50 34 88 62 34 106 62 34 106 62 34 106 62 34 106 62 48 106 38 48 106 38 48 124 38 48 124 38 48 124 38 48 124 50 48 124 50 62 124 50 62 142 50 62 142 50 62 142 62 62 142 62 62 142 62 62 142 62 76 88 62 76 88 38 76 88 38 76 88 38 76 88 38 76 88 38 76 106 50 90 106 50 90 106 50 90 106 50 90 106 50 90 106 62 90 124 62 90 124 62 34 124 62 34 124 62 34 124 38 34 124 38 34 142 38 34 142 38 34 142 38 48 142 50 48 142 50 48 142 50 48 88 50 48 88 50
48 142 50 48 142 50 48 142 50 48 142 50 48 142 50 48 142 62 48 88 62 62 88 62 62 88 62 62 88 62 62 88 38 62 88 38 62 106 38 62 106 38 76 106 38 76 106 50 76 106 50 76 106 50 76 124 50 76 124 50 76 124 62 90 124 62 90 124 62 90 124 62 90 142 62 90 142 38 90 142 38 90 142 38 34 142 38 34 142 38 34 88 50 34 88 50 34 88 50 34 88 50 34 88 50 48 88 62 48 106 62 48 106 62 48 106 62 48 106 62 48 106 38 48 106 38 62 124 38 62 124 38 62 124 38 62 124 50 62 124 50 62 124 50 62 142 50 76 142 50 76 142 62 76 142 62 76 142 62 76 142 62 76 88 62 76 88 38 90 88 38 90 88 38 90 88 38 90 88 38 90 106 50 90 106 50 90 106 50 34 106 50 34 106 50 34 106 62 34 124 62 34 124 62 34 124 62 34 124 62 48 124 38 48 124 38 48 142 38 48 142 38 48 142 38 48 142 50 48 142 50 62 142 50 62 88 50 62 88 50 62 88 62 62 88 62 62 88 62 62 88 62 76 106 62 76 106 38 76 106 38 76 106 38 76 106 38 76 106 38 76 124 50 90 124 50 90 124 50 90 124 50 90 124 50 90 124 62 90 142 62 90 142 62 34 142 62 34 142 62 34 142 38 34 142 38 34 88 38 34 88 38 34 88 38 48 88 50 48 88 50 48 88 50 48 106 50 48 106 50 48 106 62 48 106 62 62 106 62 62 106 62 62 124 62 62 124 38 62 124 38 62 124 38 62 124 38 76 124 38 76 142 50 76 142 50 76 142 50 76 142 50 76 142 50 76 142 62 90 88 62 90 88 62 90 88 62 90 88 62 90 88 38 90 88 38 90 106 38 34 106 38 34 106 38 34 106 50 34 106 50 34 106 50 34 124 50 34 124 50 48 124 62 48 124 62 48 124 62 48 124 62 48 142 62 48 142 38 48 142 38 62 142 38 62 142 38 62 142 38 62 88 50 62 88 50 62 88 50 62 88 50 76 88 50 76 88 62 76 106 62 76 106 62 76 106 62 76 106 62 76 106 38 90 106 38 90 124 38 90 124 38 90 124 38 90 124 50 90 124 50 90 124 50 34 142 50 34 142 50 34 142 62 34 142 62 34 142 62 34 142 62 34 88 62 48 88 38 48 88 38 48 88 38 48 88 38 48 88 38 48 106 50 48 106 50 62 106 50 62 106 50 62 106 50 62 106 62 62 124 62 62 124 62 62 124 62 76 124 62 76 124 38 76 124 38 76 142 38 76 142 38 76 142 38 76 142 50 90 142 50 90 142 50 90 88 50 90 88 50 90 88 62 90 88 62 90 88 62 34 88 62 34 106 62 34 106 38 34 106 38 34 106 38 34 106 38 34 106 38 48 124 50 48 124 50 48 124 50 48 124 50 48 124 50 48 124 62 48 142 62 62 142 62 62 142 62 62 142 62 62 142 38 62 142 38 62 88 38 62 88 38 76 88 38 76 88 50 76 88 50 76 88 50 76 106 50 76 106 50 76 106 62 90 106 62 90 106 62 90 106 62 90 124 62 90 124 38 90 124 38 90 124 38 34 124 38 34 124 38 34 142 50 34 142 50 34 142 50 34 142 50 34 142 50 48 142 62 48 88 62 48 88 62 48 88 62 48 88 62 48 88 38 48 88 38 62 106 38 62 106 38 62 106 38 62 106 50 62 106 50 62 106 50 62 124 50 76 124 50 76 124 62 76 124 62 76 124 62 76 124 62 76 142 62 76 142 38 90 142 38 90 142 38 90 142 38 90 142 38 90 88 50 90 88 50 90 88 50 34 88 50 34 88 50 34 88 62 34 106 62 34 106 62 34 106 62 34 106 62 48 106 38 48 106 38 48 124 38 48 124 38 48 124 38 48 124 50 48 124 50 62 124 50 62 142 50 62 142 50 62 142 62 62 142 62 62 142 62 62 142 62 76 88 62 76 88 38 76 88 38 76 88 38 76 88 38 76 88 38 76 106 50 90 106 50 90 106 50 90 106 50 90 106 50 90 106 62 90 124 62 90 124 62 34 124 62 34 124 62 34 124 38 34 124 38 34 142 38 34 142 38 34 142 38 48 142 50 48 142 50 48 142 50 48 88 50 48 88 50
62 142 50 62 142 50 62 142 50 62 142 50 62 142 50 62 142 62 62 88 62 76 88 62 76 88 62 76 88 62 76 88 38 76 88 38 76 106 38 76 106 38 90 106 38 90 106 50 90 106 50 90 106 50 90 124 50 90 124 50 90 124 62 34 124 62 34 124 62 34 124 62 34 142 62 34 142 38 34 142 38 34 142 38 48 142 38 48 142 38 48 88 50 48 88 50 48 88 50 48 88 50 48 88 50 62 88 62 62 106 62 62 106 62 62 106 62 62 106 62 62 106 38 62 106 38 76 124 38 76 124 38 76 124 38 76 124 50 76 124 50 76 124 50 76 142 50 90 142 50 90 142 62 90 142 62 90 142 62 90 142 62 90 88 62 90 88 38 34 88 38 34 88 38 34 88 38 34 88 38 34 106 50 34 106 50 34 106 50 48 106 50 48 106 50 48 106 62 48 124 62 48 124 62 48 124 62 48 124 62 62 124 38 62 124 38 62 142 38 62 142 38 62 142 38 62 142 50 62 142 50 76 142 50 76 88 50 76 88 50 76 88 62 76 88 62 76 88 62 76 88 62 90 106 62 90 106 38 90 106 38 90 106 38 90 106 38 90 106 38 90 124 50 34 124 50 34 124 50 34 124 50 34 124 50 34 124 62 34 142 62 34 142 62 48 142 62 48 142 62 48 142 38 48 142 38 48 88 38 48 88 38 48 88 38 62 88 50 62 88 50 62 88 50 62 106 50 62 106 50 62 106 62 62 106 62 76 106 62 76 106 62 76 124 62 76 124 38 76 124 38 76 124 38 76 124 38 90 124 38 90 142 50 90 142 50 90 142 50 90 142 50 90 142 50 90 142 62 34 88 62 34 88 62 34 88 62 34 88 62 34 88 38 34 88 38 34 106 38 48 106 38 48 106 38 48 106 50 48 106 50 48 106 50 48 124 50 48 124 50 62 124 62 62 124 62 62 124 62 62 124 62 62 142 62 62 142 38 62 142 38 76 142 38 76 142 38 76 142 38 76 88 50 76 88 50 76 88 50 76 88 50 90 88 50 90 88 62 90 106 62 90 106 62 90 106 62 90 106 62 90 106 38 34 106 38 34 124 38 34 124 38 34 124 38 34 124 50 34 124 50 34 124 50 48 142 50 48 142 50 48 142 62 48 142 62 48 142 62 48 142 62 48 88 62 62 88 38 62 88 38 62 88 38 62 88 38 62 88 38 62 106 50 62 106 50 76 106 50 76 106 50 76 106 50 76 106 62 76 124 62 76 124 62 76 124 62 90 124 62 90 124 38 90 124 38 90 142 38 90 142 38 90 142 38 90 142 50 34 142 50 34 142 50 34 88 50 34 88 50 34 88 62 34 88 62 34 88 62 48 88 62 48 106 62 48 106 38 48 106 38 48 106 38 48 106 38 48 106 38 62 124 50 62 124 50 62 124 50 62 124 50 62 124 50 62 124 62 62 142 62 76 142 62 76 142 62 76 142 62 76 142 38 76 142 38 76 88 38 76 88 38 90 88 38 90 88 50 90 88 50 90 88 50 90 106 50 90 106 50 90 106 62 34 106 62 34 106 62 34 106 62 34 124 62 34 124 38 34 124 38 34 124 38 48 124 38 48 124 38 48 142 50 48 142 50 48 142 50 48 142 50 48 142 50 62 142 62 62 88 62 62 88 62 62 88 62 62 88 62 62 88 38 62 88 38 76 106 38 76 106 38 76 106 38 76 106 50 76 106 50 76 106 50 76 124 50 90 124 50 90 124 62 90 124 62 90 124 62 90 124 62 90 142 62 90 142 38 34 142 38 34 142 38 34 142 38 34 142 38 34 88 50 34 88 50 34 88 50 48 88 50 48 88 50 48 88 62 48 106 62 48 106 62 48 106 62 48 106 62 62 106 38 62 106 38 62 124 38 62 124 38 62 124 38 62 124 50 62 124 50 76 124 50 76 142 50 76 142 50 76 142 62 76 142 62 76 142 62 76 142 62 90 88 62 90 88 38 90 88 38 90 88 38 90 88 38 90 88 38 90 106 50 34 106 50 34 106 50 34 106 50 34 106 50 34 106 62 34 124 62 34 124 62 48 124 62 48 124 62 48 124 38 48 124 38 48 142 38 48 142 38 48 142 38 62 142 50 62 142 50 62 142 50 62 88 50 62 88 50
62 142 50 62 142 50 62 142 50 62 142 50 62 142 50 62 142 62 62 88 62 76 88 62 76 88 62 76 88 62 76 88 38 76 88 38 76 106 38 76 106 38 90 106 38 90 106 50 90 106 50 90 106 50 90 124 50 90 124 50 90 124 62 34 124 62 34 124 62 34 124 62 34 142 62 34 142 38 34 142 38 34 142 38 48 142 38 48 142 38 48 88 50 48 88 50 48 88 50 48 88 50 48 88 50 62 88 62 62 106 62 62 106 62 62 106 62 62 106 62 62 106 38 62 106 38 76 124 38 76 124 38 76 124 38 76 124 50 76 124 50 76 124 50 76 142 50 90 142 50 90 142 62 90 142 62 90 142 62 90 142 62 90 88 62 90 88 38 34 88 38 34 88 38 34 88 38 34 88 38 34 106 50 34 106 50 34 106 50 48 106 50 48 106 50 48 106 62 48 124 62 48 124 62 48 124 62 48 124 62 62 124 38 62 124 38 62 142 38 62 142 38 62 142 38 62 142 50 62 142 50 76 142 50 76 88 50 76 88 50 76 88 62 76 88 62 76 88 62 76 88 62 90 106 62 90 106 38 90 106 38 90 106 38 90 106 38 90 106 38 90 124 50 34 124 50 34 124 50 34 124 50 34 124 50 34 124 62 34 142 62 34 142 62 48 142 62 48 142 62 48 142 38 48 142 38 48 88 38 48 88 38 48 88 38 62 88 50 62 88 50 62 88 50 62 106 50 62 106 50 62 106 62 62 106 62 76 106 62 76 106 62 76 124 62 76 124 38 76 124 38 76 124 38 76 124 38 90 124 38 90 142 50 90 142 50 90 142 50 90 142 50 90 142 50 90 142 62 34 88 62 34 88 62 34 88 62 34 88 62 34 88 38 34 88 38 34 106 38 48 106 38 48 106 38 48 106 50 48 106 50 48 106 50 48 124 50 48 124 50 62 124 62 62 124 62 62 124 62 62 124 62 62 142 62 62 142 38 62 142 38 76 142 38 76 142 38 76 142 38 76 88 50 76 88 50 76 88 50 76 88 50 90 88 50 90 88 62 90 106 62 90 106 62 90 106 62 90 106 62 90 106 38 34 106 38 34 124 38 34 124 38 34 124 38 34 124 50 34 124 50 34 124 50 48 142 50 48 142 50 48 142 62 48 142 62 48 142 62 48 142 62 48 88 62 62 88 38 62 88 38 62 88 38 62 88 38 62 88 38 62 106 50 62 106 50 76 106 50 76 106 50 76 106 50 76 106 62 76 124 62 76 124 62 76 124 62 90 124 62 90 124 38 90 124 38 90 142 38 90 142 38 90 142 38 90 142 50 34 142 50 34 142 50 34 88 50 34 88 50 34 88 62 34 88 62 34 88 62 48 88 62 48 106 62 48 106 38 48 106 38 48 106 38 48 106 38 48 106 38 62 124 50 62 124 50 62 124 50 62 124 50 62 124 50 62 124 62 62 142 62 76 142 62 76 142 62 76 142 62 76 142 38 76 142 38 76 88 38 76 88 38 90 88 38 90 88 50 90 88 50 90 88 50 90 106 50 90 106 50 90 106 62 34 106 62 34 106 62 34 106 62 34 124 62 34 124 38 34 124 38 34 124 38 48 124 38 48 124 38 48 142 50 48 142 50 48 142 50 48 142 50 48 142 50 62 142 62 62 88 62 62 88 62 62 88 62 62 88 62 62 88 38 62 88 38 76 106 38 76 106 38 76 106 38 76 106 50 76 106 50 76 106 50 76 124 50 90 124 50 90 124 62 90 124 62 90 124 62 90 124 62 90 142 62 90 142 38 34 142 38 34 142 38 34 142 38 34 142 38 34 88 50 34 88 50 34 88 50 48 88 50 48 88 50 48 88 62 48 106 62 48 106 62 48 106 62 48 106 62 62 106 38 62 106 38 62 124 38 62 124 38 62 124 38 62 124 50 62 124 50 76 124 50 76 142 50 76 142 50 76 142 62 76 142 62 76 142 62 76 142 62 90 88 62 90 88 38 90 88 38 90 88 38 90 88 38 90 88 38 90 106 50 34 106 50 34 106 50 34 106 50 34 106 50 34 106 62 34 124 62 34 124 62 48 124 62 48 124 62 48 124 38 48 124 38 48 142 38 48 142 38 48 142 38 62 142 50 62 142 50 62 142 50 62 88 50 62 88 50
62 88 62 62 88 62 62 88 62 62 88 62 62 88 62 62 88 38 62 106 38 76 106 38 76 106 38 76 106 38 76 106 50 76 106 50 76 124 50 76 124 50 90 124 50 90 124 62 90 124 62 90 124 62 90 142 62 90 142 62 90 142 38 34 142 38 34 142 38 34 142 38 34 88 38 34 88 50 34 88 50 34 88 50 48 88 50 48 88 50 48 106 62 48 106 62 48 106 62 48 106 62 48 106 62 62 106 38 62 124 38 62 124 38 62 124 38 62 124 38 62 124 50 62 124 50 76 142 50 76 142 50 76 142 50 76 142 62 76 142 62 76 142 62 76 88 62 90 88 62 90 88 38 90 88 38 90 88 38 90 88 38 90 106 38 90 106 50 34 106 50 34 106 50 34 106 50 34 106 50 34 124 62 34 124 62 34 124 62 48 124 62 48 124 62 48 124 38 48 142 38 48 142 38 48 142 38 48 142 38 62 142 50 62 142 50 62 88 50 62 88 50 62 88 50 62 88 62 62 88 62 76 88 62 76 106 62 76 106 62 76 106 38 76 106 38 76 106 38 76 106 38 90 124 38 90 124 50 90 124 50 90 124 50 90 124 50 90 124 50 90 142 62 34 142 62 34 142 62 34 142 62 34 142 62 34 142 38 34 88 38 34 88 38 48 88 38 48 88 38 48 88 50 48 88 50 48 106 50 48 106 50 48 106 50 62 106 62 62 106 62 62 106 62 62 124 62 62 124 62 62 124 38 62 124 38 76 124 38 76 124 38 76 142 38 76 142 50 76 142 50 76 142 50 76 142 50 90 142 50 90 88 62 90 88 62 90 88 62 90 88 62 90 88 62 90 88 38 34 106 38 34 106 38 34 106 38 34 106 38 34 106 50 34 106 50 34 124 50 48 124 50 48 124 50 48 124 62 48 124 62 48 124 62 48 142 62 48 142 62 62 142 38 62 142 38 62 142 38 62 142 38 62 88 38 62 88 50 62 88 50 76 88 50 76 88 50 76 88 50 76 106 62 76 106 62 76 106 62 76 106 62 90 106 62 90 106 38 90 124 38 90 124 38 90 124 38 90 124 38 90 124 50 34 124 50 34 142 50 34 142 50 34 142 50 34 142 62 34 142 62 34 142 62 48 88 62 48 88 62 48 88 38 48 88 38 48 88 38 48 88 38 48 106 38 62 106 50 62 106 50 62 106 50 62 106 50 62 106 50 62 124 62 62 124 62 76 124 62 76 124 62 76 124 62 76 124 38 76 142 38 76 142 38 76 142 38 90 142 38 90 142 50 90 142 50 90 88 50 90 88 50 90 88 50 90 88 62 34 88 62 34 88 62 34 106 62 34 106 62 34 106 38 34 106 38 34 106 38 48 106 38 48 124 38 48 124 50 48 124 50 48 124 50 48 124 50 48 124 50 62 142 62 62 142 62 62 142 62 62 142 62 62 142 62 62 142 38 62 88 38 76 88 38 76 88 38 76 88 38 76 88 50 76 88 50 76 106 50 76 106 50 90 106 50 90 106 62 90 106 62 90 106 62 90 124 62 90 124 62 90 124 38 34 124 38 34 124 38 34 124 38 34 142 38 34 142 50 34 142 50 34 142 50 48 142 50 48 142 50 48 88 62 48 88 62 48 88 62 48 88 62 48 88 62 62 88 38 62 106 38 62 106 38 62 106 38 62 106 38 62 106 50 62 106 50 76 124 50 76 124 50 76 124 50 76 124 62 76 124 62 76 124 62 76 142 62 90 142 62 90 142 38 90 142 38 90 142 38 90 142 38 90 88 38 90 88 50 34 88 50 34 88 50 34 88 50 34 88 50 34 106 62 34 106 62 34 106 62 48 106 62 48 106 62 48 106 38 48 124 38 48 124 38 48 124 38 48 124 38 62 124 50 62 124 50 62 142 50 62 142 50 62 142 50 62 142 62 62 142 62 76 142 62 76 88 62 76 88 62 76 88 38 76 88 38 76 88 38 76 88 38 90 106 38 90 106 50 90 106 50 90 106 50 90 106 50 90 106 50 90 124 62 34 124 62 34 124 62 34 124 62 34 124 62 34 124 38 34 142 38 34 142 38 48 142 38 48 142 38 48 142 50 48 142 50 48 88 50 48 88 50 48 88 50 62 88 62 62 88 62 62 88 62 62 106 62 62 106 62
62 88 62 62 88 62 62 88 62 62 88 62 62 88 62 62 88 38 62 106 38 76 106 38 76 106 38 76 106 38 76 106 50 76 106 50 76 124 50 76 124 50 90 124 50 90 124 62 90 124 62 90 124 62 90 142 62 90 142 62 90 142 38 34 142 38 34 142 38 34 142 38 34 88 38 34 88 50 34 88 50 34 88 50 48 88 50 48 88 50 48 106 62 48 106 62 48 106 62 48 106 62 48 106 62 62 106 38 62 124 38 62 124 38 62 124 38 62 124 38 62 124 50 62 124 50 76 142 50 76 142 50 76 142 50 76 142 62 76 142 62 76 142 62 76 88 62 90 88 62 90 88 38 90 88 38 90 88 38 90 88 38 90 106 38 90 106 50 34 106 50 34 106 50 34 106 50 34 106 50 34 124 62 34 124 62 34 124 62 48 124 62 48 124 62 48 124 38 48 142 38 48 142 38 48 142 38 48 142 38 62 142 50 62 142 50 62 88 50 62 88 50 62 88 50 62 88 62 62 88 62 76 88 62 76 106 62 76 106 62 76 106 38 76 106 38 76 106 38 76 106 38 90 124 38 90 124 50 90 124 50 90 124 50 90 124 50 90 124 50 90 142 62 34 142 62 34 142 62 34 142 62 34 142 62 34 142 38 34 88 38 34 88 38 48 88 38 48 88 38 48 88 50 48 88 50 48 106 50 48 106 50 48 106 50 62 106 62 62 106 62 62 106 62 62 124 62 62 124 62 62 124 38 62 124 38 76 124 38 76 124 38 76 142 38 76 142 50 76 142 50 76 142 50 76 142 50 90 142 50 90 88 62 90 88 62 90 88 62 90 88 62 90 88 62 90 88 38 34 106 38 34 106 38 34 106 38 34 106 38 34 106 50 34 106 50 34 124 50 48 124 50 48 124 50 48 124 62 48 124 62 48 124 62 48 142 62 48 142 62 62 142 38 62 142 38 62 142 38 62 142 38 62 88 38 62 88 50 62 88 50 76 88 50 76 88 50 76 88 50 76 106 62 76 106 62 76 106 62 76 106 62 90 106 62 90 106 38 90 124 38 90 124 38 90 124 38 90 124 38 90 124 50 34 124 50 34 142 50 34 142 50 34 142 50 34 142 62 34 142 62 34 142 62 48 88 62 48 88 62 48 88 38 48 88 38 48 88 38 48 88 38 48 106 38 62 106 50 62 106 50 62 106 50 62 106 50 62 106 50 62 124 62 62 124 62 76 124 62 76 124 62 76 124 62 76 124 38 76 142 38 76 142 38 76 142 38 90 142 38 90 142 50 90 142 50 90 88 50 90 88 50 90 88 50 90 88 62 34 88 62 34 88 62 34 106 62 34 106 62 34 106 38 34 106 38 34 106 38 48 106 38 48 124 38 48 124 50 48 124 50 48 124 50 48 124 50 48 124 50 62 142 62 62 142 62 62 142 62 62 142 62 62 142 62 62 142 38 62 88 38 76 88 38 76 88 38 76 88 38 76 88 50 76 88 50 76 106 50 76 106 50 90 106 50 90 106 62 90 106 62 90 106 62 90 124 62 90 124 62 90 124 38 34 124 38 34 124 38 34 124 38 34 142 38 34 142 50 34 142 50 34 142 50 48 142 50 48 142 50 48 88 62 48 88 62 48 88 62 48 88 62 48 88 62 62 88 38 62 106 38 62 106 38 62 106 38 62 106 38 62 106 50 62 106 50 76 124 50 76 124 50 76 124 50 76 124 62 76 124 62 76 124 62 76 142 62 90 142 62 90 142 38 90 142 38 90 142 38 90 142 38 90 88 38 90 88 50 34 88 50 34 88 50 34 88 50 34 88 50 34 106 62 34 106 62 34 106 62 48 106 62 48 106 62 48 106 38 48 124 38 48 124 38 48 124 38 48 124 38 62 124 50 62 124 50 62 142 50 62 142 50 62 142 50 62 142 62 62 142 62 76 142 62 76 88 62 76 88 62 76 88 38 76 88 38 76 88 38 76 88 38 90 106 38 90 106 50 90 106 50 90 106 50 90 106 50 90 106 50 90 124 62 34 124 62 34 124 62 34 124 62 34 124 62 34 124 38 34 142 38 34 142 38 48 142 38 48 142 38 48 142 50 48 142 50 48 88 50 48 88 50 48 88 50 62 88 62 62 88 62 62 88 62 62 106 62 62 106 62
62 88 62 62 88 62 62 88 62 62 88 62 62 88 62 62 88 38 62 106 38 76 106 38 76 106 38 76 106 38 76 106 50 76 106 50 76 124 50 76 124 50 90 124 50 90 124 62 90 124 62 90 124 62 90 142 62 90 142 62 90 142 38 34 142 38 34 142 38 34 142 38 34 88 38 34 88 50 34 88 50 34 88 50 48 88 50 48 88 50 48 106 62 48 106 62 48 106 62 48 106 62 48 106 62 62 106 38 62 124 38 62 124 38 62 124 38 62 124 38 62 124 50 62 124 50 76 142 50 76 142 50 76 142 50 76 142 62 76 142 62 76 142 62 76 88 62 90 88 62 90 88 38 90 88 38 90 88 38 90 88 38 90 106 38 90 106 50 34 106 50 34 106 50 34 106 50 34 106 50 34 124 62 34 124 62 34 124 62 48 124 62 48 124 62 48 124 38 48 142 38 48 142 38 48 142 38 48 142 38 62 142 50 62 142 50 62 88 50 62 88 50 62 88 50 62 88 62 62 88 62 76 88 62 76 106 62 76 106 62 76 106 38 76 106 38 76 106 38 76 106 38 90 124 38 90 124 50 90 124 50 90 124 50 90 124 50 90 124 50 90 142 62 34 142 62 34 142 62 34 142 62 34 142 62 34 142 38 34 88 38 34 88 38 48 88 38 48 88 38 48 88 50 48 88 50 48 106 50 48 106 50 48 106 50 62 106 62 62 106 62 62 106 62 62 124 62 62 124 62 62 124 38 62 124 38 76 124 38 76 124 38 76 142 38 76 142 50 76 142 50 76 142 50 76 142 50 90 142 50 90 88 62 90 88 62 90 88 62 90 88 62 90 88 62 90 88 38 34 106 38 34 106 38 34 106 38 34 106 38 34 106 50 34 106 50 34 124 50 48 124 50 48 124 50 48 124 62 48 124 62 48 124 62 48 142 62 48 142 62 62 142 38 62 142 38 62 142 38 62 142 38 62 88 38 62 88 50 62 88 50 76 88 50 76 88 50 76 88 50 76 106 62 76 106 62 76 106 62 76 106 62 90 106 62 90 106 38 90 124 38 90 124 38 90 124 38 90 124 38 90 124 50 34 124 50 34 142 50 34 142 50 34 142 50 34 142 62 34 142 62 34 142 62 48 88 62 48 88 62 48 88 38 48 88 38 48 88 38 48 88 38 48 106 38 62 106 50 62 106 50 62 106 50 62 106 50 62 106 50 62 124 62 62 124 62 76 124 62 76 124 62 76 124 62 76 124 38 76 142 38 76 142 38 76 142 38 90 142 38 90 142 50 90 142 50 90 88 50 90 88 50 90 88 50 90 88 62 34 88 62 34 88 62 34 106 62 34 106 62 34 106 38 34 106 38 34 106 38 48 106 38 48 124 38 48 124 50 48 124 50 48 124 50 48 124 50 48 124 50 62 142 62 62 142 62 62 142 62 62 142 62 62 142 62 62 142 38 62 88 38 76 88 38 76 88 38 76 88 38 76 88 50 76 88 50 76 106 50 76 106 50 90 106 50 90 106 62 90 106 62 90 106 62 90 124 62 90 124 62 90 124 38 34 124 38 34 124 38 34 124 38 34 142 38 34 142 50 34 142 50 34 142 50 48 142 50 48 142 50 48 88 62 48 88 62 48 88 62 48 88 62 48 88 62 62 88 38 62 106 38 62 106 38 62 106 38 62 106 38 62 106 50 62 106 50 76 124 50 76 124 50 76 124 50 76 124 62 76 124 62 76 124 62 76 142 62 90 142 62 90 142 38 90 142 38 90 142 38 90 142 38 90 88 38 90 88 50 34 88 50 34 88 50 34 88 50 34 88 50 34 106 62 34 106 62 34 106 62 48 106 62 48 106 62 48 106 38 48 124 38 48 124 38 48 124 38 48 124 38 62 124 50 62 124 50 62 142 50 62 142 50 62 142 50 62 142 62 62 142 62 76 142 62 76 88 62 76 88 62 76 88 38 76 88 38 76 88 38 76 88 38 90 106 38 90 106 50 90 106 50 90 106 50 90 106 50 90 106 50 90 124 62 34 124 62 34 124 62 34 124 62 34 124 62 34 124 38 34 142 38 34 142 38 48 142 38 48 142 38 48 142 50 48 142 50 48 88 50 48 88 50 48 88 50 62 88 62 62 88 62 62 88 62 62 106 62 62 106 62
76 88 62 76 88 62 76 88 62 76 88 62 76 88 62 76 88 38 76 106 38 90 106 38 90 106 38 90 106 38 90 106 50 90 106 50 90 124 50 90 124 50 34 124 50 34 124 62 34 124 62 34 124 62 34 142 62 34 142 62 34 142 38 48 142 38 48 142 38 48 142 38 48 88 38 48 88 50 48 88 50 48 88 50 62 88 50 62 88 50 62 106 62 62 106 62 62 106 62 62 106 62 62 106 62 76 106 38 76 124 38 76 124 38 76 124 38 76 124 38 76 124 50 76 124 50 90 142 50 90 142 50 90 142 50 90 142 62 90 142 62 90 142 62 90 88 62 34 88 62 34 88 38 34 88 38 34 88 38 34 88 38 34 106 38 34 106 50 48 106 50 48 106 50 48 106 50 48 106 50 48 124 62 48 124 62 48 124 62 62 124 62 62 124 62 62 124 38 62 142 38 62 142 38 62 142 38 62 142 38 76 142 50 76 142 50 76 88 50 76 88 50 76 88 50 76 88 62 76 88 62 90 88 62 90 106 62 90 106 62 90 106 38 90 106 38 90 106 38 90 106 38 34 124 38 34 124 50 34 124 50 34 124 50 34 124 50 34 124 50 34 142 62 48 142 62 48 142 62 48 142 62 48 142 62 48 142 38 48 88 38 48 88 38 62 88 38 62 88 38 62 88 50 62 88 50 62 106 50 62 106 50 62 106 50 76 106 62 76 106 62 76 106 62 76 124 62 76 124 62 76 124 38 76 124 38 90 124 38 90 124 38 90 142 38 90 142 50 90 142 50 90 142 50 90 142 50 34 142 50 34 88 62 34 88 62 34 88 62 34 88 62 34 88 62 34 88 38 48 106 38 48 106 38 48 106 38 48 106 38 48 106 50 48 106 50 48 124 50 62 124 50 62 124 50 62 124 62 62 124 62 62 124 62 62 142 62 62 142 62 76 142 38 76 142 38 76 142 38 76 142 38 76 88 38 76 88 50 76 88 50 90 88 50 90 88 50 90 88 50 90 106 62 90 106 62 90 106 62 90 106 62 34 106 62 34 106 38 34 124 38 34 124 38 34 124 38 34 124 38 34 124 50 48 124 50 48 142 50 48 142 50 48 142 50 48 142 62 48 142 62 48 142 62 62 88 62 62 88 62 62 88 38 62 88 38 62 88 38 62 88 38 62 106 38 76 106 50 76 106 50 76 106 50 76 106 50 76 106 50 76 124 62 76 124 62 90 124 62 90 124 62 90 124 62 90 124 38 90 142 38 90 142 38 90 142 38 34 142 38 34 142 50 34 142 50 34 88 50 34 88 50 34 88 50 34 88 62 48 88 62 48 88 62 48 106 62 48 106 62 48 106 38 48 106 38 48 106 38 62 106 38 62 124 38 62 124 50 62 124 50 62 124 50 62 124 50 62 124 50 76 142 62 76 142 62 76 142 62 76 142 62 76 142 62 76 142 38 76 88 38 90 88 38 90 88 38 90 88 38 90 88 50 90 88 50 90 106 50 90 106 50 34 106 50 34 106 62 34 106 62 34 106 62 34 124 62 34 124 62 34 124 38 48 124 38 48 124 38 48 124 38 48 142 38 48 142 50 48 142 50 48 142 50 62 142 50 62 142 50 62 88 62 62 88 62 62 88 62 62 88 62 62 88 62 76 88 38 76 106 38 76 106 38 76 106 38 76 106 38 76 106 50 76 106 50 90 124 50 90 124 50 90 124 50 90 124 62 90 124 62 90 124 62 90 142 62 34 142 62 34 142 38 34 142 38 34 142 38 34 142 38 34 88 38 34 88 50 48 88 50 48 88 50 48 88 50 48 88 50 48 106 62 48 106 62 48 106 62 62 106 62 62 106 62 62 106 38 62 124 38 62 124 38 62 124 38 62 124 38 76 124 50 76 124 50 76 142 50 76 142 50 76 142 50 76 142 62 76 142 62 90 142 62 90 88 62 90 88 62 90 88 38 90 88 38 90 88 38 90 88 38 34 106 38 34 106 50 34 106 50 34 106 50 34 106 50 34 106 50 34 124 62 48 124 62 48 124 62 48 124 62 48 124 62 48 124 38 48 142 38 48 142 38 62 142 38 62 142 38 62 142 50 62 142 50 62 88 50 62 88 50 62 88 50 76 88 62 76 88 62 76 88 62 76 106 62 76 106 62
76 88 62 76 88 62 76 88 62 76 88 62 76 88 62 76 88 38 76 106 38 90 106 38 90 106 38 90 106 38 90 106 50 90 106 50 90 124 50 90 124 50 34 124 50 34 124 62 34 124 62 34 124 62 34 142 62 34 142 62 34 142 38 48 142 38 48 142 38 48 142 38 48 88 38 48 88 50 48 88 50 48 88 50 62 88 50 62 88 50 62 106 62 62 106 62 62 106 62 62 106 62 62 106 62 76 106 38 76 124 38 76 124 38 76 124 38 76 124 38 76 124 50 76 124 50 90 142 50 90 142 50 90 142 50 90 142 62 90 142 62 90 142 62 90 88 62 34 88 62 34 88 38 34 88 38 34 88 38 34 88 38 34 106 38 34 106 50 48 106 50 48 106 50 48 106 50 48 106 50 48 124 62 48 124 62 48 124 62 62 124 62 62 124 62 62 124 38 62 142 38 62 142 38 62 142 38 62 142 38 76 142 50 76 142 50 76 88 50 76 88 50 76 88 50 76 88 62 76 88 62 90 88 62 90 106 62 90 106 62 90 106 38 90 106 38 90 106 38 90 106 38 34 124 38 34 124 50 34 124 50 34 124 50 34 124 50 34 124 50 34 142 62 48 142 62 48 142 62 48 142 62 48 142 62 48 142 38 48 88 38 48 88 38 62 88 38 62 88 38 62 88 50 62 88 50 62 106 50 62 106 50 62 106 50 76 106 62 76 106 62 76 106 62 76 124 62 76 124 62 76 124 38 76 124 38 90 124 38 90 124 38 90 142 38 90 142 50 90 142 50 90 142 50 90 142 50 34 142 50 34 88 62 34 88 62 34 88 62 34 88 62 34 88 62 34 88 38 48 106 38 48 106 38 48 106 38 48 106 38 48 106 50 48 106 50 48 124 50 62 124 50 62 124 50 62 124 62 62 124 62 62 124 62 62 142 62 62 142 62 76 142 38 76 142 38 76 142 38 76 142 38 76 88 38 76 88 50 76 88 50 90 88 50 90 88 50 90 88 50 90 106 62 90 106 62 90 106 62 90 106 62 34 106 62 34 106 38 34 124 38 34 124 38 34 124 38 34 124 38 34 124 50 48 124 50 48 142 50 48 142 50 48 142 50 48 142 62 48 142 62 48 142 62 62 88 62 62 88 62 62 88 38 62 88 38 62 88 38 62 88 38 62 106 38 76 106 50 76 106 50 76 106 50 76 106 50 76 106 50 76 124 62 76 124 62 90 124 62 90 124 62 90 124 62 90 124 38 90 142 38 90 142 38 90 142 38 34 142 38 34 142 50 34 142 50 34 88 50 34 88 50 34 88 50 34 88 62 48 88 62 48 88 62 48 106 62 48 106 62 48 106 38 48 106 38 48 106 38 62 106 38 62 124 38 62 124 50 62 124 50 62 124 50 62 124 50 62 124 50 76 142 62 76 142 62 76 142 62 76 142 62 76 142 62 76 142 38 76 88 38 90 88 38 90 88 38 90 88 38 90 88 50 90 88 50 90 106 50 90 106 50 34 106 50 34 106 62 34 106 62 34 106 62 34 124 62 34 124 62 34 124 38 48 124 38 48 124 38 48 124 38 48 142 38 48 142 50 48 142 50 48 142 50 62 142 50 62 142 50 62 88 62 62 88 62 62 88 62 62 88 62 62 88 62 76 88 38 76 106 38 76 106 38 76 106 38 76 106 38 76 106 50 76 106 50 90 124 50 90 124 50 90 124 50 90 124 62 90 124 62 90 124 62 90 142 62 34 142 62 34 142 38 34 142 38 34 142 38 34 142 38 34 88 38 34 88 50 48 88 50 48 88 50 48 88 50 48 88 50 48 106 62 48 106 62 48 106 62 62 106 62 62 106 62 62 106 38 62 124 38 62 124 38 62 124 38 62 124 38 76 124 50 76 124 50 76 142 50 76 142 50 76 142 50 76 142 62 76 142 62 90 142 62 90 88 62 90 88 62 90 88 38 90 88 38 90 88 38 90 88 38 34 106 38 34 106 50 34 106 50 34 106 50 34 106 50 34 106 50 34 124 62 48 124 62 48 124 62 48 124 62 48 124 62 48 124 38 48 142 38 48 142 38 62 142 38 62 142 38 62 142 50 62 142 50 62 88 50 62 88 50 62 88 50 76 88 62 76 88 62 76 88 62 76 106 62 76 106 62
76 88 62 76 88 62 76 88 62 76 88 62 76 88 62 76 88 38 76 106 38 90 106 38 90 106 38 90 106 38 90 106 50 90 106 50 90 124 50 90 124 50 34 124 50 34 124 62 34 124 62 34 124 62 34 142 62 34 142 62 34 142 38 48 142 38 48 142 38 48 142 38 48 88 38 48 88 50 48 88 50 48 88 50 62 88 50 62 88 50 62 106 62 62 106 62 62 106 62 62 106 62 62 106 62 76 106 38 76 124 38 76 124 38 76 124 38 76 124 38 76 124 50 76 124 50 90 142 50 90 142 50 90 142 50 90 142 62 90 142 62 90 142 62 90 88 62 34 88 62 34 88 38 34 88 38 34 88 38 34 88 38 34 106 38 34 106 50 48 106 50 48 106 50 48 106 50 48 106 50 48 124 62 48 124 62 48 124 62 62 124 62 62 124 62 62 124 38 62 142 38 62 142 38 62 142 38 62 142 38 76 142 50 76 142 50 76 88 50 76 88 50 76 88 50 76 88 62 76 88 62 90 88 62 90 106 62 90 106 62 90 106 38 90 106 38 90 106 38 90 106 38 34 124 38 34 124 50 34 124 50 34 124 50 34 124 50 34 124 50 34 142 62 48 142 62 48 142 62 48 142 62 48 142 62 48 142 38 48 88 38 48 88 38 62 88 38 62 88 38 62 88 50 62 88 50 62 106 50 62 106 50 62 106 50 76 106 62 76 106 62 76 106 62 76 124 62 76 124 62 76 124 38 76 124 38 90 124 38 90 124 38 90 142 38 90 142 50 90 142 50 90 142 50 90 142 50 34 142 50 34 88 62 34 88 62 34 88 62 34 88 62 34 88 62 34 88 38 48 106 38 48 106 38 48 106 38 48 106 38 48 106 50 48 106 50 48 124 50 62 124 50 62 124 50 62 124 62 62 124 62 62 124 62 62 142 62 62 142 62 76 142 38 76 142 38 76 142 38 76 142 38 76 88 38 76 88 50 76 88 50 90 88 50 90 88 50 90 88 50 90 106 62 90 106 62 90 106 62 90 106 62 34 106 62 34 106 38 34 124 38 34 124 38 34 124 38 34 124 38 34 124 50 48 124 50 48 142 50 48 142 50 48 142 50 48 142 62 48 142 62 48 142 62 62 88 62 62 88 62 62 88 38 62 88 38 62 88 38 62 88 38 62 106 38 76 106 50 76 106 50 76 106 50 76 106 50 76 106 50 76 124 62 76 124 62 90 124 62 90 124 62 90 124 62 90 124 38 90 142 38 90 142 38 90 142 38 34 142 38 34 142 50 34 142 50 34 88 50 34 88 50 34 88 50 34 88 62 48 88 62 48 88 62 48 106 62 48 106 62 48 106 38 48 106 38 48 106 38 62 106 38 62 124 38 62 124 50 62 124 50 62 124 50 62 124 50 62 124 50 76 142 62 76 142 62 76 142 62 76 142 62 76 142 62 76 142 38 76 88 38 90 88 38 90 88 38 90 88 38 90 88 50 90 88 50 90 106 50 90 106 50 34 106 50 34 106 62 34 106 62 34 106 62 34 124 62 34 124 62 34 124 38 48 124 38 48 124 38 48 124 38 48 142 38 48 142 50 48 142 50 48 142 50 62 142 50 62 142 50 62 88 62 62 88 62 62 88 62 62 88 62 62 88 62 76 88 38 76 106 38 76 106 38 76 106 38 76 106 38 76 106 50 76 106 50 90 124 50 90 124 50 90 124 50 90 124 62 90 124 62 90 124 62 90 142 62 34 142 62 34 142 38 34 142 38 34 142 38 34 142 38 34 88 38 34 88 50 48 88 50 48 88 50 48 88 50 48 88 50 48 106 62 48 106 62 48 106 62 62 106 62 62 106 62 62 106 38 62 124 38 62 124 38 62 124 38 62 124 38 76 124 50 76 124 50 76 142 50 76 142 50 76 142 50 76 142 62 76 142 62 90 142 62 90 88 62 90 88 62 90 88 38 90 88 38 90 88 38 90 88 38 34 106 38 34 106 50 34 106 50 34 106 50 34 106 50 34 106 50 34 124 62 48 124 62 48 124 62 48 124 62 48 124 62 48 124 38 48 142 38 48 142 38 62 142 38 62 142 38 62 142 50 62 142 50 62 88 50 62 88 50 62 88 50 76 88 62 76 88 62 76 88 62 76 106 62 76 106 62
76 88 62 76 88 62 76 88 62 76 88 62 76 88 62 76 88 38 76 106 38 90 106 38 90 106 38 90 106 38 90 106 50 90 106 50 90 124 50 90 124 50 34 124 50 34 124 62 34 124 62 34 124 62 34 142 62 34 142 62 34 142 38 48 142 38 48 142 38 48 142 38 48 88 38 48 88 50 48 88 50 48 88 50 62 88 50 62 88 50 62 106 62 62 106 62 62 106 62 62 106 62 62 106 62 76 106 38 76 124 38 76 124 38 76 124 38 76 124 38 76 124 50 76 124 50 90 142 50 90 142 50 90 142 50 90 142 62 90 142 62 90 142 62 90 88 62 34 88 62 34 88 38 34 88 38 34 88 38 34 88 38 34 106 38 34 106 50 48 106 50 48 106 50 48 106 50 48 106 50 48 124 62 48 124 62 48 124 62 62 124 62 62 124 62 62 124 38 62 142 38 62 142 38 62 142 38 62 142 38 76 142 50 76 142 50 76 88 50 76 88 50 76 88 50 76 88 62 76 88 62 90 88 62 90 106 62 90 106 62 90 106 38 90 106 38 90 106 38 90 106 38 34 124 38 34 124 50 34 124 50 34 124 50 34 124 50 34 124 50 34 142 62 48 142 62 48 142 62 48 142 62 48 142 62 48 142 38 48 88 38 48 88 38 62 88 38 62 88 38 62 88 50 62 88 50 62 106 50 62 106 50 62 106 50 76 106 62 76 106 62 76 106 62 76 124 62 76 124 62 76 124 38 76 124 38 90 124 38 90 124 38 90 142 38 90 142 50 90 142 50 90 142 50 90 142 50 34 142 50 34 88 62 34 88 62 34 88 62 34 88 62 34 88 62 34 88 38 48 106 38 48 106 38 48 106 38 48 106 38 48 106 50 48 106 50 48 124 50 62 124 50 62 124 50 62 124 62 62 124 62 62 124 62 62 142 62 62 142 62 76 142 38 76 142 38 76 142 38 76 142 38 76 88 38 76 88 50 76 88 50 90 88 50 90 88 50 90 88 50 90 106 62 90 106 62 90 106 62 90 106 62 34 106 62 34 106 38 34 124 38 34 124 38 34 124 38 34 124 38 34 124 50 48 124 50 48 142 50 48 142 50 48 142 50 48 142 62 48 142 62 48 142 62 62 88 62 62 88 62 62 88 38 62 88 38 62 88 38 62 88 38 62 106 38 76 106 50 76 106 50 76 106 50 76 106 50 76 106 50 76 124 62 76 124 62 90 124 62 90 124 62 90 124 62 90 124 38 90 142 38 90 142 38 90 142 38 34 142 38 34 142 50 34 142 50 34 88 50 34 88 50 34 88 50 34 88 62 48 88 62 48 88 62 48 106 62 48 106 62 48 106 38 48 106 38 48 106 38 62 106 38 62 124 38 62 124 50 62 124 50 62 124 50 62 124 50 62 124 50 76 142 62 76 142 62 76 142 62 76 142 62 76 142 62 76 142 38 76 88 38 90 88 38 90 88 38 90 88 38 90 88 50 90 88 50 90 106 50 90 106 50 34 106 50 34 106 62 34 106 62 34 106 62 34 124 62 34 124 62 34 124 38 48 124 38 48 124 38 48 124 38 48 142 38 48 142 50 48 142 50 48 142 50 62 142 50 62 142 50 62 88 62 62 88 62 62 88 62 62 88 62 62 88 62 76 88 38 76 106 38 76 106 38 76 106 38 76 106 38 76 106 50 76 106 50 90 124 50 90 124 50 90 124 50 90 124 62 90 124 62 90 124 62 90 142 62 34 142 62 34 142 38 34 142 38 34 142 38 34 142 38 34 88 38 34 88 50 48 88 50 48 88 50 48 88 50 48 88 50 48 106 62 48 106 62 48 106 62 62 106 62 62 106 62 62 106 38 62 124 38 62 124 38 62 124 38 62 124 38 76 124 50 76 124 50 76 142 50 76 142 50 76 142 50 76 142 62 76 142 62 90 142 62 90 88 62 90 88 62 90 88 38 90 88 38 90 88 38 90 88 38 34 106 38 34 106 50 34 106 50 34 106 50 34 106 50 34 106 50 34 124 62 48 124 62 48 124 62 48 124 62 48 124 62 48 124 38 48 142 38 48 142 38 62 142 38 62 142 38 62 142 50 62 142 50 62 88 50 62 88 50 62 88 50 76 88 62 76 88 62 76 88 62 76 106 62 76 106 62
76 106 62 76 106 62 76 106 62 76 106 62 76 106 62 76 106 38 76 124 38 90 124 38 90 124 38 90 124 38 90 124 50 90 124 50 90 142 50 90 142 50 34 142 50 34 142 62 34 142 62 34 142 62 34 88 62 34 88 62 34 88 38 48 88 38 48 88 38 48 88 38 48 106 38 48 106 50 48 106 50 48 106 50 62 106 50 62 106 50 62 124 62 62 124 62 62 124 62 62 124 62 62 124 62 76 124 38 76 142 38 76 142 38 76 142 38 76 142 38 76 142 50 76 142 50 90 88 50 90 88 50 90 88 50 90 88 62 90 88 62 90 88 62 90 106 62 34 106 62 34 106 38 34 106 38 34 106 38 34 106 38 34 124 38 34 124 50 48 124 50 48 124 50 48 124 50 48 124 50 48 142 62 48 142 62 48 142 62 62 142 62 62 142 62 62 142 38 62 88 38 62 88 38 62 88 38 62 88 38 76 88 50 76 88 50 76 106 50 76 106 50 76 106 50 76 106 62 76 106 62 90 106 62 90 124 62 90 124 62 90 124 38 90 124 38 90 124 38 90 124 38 34 142 38 34 142 50 34 142 50 34 142 50 34 142 50 34 142 50 34 88 62 48 88 62 48 88 62 48 88 62 48 88 62 48 88 38 48 106 38 48 106 38 62 106 38 62 106 38 62 106 50 62 106 50 62 124 50 62 124 50 62 124 50 76 124 62 76 124 62 76 124 62 76 142 62 76 142 62 76 142 38 76 142 38 90 142 38 90 142 38 90 88 38 90 88 50 90 88 50 90 88 50 90 88 50 34 88 50 34 106 62 34 106 62 34 106 62 34 106 62 34 106 62 34 106 38 48 124 38 48 124 38 48 124 38 48 124 38 48 124 50 48 124 50 48 142 50 62 142 50 62 142 50 62 142 62 62 142 62 62 142 62 62 88 62 62 88 62 76 88 38 76 88 38 76 88 38 76 88 38 76 106 38 76 106 50 76 106 50 90 106 50 90 106 50 90 106 50 90 124 62 90 124 62 90 124 62 90 124 62 34 124 62 34 124 38 34 142 38 34 142 38 34 142 38 34 142 38 34 142 50 48 142 50 48 88 50 48 88 50 48 88 50 48 88 62 48 88 62 48 88 62 62 106 62 62 106 62 62 106 38 62 106 38 62 106 38 62 106 38 62 124 38 76 124 50 76 124 50 76 124 50 76 124 50 76 124 50 76 142 62 76 142 62 90 142 62 90 142 62 90 142 62 90 142 38 90 88 38 90 88 38 90 88 38 34 88 38 34 88 50 34 88 50 34 106 50 34 106 50 34 106 50 34 106 62 48 106 62 48 106 62 48 124 62 48 124 62 48 124 38 48 124 38 48 124 38 62 124 38 62 142 38 62 142 50 62 142 50 62 142 50 62 142 50 62 142 50 76 88 62 76 88 62 76 88 62 76 88 62 76 88 62 76 88 38 76 106 38 90 106 38 90 106 38 90 106 38 90 106 50 90 106 50 90 124 50 90 124 50 34 124 50 34 124 62 34 124 62 34 124 62 34 142 62 34 142 62 34 142 38 48 142 38 48 142 38 48 142 38 48 88 38 48 88 50 48 88 50 48 88 50 62 88 50 62 88 50 62 106 62 62 106 62 62 106 62 62 106 62 62 106 62 76 106 38 76 124 38 76 124 38 76 124 38 76 124 38 76 124 50 76 124 50 90 142 50 90 142 50 90 142 50 90 142 62 90 142 62 90 142 62 90 88 62 34 88 62 34 88 38 34 88 38 34 88 38 34 88 38 34 106 38 34 106 50 48 106 50 48 106 50 48 106 50 48 106 50 48 124 62 48 124 62 48 124 62 62 124 62 62 124 62 62 124 38 62 142 38 62 142 38 62 142 38 62 142 38 76 142 50 76 142 50 76 88 50 76 88 50 76 88 50 76 88 62 76 88 62 90 88 62 90 106 62 90 106 62 90 106 38 90 106 38 90 106 38 90 106 38 34 124 38 34 124 50 34 124 50 34 124 50 34 124 50 34 124 50 34 142 62 48 142 62 48 142 62 48 142 62 48 142 62 48 142 38 48 88 38 48 88 38 62 88 38 62 88 38 62 88 50 62 88 50 62 106 50 62 106 50 62 106 50 76 106 62 76 106 62 76 106 62 76 124 62 76 124 62
90 106 38 90 106 38 90 106 38 90 106 38 90 106 38 90 106 50 90 124 50 34 124 50 34 124 50 34 124 50 34 124 62 34 124 62 34 142 62 34 142 62 48 142 62 48 142 38 48 142 38 48 142 38 48 88 38 48 88 38 48 88 50 62 88 50 62 88 50 62 88 50 62 106 50 62 106 62 62 106 62 62 106 62 76 106 62 76 106 62 76 124 38 76 124 38 76 124 38 76 124 38 76 124 38 90 124 50 90 142 50 90 142 50 90 142 50 90 142 50 90 142 62 90 142 62 34 88 62 34 88 62 34 88 62 34 88 38 34 88 38 34 88 38 34 106 38 48 106 38 48 106 50 48 106 50 48 106 50 48 106 50 48 124 50 48 124 62 62 124 62 62 124 62 62 124 62 62 124 62 62 142 38 62 142 38 62 142 38 76 142 38 76 142 38 76 142 50 76 88 50 76 88 50 76 88 50 76 88 50 90 88 62 90 88 62 90 106 62 90 106 62 90 106 62 90 106 38 90 106 38 34 106 38 34 124 38 34 124 38 34 124 50 34 124 50 34 124 50 34 124 50 48 142 50 48 142 62 48 142 62 48 142 62 48 142 62 48 142 62 48 88 38 62 88 38 62 88 38 62 88 38 62 88 38 62 88 50 62 106 50 62 106 50 76 106 50 76 106 50 76 106 62 76 106 62 76 124 62 76 124 62 76 124 62 90 124 38 90 124 38 90 124 38 90 142 38 90 142 38 90 142 50 90 142 50 34 142 50 34 142 50 34 88 50 34 88 62 34 88 62 34 88 62 34 88 62 48 88 62 48 106 38 48 106 38 48 106 38 48 106 38 48 106 38 48 106 50 62 124 50 62 124 50 62 124 50 62 124 50 62 124 62 62 124 62 62 142 62 76 142 62 76 142 62 76 142 38 76 142 38 76 142 38 76 88 38 76 88 38 90 88 50 90 88 50 90 88 50 90 88 50 90 106 50 90 106 62 90 106 62 34 106 62 34 106 62 34 106 62 34 124 38 34 124 38 34 124 38 34 124 38 48 124 38 48 124 50 48 142 50 48 142 50 48 142 50 48 142 50 48 142 62 62 142 62 62 88 62 62 88 62 62 88 62 62 88 38 62 88 38 62 88 38 76 106 38 76 106 38 76 106 50 76 106 50 76 106 50 76 106 50 76 124 50 90 124 62 90 124 62 90 124 62 90 124 62 90 124 62 90 142 38 90 142 38 34 142 38 34 142 38 34 142 38 34 142 50 34 88 50 34 88 50 34 88 50 48 88 50 48 88 62 48 88 62 48 106 62 48 106 62 48 106 62 48 106 38 62 106 38 62 106 38 62 124 38 62 124 38 62 124 50 62 124 50 62 124 50 76 124 50 76 142 50 76 142 62 76 142 62 76 142 62 76 142 62 76 142 62 90 88 38 90 88 38 90 88 38 90 88 38 90 88 38 90 88 50 90 106 50 34 106 50 34 106 50 34 106 50 34 106 62 34 106 62 34 124 62 34 124 62 48 124 62 48 124 38 48 124 38 48 124 38 48 142 38 48 142 38 48 142 50 62 142 50 62 142 50 62 142 50 62 88 50 62 88 62 62 88 62 62 88 62 76 88 62 76 88 62 76 106 38 76 106 38 76 106 38 76 106 38 76 106 38 90 106 50 90 124 50 90 124 50 90 124 50 90 124 50 90 124 62 90 124 62 34 142 62 34 142 62 34 142 62 34 142 38 34 142 38 34 142 38 34 88 38 48 88 38 48 88 50 48 88 50 48 88 50 48 88 50 48 106 50 48 106 62 62 106 62 62 106 62 62 106 62 62 106 62 62 124 38 62 124 38 62 124 38 76 124 38 76 124 38 76 124 50 76 142 50 76 142 50 76 142 50 76 142 50 90 142 62 90 142 62 90 88 62 90 88 62 90 88 62 90 88 38 90 88 38 34 88 38 34 106 38 34 106 38 34 106 50 34 106 50 34 106 50 34 106 50 48 124 50 48 124 62 48 124 62 48 124 62 48 124 62 48 124 62 48 142 38 62 142 38 62 142 38 62 142 38 62 142 38 62 142 50 62 88 50 62 88 50 76 88 50 76 88 50 76 88 62 76 88 62 76 106 62 76 106 62 76 106 62 90 106 38 90 106 38 90 106 38 90 124 38 90 124 38
90 106 38 90 106 38 90 106 38 90 106 38 90 106 38 90 106 50 90 124 50 34 124 50 34 124 50 34 124 50 34 124 62 34 124 62 34 142 62 34 142 62 48 142 62 48 142 38 48 142 38 48 142 38 48 88 38 48 88 38 48 88 50 62 88 50 62 88 50 62 88 50 62 106 50 62 106 62 62 106 62 62 106 62 76 106 62 76 106 62 76 124 38 76 124 38 76 124 38 76 124 38 76 124 38 90 124 50 90 142 50 90 142 50 90 142 50 90 142 50 90 142 62 90 142 62 34 88 62 34 88 62 34 88 62 34 88 38 34 88 38 34 88 38 34 106 38 48 106 38 48 106 50 48 106 50 48 106 50 48 106 50 48 124 50 48 124 62 62 124 62 62 124 62 62 124 62 62 124 62 62 142 38 62 142 38 62 142 38 76 142 38 76 142 38 76 142 50 76 88 50 76 88 50 76 88 50 76 88 50 90 88 62 90 88 62 90 106 62 90 106 62 90 106 62 90 106 38 90 106 38 34 106 38 34 124 38 34 124 38 34 124 50 34 124 50 34 124 50 34 124 50 48 142 50 48 142 62 48 142 62 48 142 62 48 142 62 48 142 62 48 88 38 62 88 38 62 88 38 62 88 38 62 88 38 62 88 50 62 106 50 62 106 50 76 106 50 76 106 50 76 106 62 76 106 62 76 124 62 76 124 62 76 124 62 90 124 38 90 124 38 90 124 38 90 142 38 90 142 38 90 142 50 90 142 50 34 142 50 34 142 50 34 88 50 34 88 62 34 88 62 34 88 62 34 88 62 48 88 62 48 106 38 48 106 38 48 106 38 48 106 38 48 106 38 48 106 50 62 124 50 62 124 50 62 124 50 62 124 50 62 124 62 62 124 62 62 142 62 76 142 62 76 142 62 76 142 38 76 142 38 76 142 38 76 88 38 76 88 38 90 88 50 90 88 50 90 88 50 90 88 50 90 106 50 90 106 62 90 106 62 34 106 62 34 106 62 34 106 62 34 124 38 34 124 38 34 124 38 34 124 38 48 124 38 48 124 50 48 142 50 48 142 50 48 142 50 48 142 50 48 142 62 62 142 62 62 88 62 62 88 62 62 88 62 62 88 38 62 88 38 62 88 38 76 106 38 76 106 38 76 106 50 76 106 50 76 106 50 76 106 50 76 124 50 90 124 62 90 124 62 90 124 62 90 124 62 90 124 62 90 142 38 90 142 38 34 142 38 34 142 38 34 142 38 34 142 50 34 88 50 34 88 50 34 88 50 48 88 50 48 88 62 48 88 62 48 106 62 48 106 62 48 106 62 48 106 38 62 106 38 62 106 38 62 124 38 62 124 38 62 124 50 62 124 50 62 124 50 76 124 50 76 142 50 76 142 62 76 142 62 76 142 62 76 142 62 76 142 62 90 88 38 90 88 38 90 88 38 90 88 38 90 88 38 90 88 50 90 106 50 34 106 50 34 106 50 34 106 50 34 106 62 34 106 62 34 124 62 34 124 62 48 124 62 48 124 38 48 124 38 48 124 38 48 142 38 48 142 38 48 142 50 62 142 50 62 142 50 62 142 50 62 88 50 62 88 62 62 88 62 62 88 62 76 88 62 76 88 62 76 106 38 76 106 38 76 106 38 76 106 38 76 106 38 90 106 50 90 124 50 90 124 50 90 124 50 90 124 50 90 124 62 90 124 62 34 142 62 34 142 62 34 142 62 34 142 38 34 142 38 34 142 38 34 88 38 48 88 38 48 88 50 48 88 50 48 88 50 48 88 50 48 106 50 48 106 62 62 106 62 62 106 62 62 106 62 62 106 62 62 124 38 62 124 38 62 124 38 76 124 38 76 124 38 76 124 50 76 142 50 76 142 50 76 142 50 76 142 50 90 142 62 90 142 62 90 88 62 90 88 62 90 88 62 90 88 38 90 88 38 34 88 38 34 106 38 34 106 38 34 106 50 34 106 50 34 106 50 34 106 50 48 124 50 48 124 62 48 124 62 48 124 62 48 124 62 48 124 62 48 142 38 62 142 38 62 142 38 62 142 38 62 142 38 62 142 50 62 88 50 62 88 50 76 88 50 76 88 50 76 88 62 76 88 62 76 106 62 76 106 62 76 106 62 90 106 38 90 106 38 90 106 38 90 124 38 90 124 38
90 106 38 90 106 38 90 106 38 90 106 38 90 106 38 90 106 50 90 124 50 34 124 50 34 124 50 34 124 50 34 124 62 34 124 62 34 142 62 34 142 62 48 142 62 48 142 38 48 142 38 48 142 38 48 88 38 48 88 38 48 88 50 62 88 50 62 88 50 62 88 50 62 106 50 62 106 62 62 106 62 62 106 62 76 106 62 76 106 62 76 124 38 76 124 38 76 124 38 76 124 38 76 124 38 90 124 50 90 142 50 90 142 50 90 142 50 90 142 50 90 142 62 90 142 62 34 88 62 34 88 62 34 88 62 34 88 38 34 88 38 34 88 38 34 106 38 48 106 38 48 106 50 48 106 50 48 106 50 48 106 50 48 124 50 48 124 62 62 124 62 62 124 62 62 124 62 62 124 62 62 142 38 62 142 38 62 142 38 76 142 38 76 142 38 76 142 50 76 88 50 76 88 50 76 88 50 76 88 50 90 88 62 90 88 62 90 106 62 90 106 62 90 106 62 90 106 38 90 106 38 34 106 38 34 124 38 34 124 38 34 124 50 34 124 50 34 124 50 34 124 50 48 142 50 48 142 62 48 142 62 48 142 62 48 142 62 48 142 62 48 88 38 62 88 38 62 88 38 62 88 38 62 88 38 62 88 50 62 106 50 62 106 50 76 106 50 76 106 50 76 106 62 76 106 62 76 124 62 76 124 62 76 124 62 90 124 38 90 124 38 90 124 38 90 142 38 90 142 38 90 142 50 90 142 50 34 142 50 34 142 50 34 88 50 34 88 62 34 88 62 34 88 62 34 88 62 48 88 62 48 106 38 48 106 38 48 106 38 48 106 38 48 106 38 48 106 50 62 124 50 62 124 50 62 124 50 62 124 50 62 124 62 62 124 62 62 142 62 76 142 62 76 142 62 76 142 38 76 142 38 76 142 38 76 88 38 76 88 38 90 88 50 90 88 50 90 88 50 90 88 50 90 106 50 90 106 62 90 106 62 34 106 62 34 106 62 34 106 62 34 124 38 34 124 38 34 124 38 34 124 38 48 124 38 48 124 50 48 142 50 48 142 50 48 142 50 48 142 50 48 142 62 62 142 62 62 88 62 62 88 62 62 88 62 62 88 38 62 88 38 62 88 38 76 106 38 76 106 38 76 106 50 76 106 50 76 106 50 76 106 50 76 124 50 90 124 62 90 124 62 90 124 62 90 124 62 90 124 62 90 142 38 90 142 38 34 142 38 34 142 38 34 142 38 34 142 50 34 88 50 34 88 50 34 88 50 48 88 50 48 88 62 48 88 62 48 106 62 48 106 62 48 106 62 48 106 38 62 106 38 62 106 38 62 124 38 62 124 38 62 124 50 62 124 50 62 124 50 76 124 50 76 142 50 76 142 62 76 142 62 76 142 62 76 142 62 76 142 62 90 88 38 90 88 38 90 88 38 90 88 38 90 88 38 90 88 50 90 106 50 34 106 50 34 106 50 34 106 50 34 106 62 34 106 62 34 124 62 34 124 62 48 124 62 48 124 38 48 124 38 48 124 38 48 142 38 48 142 38 48 142 50 62 142 50 62 142 50 62 142 50 62 88 50 62 88 62 62 88 62 62 88 62 76 88 62 76 88 62 76 106 38 76 106 38 76 106 38 76 106 38 76 106 38 90 106 50 90 124 50 90 124 50 90 124 50 90 124 50 90 124 62 90 124 62 34 142 62 34 142 62 34 142 62 34 142 38 34 142 38 34 142 38 34 88 38 48 88 38 48 88 50 48 88 50 48 88 50 48 88 50 48 106 50 48 106 62 62 106 62 62 106 62 62 106 62 62 106 62 62 124 38 62 124 38 62 124 38 76 124 38 76 124 38 76 124 50 76 142 50 76 142 50 76 142 50 76 142 50 90 142 62 90 142 62 90 88 62 90 88 62 90 88 62 90 88 38 90 88 38 34 88 38 34 106 38 34 106 38 34 106 50 34 106 50 34 106 50 34 106 50 48 124 50 48 124 62 48 124 62 48 124 62 48 124 62 48 124 62 48 142 38 62 142 38 62 142 38 62 142 38 62 142 38 62 142 50 62 88 50 62 88 50 76 88 50 76 88 50 76 88 62 76 88 62 76 106 62 76 106 62 76 106 62 90 106 38 90 106 38 90 106 38 90 124 38 90 124 38
90 106 38 90 106 38 90 106 38 90 106 38 90 106 38 90 106 50 90 124 50 34 124 50 34 124 50 34 124 50 34 124 62 34 124 62 34 142 62 34 142 62 48 142 62 48 142 38 48 142 38 48 142 38 48 88 38 48 88 38 48 88 50 62 88 50 62 88 50 62 88 50 62 106 50 62 106 62 62 106 62 62 106 62 76 106 62 76 106 62 76 124 38 76 124 38 76 124 38 76 124 38 76 124 38 90 124 50 90 142 50 90 142 50 90 142 50 90 142 50 90 142 62 90 142 62 34 88 62 34 88 62 34 88 62 34 88 38 34 88 38 34 88 38 34 106 38 48 106 38 48 106 50 48 106 50 48 106 50 48 106 50 48 124 50 48 124 62 62 124 62 62 124 62 62 124 62 62 124 62 62 142 38 62 142 38 62 142 38 76 142 38 76 142 38 76 142 50 76 88 50 76 88 50 76 88 50 76 88 50 90 88 62 90 88 62 90 106 62 90 106 62 90 106 62 90 106 38 90 106 38 34 106 38 34 124 38 34 124 38 34 124 50 34 124 50 34 124 50 34 124 50 48 142 50 48 142 62 48 142 62 48 142 62 48 142 62 48 142 62 48 88 38 62 88 38 62 88 38 62 88 38 62 88 38 62 88 50 62 106 50 62 106 50 76 106 50 76 106 50 76 106 62 76 106 62 76 124 62 76 124 62 76 124 62 90 124 38 90 124 38 90 124 38 90 142 38 90 142 38 90 142 50 90 142 50 34 142 50 34 142 50 34 88 50 34 88 62 34 88 62 34 88 62 34 88 62 48 88 62 48 106 38 48 106 38 48 106 38 48 106 38 48 106 38 48 106 50 62 124 50 62 124 50 62 124 50 62 124 50 62 124 62 62 124 62 62 142 62 76 142 62 76 142 62 76 142 38 76 142 38 76 142 38 76 88 38 76 88 38 90 88 50 90 88 50 90 88 50 90 88 50 90 106 50 90 106 62 90 106 62 34 106 62 34 106 62 34 106 62 34 124 38 34 124 38 34 124 38 34 124 38 48 124 38 48 124 50 48 142 50 48 142 50 48 142 50 48 142 50 48 142 62 62 142 62 62 88 62 62 88 62 62 88 62 62 88 38 62 88 38 62 88 38 76 106 38 76 106 38 76 106 50 76 106 50 76 106 50 76 106 50 76 124 50 90 124 62 90 124 62 90 124 62 90 124 62 90 124 62 90 142 38 90 142 38 34 142 38 34 142 38 34 142 38 34 142 50 34 88 50 34 88 50 34 88 50 48 88 50 48 88 62 48 88 62 48 106 62 48 106 62 48 106 62 48 106 38 62 106 38 62 106 38 62 124 38 62 124 38 62 124 50 62 124 50 62 124 50 76 124 50 76 142 50 76 142 62 76 142 62 76 142 62 76 142 62 76 142 62 90 88 38 90 88 38 90 88 38 90 88 38 90 88 38 90 88 50 90 106 50 34 106 50 34 106 50 34 106 50 34 106 62 34 106 62 34 124 62 34 124 62 48 124 62 48 124 38 48 124 38 48 124 38 48 142 38 48 142 38 48 142 50 62 142 50 62 142 50 62 142 50 62 88 50 62 88 62 62 88 62 62 88 62 76 88 62 76 88 62 76 106 38 76 106 38 76 106 38 76 106 38 76 106 38 90 106 50 90 124 50 90 124 50 90 124 50 90 124 50 90 124 62 90 124 62 34 142 62 34 142 62 34 142 62 34 142 38 34 142 38 34 142 38 34 88 38 48 88 38 48 88 50 48 88 50 48 88 50 48 88 50 48 106 50 48 106 62 62 106 62 62 106 62 62 106 62 62 106 62 62 124 38 62 124 38 62 124 38 76 124 38 76 124 38 76 124 50 76 142 50 76 142 50 76 142 50 76 142 50 90 142 62 90 142 62 90 88 62 90 88 62 90 88 62 90 88 38 90 88 38 34 88 38 34 106 38 34 106 38 34 106 50 34 106 50 34 106 50 34 106 50 48 124 50 48 124 62 48 124 62 48 124 62 48 124 62 48 124 62 48 142 38 62 142 38 62 142 38 62 142 38 62 142 38 62 142 50 62 88 50 62 88 50 76 88 50 76 88 50 76 88 62 76 88 62 76 106 62 76 106 62 76 106 62 90 106 38 90 106 38 90 106 38 90 124 38 90 124 38
90 106 38 90 106 38 90 106 38 90 106 38 90 106 38 90 106 50 90 124 50 34 124 50 34 124 50 34 124 50 34 124 62 34 124 62 34 142 62 34 142 62 48 142 62 48 142 38 48 142 38 48 142 38 48 88 38 48 88 38 48 88 50 62 88 50 62 88 50 62 88 50 62 106 50 62 106 62 62 106 62 62 106 62 76 106 62 76 106 62 76 124 38 76 124 38 76 124 38 76 124 38 76 124 38 90 124 50 90 142 50 90 142 50 90 142 50 90 142 50 90 142 62 90 142 62 34 88 62 34 88 62 34 88 62 34 88 38 34 88 38 34 88 38 34 106 38 48 106 38 48 106 50 48 106 50 48 106 50 48 106 50 48 124 50 48 124 62 62 124 62 62 124 62 62 124 62 62 124 62 62 142 38 62 142 38 62 142 38 76 142 38 76 142 38 76 142 50 76 88 50 76 88 50 76 88 50 76 88 50 90 88 62 90 88 62 90 106 62 90 106 62 90 106 62 90 106 38 90 106 38 34 106 38 34 124 38 34 124 38 34 124 50 34 124 50 34 124 50 34 124 50 48 142 50 48 142 62 48 142 62 48 142 62 48 142 62 48 142 62 48 88 38 62 88 38 62 88 38 62 88 38 62 88 38 62 88 50 62 106 50 62 106 50 76 106 50 76 106 50 76 106 62 76 106 62 76 124 62 76 124 62 76 124 62 90 124 38 90 124 38 90 124 38 90 142 38 90 142 38 90 142 50 90 142 50 34 142 50 34 142 50 34 88 50 34 88 62 34 88 62 34 88 62 34 88 62 48 88 62 48 106 38 48 106 38 48 106 38 48 106 38 48 106 38 48 106 50 62 124 50 62 124 50 62 124 50 62 124 50 62 124 62 62 124 62 62 142 62 76 142 62 76 142 62 76 142 38 76 142 38 76 142 38 76 88 38 76 88 38 90 88 50 90 88 50 90 88 50 90 88 50 90 106 50 90 106 62 90 106 62 34 106 62 34 106 62 34 106 62 34 124 38 34 124 38 34 124 38 34 124 38 48 124 38 48 124 50 48 142 50 48 142 50 48 142 50 48 142 50 48 142 62 62 142 62 62 88 62 62 88 62 62 88 62 62 88 38 62 88 38 62 88 38 76 106 38 76 106 38 76 106 50 76 106 50 76 106 50 76 106 50 76 124 50 90 124 62 90 124 62 90 124 62 90 124 62 90 124 62 90 142 38 90 142 38 34 142 38 34 142 38 34 142 38 34 142 50 34 88 50 34 88 50 34 88 50 48 88 50 48 88 62 48 88 62 48 106 62 48 106 62 48 106 62 48 106 38 62 106 38 62 106 38 62 124 38 62 124 38 62 124 50 62 124 50 62 124 50 76 124 50 76 142 50 76 142 62 76 142 62 76 142 62 76 142 62 76 142 62 90 88 38 90 88 38 90 88 38 90 88 38 90 88 38 90 88 50 90 106 50 34 106 50 34 106 50 34 106 50 34 106 62 34 106 62 34 124 62 34 124 62 48 124 62 48 124 38 48 124 38 48 124 38 48 142 38 48 142 38 48 142 50 62 142 50 62 142 50 62 142 50 62 88 50 62 88 62 62 88 62 62 88 62 76 88 62 76 88 62 76 106 38 76 106 38 76 106 38 76 106 38 76 106 38 90 106 50 90 124 50 90 124 50 90 124 50 90 124 50 90 124 62 90 124 62 34 142 62 34 142 62 34 142 62 34 142 38 34 142 38 34 142 38 34 88 38 48 88 38 48 88 50 48 88 50 48 88 50 48 88 50 48 106 50 48 106 62 62 106 62 62 106 62 62 106 62 62 106 62 62 124 38 62 124 38 62 124 38 76 124 38 76 124 38 76 124 50 76 142 50 76 142 50 76 142 50 76 142 50 90 142 62 90 142 62 90 88 62 90 88 62 90 88 62 90 88 38 90 88 38 34 88 38 34 106 38 34 106 38 34 106 50 34 106 50 34 106 50 34 106 50 48 124 50 48 124 62 48 124 62 48 124 62 48 124 62 48 124 62 48 142 38 62 142 38 62 142 38 62 142 38 62 142 38 62 142 50 62 88 50 62 88 50 76 88 50 76 88 50 76 88 62 76 88 62 76 106 62 76 106 62 76 106 62 90 106 38 90 106 38 90 106 38 90 124 38 90 124 38
34 106 38 34 106 38 34 106 38 34 106 38 34 106 38 34 106 50 34 124 50 48 124 50 48 124 50 48 124 50 48 124 62 48 124 62 48 142 62 48 142 62 62 142 62 62 142 38 62 142 38 62 142 38 62 88 38 62 88 38 62 88 50 76 88 50 76 88 50 76 88 50 76 106 50 76 106 62 76 106 62 76 106 62 90 106 62 90 106 62 90 124 38 90 124 38 90 124 38 90 124 38 90 124 38 34 124 50 34 142 50 34 142 50 34 142 50 34 142 50 34 142 62 34 142 62 48 88 62 48 88 62 48 88 62 48 88 38 48 88 38 48 88 38 48 106 38 62 106 38 62 106 50 62 106 50 62 106 50 62 106 50 62 124 50 62 124 62 76 124 62 76 124 62 76 124 62 76 124 62 76 142 38 76 142 38 76 142 38 90 142 38 90 142 38 90 142 50 90 88 50 90 88 50 90 88 50 90 88 50 34 88 62 34 88 62 34 106 62 34 106 62 34 106 62 34 106 38 34 106 38 48 106 38 48 124 38 48 124 38 48 124 50 48 124 50 48 124 50 48 124 50 62 142 50 62 142 62 62 142 62 62 142 62 62 142 62 62 142 62 62 88 38 76 88 38 76 88 38 76 88 38 76 88 38 76 88 50 76 106 50 76 106 50 90 106 50 90 106 50 90 106 62 90 106 62 90 124 62 90 124 62 90 124 62 34 124 38 34 124 38 34 124 38 34 142 38 34 142 38 34 142 50 34 142 50 48 142 50 48 142 50 48 88 50 48 88 62 48 88 62 48 88 62 48 88 62 62 88 62 62 106 38 62 106 38 62 106 38 62 106 38 62 106 38 62 106 50 76 124 50 76 124 50 76 124 50 76 124 50 76 124 62 76 124 62 76 142 62 90 142 62 90 142 62 90 142 38 90 142 38 90 142 38 90 88 38 90 88 38 34 88 50 34 88 50 34 88 50 34 88 50 34 106 50 34 106 62 34 106 62 48 106 62 48 106 62 48 106 62 48 124 38 48 124 38 48 124 38 48 124 38 62 124 38 62 124 50 62 142 50 62 142 50 62 142 50 62 142 50 62 142 62 76 142 62 76 88 62 76 88 62 76 88 62 76 88 38 76 88 38 76 88 38 90 106 38 90 106 38 90 106 50 90 106 50 90 106 50 90 106 50 90 124 50 34 124 62 34 124 62 34 124 62 34 124 62 34 124 62 34 142 38 34 142 38 48 142 38 48 142 38 48 142 38 48 142 50 48 88 50 48 88 50 48 88 50 62 88 50 62 88 62 62 88 62 62 106 62 62 106 62 62 106 62 62 106 38 76 106 38 76 106 38 76 124 38 76 124 38 76 124 50 76 124 50 76 124 50 90 124 50 90 142 50 90 142 62 90 142 62 90 142 62 90 142 62 90 142 62 34 88 38 34 88 38 34 88 38 34 88 38 34 88 38 34 88 50 34 106 50 48 106 50 48 106 50 48 106 50 48 106 62 48 106 62 48 124 62 48 124 62 62 124 62 62 124 38 62 124 38 62 124 38 62 142 38 62 142 38 62 142 50 76 142 50 76 142 50 76 142 50 76 88 50 76 88 62 76 88 62 76 88 62 90 88 62 90 88 62 90 106 38 90 106 38 90 106 38 90 106 38 90 106 38 34 106 50 34 124 50 34 124 50 34 124 50 34 124 50 34 124 62 34 124 62 48 142 62 48 142 62 48 142 62 48 142 38 48 142 38 48 142 38 48 88 38 62 88 38 62 88 50 62 88 50 62 88 50 62 88 50 62 106 50 62 106 62 76 106 62 76 106 62 76 106 62 76 106 62 76 124 38 76 124 38 76 124 38 90 124 38 90 124 38 90 124 50 90 142 50 90 142 50 90 142 50 90 142 50 34 142 62 34 142 62 34 88 62 34 88 62 34 88 62 34 88 38 34 88 38 48 88 38 48 106 38 48 106 38 48 106 50 48 106 50 48 106 50 48 106 50 62 124 50 62 124 62 62 124 62 62 124 62 62 124 62 62 124 62 62 142 38 76 142 38 76 142 38 76 142 38 76 142 38 76 142 50 76 88 50 76 88 50 90 88 50 90 88 50 90 88 62 90 88 62 90 106 62 90 106 62 90 106 62 34 106 38 34 106 38 34 106 38 34 124 38 34 124 38
34 124 38 34 124 38 34 124 38 34 124 38 34 124 38 34 124 50 34 142 50 48 142 50 48 142 50 48 142 50 48 142 62 48 142 62 48 88 62 48 88 62 62 88 62 62 88 38 62 88 38 62 88 38 62 106 38 62 106 38 62 106 50 76 106 50 76 106 50 76 106 50 76 124 50 76 124 62 76 124 62 76 124 62 90 124 62 90 124 62 90 142 38 90 142 38 90 142 38 90 142 38 90 142 38 34 142 50 34 88 50 34 88 50 34 88 50 34 88 50 34 88 62 34 88 62 48 106 62 48 106 62 48 106 62 48 106 38 48 106 38 48 106 38 48 124 38 62 124 38 62 124 50 62 124 50 62 124 50 62 124 50 62 142 50 62 142 62 76 142 62 76 142 62 76 142 62 76 142 62 76 88 38 76 88 38 76 88 38 90 88 38 90 88 38 90 88 50 90 106 50 90 106 50 90 106 50 90 106 50 34 106 62 34 106 62 34 124 62 34 124 62 34 124 62 34 124 38 34 124 38 48 124 38 48 142 38 48 142 38 48 142 50 48 142 50 48 142 50 48 142 50 62 88 50 62 88 62 62 88 62 62 88 62 62 88 62 62 88 62 62 106 38 76 106 38 76 106 38 76 106 38 76 106 38 76 106 50 76 124 50 76 124 50 90 124 50 90 124 50 90 124 62 90 124 62 90 142 62 90 142 62 90 142 62 34 142 38 34 142 38 34 142 38 34 88 38 34 88 38 34 88 50 34 88 50 48 88 50 48 88 50 48 106 50 48 106 62 48 106 62 48 106 62 48 106 62 62 106 62 62 124 38 62 124 38 62 124 38 62 124 38 62 124 38 62 124 50 76 142 50 76 142 50 76 142 50 76 142 50 76 142 62 76 142 62 76 88 62 90 88 62 90 88 62 90 88 38 90 88 38 90 88 38 90 106 38 90 106 38 34 106 50 34 106 50 34 106 50 34 106 50 34 124 50 34 124 62 34 124 62 48 124 62 48 124 62 48 124 62 48 142 38 48 142 38 48 142 38 48 142 38 62 142 38 62 142 50 62 88 50 62 88 50 62 88 50 62 88 50 62 88 62 76 88 62 76 106 62 76 106 62 76 106 62 76 106 38 76 106 38 76 106 38 90 124 38 90 124 38 90 124 50 90 124 50 90 124 50 90 124 50 90 142 50 34 142 62 34 142 62 34 142 62 34 142 62 34 142 62 34 88 38 34 88 38 48 88 38 48 88 38 48 88 38 48 88 50 48 106 50 48 106 50 48 106 50 62 106 50 62 106 62 62 106 62 62 124 62 62 124 62 62 124 62 62 124 38 76 124 38 76 124 38 76 142 38 76 142 38 76 142 50 76 142 50 76 142 50 90 142 50 90 88 50 90 88 62 90 88 62 90 88 62 90 88 62 90 88 62 34 106 38 34 106 38 34 106 38 34 106 38 34 106 38 34 106 50 34 124 50 48 124 50 48 124 50 48 124 50 48 124 62 48 124 62 48 142 62 48 142 62 62 142 62 62 142 38 62 142 38 62 142 38 62 88 38 62 88 38 62 88 50 76 88 50 76 88 50 76 88 50 76 106 50 76 106 62 76 106 62 76 106 62 90 106 62 90 106 62 90 124 38 90 124 38 90 124 38 90 124 38 90 124 38 34 124 50 34 142 50 34 142 50 34 142 50 34 142 50 34 142 62 34 142 62 48 88 62 48 88 62 48 88 62 48 88 38 48 88 38 48 88 38 48 106 38 62 106 38 62 106 50 62 106 50 62 106 50 62 106 50 62 124 50 62 124 62 76 124 62 76 124 62 76 124 62 76 124 62 76 142 38 76 142 38 76 142 38 90 142 38 90 142 38 90 142 50 90 88 50 90 88 50 90 88 50 90 88 50 34 88 62 34 88 62 34 106 62 34 106 62 34 106 62 34 106 38 34 106 38 48 106 38 48 124 38 48 124 38 48 124 50 48 124 50 48 124 50 48 124 50 62 142 50 62 142 62 62 142 62 62 142 62 62 142 62 62 142 62 62 88 38 76 88 38 76 88 38 76 88 38 76 88 38 76 88 50 76 106 50 76 106 50 90 106 50 90 106 50 90 106 62 90 106 62 90 124 62 90 124 62 90 124 62 34 124 38 34 124 38 34 124 38 34 142 38 34 142 38
34 124 38 34 124 38 34 124 38 34 124 38 34 124 38 34 124 50 34 142 50 48 142 50 48 142 50 48 142 50 48 142 62 48 142 62 48 88 62 48 88 62 62 88 62 62 88 38 62 88 38 62 88 38 62 106 38 62 106 38 62 106 50 76 106 50 76 106 50 76 106 50 76 124 50 76 124 62 76 124 62 76 124 62 90 124 62 90 124 62 90 142 38 90 142 38 90 142 38 90 142 38 90 142 38 34 142 50 34 88 50 34 88 50 34 88 50 34 88 50 34 88 62 34 88 62 48 106 62 48 106 62 48 106 62 48 106 38 48 106 38 48 106 38 48 124 38 62 124 38 62 124 50 62 124 50 62 124 50 62 124 50 62 142 50 62 142 62 76 142 62 76 142 62 76 142 62 76 142 62 76 88 38 76 88 38 76 88 38 90 88 38 90 88 38 90 88 50 90 106 50 90 106 50 90 106 50 90 106 50 34 106 62 34 106 62 34 124 62 34 124 62 34 124 62 34 124 38 34 124 38 48 124 38 48 142 38 48 142 38 48 142 50 48 142 50 48 142 50 48 142 50 62 88 50 62 88 62 62 88 62 62 88 62 62 88 62 62 88 62 62 106 38 76 106 38 76 106 38 76 106 38 76 106 38 76 106 50 76 124 50 76 124 50 90 124 50 90 124 50 90 124 62 90 124 62 90 142 62 90 142 62 90 142 62 34 142 38 34 142 38 34 142 38 34 88 38 34 88 38 34 88 50 34 88 50 48 88 50 48 88 50 48 106 50 48 106 62 48 106 62 48 106 62 48 106 62 62 106 62 62 124 38 62 124 38 62 124 38 62 124 38 62 124 38 62 124 50 76 142 50 76 142 50 76 142 50 76 142 50 76 142 62 76 142 62 76 88 62 90 88 62 90 88 62 90 88 38 90 88 38 90 88 38 90 106 38 90 106 38 34 106 50 34 106 50 34 106 50 34 106 50 34 124 50 34 124 62 34 124 62 48 124 62 48 124 62 48 124 62 48 142 38 48 142 38 48 142 38 48 142 38 62 142 38 62 142 50 62 88 50 62 88 50 62 88 50 62 88 50 62 88 62 76 88 62 76 106 62 76 106 62 76 106 62 76 106 38 76 106 38 76 106 38 90 124 38 90 124 38 90 124 50 90 124 50 90 124 50 90 124 50 90 142 50 34 142 62 34 142 62 34 142 62 34 142 62 34 142 62 34 88 38 34 88 38 48 88 38 48 88 38 48 88 38 48 88 50 48 106 50 48 106 50 48 106 50 62 106 50 62 106 62 62 106 62 62 124 62 62 124 62 62 124 62 62 124 38 76 124 38 76 124 38 76 142 38 76 142 38 76 142 50 76 142 50 76 142 50 90 142 50 90 88 50 90 88 62 90 88 62 90 88 62 90 88 62 90 88 62 34 106 38 34 106 38 34 106 38 34 106 38 34 106 38 34 106 50 34 124 50 48 124 50 48 124 50 48 124 50 48 124 62 48 124 62 48 142 62 48 142 62 62 142 62 62 142 38 62 142 38 62 142 38 62 88 38 62 88 38 62 88 50 76 88 50 76 88 50 76 88 50 76 106 50 76 106 62 76 106 62 76 106 62 90 106 62 90 106 62 90 124 38 90 124 38 90 124 38 90 124 38 90 124 38 34 124 50 34 142 50 34 142 50 34 142 50 34 142 50 34 142 62 34 142 62 48 88 62 48 88 62 48 88 62 48 88 38 48 88 38 48 88 38 48 106 38 62 106 38 62 106 50 62 106 50 62 106 50 62 106 50 62 124 50 62 124 62 76 124 62 76 124 62 76 124 62 76 124 62 76 142 38 76 142 38 76 142 38 90 142 38 90 142 38 90 142 50 90 88 50 90 88 50 90 88 50 90 88 50 34 88 62 34 88 62 34 106 62 34 106 62 34 106 62 34 106 38 34 106 38 48 106 38 48 124 38 48 124 38 48 124 50 48 124 50 48 124 50 48 124 50 62 142 50 62 142 62 62 142 62 62 142 62 62 142 62 62 142 62 62 88 38 76 88 38 76 88 38 76 88 38 76 88 38 76 88 50 76 106 50 76 106 50 90 106 50 90 106 50 90 106 62 90 106 62 90 124 62 90 124 62 90 124 62 34 124 38 34 124 38 34 124 38 34 142 38 34 142 38
34 124 50 34 124 50 34 124 50 34 124 50 34 124 50 34 124 62 34 142 62 48 142 62 48 142 62 48 142 62 48 142 38 48 142 38 48 88 38 48 88 38 62 88 38 62 88 50 62 88 50 62 88 50 62 106 50 62 106 50 62 106 62 76 106 62 76 106 62 76 106 62 76 124 62 76 124 38 76 124 38 76 124 38 90 124 38 90 124 38 90 142 50 90 142 50 90 142 50 90 142 50 90 142 50 34 142 62 34 88 62 34 88 62 34 88 62 34 88 62 34 88 38 34 88 38 48 106 38 48 106 38 48 106 38 48 106 50 48 106 50 48 106 50 48 124 50 62 124 50 62 124 62 62 124 62 62 124 62 62 124 62 62 142 62 62 142 38 76 142 38 76 142 38 76 142 38 76 142 38 76 88 50 76 88 50 76 88 50 90 88 50 90 88 50 90 88 62 90 106 62 90 106 62 90 106 62 90 106 62 34 106 38 34 106 38 34 124 38 34 124 38 34 124 38 34 124 50 34 124 50 48 124 50 48 142 50 48 142 50 48 142 62 48 142 62 48 142 62 48 142 62 62 88 62 62 88 38 62 88 38 62 88 38 62 88 38 62 88 38 62 106 50 76 106 50 76 106 50 76 106 50 76 106 50 76 106 62 76 124 62 76 124 62 90 124 62 90 124 62 90 124 38 90 124 38 90 142 38 90 142 38 90 142 38 34 142 50 34 142 50 34 142 50 34 88 50 34 88 50 34 88 62 34 88 62 48 88 62 48 88 62 48 106 62 48 106 38 48 106 38 48 106 38 48 106 38 62 106 38 62 124 50 62 124 50 62 124 50 62 124 50 62 124 50 62 124 62 76 142 62 76 142 62 76 142 62 76 142 62 76 142 38 76 142 38 76 88 38 90 88 38 90 88 38 90 88 50 90 88 50 90 88 50 90 106 50 90 106 50 34 106 62 34 106 62 34 106 62 34 106 62 34 124 62 34 124 38 34 124 38 48 124 38 48 124 38 48 124 38 48 142 50 48 142 50 48 142 50 48 142 50 62 142 50 62 142 62 62 88 62 62 88 62 62 88 62 62 88 62 62 88 38 76 88 38 76 106 38 76 106 38 76 106 38 76 106 50 76 106 50 76 106 50 90 124 50 90 124 50 90 124 62 90 124 62 90 124 62 90 124 62 90 142 62 34 142 38 34 142 38 34 142 38 34 142 38 34 142 38 34 88 50 34 88 50 48 88 50 48 88 50 48 88 50 48 88 62 48 106 62 48 106 62 48 106 62 62 106 62 62 106 38 62 106 38 62 124 38 62 124 38 62 124 38 62 124 50 76 124 50 76 124 50 76 142 50 76 142 50 76 142 62 76 142 62 76 142 62 90 142 62 90 88 62 90 88 38 90 88 38 90 88 38 90 88 38 90 88 38 34 106 50 34 106 50 34 106 50 34 106 50 34 106 50 34 106 62 34 124 62 48 124 62 48 124 62 48 124 62 48 124 38 48 124 38 48 142 38 48 142 38 62 142 38 62 142 50 62 142 50 62 142 50 62 88 50 62 88 50 62 88 62 76 88 62 76 88 62 76 88 62 76 106 62 76 106 38 76 106 38 76 106 38 90 106 38 90 106 38 90 124 50 90 124 50 90 124 50 90 124 50 90 124 50 34 124 62 34 142 62 34 142 62 34 142 62 34 142 62 34 142 38 34 142 38 48 88 38 48 88 38 48 88 38 48 88 50 48 88 50 48 88 50 48 106 50 62 106 50 62 106 62 62 106 62 62 106 62 62 106 62 62 124 62 62 124 38 76 124 38 76 124 38 76 124 38 76 124 38 76 142 50 76 142 50 76 142 50 90 142 50 90 142 50 90 142 62 90 88 62 90 88 62 90 88 62 90 88 62 34 88 38 34 88 38 34 106 38 34 106 38 34 106 38 34 106 50 34 106 50 48 106 50 48 124 50 48 124 50 48 124 62 48 124 62 48 124 62 48 124 62 62 142 62 62 142 38 62 142 38 62 142 38 62 142 38 62 142 38 62 88 50 76 88 50 76 88 50 76 88 50 76 88 50 76 88 62 76 106 62 76 106 62 90 106 62 90 106 62 90 106 38 90 106 38 90 124 38 90 124 38 90 124 38 34 124 50 34 124 50 34 124 50 34 142 50 34 142 50
34 124 50 34 124 50 34 124 50 34 124 50 34 124 50 34 124 62 34 142 62 48 142 62 48 142 62 48 142 62 48 142 38 48 142 38 48 88 38 48 88 38 62 88 38 62 88 50 62 88 50 62 88 50 62 106 50 62 106 50 62 106 62 76 106 62 76 106 62 76 106 62 76 124 62 76 124 38 76 124 38 76 124 38 90 124 38 90 124 38 90 142 50 90 142 50 90 142 50 90 142 50 90 142 50 34 142 62 34 88 62 34 88 62 34 88 62 34 88 62 34 88 38 34 88 38 48 106 38 48 106 38 48 106 38 48 106 50 48 106 50 48 106 50 48 124 50 62 124 50 62 124 62 62 124 62 62 124 62 62 124 62 62 142 62 62 142 38 76 142 38 76 142 38 76 142 38 76 142 38 76 88 50 76 88 50 76 88 50 90 88 50 90 88 50 90 88 62 90 106 62 90 106 62 90 106 62 90 106 62 34 106 38 34 106 38 34 124 38 34 124 38 34 124 38 34 124 50 34 124 50 48 124 50 48 142 50 48 142 50 48 142 62 48 142 62 48 142 62 48 142 62 62 88 62 62 88 38 62 88 38 62 88 38 62 88 38 62 88 38 62 106 50 76 106 50 76 106 50 76 106 50 76 106 50 76 106 62 76 124 62 76 124 62 90 124 62 90 124 62 90 124 38 90 124 38 90 142 38 90 142 38 90 142 38 34 142 50 34 142 50 34 142 50 34 88 50 34 88 50 34 88 62 34 88 62 48 88 62 48 88 62 48 106 62 48 106 38 48 106 38 48 106 38 48 106 38 62 106 38 62 124 50 62 124 50 62 124 50 62 124 50 62 124 50 62 124 62 76 142 62 76 142 62 76 142 62 76 142 62 76 142 38 76 142 38 76 88 38 90 88 38 90 88 38 90 88 50 90 88 50 90 88 50 90 106 50 90 106 50 34 106 62 34 106 62 34 106 62 34 106 62 34 124 62 34 124 38 34 124 38 48 124 38 48 124 38 48 124 38 48 142 50 48 142 50 48 142 50 48 142 50 62 142 50 62 142 62 62 88 62 62 88 62 62 88 62 62 88 62 62 88 38 76 88 38 76 106 38 76 106 38 76 106 38 76 106 50 76 106 50 76 106 50 90 124 50 90 124 50 90 124 62 90 124 62 90 124 62 90 124 62 90 142 62 34 142 38 34 142 38 34 142 38 34 142 38 34 142 38 34 88 50 34 88 50 48 88 50 48 88 50 48 88 50 48 88 62 48 106 62 48 106 62 48 106 62 62 106 62 62 106 38 62 106 38 62 124 38 62 124 38 62 124 38 62 124 50 76 124 50 76 124 50 76 142 50 76 142 50 76 142 62 76 142 62 76 142 62 90 142 62 90 88 62 90 88 38 90 88 38 90 88 38 90 88 38 90 88 38 34 106 50 34 106 50 34 106 50 34 106 50 34 106 50 34 106 62 34 124 62 48 124 62 48 124 62 48 124 62 48 124 38 48 124 38 48 142 38 48 142 38 62 142 38 62 142 50 62 142 50 62 142 50 62 88 50 62 88 50 62 88 62 76 88 62 76 88 62 76 88 62 76 106 62 76 106 38 76 106 38 76 106 38 90 106 38 90 106 38 90 124 50 90 124 50 90 124 50 90 124 50 90 124 50 34 124 62 34 142 62 34 142 62 34 142 62 34 142 62 34 142 38 34 142 38 48 88 38 48 88 38 48 88 38 48 88 50 48 88 50 48 88 50 48 106 50 62 106 50 62 106 62 62 106 62 62 106 62 62 106 62 62 124 62 62 124 38 76 124 38 76 124 38 76 124 38 76 124 38 76 142 50 76 142 50 76 142 50 90 142 50 90 142 50 90 142 62 90 88 62 90 88 62 90 88 62 90 88 62 34 88 38 34 88 38 34 106 38 34 106 38 34 106 38 34 106 50 34 106 50 48 106 50 48 124 50 48 124 50 48 124 62 48 124 62 48 124 62 48 124 62 62 142 62 62 142 38 62 142 38 62 142 38 62 142 38 62 142 38 62 88 50 76 88 50 76 88 50 76 88 50 76 88 50 76 88 62 76 106 62 76 106 62 90 106 62 90 106 62 90 106 38 90 106 38 90 124 38 90 124 38 90 124 38 34 124 50 34 124 50 34 124 50 34 142 50 34 142 50
48 124 50 48 124 50 48 124 50 48 124 50 48 124 50 48 124 62 48 142 62 62 142 62 62 142 62 62 142 62 62 142 38 62 142 38 62 88 38 62 88 38 76 88 38 76 88 50 76 88 50 76 88 50 76 106 50 76 106 50 76 106 62 90 106 62 90 106 62 90 106 62 90 124 62 90 124 38 90 124 38 90 124 38 34 124 38 34 124 38 34 142 50 34 142 50 34 142 50 34 142 50 34 142 50 48 142 62 48 88 62 48 88 62 48 88 62 48 88 62 48 88 38 48 88 38 62 106 38 62 106 38 62 106 38 62 106 50 62 106 50 62 106 50 62 124 50 76 124 50 76 124 62 76 124 62 76 124 62 76 124 62 76 142 62 76 142 38 90 142 38 90 142 38 90 142 38 90 142 38 90 88 50 90 88 50 90 88 50 34 88 50 34 88 50 34 88 62 34 106 62 34 106 62 34 106 62 34 106 62 48 106 38 48 106 38 48 124 38 48 124 38 48 124 38 48 124 50 48 124 50 62 124 50 62 142 50 62 142 50 62 142 62 62 142 62 62 142 62 62 142 62 76 88 62 76 88 38 76 88 38 76 88 38 76 88 38 76 88 38 76 106 50 90 106 50 90 106 50 90 106 50 90 106 50 90 106 62 90 124 62 90 124 62 34 124 62 34 124 62 34 124 38 34 124 38 34 142 38 34 142 38 34 142 38 48 142 50 48 142 50 48 142 50 48 88 50 48 88 50 48 88 62 48 88 62 62 88 62 62 88 62 62 106 62 62 106 38 62 106 38 62 106 38 62 106 38 76 106 38 76 124 50 76 124 50 76 124 50 76 124 50 76 124 50 76 124 62 90 142 62 90 142 62 90 142 62 90 142 62 90 142 38 90 142 38 90 88 38 34 88 38 34 88 38 34 88 50 34 88 50 34 88 50 34 106 50 34 106 50 48 106 62 48 106 62 48 106 62 48 106 62 48 124 62 48 124 38 48 124 38 62 124 38 62 124 38 62 124 38 62 142 50 62 142 50 62 142 50 62 142 50 76 142 50 76 142 62 76 88 62 76 88 62 76 88 62 76 88 62 76 88 38 90 88 38 90 106 38 90 106 38 90 106 38 90 106 50 90 106 50 90 106 50 34 124 50 34 124 50 34 124 62 34 124 62 34 124 62 34 124 62 34 142 62 48 142 38 48 142 38 48 142 38 48 142 38 48 142 38 48 88 50 48 88 50 62 88 50 62 88 50 62 88 50 62 88 62 62 106 62 62 106 62 62 106 62 76 106 62 76 106 38 76 106 38 76 124 38 76 124 38 76 124 38 76 124 50 90 124 50 90 124 50 90 142 50 90 142 50 90 142 62 90 142 62 90 142 62 34 142 62 34 88 62 34 88 38 34 88 38 34 88 38 34 88 38 34 88 38 48 106 50 48 106 50 48 106 50 48 106 50 48 106 50 48 106 62 48 124 62 62 124 62 62 124 62 62 124 62 62 124 38 62 124 38 62 142 38 62 142 38 76 142 38 76 142 50 76 142 50 76 142 50 76 88 50 76 88 50 76 88 62 90 88 62 90 88 62 90 88 62 90 106 62 90 106 38 90 106 38 90 106 38 34 106 38 34 106 38 34 124 50 34 124 50 34 124 50 34 124 50 34 124 50 48 124 62 48 142 62 48 142 62 48 142 62 48 142 62 48 142 38 48 142 38 62 88 38 62 88 38 62 88 38 62 88 50 62 88 50 62 88 50 62 106 50 76 106 50 76 106 62 76 106 62 76 106 62 76 106 62 76 124 62 76 124 38 90 124 38 90 124 38 90 124 38 90 124 38 90 142 50 90 142 50 90 142 50 34 142 50 34 142 50 34 142 62 34 88 62 34 88 62 34 88 62 34 88 62 48 88 38 48 88 38 48 106 38 48 106 38 48 106 38 48 106 50 48 106 50 62 106 50 62 124 50 62 124 50 62 124 62 62 124 62 62 124 62 62 124 62 76 142 62 76 142 38 76 142 38 76 142 38 76 142 38 76 142 38 76 88 50 90 88 50 90 88 50 90 88 50 90 88 50 90 88 62 90 106 62 90 106 62 34 106 62 34 106 62 34 106 38 34 106 38 34 124 38 34 124 38 34 124 38 48 124 50 48 124 50 48 124 50 48 142 50 48 142 50
48 124 50 48 124 50 48 124 50 48 124 50 48 124 50 48 124 62 48 142 62 62 142 62 62 142 62 62 142 62 62 142 38 62 142 38 62 88 38 62 88 38 76 88 38 76 88 50 76 88 50 76 88 50 76 106 50 76 106 50 76 106 62 90 106 62 90 106 62 90 106 62 90 124 62 90 124 38 90 124 38 90 124 38 34 124 38 34 124 38 34 142 50 34 142 50 34 142 50 34 142 50 34 142 50 48 142 62 48 88 62 48 88 62 48 88 62 48 88 62 48 88 38 48 88 38 62 106 38 62 106 38 62 106 38 62 106 50 62 106 50 62 106 50 62 124 50 76 124 50 76 124 62 76 124 62 76 124 62 76 124 62 76 142 62 76 142 38 90 142 38 90 142 38 90 142 38 90 142 38 90 88 50 90 88 50 90 88 50 34 88 50 34 88 50 34 88 62 34 106 62 34 106 62 34 106 62 34 106 62 48 106 38 48 106 38 48 124 38 48 124 38 48 124 38 48 124 50 48 124 50 62 124 50 62 142 50 62 142 50 62 142 62 62 142 62 62 142 62 62 142 62 76 88 62 76 88 38 76 88 38 76 88 38 76 88 38 76 88 38 76 106 50 90 106 50 90 106 50 90 106 50 90 106 50 90 106 62 90 124 62 90 124 62 34 124 62 34 124 62 34 124 38 34 124 38 34 142 38 34 142 38 34 142 38 48 142 50 48 142 50 48 142 50 48 88 50 48 88 50 48 88 62 48 88 62 62 88 62 62 88 62 62 106 62 62 106 38 62 106 38 62 106 38 62 106 38 76 106 38 76 124 50 76 124 50 76 124 50 76 124 50 76 124 50 76 124 62 90 142 62 90 142 62 90 142 62 90 142 62 90 142 38 90 142 38 90 88 38 34 88 38 34 88 38 34 88 50 34 88 50 34 88 50 34 106 50 34 106 50 48 106 62 48 106 62 48 106 62 48 106 62 48 124 62 48 124 38 48 124 38 62 124 38 62 124 38 62 124 38 62 142 50 62 142 50 62 142 50 62 142 50 76 142 50 76 142 62 76 88 62 76 88 62 76 88 62 76 88 62 76 88 38 90 88 38 90 106 38 90 106 38 90 106 38 90 106 50 90 106 50 90 106 50 34 124 50 34 124 50 34 124 62 34 124 62 34 124 62 34 124 62 34 142 62 48 142 38 48 142 38 48 142 38 48 142 38 48 142 38 48 88 50 48 88 50 62 88 50 62 88 50 62 88 50 62 88 62 62 106 62 62 106 62 62 106 62 76 106 62 76 106 38 76 106 38 76 124 38 76 124 38 76 124 38 76 124 50 90 124 50 90 124 50 90 142 50 90 142 50 90 142 62 90 142 62 90 142 62 34 142 62 34 88 62 34 88 38 34 88 38 34 88 38 34 88 38 34 88 38 48 106 50 48 106 50 48 106 50 48 106 50 48 106 50 48 106 62 48 124 62 62 124 62 62 124 62 62 124 62 62 124 38 62 124 38 62 142 38 62 142 38 76 142 38 76 142 50 76 142 50 76 142 50 76 88 50 76 88 50 76 88 62 90 88 62 90 88 62 90 88 62 90 106 62 90 106 38 90 106 38 90 106 38 34 106 38 34 106 38 34 124 50 34 124 50 34 124 50 34 124 50 34 124 50 48 124 62 48 142 62 48 142 62 48 142 62 48 142 62 48 142 38 48 142 38 62 88 38 62 88 38 62 88 38 62 88 50 62 88 50 62 88 50 62 106 50 76 106 50 76 106 62 76 106 62 76 106 62 76 106 62 76 124 62 76 124 38 90 124 38 90 124 38 90 124 38 90 124 38 90 142 50 90 142 50 90 142 50 34 142 50 34 142 50 34 142 62 34 88 62 34 88 62 34 88 62 34 88 62 48 88 38 48 88 38 48 106 38 48 106 38 48 106 38 48 106 50 48 106 50 62 106 50 62 124 50 62 124 50 62 124 62 62 124 62 62 124 62 62 124 62 76 142 62 76 142 38 76 142 38 76 142 38 76 142 38 76 142 38 76 88 50 90 88 50 90 88 50 90 88 50 90 88 50 90 88 62 90 106 62 90 106 62 34 106 62 34 106 62 34 106 38 34 106 38 34 124 38 34 124 38 34 124 38 48 124 50 48 124 50 48 124 50 48 142 50 48 142 50
48 124 50 48 124 50 48 124 50 48 124 50 48 124 50 48 124 62 48 142 62 62 142 62 62 142 62 62 142 62 62 142 38 62 142 38 62 88 38 62 88 38 76 88 38 76 88 50 76 88 50 76 88 50 76 106 50 76 106 50 76 106 62 90 106 62 90 106 62 90 106 62 90 124 62 90 124 38 90 124 38 90 124 38 34 124 38 34 124 38 34 142 50 34 142 50 34 142 50 34 142 50 34 142 50 48 142 62 48 88 62 48 88 62 48 88 62 48 88 62 48 88 38 48 88 38 62 106 38 62 106 38 62 106 38 62 106 50 62 106 50 62 106 50 62 124 50 76 124 50 76 124 62 76 124 62 76 124 62 76 124 62 76 142 62 76 142 38 90 142 38 90 142 38 90 142 38 90 142 38 90 88 50 90 88 50 90 88 50 34 88 50 34 88 50 34 88 62 34 106 62 34 106 62 34 106 62 34 106 62 48 106 38 48 106 38 48 124 38 48 124 38 48 124 38 48 124 50 48 124 50 62 124 50 62 142 50 62 142 50 62 142 62 62 142 62 62 142 62 62 142 62 76 88 62 76 88 38 76 88 38 76 88 38 76 88 38 76 88 38 76 106 50 90 106 50 90 106 50 90 106 50 90 106 50 90 106 62 90 124 62 90 124 62 34 124 62 34 124 62 34 124 38 34 124 38 34 142 38 34 142 38 34 142 38 48 142 50 48 142 50 48 142 50 48 88 50 48 88 50 48 88 62 48 88 62 62 88 62 62 88 62 62 106 62 62 106 38 62 106 38 62 106 38 62 106 38 76 106 38 76 124 50 76 124 50 76 124 50 76 124 50 76 124 50 76 124 62 90 142 62 90 142 62 90 142 62 90 142 62 90 142 38 90 142 38 90 88 38 34 88 38 34 88 38 34 88 50 34 88 50 34 88 50 34 106 50 34 106 50 48 106 62 48 106 62 48 106 62 48 106 62 48 124 62 48 124 38 48 124 38 62 124 38 62 124 38 62 124 38 62 142 50 62 142 50 62 142 50 62 142 50 76 142 50 76 142 62 76 88 62 76 88 62 76 88 62 76 88 62 76 88 38 90 88 38 90 106 38 90 106 38 90 106 38 90 106 50 90 106 50 90 106 50 34 124 50 34 124 50 34 124 62 34 124 62 34 124 62 34 124 62 34 142 62 48 142 38 48 142 38 48 142 38 48 142 38 48 142 38 48 88 50 48 88 50 62 88 50 62 88 50 62 88 50 62 88 62 62 106 62 62 106 62 62 106 62 76 106 62 76 106 38 76 106 38 76 124 38 76 124 38 76 124 38 76 124 50 90 124 50 90 124 50 90 142 50 90 142 50 90 142 62 90 142 62 90 142 62 34 142 62 34 88 62 34 88 38 34 88 38 34 88 38 34 88 38 34 88 38 48 106 50 48 106 50 48 106 50 48 106 50 48 106 50 48 106 62 48 124 62 62 124 62 62 124 62 62 124 62 62 124 38 62 124 38 62 142 38 62 142 38 76 142 38 76 142 50 76 142 50 76 142 50 76 88 50 76 88 50 76 88 62 90 88 62 90 88 62 90 88 62 90 106 62 90 106 38 90 106 38 90 106 38 34 106 38 34 106 38 34 124 50 34 124 50 34 124 50 34 124 50 34 124 50 48 124 62 48 142 62 48 142 62 48 142 62 48 142 62 48 142 38 48 142 38 62 88 38 62 88 38 62 88 38 62 88 50 62 88 50 62 88 50 62 106 50 76 106 50 76 106 62 76 106 62 76 106 62 76 106 62 76 124 62 76 124 38 90 124 38 90 124 38 90 124 38 90 124 38 90 142 50 90 142 50 90 142 50 34 142 50 34 142 50 34 142 62 34 88 62 34 88 62 34 88 62 34 88 62 48 88 38 48 88 38 48 106 38 48 106 38 48 106 38 48 106 50 48 106 50 62 106 50 62 124 50 62 124 50 62 124 62 62 124 62 62 124 62 62 124 62 76 142 62 76 142 38 76 142 38 76 142 38 76 142 38 76 142 38 76 88 50 90 88 50 90 88 50 90 88 50 90 88 50 90 88 62 90 106 62 90 106 62 34 106 62 34 106 62 34 106 38 34 106 38 34 124 38 34 124 38 34 124 38 48 124 50 48 124 50 48 124 50 48 142 50 48 142 50
48 142 50 48 142 50 48 142 50 48 142 50 48 142 50 48 142 62 48 88 62 62 88 62 62 88 62 62 88 62 62 88 38 62 88 38 62 106 38 62 106 38 76 106 38 76 106 50 76 106 50 76 106 50 76 124 50 76 124 50 76 124 62 90 124 62 90 124 62 90 124 62 90 142 62 90 142 38 90 142 38 90 142 38 34 142 38 34 142 38 34 88 50 34 88 50 34 88 50 34 88 50 34 88 50 48 88 62 48 106 62 48 106 62 48 106 62 48 106 62 48 106 38 48 106 38 62 124 38 62 124 38 62 124 38 62 124 50 62 124 50 62 124 50 62 142 50 76 142 50 76 142 62 76 142 62 76 142 62 76 142 62 76 88 62 76 88 38 90 88 38 90 88 38 90 88 38 90 88 38 90 106 50 90 106 50 90 106 50 34 106 50 34 106 50 34 106 62 34 124 62 34 124 62 34 124 62 34 124 62 48 124 38 48 124 38 48 142 38 48 142 38 48 142 38 48 142 50 48 142 50 62 142 50 62 88 50 62 88 50 62 88 62 62 88 62 62 88 62 62 88 62 76 106 62 76 106 38 76 106 38 76 106 38 76 106 38 76 106 38 76 124 50 90 124 50 90 124 50 90 124 50 90 124 50 90 124 62 90 142 62 90 142 62 34 142 62 34 142 62 34 142 38 34 142 38 34 88 38 34 88 38 34 88 38 48 88 50 48 88 50 48 88 50 48 106 50 48 106 50 48 106 62 48 106 62 62 106 62 62 106 62 62 124 62 62 124 38 62 124 38 62 124 38 62 124 38 76 124 38 76 142 50 76 142 50 76 142 50 76 142 50 76 142 50 76 142 62 90 88 62 90 88 62 90 88 62 90 88 62 90 88 38 90 88 38 90 106 38 34 106 38 34 106 38 34 106 50 34 106 50 34 106 50 34 124 50 34 124 50 48 124 62 48 124 62 48 124 62 48 124 62 48 142 62 48 142 38 48 142 38 62 142 38 62 142 38 62 142 38 62 88 50 62 88 50 62 88 50 62 88 50 76 88 50 76 88 62 76 106 62 76 106 62 76 106 62 76 106 62 76 106 38 90 106 38 90 124 38 90 124 38 90 124 38 90 124 50 90 124 50 90 124 50 34 142 50 34 142 50 34 142 62 34 142 62 34 142 62 34 142 62 34 88 62 48 88 38 48 88 38 48 88 38 48 88 38 48 88 38 48 106 50 48 106 50 62 106 50 62 106 50 62 106 50 62 106 62 62 124 62 62 124 62 62 124 62 76 124 62 76 124 38 76 124 38 76 142 38 76 142 38 76 142 38 76 142 50 90 142 50 90 142 50 90 88 50 90 88 50 90 88 62 90 88 62 90 88 62 34 88 62 34 106 62 34 106 38 34 106 38 34 106 38 34 106 38 34 106 38 48 124 50 48 124 50 48 124 50 48 124 50 48 124 50 48 124 62 48 142 62 62 142 62 62 142 62 62 142 62 62 142 38 62 142 38 62 88 38 62 88 38 76 88 38 76 88 50 76 88 50 76 88 50 76 106 50 76 106 50 76 106 62 90 106 62 90 106 62 90 106 62 90 124 62 90 124 38 90 124 38 90 124 38 34 124 38 34 124 38 34 142 50 34 142 50 34 142 50 34 142 50 34 142 50 48 142 62 48 88 62 48 88 62 48 88 62 48 88 62 48 88 38 48 88 38 62 106 38 62 106 38 62 106 38 62 106 50 62 106 50 62 106 50 62 124 50 76 124 50 76 124 62 76 124 62 76 124 62 76 124 62 76 142 62 76 142 38 90 142 38 90 142 38 90 142 38 90 142 38 90 88 50 90 88 50 90 88 50 34 88 50 34 88 50 34 88 62 34 106 62 34 106 62 34 106 62 34 106 62 48 106 38 48 106 38 48 124 38 48 124 38 48 124 38 48 124 50 48 124 50 62 124 50 62 142 50 62 142 50 62 142 62 62 142 62 62 142 62 62 142 62 76 88 62 76 88 38 76 88 38 76 88 38 76 88 38 76 88 38 76 106 50 90 106 50 90 106 50 90 106 50 90 106 50 90 106 62 90 124 62 90 124 62 34 124 62 34 124 62 34 124 38 34 124 38 34 142 38 34 142 38 34 142 38 48 142 50 48 142 50 48 142 50 48 88 50 48 88 50
48 142 50 48 142 50 48 142 50 48 142 50 48 142 50 48 142 62 48 88 62 62 88 62 62 88 62 62 88 62 62 88 38 62 88 38 62 106 38 62 106 38 76 106 38 76 106 50 76 106 50 76 106 50 76 124 50 76 124 50 76 124 62 90 124 62 90 124 62 90 124 62 90 142 62 90 142 38 90 142 38 90 142 38 34 142 38 34 142 38 34 88 50 34 88 50 34 88 50 34 88 50 34 88 50 48 88 62 48 106 62 48 106 62 48 106 62 48 106 62 48 106 38 48 106 38 62 124 38 62 124 38 62 124 38 62 124 50 62 124 50 62 124 50 62 142 50 76 142 50 76 142 62 76 142 62 76 142 62 76 142 62 76 88 62 76 88 38 90 88 38 90 88 38 90 88 38 90 88 38 90 106 50 90 106 50 90 106 50 34 106 50 34 106 50 34 106 62 34 124 62 34 124 62 34 124 62 34 124 62 48 124 38 48 124 38 48 142 38 48 142 38 48 142 38 48 142 50 48 142 50 62 142 50 62 88 50 62 88 50 62 88 62 62 88 62 62 88 62 62 88 62 76 106 62 76 106 38 76 106 38 76 106 38 76 106 38 76 106 38 76 124 50 90 124 50 90 124 50 90 124 50 90 124 50 90 124 62 90 142 62 90 142 62 34 142 62 34 142 62 34 142 38 34 142 38 34 88 38 34 88 38 34 88 38 48 88 50 48 88 50 48 88 50 48 106 50 48 106 50 48 106 62 48 106 62 62 106 62 62 106 62 62 124 62 62 124 38 62 124 38 62 124 38 62 124 38 76 124 38 76 142 50 76 142 50 76 142 50 76 142 50 76 142 50 76 142 62 90 88 62 90 88 62 90 88 62 90 88 62 90 88 38 90 88 38 90 106 38 34 106 38 34 106 38 34 106 50 34 106 50 34 106 50 34 124 50 34 124 50 48 124 62 48 124 62 48 124 62 48 124 62 48 142 62 48 142 38 48 142 38 62 142 38 62 142 38 62 142 38 62 88 50 62 88 50 62 88 50 62 88 50 76 88 50 76 88 62 76 106 62 76 106 62 76 106 62 76 106 62 76 106 38 90 106 38 90 124 38 90 124 38 90 124 38 90 124 50 90 124 50 90 124 50 34 142 50 34 142 50 34 142 62 34 142 62 34 142 62 34 142 62 34 88 62 48 88 38 48 88 38 48 88 38 48 88 38 48 88 38 48 106 50 48 106 50 62 106 50 62 106 50 62 106 50 62 106 62 62 124 62 62 124 62 62 124 62 76 124 62 76 124 38 76 124 38 76 142 38 76 142 38 76 142 38 76 142 50 90 142 50 90 142 50 90 88 50 90 88 50 90 88 62 90 88 62 90 88 62 34 88 62 34 106 62 34 106 38 34 106 38 34 106 38 34 106 38 34 106 38 48 124 50 48 124 50 48 124 50 48 124 50 48 124 50 48 124 62 48 142 62 62 142 62 62 142 62 62 142 62 62 142 38 62 142 38 62 88 38 62 88 38 76 88 38 76 88 50 76 88 50 76 88 50 76 106 50 76 106 50 76 106 62 90 106 62 90 106 62 90 106 62 90 124 62 90 124 38 90 124 38 90 124 38 34 124 38 34 124 38 34 142 50 34 142 50 34 142 50 34 142 50 34 142 50 48 142 62 48 88 62 48 88 62 48 88 62 48 88 62 48 88 38 48 88 38 62 106 38 62 106 38 62 106 38 62 106 50 62 106 50 62 106 50 62 124 50 76 124 50 76 124 62 76 124 62 76 124 62 76 124 62 76 142 62 76 142 38 90 142 38 90 142 38 90 142 38 90 142 38 90 88 50 90 88 50 90 88 50 34 88 50 34 88 50 34 88 62 34 106 62 34 106 62 34 106 62 34 106 62 48 106 38 48 106 38 48 124 38 48 124 38 48 124 38 48 124 50 48 124 50 62 124 50 62 142 50 62 142 50 62 142 62 62 142 62 62 142 62 62 142 62 76 88 62 76 88 38 76 88 38 76 88 38 76 88 38 76 88 38 76 106 50 90 106 50 90 106 50 90 106 50 90 106 50 90 106 62 90 124 62 90 124 62 34 124 62 34 124 62 34 124 38 34 124 38 34 142 38 34 142 38 34 142 38 48 142 50 48 142 50 48 142 50 48 88 50 48 88 50
62 142 50 62 142 50 62 142 50 62 142 50 62 142 50 62 142 62 62 88 62 76 88 62 76 88 62 76 88 62 76 88 38 76 88 38 76 106 38 76 106 38 90 106 38 90 106 50 90 106 50 90 106 50 90 124 50 90 124 50 90 124 62 34 124 62 34 124 62 34 124 62 34 142 62 34 142 38 34 142 38 34 142 38 48 142 38 48 142 38 48 88 50 48 88 50 48 88 50 48 88 50 48 88 50 62 88 62 62 106 62 62 106 62 62 106 62 62 106 62 62 106 38 62 106 38 76 124 38 76 124 38 76 124 38 76 124 50 76 124 50 76 124 50 76 142 50 90 142 50 90 142 62 90 142 62 90 142 62 90 142 62 90 88 62 90 88 38 34 88 38 34 88 38 34 88 38 34 88 38 34 106 50 34 106 50 34 106 50 48 106 50 48 106 50 48 106 62 48 124 62 48 124 62 48 124 62 48 124 62 62 124 38 62 124 38 62 142 38 62 142 38 62 142 38 62 142 50 62 142 50 76 142 50 76 88 50 76 88 50 76 88 62 76 88 62 76 88 62 76 88 62 90 106 62 90 106 38 90 106 38 90 106 38 90 106 38 90 106 38 90 124 50 34 124 50 34 124 50 34 124 50 34 124 50 34 124 62 34 142 62 34 142 62 48 142 62 48 142 62 48 142 38 48 142 38 48 88 38 48 88 38 48 88 38 62 88 50 62 88 50 62 88 50 62 106 50 62 106 50 62 106 62 62 106 62 76 106 62 76 106 62 76 124 62 76 124 38 76 124 38 76 124 38 76 124 38 90 124 38 90 142 50 90 142 50 90 142 50 90 142 50 90 142 50 90 142 62 34 88 62 34 88 62 34 88 62 34 88 62 34 88 38 34 88 38 34 106 38 48 106 38 48 106 38 48 106 50 48 106 50 48 106 50 48 124 50 48 124 50 62 124 62 62 124 62 62 124 62 62 124 62 62 142 62 62 142 38 62 142 38 76 142 38 76 142 38 76 142 38 76 88 50 76 88 50 76 88 50 76 88 50 90 88 50 90 88 62 90 106 62 90 106 62 90 106 62 90 106 62 90 106 38 34 106 38 34 124 38 34 124 38 34 124 38 34 124 50 34 124 50 34 124 50 48 142 50 48 142 50 48 142 62 48 142 62 48 142 62 48 142 62 48 88 62 62 88 38 62 88 38 62 88 38 62 88 38 62 88 38 62 106 50 62 106 50 76 106 50 76 106 50 76 106 50 76 106 62 76 124 62 76 124 62 76 124 62 90 124 62 90 124 38 90 124 38 90 142 38 90 142 38 90 142 38 90 142 50 34 142 50 34 142 50 34 88 50 34 88 50 34 88 62 34 88 62 34 88 62 48 88 62 48 106 62 48 106 38 48 106 38 48 106 38 48 106 38 48 106 38 62 124 50 62 124 50 62 124 50 62 124 50 62 124 50 62 124 62 62 142 62 76 142 62 76 142 62 76 142 62 76 142 38 76 142 38 76 88 38 76 88 38 90 88 38 90 88 50 90 88 50 90 88 50 90 106 50 90 106 50 90 106 62 34 106 62 34 106 62 34 106 62 34 124 62 34 124 38 34 124 38 34 124 38 48 124 38 48 124 38 48 142 50 48 142 50 48 142 50 48 142 50 48 142 50 62 142 62 62 88 62 62 88 62 62 88 62 62 88 62 62 88 38 62 88 38 76 106 38 76 106 38 76 106 38 76 106 50 76 106 50 76 106 50 76 124 50 90 124 50 90 124 62 90 124 62 90 124 62 90 124 62 90 142 62 90 142 38 34 142 38 34 142 38 34 142 38 34 142 38 34 88 50 34 88 50 34 88 50 48 88 50 48 88 50 48 88 62 48 106 62 48 106 62 48 106 62 48 106 62 62 106 38 62 106 38 62 124 38 62 124 38 62 124 38 62 124 50 62 124 50 76 124 50 76 142 50 76 142 50 76 142 62 76 142 62 76 142 62 76 142 62 90 88 62 90 88 38 90 88 38 90 88 38 90 88 38 90 88 38 90 106 50 34 106 50 34 106 50 34 106 50 34 106 50 34 106 62 34 124 62 34 124 62 48 124 62 48 124 62 48 124 38 48 124 38 48 142 38 48 142 38 48 142 38 62 142 50 62 142 50 62 142 50 62 88 50 62 88 50
62 142 62 62 142 62 62 142 62 62 142 62 62 142 62 62 142 38 62 88 38 76 88 38 76 88 38 76 88 38 76 88 50 76 88 50 76 106 50 76 106 50 90 106 50 90 106 62 90 106 62 90 106 62 90 124 62 90 124 62 90 124 38 34 124 38 34 124 38 34 124 38 34 142 38 34 142 50 34 142 50 34 142 50 48 142 50 48 142 50 48 88 62 48 88 62 48 88 62 48 88 62 48 88 62 62 88 38 62 106 38 62 106 38 62 106 38 62 106 38 62 106 50 62 106 50 76 124 50 76 124 50 76 124 50 76 124 62 76 124 62 76 124 62 76 142 62 90 142 62 90 142 38 90 142 38 90 142 38 90 142 38 90 88 38 90 88 50 34 88 50 34 88 50 34 88 50 34 88 50 34 106 62 34 106 62 34 106 62 48 106 62 48 106 62 48 106 38 48 124 38 48 124 38 48 124 38 48 124 38 62 124 50 62 124 50 62 142 50 62 142 50 62 142 50 62 142 62 62 142 62 76 142 62 76 88 62 76 88 62 76 88 38 76 88 38 76 88 38 76 88 38 90 106 38 90 106 50 90 106 50 90 106 50 90 106 50 90 106 50 90 124 62 34 124 62 34 124 62 34 124 62 34 124 62 34 124 38 34 142 38 34 142 38 48 142 38 48 142 38 48 142 50 48 142 50 48 88 50 48 88 50 48 88 50 62 88 62 62 88 62 62 88 62 62 106 62 62 106 62 62 106 38 62 106 38 76 106 38 76 106 38 76 124 38 76 124 50 76 124 50 76 124 50 76 124 50 90 124 50 90 142 62 90 142 62 90 142 62 90 142 62 90 142 62 90 142 38 34 88 38 34 88 38 34 88 38 34 88 38 34 88 50 34 88 50 34 106 50 48 106 50 48 106 50 48 106 62 48 106 62 48 106 62 48 124 62 48 124 62 62 124 38 62 124 38 62 124 38 62 124 38 62 142 38 62 142 50 62 142 50 76 142 50 76 142 50 76 142 50 76 88 62 76 88 62 76 88 62 76 88 62 90 88 62 90 88 38 90 106 38 90 106 38 90 106 38 90 106 38 90 106 50 34 106 50 34 124 50 34 124 50 34 124 50 34 124 62 34 124 62 34 124 62 48 142 62 48 142 62 48 142 38 48 142 38 48 142 38 48 142 38 48 88 38 62 88 50 62 88 50 62 88 50 62 88 50 62 88 50 62 106 62 62 106 62 76 106 62 76 106 62 76 106 62 76 106 38 76 124 38 76 124 38 76 124 38 90 124 38 90 124 50 90 124 50 90 142 50 90 142 50 90 142 50 90 142 62 34 142 62 34 142 62 34 88 62 34 88 62 34 88 38 34 88 38 34 88 38 48 88 38 48 106 38 48 106 50 48 106 50 48 106 50 48 106 50 48 106 50 62 124 62 62 124 62 62 124 62 62 124 62 62 124 62 62 124 38 62 142 38 76 142 38 76 142 38 76 142 38 76 142 50 76 142 50 76 88 50 76 88 50 90 88 50 90 88 62 90 88 62 90 88 62 90 106 62 90 106 62 90 106 38 34 106 38 34 106 38 34 106 38 34 124 38 34 124 50 34 124 50 34 124 50 48 124 50 48 124 50 48 142 62 48 142 62 48 142 62 48 142 62 48 142 62 62 142 38 62 88 38 62 88 38 62 88 38 62 88 38 62 88 50 62 88 50 76 106 50 76 106 50 76 106 50 76 106 62 76 106 62 76 106 62 76 124 62 90 124 62 90 124 38 90 124 38 90 124 38 90 124 38 90 142 38 90 142 50 34 142 50 34 142 50 34 142 50 34 142 50 34 88 62 34 88 62 34 88 62 48 88 62 48 88 62 48 88 38 48 106 38 48 106 38 48 106 38 48 106 38 62 106 50 62 106 50 62 124 50 62 124 50 62 124 50 62 124 62 62 124 62 76 124 62 76 142 62 76 142 62 76 142 38 76 142 38 76 142 38 76 142 38 90 88 38 90 88 50 90 88 50 90 88 50 90 88 50 90 88 50 90 106 62 34 106 62 34 106 62 34 106 62 34 106 62 34 106 38 34 124 38 34 124 38 48 124 38 48 124 38 48 124 50 48 124 50 48 142 50 48 142 50 48 142 50 62 142 62 62 142 62 62 142 62 62 88 62 62 88 62
62 142 62 62 142 62 62 142 62 62 142 62 62 142 62 62 142 38 62 88 38 76 88 38 76 88 38 76 88 38 76 88 50 76 88 50 76 106 50 76 106 50 90 106 50 90 106 62 90 106 62 90 106 62 90 124 62 90 124 62 90 124 38 34 124 38 34 124 38 34 124 38 34 142 38 34 142 50 34 142 50 34 142 50 48 142 50 48 142 50 48 88 62 48 88 62 48 88 62 48 88 62 48 88 62 62 88 38 62 106 38 62 106 38 62 106 38 62 106 38 62 106 50 62 106 50 76 124 50 76 124 50 76 124 50 76 124 62 76 124 62 76 124 62 76 142 62 90 142 62 90 142 38 90 142 38 90 142 38 90 142 38 90 88 38 90 88 50 34 88 50 34 88 50 34 88 50 34 88 50 34 106 62 34 106 62 34 106 62 48 106 62 48 106 62 48 106 38 48 124 38 48 124 38 48 124 38 48 124 38 62 124 50 62 124 50 62 142 50 62 142 50 62 142 50 62 142 62 62 142 62 76 142 62 76 88 62 76 88 62 76 88 38 76 88 38 76 88 38 76 88 38 90 106 38 90 106 50 90 106 50 90 106 50 90 106 50 90 106 50 90 124 62 34 124 62 34 124 62 34 124 62 34 124 62 34 124 38 34 142 38 34 142 38 48 142 38 48 142 38 48 142 50 48 142 50 48 88 50 48 88 50 48 88 50 62 88 62 62 88 62 62 88 62 62 106 62 62 106 62 62 106 38 62 106 38 76 106 38 76 106 38 76 124 38 76 124 50 76 124 50 76 124 50 76 124 50 90 124 50 90 142 62 90 142 62 90 142 62 90 142 62 90 142 62 90 142 38 34 88 38 34 88 38 34 88 38 34 88 38 34 88 50 34 88 50 34 106 50 48 106 50 48 106 50 48 106 62 48 106 62 48 106 62 48 124 62 48 124 62 62 124 38 62 124 38 62 124 38 62 124 38 62 142 38 62 142 50 62 142 50 76 142 50 76 142 50 76 142 50 76 88 62 76 88 62 76 88 62 76 88 62 90 88 62 90 88 38 90 106 38 90 106 38 90 106 38 90 106 38 90 106 50 34 106 50 34 124 50 34 124 50 34 124 50 34 124 62 34 124 62 34 124 62 48 142 62 48 142 62 48 142 38 48 142 38 48 142 38 48 142 38 48 88 38 62 88 50 62 88 50 62 88 50 62 88 50 62 88 50 62 106 62 62 106 62 76 106 62 76 106 62 76 106 62 76 106 38 76 124 38 76 124 38 76 124 38 90 124 38 90 124 50 90 124 50 90 142 50 90 142 50 90 142 50 90 142 62 34 142 62 34 142 62 34 88 62 34 88 62 34 88 38 34 88 38 34 88 38 48 88 38 48 106 38 48 106 50 48 106 50 48 106 50 48 106 50 48 106 50 62 124 62 62 124 62 62 124 62 62 124 62 62 124 62 62 124 38 62 142 38 76 142 38 76 142 38 76 142 38 76 142 50 76 142 50 76 88 50 76 88 50 90 88 50 90 88 62 90 88 62 90 88 62 90 106 62 90 106 62 90 106 38 34 106 38 34 106 38 34 106 38 34 124 38 34 124 50 34 124 50 34 124 50 48 124 50 48 124 50 48 142 62 48 142 62 48 142 62 48 142 62 48 142 62 62 142 38 62 88 38 62 88 38 62 88 38 62 88 38 62 88 50 62 88 50 76 106 50 76 106 50 76 106 50 76 106 62 76 106 62 76 106 62 76 124 62 90 124 62 90 124 38 90 124 38 90 124 38 90 124 38 90 142 38 90 142 50 34 142 50 34 142 50 34 142 50 34 142 50 34 88 62 34 88 62 34 88 62 48 88 62 48 88 62 48 88 38 48 106 38 48 106 38 48 106 38 48 106 38 62 106 50 62 106 50 62 124 50 62 124 50 62 124 50 62 124 62 62 124 62 76 124 62 76 142 62 76 142 62 76 142 38 76 142 38 76 142 38 76 142 38 90 88 38 90 88 50 90 88 50 90 88 50 90 88 50 90 88 50 90 106 62 34 106 62 34 106 62 34 106 62 34 106 62 34 106 38 34 124 38 34 124 38 48 124 38 48 124 38 48 124 50 48 124 50 48 142 50 48 142 50 48 142 50 62 142 62 62 142 62 62 142 62 62 88 62 62 88 62
62 142 62 62 142 62 62 142 62 62 142 62 62 142 62 62 142 38 62 88 38 76 88 38 76 88 38 76 88 38 76 88 50 76 88 50 76 106 50 76 106 50 90 106 50 90 106 62 90 106 62 90 106 62 90 124 62 90 124 62 90 124 38 34 124 38 34 124 38 34 124 38 34 142 38 34 142 50 34 142 50 34 142 50 48 142 50 48 142 50 48 88 62 48 88 62 48 88 62 48 88 62 48 88 62 62 88 38 62 106 38 62 106 38 62 106 38 62 106 38 62 106 50 62 106 50 76 124 50 76 124 50 76 124 50 76 124 62 76 124 62 76 124 62 76 142 62 90 142 62 90 142 38 90 142 38 90 142 38 90 142 38 90 88 38 90 88 50 34 88 50 34 88 50 34 88 50 34 88 50 34 106 62 34 106 62 34 106 62 48 106 62 48 106 62 48 106 38 48 124 38 48 124 38 48 124 38 48 124 38 62 124 50 62 124 50 62 142 50 62 142 50 62 142 50 62 142 62 62 142 62 76 142 62 76 88 62 76 88 62 76 88 38 76 88 38 76 88 38 76 88 38 90 106 38 90 106 50 90 106 50 90 106 50 90 106 50 90 106 50 90 124 62 34 124 62 34 124 62 34 124 62 34 124 62 34 124 38 34 142 38 34 142 38 48 142 38 48 142 38 48 142 50 48 142 50 48 88 50 48 88 50 48 88 50 62 88 62 62 88 62 62 88 62 62 106 62 62 106 62 62 106 38 62 106 38 76 106 38 76 106 38 76 124 38 76 124 50 76 124 50 76 124 50 76 124 50 90 124 50 90 142 62 90 142 62 90 142 62 90 142 62 90 142 62 90 142 38 34 88 38 34 88 38 34 88 38 34 88 38 34 88 50 34 88 50 34 106 50 48 106 50 48 106 50 48 106 62 48 106 62 48 106 62 48 124 62 48 124 62 62 124 38 62 124 38 62 124 38 62 124 38 62 142 38 62 142 50 62 142 50 76 142 50 76 142 50 76 142 50 76 88 62 76 88 62 76 88 62 76 88 62 90 88 62 90 88 38 90 106 38 90 106 38 90 106 38 90 106 38 90 106 50 34 106 50 34 124 50 34 124 50 34 124 50 34 124 62 34 124 62 34 124 62 48 142 62 48 142 62 48 142 38 48 142 38 48 142 38 48 142 38 48 88 38 62 88 50 62 88 50 62 88 50 62 88 50 62 88 50 62 106 62 62 106 62 76 106 62 76 106 62 76 106 62 76 106 38 76 124 38 76 124 38 76 124 38 90 124 38 90 124 50 90 124 50 90 142 50 90 142 50 90 142 50 90 142 62 34 142 62 34 142 62 34 88 62 34 88 62 34 88 38 34 88 38 34 88 38 48 88 38 48 106 38 48 106 50 48 106 50 48 106 50 48 106 50 48 106 50 62 124 62 62 124 62 62 124 62 62 124 62 62 124 62 62 124 38 62 142 38 76 142 38 76 142 38 76 142 38 76 142 50 76 142 50 76 88 50 76 88 50 90 88 50 90 88 62 90 88 62 90 88 62 90 106 62 90 106 62 90 106 38 34 106 38 34 106 38 34 106 38 34 124 38 34 124 50 34 124 50 34 124 50 48 124 50 48 124 50 48 142 62 48 142 62 48 142 62 48 142 62 48 142 62 62 142 38 62 88 38 62 88 38 62 88 38 62 88 38 62 88 50 62 88 50 76 106 50 76 106 50 76 106 50 76 106 62 76 106 62 76 106 62 76 124 62 90 124 62 90 124 38 90 124 38 90 124 38 90 124 38 90 142 38 90 142 50 34 142 50 34 142 50 34 142 50 34 142 50 34 88 62 34 88 62 34 88 62 48 88 62 48 88 62 48 88 38 48 106 38 48 106 38 48 106 38 48 106 38 62 106 50 62 106 50 62 124 50 62 124 50 62 124 50 62 124 62 62 124 62 76 124 62 76 142 62 76 142 62 76 142 38 76 142 38 76 142 38 76 142 38 90 88 38 90 88 50 90 88 50 90 88 50 90 88 50 90 88 50 90 106 62 34 106 62 34 106 62 34 106 62 34 106 62 34 106 38 34 124 38 34 124 38 48 124 38 48 124 38 48 124 50 48 124 50 48 142 50 48 142 50 48 142 50 62 142 62 62 142 62 62 142 62 62 88 62 62 88 62
62 142 62 62 142 62 62 142 62 62 142 62 62 142 62 62 142 38 62 88 38 76 88 38 76 88 38 76 88 38 76 88 50 76 88 50 76 106 50 76 106 50 90 106 50 90 106 62 90 106 62 90 106 62 90 124 62 90 124 62 90 124 38 34 124 38 34 124 38 34 124 38 34 142 38 34 142 50 34 142 50 34 142 50 48 142 50 48 142 50 48 88 62 48 88 62 48 88 62 48 88 62 48 88 62 62 88 38 62 106 38 62 106 38 62 106 38 62 106 38 62 106 50 62 106 50 76 124 50 76 124 50 76 124 50 76 124 62 76 124 62 76 124 62 76 142 62 90 142 62 90 142 38 90 142 38 90 142 38 90 142 38 90 88 38 90 88 50 34 88 50 34 88 50 34 88 50 34 88 50 34 106 62 34 106 62 34 106 62 48 106 62 48 106 62 48 106 38 48 124 38 48 124 38 48 124 38 48 124 38 62 124 50 62 124 50 62 142 50 62 142 50 62 142 50 62 142 62 62 142 62 76 142 62 76 88 62 76 88 62 76 88 38 76 88 38 76 88 38 76 88 38 90 106 38 90 106 50 90 106 50 90 106 50 90 106 50 90 106 50 90 124 62 34 124 62 34 124 62 34 124 62 34 124 62 34 124 38 34 142 38 34 142 38 48 142 38 48 142 38 48 142 50 48 142 50 48 88 50 48 88 50 48 88 50 62 88 62 62 88 62 62 88 62 62 106 62 62 106 62 62 106 38 62 106 38 76 106 38 76 106 38 76 124 38 76 124 50 76 124 50 76 124 50 76 124 50 90 124 50 90 142 62 90 142 62 90 142 62 90 142 62 90 142 62 90 142 38 34 88 38 34 88 38 34 88 38 34 88 38 34 88 50 34 88 50 34 106 50 48 106 50 48 106 50 48 106 62 48 106 62 48 106 62 48 124 62 48 124 62 62 124 38 62 124 38 62 124 38 62 124 38 62 142 38 62 142 50 62 142 50 76 142 50 76 142 50 76 142 50 76 88 62 76 88 62 76 88 62 76 88 62 90 88 62 90 88 38 90 106 38 90 106 38 90 106 38 90 106 38 90 106 50 34 106 50 34 124 50 34 124 50 34 124 50 34 124 62 34 124 62 34 124 62 48 142 62 48 142 62 48 142 38 48 142 38 48 142 38 48 142 38 48 88 38 62 88 50 62 88 50 62 88 50 62 88 50 62 88 50 62 106 62 62 106 62 76 106 62 76 106 62 76 106 62 76 106 38 76 124 38 76 124 38 76 124 38 90 124 38 90 124 50 90 124 50 90 142 50 90 142 50 90 142 50 90 142 62 34 142 62 34 142 62 34 88 62 34 88 62 34 88 38 34 88 38 34 88 38 48 88 38 48 106 38 48 106 50 48 106 50 48 106 50 48 106 50 48 106 50 62 124 62 62 124 62 62 124 62 62 124 62 62 124 62 62 124 38 62 142 38 76 142 38 76 142 38 76 142 38 76 142 50 76 142 50 76 88 50 76 88 50 90 88 50 90 88 62 90 88 62 90 88 62 90 106 62 90 106 62 90 106 38 34 106 38 34 106 38 34 106 38 34 124 38 34 124 50 34 124 50 34 124 50 48 124 50 48 124 50 48 142 62 48 142 62 48 142 62 48 142 62 48 142 62 62 142 38 62 88 38 62 88 38 62 88 38 62 88 38 62 88 50 62 88 50 76 106 50 76 106 50 76 106 50 76 106 62 76 106 62 76 106 62 76 124 62 90 124 62 90 124 38 90 124 38 90 124 38 90 124 38 90 142 38 90 142 50 34 142 50 34 142 50 34 142 50 34 142 50 34 88 62 34 88 62 34 88 62 48 88 62 48 88 62 48 88 38 48 106 38 48 106 38 48 106 38 48 106 38 62 106 50 62 106 50 62 124 50 62 124 50 62 124 50 62 124 62 62 124 62 76 124 62 76 142 62 76 142 62 76 142 38 76 142 38 76 142 38 76 142 38 90 88 38 90 88 50 90 88 50 90 88 50 90 88 50 90 88 50 90 106 62 34 106 62 34 106 62 34 106 62 34 106 62 34 106 38 34 124 38 34 124 38 48 124 38 48 124 38 48 124 50 48 124 50 48 142 50 48 142 50 48 142 50 62 142 62 62 142 62 62 142 62 62 88 62 62 88 62
76 88 62 76 88 62 76 88 62 76 88 62 76 88 62 76 88 38 76 106 38 90 106 38 90 106 38 90 106 38 90 106 50 90 106 50 90 124 50 90 124 50 34 124 50 34 124 62 34 124 62 34 124 62 34 142 62 34 142 62 34 142 38 48 142 38 48 142 38 48 142 38 48 88 38 48 88 50 48 88 50 48 88 50 62 88 50 62 88 50 62 106 62 62 106 62 62 106 62 62 106 62 62 106 62 76 106 38 76 124 38 76 124 38 76 124 38 76 124 38 76 124 50 76 124 50 90 142 50 90 142 50 90 142 50 90 142 62 90 142 62 90 142 62 90 88 62 34 88 62 34 88 38 34 88 38 34 88 38 34 88 38 34 106 38 34 106 50 48 106 50 48 106 50 48 106 50 48 106 50 48 124 62 48 124 62 48 124 62 62 124 62 62 124 62 62 124 38 62 142 38 62 142 38 62 142 38 62 142 38 76 142 50 76 142 50 76 88 50 76 88 50 76 88 50 76 88 62 76 88 62 90 88 62 90 106 62 90 106 62 90 106 38 90 106 38 90 106 38 90 106 38 34 124 38 34 124 50 34 124 50 34 124 50 34 124 50 34 124 50 34 142 62 48 142 62 48 142 62 48 142 62 48 142 62 48 142 38 48 88 38 48 88 38 62 88 38 62 88 38 62 88 50 62 88 50 62 106 50 62 106 50 62 106 50 76 106 62 76 106 62 76 106 62 76 124 62 76 124 62 76 124 38 76 124 38 90 124 38 90 124 38 90 142 38 90 142 50 90 142 50 90 142 50 90 142 50 34 142 50 34 88 62 34 88 62 34 88 62 34 88 62 34 88 62 34 88 38 48 106 38 48 106 38 48 106 38 48 106 38 48 106 50 48 106 50 48 124 50 62 124 50 62 124 50 62 124 62 62 124 62 62 124 62 62 142 62 62 142 62 76 142 38 76 142 38 76 142 38 76 142 38 76 88 38 76 88 50 76 88 50 90 88 50 90 88 50 90 88 50 90 106 62 90 106 62 90 106 62 90 106 62 34 106 62 34 106 38 34 124 38 34 124 38 34 124 38 34 124 38 34 124 50 48 124 50 48 142 50 48 142 50 48 142 50 48 142 62 48 142 62 48 142 62 62 88 62 62 88 62 62 88 38 62 88 38 62 88 38 62 88 38 62 106 38 76 106 50 76 106 50 76 106 50 76 106 50 76 106 50 76 124 62 76 124 62 90 124 62 90 124 62 90 124 62 90 124 38 90 142 38 90 142 38 90 142 38 34 142 38 34 142 50 34 142 50 34 88 50 34 88 50 34 88 50 34 88 62 48 88 62 48 88 62 48 106 62 48 106 62 48 106 38 48 106 38 48 106 38 62 106 38 62 124 38 62 124 50 62 124 50 62 124 50 62 124 50 62 124 50 76 142 62 76 142 62 76 142 62 76 142 62 76 142 62 76 142 38 76 88 38 90 88 38 90 88 38 90 88 38 90 88 50 90 88 50 90 106 50 90 106 50 34 106 50 34 106 62 34 106 62 34 106 62 34 124 62 34 124 62 34 124 38 48 124 38 48 124 38 48 124 38 48 142 38 48 142 50 48 142 50 48 142 50 62 142 50 62 142 50 62 88 62 62 88 62 62 88 62 62 88 62 62 88 62 76 88 38 76 106 38 76 106 38 76 106 38 76 106 38 76 106 50 76 106 50 90 124 50 90 124 50 90 124 50 90 124 62 90 124 62 90 124 62 90 142 62 34 142 62 34 142 38 34 142 38 34 142 38 34 142 38 34 88 38 34 88 50 48 88 50 48 88 50 48 88 50 48 88 50 48 106 62 48 106 62 48 106 62 62 106 62 62 106 62 62 106 38 62 124 38 62 124 38 62 124 38 62 124 38 76 124 50 76 124 50 76 142 50 76 142 50 76 142 50 76 142 62 76 142 62 90 142 62 90 88 62 90 88 62 90 88 38 90 88 38 90 88 38 90 88 38 34 106 38 34 106 50 34 106 50 34 106 50 34 106 50 34 106 50 34 124 62 48 124 62 48 124 62 48 124 62 48 124 62 48 124 38 48 142 38 48 142 38 62 142 38 62 142 38 62 142 50 62 142 50 62 88 50 62 88 50 62 88 50 76 88 62 76 88 62 76 88 62 76 106 62 76 106 62
76 88 62 76 88 62 76 88 62 76 88 62 76 88 62 76 88 38 76 106 38 90 106 38 90 106 38 90 106 38 90 106 50 90 106 50 90 124 50 90 124 50 34 124 50 34 124 62 34 124 62 34 124 62 34 142 62 34 142 62 34 142 38 48 142 38 48 142 38 48 142 38 48 88 38 48 88 50 48 88 50 48 88 50 62 88 50 62 88 50 62 106 62 62 106 62 62 106 62 62 106 62 62 106 62 76 106 38 76 124 38 76 124 38 76 124 38 76 124 38 76 124 50 76 124 50 90 142 50 90 142 50 90 142 50 90 142 62 90 142 62 90 142 62 90 88 62 34 88 62 34 88 38 34 88 38 34 88 38 34 88 38 34 106 38 34 106 50 48 106 50 48 106 50 48 106 50 48 106 50 48 124 62 48 124 62 48 124 62 62 124 62 62 124 62 62 124 38 62 142 38 62 142 38 62 142 38 62 142 38 76 142 50 76 142 50 76 88 50 76 88 50 76 88 50 76 88 62 76 88 62 90 88 62 90 106 62 90 106 62 90 106 38 90 106 38 90 106 38 90 106 38 34 124 38 34 124 50 34 124 50 34 124 50 34 124 50 34 124 50 34 142 62 48 142 62 48 142 62 48 142 62 48 142 62 48 142 38 48 88 38 48 88 38 62 88 38 62 88 38 62 88 50 62 88 50 62 106 50 62 106 50 62 106 50 76 106 62 76 106 62 76 106 62 76 124 62 76 124 62 76 124 38 76 124 38 90 124 38 90 124 38 90 142 38 90 142 50 90 142 50 90 142 50 90 142 50 34 142 50 34 88 62 34 88 62 34 88 62 34 88 62 34 88 62 34 88 38 48 106 38 48 106 38 48 106 38 48 106 38 48 106 50 48 106 50 48 124 50 62 124 50 62 124 50 62 124 62 62 124 62 62 124 62 62 142 62 62 142 62 76 142 38 76 142 38 76 142 38 76 142 38 76 88 38 76 88 50 76 88 50 90 88 50 90 88 50 90 88 50 90 106 62 90 106 62 90 106 62 90 106 62 34 106 62 34 106 38 34 124 38 34 124 38 34 124 38 34 124 38 34 124 50 48 124 50 48 142 50 48 142 50 48 142 50 48 142 62 48 142 62 48 142 62 62 88 62 62 88 62 62 88 38 62 88 38 62 88 38 62 88 38 62 106 38 76 106 50 76 106 50 76 106 50 76 106 50 76 106 50 76 124 62 76 124 62 90 124 62 90 124 62 90 124 62 90 124 38 90 142 38 90 142 38 90 142 38 34 142 38 34 142 50 34 142 50 34 88 50 34 88 50 34 88 50 34 88 62 48 88 62 48 88 62 48 106 62 48 106 62 48 106 38 48 106 38 48 106 38 62 106 38 62 124 38 62 124 50 62 124 50 62 124 50 62 124 50 62 124 50 76 142 62 76 142 62 76 142 62 76 142 62 76 142 62 76 142 38 76 88 38 90 88 38 90 88 38 90 88 38 90 88 50 90 88 50 90 106 50 90 106 50 34 106 50 34 106 62 34 106 62 34 106 62 34 124 62 34 124 62 34 124 38 48 124 38 48 124 38 48 124 38 48 142 38 48 142 50 48 142 50 48 142 50 62 142 50 62 142 50 62 88 62 62 88 62 62 88 62 62 88 62 62 88 62 76 88 38 76 106 38 76 106 38 76 106 38 76 106 38 76 106 50 76 106 50 90 124 50 90 124 50 90 124 50 90 124 62 90 124 62 90 124 62 90 142 62 34 142 62 34 142 38 34 142 38 34 142 38 34 142 38 34 88 38 34 88 50 48 88 50 48 88 50 48 88 50 48 88 50 48 106 62 48 106 62 48 106 62 62 106 62 62 106 62 62 106 38 62 124 38 62 124 38 62 124 38 62 124 38 76 124 50 76 124 50 76 142 50 76 142 50 76 142 50 76 142 62 76 142 62 90 142 62 90 88 62 90 88 62 90 88 38 90 88 38 90 88 38 90 88 38 34 106 38 34 106 50 34 106 50 34 106 50 34 106 50 34 106 50 34 124 62 48 124 62 48 124 62 48 124 62 48 124 62 48 124 38 48 142 38 48 142 38 62 142 38 62 142 38 62 142 50 62 142 50 62 88 50 62 88 50 62 88 50 76 88 62 76 88 62 76 88 62 76 106 62 76 106 62
76 88 62 76 88 62 76 88 62 76 88 62 76 88 62 76 88 38 76 106 38 90 106 38 90 106 38 90 106 38 90 106 50 90 106 50 90 124 50 90 124 50 34 124 50 34 124 62 34 124 62 34 124 62 34 142 62 34 142 62 34 142 38 48 142 38 48 142 38 48 142 38 48 88 38 48 88 50 48 88 50 48 88 50 62 88 50 62 88 50 62 106 62 62 106 62 62 106 62 62 106 62 62 106 62 76 106 38 76 124 38 76 124 38 76 124 38 76 124 38 76 124 50 76 124 50 90 142 50 90 142 50 90 142 50 90 142 62 90 142 62 90 142 62 90 88 62 34 88 62 34 88 38 34 88 38 34 88 38 34 88 38 34 106 38 34 106 50 48 106 50 48 106 50 48 106 50 48 106 50 48 124 62 48 124 62 48 124 62 62 124 62 62 124 62 62 124 38 62 142 38 62 142 38 62 142 38 62 142 38 76 142 50 76 142 50 76 88 50 76 88 50 76 88 50 76 88 62 76 88 62 90 88 62 90 106 62 90 106 62 90 106 38 90 106 38 90 106 38 90 106 38 34 124 38 34 124 50 34 124 50 34 124 50 34 124 50 34 124 50 34 142 62 48 142 62 48 142 62 48 142 62 48 142 62 48 142 38 48 88 38 48 88 38 62 88 38 62 88 38 62 88 50 62 88 50 62 106 50 62 106 50 62 106 50 76 106 62 76 106 62 76 106 62 76 124 62 76 124 62 76 124 38 76 124 38 90 124 38 90 124 38 90 142 38 90 142 50 90 142 50 90 142 50 90 142 50 34 142 50 34 88 62 34 88 62 34 88 62 34 88 62 34 88 62 34 88 38 48 106 38 48 106 38 48 106 38 48 106 38 48 106 50 48 106 50 48 124 50 62 124 50 62 124 50 62 124 62 62 124 62 62 124 62 62 142 62 62 142 62 76 142 38 76 142 38 76 142 38 76 142 38 76 88 38 76 88 50 76 88 50 90 88 50 90 88 50 90 88 50 90 106 62 90 106 62 90 106 62 90 106 62 34 106 62 34 106 38 34 124 38 34 124 38 34 124 38 34 124 38 34 124 50 48 124 50 48 142 50 48 142 50 48 142 50 48 142 62 48 142 62 48 142 62 62 88 62 62 88 62 62 88 38 62 88 38 62 88 38 62 88 38 62 106 38 76 106 50 76 106 50 76 106 50 76 106 50 76 106 50 76 124 62 76 124 62 90 124 62 90 124 62 90 124 62 90 124 38 90 142 38 90 142 38 90 142 38 34 142 38 34 142 50 34 142 50 34 88 50 34 88 50 34 88 50 34 88 62 48 88 62 48 88 62 48 106 62 48 106 62 48 106 38 48 106 38 48 106 38 62 106 38 62 124 38 62 124 50 62 124 50 62 124 50 62 124 50 62 124 50 76 142 62 76 142 62 76 142 62 76 142 62 76 142 62 76 142 38 76 88 38 90 88 38 90 88 38 90 88 38 90 88 50 90 88 50 90 106 50 90 106 50 34 106 50 34 106 62 34 106 62 34 106 62 34 124 62 34 124 62 34 124 38 48 124 38 48 124 38 48 124 38 48 142 38 48 142 50 48 142 50 48 142 50 62 142 50 62 142 50 62 88 62 62 88 62 62 88 62 62 88 62 62 88 62 76 88 38 76 106 38 76 106 38 76 106 38 76 106 38 76 106 50 76 106 50 90 124 50 90 124 50 90 124 50 90 124 62 90 124 62 90 124 62 90 142 62 34 142 62 34 142 38 34 142 38 34 142 38 34 142 38 34 88 38 34 88 50 48 88 50 48 88 50 48 88 50 48 88 50 48 106 62 48 106 62 48 106 62 62 106 62 62 106 62 62 106 38 62 124 38 62 124 38 62 124 38 62 124 38 76 124 50 76 124 50 76 142 50 76 142 50 76 142 50 76 142 62 76 142 62 90 142 62 90 88 62 90 88 62 90 88 38 90 88 38 90 88 38 90 88 38 34 106 38 34 106 50 34 106 50 34 106 50 34 106 50 34 106 50 34 124 62 48 124 62 48 124 62 48 124 62 48 124 62 48 124 38 48 142 38 48 142 38 62 142 38 62 142 38 62 142 50 62 142 50 62 88 50 62 88 50 62 88 50 76 88 62 76 88 62 76 88 62 76 106 62 76 106 62
76 88 62 76 88 62 76 88 62 76 88 62 76 88 62 76 88 38 76 106 38 90 106 38 90 106 38 90 106 38 90 106 50 90 106 50 90 124 50 90 124 50 34 124 50 34 124 62 34 124 62 34 124 62 34 142 62 34 142 62 34 142 38 48 142 38 48 142 38 48 142 38 48 88 38 48 88 50 48 88 50 48 88 50 62 88 50 62 88 50 62 106 62 62 106 62 62 106 62 62 106 62 62 106 62 76 106 38 76 124 38 76 124 38 76 124 38 76 124 38 76 124 50 76 124 50 90 142 50 90 142 50 90 142 50 90 142 62 90 142 62 90 142 62 90 88 62 34 88 62 34 88 38 34 88 38 34 88 38 34 88 38 34 106 38 34 106 50 48 106 50 48 106 50 48 106 50 48 106 50 48 124 62 48 124 62 48 124 62 62 124 62 62 124 62 62 124 38 62 142 38 62 142 38 62 142 38 62 142 38 76 142 50 76 142 50 76 88 50 76 88 50 76 88 50 76 88 62 76 88 62 90 88 62 90 106 62 90 106 62 90 106 38 90 106 38 90 106 38 90 106 38 34 124 38 34 124 50 34 124 50 34 124 50 34 124 50 34 124 50 34 142 62 48 142 62 48 142 62 48 142 62 48 142 62 48 142 38 48 88 38 48 88 38 62 88 38 62 88 38 62 88 50 62 88 50 62 106 50 62 106 50 62 106 50 76 106 62 76 106 62 76 106 62 76 124 62 76 124 62 76 124 38 76 124 38 90 124 38 90 124 38 90 142 38 90 142 50 90 142 50 90 142 50 90 142 50 34 142 50 34 88 62 34 88 62 34 88 62 34 88 62 34 88 62 34 88 38 48 106 38 48 106 38 48 106 38 48 106 38 48 106 50 48 106 50 48 124 50 62 124 50 62 124 50 62 124 62 62 124 62 62 124 62 62 142 62 62 142 62 76 142 38 76 142 38 76 142 38 76 142 38 76 88 38 76 88 50 76 88 50 90 88 50 90 88 50 90 88 50 90 106 62 90 106 62 90 106 62 90 106 62 34 106 62 34 106 38 34 124 38 34 124 38 34 124 38 34 124 38 34 124 50 48 124 50 48 142 50 48 142 50 48 142 50 48 142 62 48 142 62 48 142 62 62 88 62 62 88 62 62 88 38 62 88 38 62 88 38 62 88 38 62 106 38 76 106 50 76 106 50 76 106 50 76 106 50 76 106 50 76 124 62 76 124 62 90 124 62 90 124 62 90 124 62 90 124 38 90 142 38 90 142 38 90 142 38 34 142 38 34 142 50 34 142 50 34 88 50 34 88 50 34 88 50 34 88 62 48 88 62 48 88 62 48 106 62 48 106 62 48 106 38 48 106 38 48 106 38 62 106 38 62 124 38 62 124 50 62 124 50 62 124 50 62 124 50 62 124 50 76 142 62 76 142 62 76 142 62 76 142 62 76 142 62 76 142 38 76 88 38 90 88 38 90 88 38 90 88 38 90 88 50 90 88 50 90 106 50 90 106 50 34 106 50 34 106 62 34 106 62 34 106 62 34 124 62 34 124 62 34 124 38 48 124 38 48 124 38 48 124 38 48 142 38 48 142 50 48 142 50 48 142 50 62 142 50 62 142 50 62 88 62 62 88 62 62 88 62 62 88 62 62 88 62 76 88 38 76 106 38 76 106 38 76 106 38 76 106 38 76 106 50 76 106 50 90 124 50 90 124 50 90 124 50 90 124 62 90 124 62 90 124 62 90 142 62 34 142 62 34 142 38 34 142 38 34 142 38 34 142 38 34 88 38 34 88 50 48 88 50 48 88 50 48 88 50 48 88 50 48 106 62 48 106 62 48 106 62 62 106 62 62 106 62 62 106 38 62 124 38 62 124 38 62 124 38 62 124 38 76 124 50 76 124 50 76 142 50 76 142 50 76 142 50 76 142 62 76 142 62 90 142 62 90 88 62 90 88 62 90 88 38 90 88 38 90 88 38 90 88 38 34 106 38 34 106 50 34 106 50 34 106 50 34 106 50 34 106 50 34 124 62 48 124 62 48 124 62 48 124 62 48 124 62 48 124 38 48 142 38 48 142 38 62 142 38 62 142 38 62 142 50 62 142 50 62 88 50 62 88 50 62 88 50 76 88 62 76 88 62 76 88 62 76 106 62 76 106 62
76 88 38 76 88 38 76 88 38 76 88 38 76 88 38 76 88 50 76 106 50 90 106 50 90 106 50 90 106 50 90 106 62 90 106 62 90 124 62 90 124 62 34 124 62 34 124 38 34 124 38 34 124 38 34 142 38 34 142 38 34 142 50 48 142 50 48 142 50 48 142 50 48 88 50 48 88 62 48 88 62 48 88 62 62 88 62 62 88 62 62 106 38 62 106 38 62 106 38 62 106 38 62 106 38 76 106 50 76 124 50 76 124 50 76 124 50 76 124 50 76 124 62 76 124 62 90 142 62 90 142 62 90 142 62 90 142 38 90 142 38 90 142 38 90 88 38 34 88 38 34 88 50 34 88 50 34 88 50 34 88 50 34 106 50 34 106 62 48 106 62 48 106 62 48 106 62 48 106 62 48 124 38 48 124 38 48 124 38 62 124 38 62 124 38 62 124 50 62 142 50 62 142 50 62 142 50 62 142 50 76 142 62 76 142 62 76 88 62 76 88 62 76 88 62 76 88 38 76 88 38 90 88 38 90 106 38 90 106 38 90 106 50 90 106 50 90 106 50 90 106 50 34 124 50 34 124 62 34 124 62 34 124 62 34 124 62 34 124 62 34 142 38 48 142 38 48 142 38 48 142 38 48 142 38 48 142 50 48 88 50 48 88 50 62 88 50 62 88 50 62 88 62 62 88 62 62 106 62 62 106 62 62 106 62 76 106 38 76 106 38 76 106 38 76 124 38 76 124 38 76 124 50 76 124 50 90 124 50 90 124 50 90 142 50 90 142 62 90 142 62 90 142 62 90 142 62 34 142 62 34 88 38 34 88 38 34 88 38 34 88 38 34 88 38 34 88 50 48 106 50 48 106 50 48 106 50 48 106 50 48 106 62 48 106 62 48 124 62 62 124 62 62 124 62 62 124 38 62 124 38 62 124 38 62 142 38 62 142 38 76 142 50 76 142 50 76 142 50 76 142 50 76 88 50 76 88 62 76 88 62 90 88 62 90 88 62 90 88 62 90 106 38 90 106 38 90 106 38 90 106 38 34 106 38 34 106 50 34 124 50 34 124 50 34 124 50 34 124 50 34 124 62 48 124 62 48 142 62 48 142 62 48 142 62 48 142 38 48 142 38 48 142 38 62 88 38 62 88 38 62 88 50 62 88 50 62 88 50 62 88 50 62 106 50 76 106 62 76 106 62 76 106 62 76 106 62 76 106 62 76 124 38 76 124 38 90 124 38 90 124 38 90 124 38 90 124 50 90 142 50 90 142 50 90 142 50 34 142 50 34 142 62 34 142 62 34 88 62 34 88 62 34 88 62 34 88 38 48 88 38 48 88 38 48 106 38 48 106 38 48 106 50 48 106 50 48 106 50 62 106 50 62 124 50 62 124 62 62 124 62 62 124 62 62 124 62 62 124 62 76 142 38 76 142 38 76 142 38 76 142 38 76 142 38 76 142 50 76 88 50 90 88 50 90 88 50 90 88 50 90 88 62 90 88 62 90 106 62 90 106 62 34 106 62 34 106 38 34 106 38 34 106 38 34 124 38 34 124 38 34 124 50 48 124 50 48 124 50 48 124 50 48 142 50 48 142 62 48 142 62 48 142 62 62 142 62 62 142 62 62 88 38 62 88 38 62 88 38 62 88 38 62 88 38 76 88 50 76 106 50 76 106 50 76 106 50 76 106 50 76 106 62 76 106 62 90 124 62 90 124 62 90 124 62 90 124 38 90 124 38 90 124 38 90 142 38 34 142 38 34 142 50 34 142 50 34 142 50 34 142 50 34 88 50 34 88 62 48 88 62 48 88 62 48 88 62 48 88 62 48 106 38 48 106 38 48 106 38 62 106 38 62 106 38 62 106 50 62 124 50 62 124 50 62 124 50 62 124 50 76 124 62 76 124 62 76 142 62 76 142 62 76 142 62 76 142 38 76 142 38 90 142 38 90 88 38 90 88 38 90 88 50 90 88 50 90 88 50 90 88 50 34 106 50 34 106 62 34 106 62 34 106 62 34 106 62 34 106 62 34 124 38 48 124 38 48 124 38 48 124 38 48 124 38 48 124 50 48 142 50 48 142 50 62 142 50 62 142 50 62 142 62 62 142 62 62 88 62 62 88 62 62 88 62 76 88 38 76 88 38 76 88 38 76 106 38 76 106 38
90 88 38 90 88 38 90 88 38 90 88 38 90 88 38 90 88 50 90 106 50 34 106 50 34 106 50 34 106 50 34 106 62 34 106 62 34 124 62 34 124 62 48 124 62 48 124 38 48 124 38 48 124 38 48 142 38 48 142 38 48 142 50 62 142 50 62 142 50 62 142 50 62 88 50 62 88 62 62 88 62 62 88 62 76 88 62 76 88 62 76 106 38 76 106 38 76 106 38 76 106 38 76 106 38 90 106 50 90 124 50 90 124 50 90 124 50 90 124 50 90 124 62 90 124 62 34 142 62 34 142 62 34 142 62 34 142 38 34 142 38 34 142 38 34 88 38 48 88 38 48 88 50 48 88 50 48 88 50 48 88 50 48 106 50 48 106 62 62 106 62 62 106 62 62 106 62 62 106 62 62 124 38 62 124 38 62 124 38 76 124 38 76 124 38 76 124 50 76 142 50 76 142 50 76 142 50 76 142 50 90 142 62 90 142 62 90 88 62 90 88 62 90 88 62 90 88 38 90 88 38 34 88 38 34 106 38 34 106 38 34 106 50 34 106 50 34 106 50 34 106 50 48 124 50 48 124 62 48 124 62 48 124 62 48 124 62 48 124 62 48 142 38 62 142 38 62 142 38 62 142 38 62 142 38 62 142 50 62 88 50 62 88 50 76 88 50 76 88 50 76 88 62 76 88 62 76 106 62 76 106 62 76 106 62 90 106 38 90 106 38 90 106 38 90 124 38 90 124 38 90 124 50 90 124 50 34 124 50 34 124 50 34 142 50 34 142 62 34 142 62 34 142 62 34 142 62 48 142 62 48 88 38 48 88 38 48 88 38 48 88 38 48 88 38 48 88 50 62 106 50 62 106 50 62 106 50 62 106 50 62 106 62 62 106 62 62 124 62 76 124 62 76 124 62 76 124 38 76 124 38 76 124 38 76 142 38 76 142 38 90 142 50 90 142 50 90 142 50 90 142 50 90 88 50 90 88 62 90 88 62 34 88 62 34 88 62 34 88 62 34 106 38 34 106 38 34 106 38 34 106 38 48 106 38 48 106 50 48 124 50 48 124 50 48 124 50 48 124 50 48 124 62 62 124 62 62 142 62 62 142 62 62 142 62 62 142 38 62 142 38 62 142 38 76 88 38 76 88 38 76 88 50 76 88 50 76 88 50 76 88 50 76 106 50 90 106 62 90 106 62 90 106 62 90 106 62 90 106 62 90 124 38 90 124 38 34 124 38 34 124 38 34 124 38 34 124 50 34 142 50 34 142 50 34 142 50 48 142 50 48 142 62 48 142 62 48 88 62 48 88 62 48 88 62 48 88 38 62 88 38 62 88 38 62 106 38 62 106 38 62 106 50 62 106 50 62 106 50 76 106 50 76 124 50 76 124 62 76 124 62 76 124 62 76 124 62 76 124 62 90 142 38 90 142 38 90 142 38 90 142 38 90 142 38 90 142 50 90 88 50 34 88 50 34 88 50 34 88 50 34 88 62 34 88 62 34 106 62 34 106 62 48 106 62 48 106 38 48 106 38 48 106 38 48 124 38 48 124 38 48 124 50 62 124 50 62 124 50 62 124 50 62 142 50 62 142 62 62 142 62 62 142 62 76 142 62 76 142 62 76 88 38 76 88 38 76 88 38 76 88 38 76 88 38 90 88 50 90 106 50 90 106 50 90 106 50 90 106 50 90 106 62 90 106 62 34 124 62 34 124 62 34 124 62 34 124 38 34 124 38 34 124 38 34 142 38 48 142 38 48 142 50 48 142 50 48 142 50 48 142 50 48 88 50 48 88 62 62 88 62 62 88 62 62 88 62 62 88 62 62 106 38 62 106 38 62 106 38 76 106 38 76 106 38 76 106 50 76 124 50 76 124 50 76 124 50 76 124 50 90 124 62 90 124 62 90 142 62 90 142 62 90 142 62 90 142 38 90 142 38 34 142 38 34 88 38 34 88 38 34 88 50 34 88 50 34 88 50 34 88 50 48 106 50 48 106 62 48 106 62 48 106 62 48 106 62 48 106 62 48 124 38 62 124 38 62 124 38 62 124 38 62 124 38 62 124 50 62 142 50 62 142 50 76 142 50 76 142 50 76 142 62 76 142 62 76 88 62 76 88 62 76 88 62 90 88 38 90 88 38 90 88 38 90 106 38 90 106 38
90 88 38 90 88 38 90 88 38 90 88 38 90 88 38 90 88 50 90 106 50 34 106 50 34 106 50 34 106 50 34 106 62 34 106 62 34 124 62 34 124 62 48 124 62 48 124 38 48 124 38 48 124 38 48 142 38 48 142 38 48 142 50 62 142 50 62 142 50 62 142 50 62 88 50 62 88 62 62 88 62 62 88 62 76 88 62 76 88 62 76 106 38 76 106 38 76 106 38 76 106 38 76 106 38 90 106 50 90 124 50 90 124 50 90 124 50 90 124 50 90 124 62 90 124 62 34 142 62 34 142 62 34 142 62 34 142 38 34 142 38 34 142 38 34 88 38 48 88 38 48 88 50 48 88 50 48 88 50 48 88 50 48 106 50 48 106 62 62 106 62 62 106 62 62 106 62 62 106 62 62 124 38 62 124 38 62 124 38 76 124 38 76 124 38 76 124 50 76 142 50 76 142 50 76 142 50 76 142 50 90 142 62 90 142 62 90 88 62 90 88 62 90 88 62 90 88 38 90 88 38 34 88 38 34 106 38 34 106 38 34 106 50 34 106 50 34 106 50 34 106 50 48 124 50 48 124 62 48 124 62 48 124 62 48 124 62 48 124 62 48 142 38 62 142 38 62 142 38 62 142 38 62 142 38 62 142 50 62 88 50 62 88 50 76 88 50 76 88 50 76 88 62 76 88 62 76 106 62 76 106 62 76 106 62 90 106 38 90 106 38 90 106 38 90 124 38 90 124 38 90 124 50 90 124 50 34 124 50 34 124 50 34 142 50 34 142 62 34 142 62 34 142 62 34 142 62 48 142 62 48 88 38 48 88 38 48 88 38 48 88 38 48 88 38 48 88 50 62 106 50 62 106 50 62 106 50 62 106 50 62 106 62 62 106 62 62 124 62 76 124 62 76 124 62 76 124 38 76 124 38 76 124 38 76 142 38 76 142 38 90 142 50 90 142 50 90 142 50 90 142 50 90 88 50 90 88 62 90 88 62 34 88 62 34 88 62 34 88 62 34 106 38 34 106 38 34 106 38 34 106 38 48 106 38 48 106 50 48 124 50 48 124 50 48 124 50 48 124 50 48 124 62 62 124 62 62 142 62 62 142 62 62 142 62 62 142 38 62 142 38 62 142 38 76 88 38 76 88 38 76 88 50 76 88 50 76 88 50 76 88 50 76 106 50 90 106 62 90 106 62 90 106 62 90 106 62 90 106 62 90 124 38 90 124 38 34 124 38 34 124 38 34 124 38 34 124 50 34 142 50 34 142 50 34 142 50 48 142 50 48 142 62 48 142 62 48 88 62 48 88 62 48 88 62 48 88 38 62 88 38 62 88 38 62 106 38 62 106 38 62 106 50 62 106 50 62 106 50 76 106 50 76 124 50 76 124 62 76 124 62 76 124 62 76 124 62 76 124 62 90 142 38 90 142 38 90 142 38 90 142 38 90 142 38 90 142 50 90 88 50 34 88 50 34 88 50 34 88 50 34 88 62 34 88 62 34 106 62 34 106 62 48 106 62 48 106 38 48 106 38 48 106 38 48 124 38 48 124 38 48 124 50 62 124 50 62 124 50 62 124 50 62 142 50 62 142 62 62 142 62 62 142 62 76 142 62 76 142 62 76 88 38 76 88 38 76 88 38 76 88 38 76 88 38 90 88 50 90 106 50 90 106 50 90 106 50 90 106 50 90 106 62 90 106 62 34 124 62 34 124 62 34 124 62 34 124 38 34 124 38 34 124 38 34 142 38 48 142 38 48 142 50 48 142 50 48 142 50 48 142 50 48 88 50 48 88 62 62 88 62 62 88 62 62 88 62 62 88 62 62 106 38 62 106 38 62 106 38 76 106 38 76 106 38 76 106 50 76 124 50 76 124 50 76 124 50 76 124 50 90 124 62 90 124 62 90 142 62 90 142 62 90 142 62 90 142 38 90 142 38 34 142 38 34 88 38 34 88 38 34 88 50 34 88 50 34 88 50 34 88 50 48 106 50 48 106 62 48 106 62 48 106 62 48 106 62 48 106 62 48 124 38 62 124 38 62 124 38 62 124 38 62 124 38 62 124 50 62 142 50 62 142 50 76 142 50 76 142 50 76 142 62 76 142 62 76 88 62 76 88 62 76 88 62 90 88 38 90 88 38 90 88 38 90 106 38 90 106 38
90 106 38 90 106 38 90 106 38 90 106 38 90 106 38 90 106 50 90 124 50 34 124 50 34 124 50 34 124 50 34 124 62 34 124 62 34 142 62 34 142 62 48 142 62 48 142 38 48 142 38 48 142 38 48 88 38 48 88 38 48 88 50 62 88 50 62 88 50 62 88 50 62 106 50 62 106 62 62 106 62 62 106 62 76 106 62 76 106 62 76 124 38 76 124 38 76 124 38 76 124 38 76 124 38 90 124 50 90 142 50 90 142 50 90 142 50 90 142 50 90 142 62 90 142 62 34 88 62 34 88 62 34 88 62 34 88 38 34 88 38 34 88 38 34 106 38 48 106 38 48 106 50 48 106 50 48 106 50 48 106 50 48 124 50 48 124 62 62 124 62 62 124 62 62 124 62 62 124 62 62 142 38 62 142 38 62 142 38 76 142 38 76 142 38 76 142 50 76 88 50 76 88 50 76 88 50 76 88 50 90 88 62 90 88 62 90 106 62 90 106 62 90 106 62 90 106 38 90 106 38 34 106 38 34 124 38 34 124 38 34 124 50 34 124 50 34 124 50 34 124 50 48 142 50 48 142 62 48 142 62 48 142 62 48 142 62 48 142 62 48 88 38 62 88 38 62 88 38 62 88 38 62 88 38 62 88 50 62 106 50 62 106 50 76 106 50 76 106 50 76 106 62 76 106 62 76 124 62 76 124 62 76 124 62 90 124 38 90 124 38 90 124 38 90 142 38 90 142 38 90 142 50 90 142 50 34 142 50 34 142 50 34 88 50 34 88 62 34 88 62 34 88 62 34 88 62 48 88 62 48 106 38 48 106 38 48 106 38 48 106 38 48 106 38 48 106 50 62 124 50 62 124 50 62 124 50 62 124 50 62 124 62 62 124 62 62 142 62 76 142 62 76 142 62 76 142 38 76 142 38 76 142 38 76 88 38 76 88 38 90 88 50 90 88 50 90 88 50 90 88 50 90 106 50 90 106 62 90 106 62 34 106 62 34 106 62 34 106 62 34 124 38 34 124 38 34 124 38 34 124 38 48 124 38 48 124 50 48 142 50 48 142 50 48 142 50 48 142 50 48 142 62 62 142 62 62 88 62 62 88 62 62 88 62 62 88 38 62 88 38 62 88 38 76 106 38 76 106 38 76 106 50 76 106 50 76 106 50 76 106 50 76 124 50 90 124 62 90 124 62 90 124 62 90 124 62 90 124 62 90 142 38 90 142 38 34 142 38 34 142 38 34 142 38 34 142 50 34 88 50 34 88 50 34 88 50 48 88 50 48 88 62 48 88 62 48 106 62 48 106 62 48 106 62 48 106 38 62 106 38 62 106 38 62 124 38 62 124 38 62 124 50 62 124 50 62 124 50 76 124 50 76 142 50 76 142 62 76 142 62 76 142 62 76 142 62 76 142 62 90 88 38 90 88 38 90 88 38 90 88 38 90 88 38 90 88 50 90 106 50 34 106 50 34 106 50 34 106 50 34 106 62 34 106 62 34 124 62 34 124 62 48 124 62 48 124 38 48 124 38 48 124 38 48 142 38 48 142 38 48 142 50 62 142 50 62 142 50 62 142 50 62 88 50 62 88 62 62 88 62 62 88 62 76 88 62 76 88 62 76 106 38 76 106 38 76 106 38 76 106 38 76 106 38 90 106 50 90 124 50 90 124 50 90 124 50 90 124 50 90 124 62 90 124 62 34 142 62 34 142 62 34 142 62 34 142 38 34 142 38 34 142 38 34 88 38 48 88 38 48 88 50 48 88 50 48 88 50 48 88 50 48 106 50 48 106 62 62 106 62 62 106 62 62 106 62 62 106 62 62 124 38 62 124 38 62 124 38 76 124 38 76 124 38 76 124 50 76 142 50 76 142 50 76 142 50 76 142 50 90 142 62 90 142 62 90 88 62 90 88 62 90 88 62 90 88 38 90 88 38 34 88 38 34 106 38 34 106 38 34 106 50 34 106 50 34 106 50 34 106 50 48 124 50 48 124 62 48 124 62 48 124 62 48 124 62 48 124 62 48 142 38 62 142 38 62 142 38 62 142 38 62 142 38 62 142 50 62 88 50 62 88 50 76 88 50 76 88 50 76 88 62 76 88 62 76 106 62 76 106 62 76 106 62 90 106 38 90 106 38 90 106 38 90 124 38 90 124 38
90 106 38 90 106 38 90 106 38 90 106 38 90 106 38 90 106 50 90 124 50 34 124 50 34 124 50 34 124 50 34 124 62 34 124 62 34 142 62 34 142 62 48 142 62 48 142 38 48 142 38 48 142 38 48 88 38 48 88 38 48 88 50 62 88 50 62 88 50 62 88 50 62 106 50 62 106 62 62 106 62 62 106 62 76 106 62 76 106 62 76 124 38 76 124 38 76 124 38 76 124 38 76 124 38 90 124 50 90 142 50 90 142 50 90 142 50 90 142 50 90 142 62 90 142 62 34 88 62 34 88 62 34 88 62 34 88 38 34 88 38 34 88 38 34 106 38 48 106 38 48 106 50 48 106 50 48 106 50 48 106 50 48 124 50 48 124 62 62 124 62 62 124 62 62 124 62 62 124 62 62 142 38 62 142 38 62 142 38 76 142 38 76 142 38 76 142 50 76 88 50 76 88 50 76 88 50 76 88 50 90 88 62 90 88 62 90 106 62 90 106 62 90 106 62 90 106 38 90 106 38 34 106 38 34 124 38 34 124 38 34 124 50 34 124 50 34 124 50 34 124 50 48 142 50 48 142 62 48 142 62 48 142 62 48 142 62 48 142 62 48 88 38 62 88 38 62 88 38 62 88 38 62 88 38 62 88 50 62 106 50 62 106 50 76 106 50 76 106 50 76 106 62 76 106 62 76 124 62 76 124 62 76 124 62 90 124 38 90 124 38 90 124 38 90 142 38 90 142 38 90 142 50 90 142 50 34 142 50 34 142 50 34 88 50 34 88 62 34 88 62 34 88 62 34 88 62 48 88 62 48 106 38 48 106 38 48 106 38 48 106 38 48 106 38 48 106 50 62 124 50 62 124 50 62 124 50 62 124 50 62 124 62 62 124 62 62 142 62 76 142 62 76 142 62 76 142 38 76 142 38 76 142 38 76 88 38 76 88 38 90 88 50 90 88 50 90 88 50 90 88 50 90 106 50 90 106 62 90 106 62 34 106 62 34 106 62 34 106 62 34 124 38 34 124 38 34 124 38 34 124 38 48 124 38 48 124 50 48 142 50 48 142 50 48 142 50 48 142 50 48 142 62 62 142 62 62 88 62 62 88 62 62 88 62 62 88 38 62 88 38 62 88 38 76 106 38 76 106 38 76 106 50 76 106 50 76 106 50 76 106 50 76 124 50 90 124 62 90 124 62 90 124 62 90 124 62 90 124 62 90 142 38 90 142 38 34 142 38 34 142 38 34 142 38 34 142 50 34 88 50 34 88 50 34 88 50 48 88 50 48 88 62 48 88 62 48 106 62 48 106 62 48 106 62 48 106 38 62 106 38 62 106 38 62 124 38 62 124 38 62 124 50 62 124 50 62 124 50 76 124 50 76 142 50 76 142 62 76 142 62 76 142 62 76 142 62 76 142 62 90 88 38 90 88 38 90 88 38 90 88 38 90 88 38 90 88 50 90 106 50 34 106 50 34 106 50 34 106 50 34 106 62 34 106 62 34 124 62 34 124 62 48 124 62 48 124 38 48 124 38 48 124 38 48 142 38 48 142 38 48 142 50 62 142 50 62 142 50 62 142 50 62 88 50 62 88 62 62 88 62 62 88 62 76 88 62 76 88 62 76 106 38 76 106 38 76 106 38 76 106 38 76 106 38 90 106 50 90 124 50 90 124 50 90 124 50 90 124 50 90 124 62 90 124 62 34 142 62 34 142 62 34 142 62 34 142 38 34 142 38 34 142 38 34 88 38 48 88 38 48 88 50 48 88 50 48 88 50 48 88 50 48 106 50 48 106 62 62 106 62 62 106 62 62 106 62 62 106 62 62 124 38 62 124 38 62 124 38 76 124 38 76 124 38 76 124 50 76 142 50 76 142 50 76 142 50 76 142 50 90 142 62 90 142 62 90 88 62 90 88 62 90 88 62 90 88 38 90 88 38 34 88 38 34 106 38 34 106 38 34 106 50 34 106 50 34 106 50 34 106 50 48 124 50 48 124 62 48 124 62 48 124 62 48 124 62 48 124 62 48 142 38 62 142 38 62 142 38 62 142 38 62 142 38 62 142 50 62 88 50 62 88 50 76 88 50 76 88 50 76 88 62 76 88 62 76 106 62 76 106 62 76 106 62 90 106 38 90 106 38 90 106 38 90 124 38 90 124 38
90 106 38 90 106 38 90 106 38 90 106 38 90 106 38 90 106 50 90 124 50 34 124 50 34 124 50 34 124 50 34 124 62 34 124 62 34 142 62 34 142 62 48 142 62 48 142 38 48 142 38 48 142 38 48 88 38 48 88 38 48 88 50 62 88 50 62 88 50 62 88 50 62 106 50 62 106 62 62 106 62 62 106 62 76 106 62 76 106 62 76 124 38 76 124 38 76 124 38 76 124 38 76 124 38 90 124 50 90 142 50 90 142 50 90 142 50 90 142 50 90 142 62 90 142 62 34 88 62 34 88 62 34 88 62 34 88 38 34 88 38 34 88 38 34 106 38 48 106 38 48 106 50 48 106 50 48 106 50 48 106 50 48 124 50 48 124 62 62 124 62 62 124 62 62 124 62 62 124 62 62 142 38 62 142 38 62 142 38 76 142 38 76 142 38 76 142 50 76 88 50 76 88 50 76 88 50 76 88 50 90 88 62 90 88 62 90 106 62 90 106 62 90 106 62 90 106 38 90 106 38 34 106 38 34 124 38 34 124 38 34 124 50 34 124 50 34 124 50 34 124 50 48 142 50 48 142 62 48 142 62 48 142 62 48 142 62 48 142 62 48 88 38 62 88 38 62 88 38 62 88 38 62 88 38 62 88 50 62 106 50 62 106 50 76 106 50 76 106 50 76 106 62 76 106 62 76 124 62 76 124 62 76 124 62 90 124 38 90 124 38 90 124 38 90 142 38 90 142 38 90 142 50 90 142 50 34 142 50 34 142 50 34 88 50 34 88 62 34 88 62 34 88 62 34 88 62 48 88 62 48 106 38 48 106 38 48 106 38 48 106 38 48 106 38 48 106 50 62 124 50 62 124 50 62 124 50 62 124 50 62 124 62 62 124 62 62 142 62 76 142 62 76 142 62 76 142 38 76 142 38 76 142 38 76 88 38 76 88 38 90 88 50 90 88 50 90 88 50 90 88 50 90 106 50 90 106 62 90 106 62 34 106 62 34 106 62 34 106 62 34 124 38 34 124 38 34 124 38 34 124 38 48 124 38 48 124 50 48 142 50 48 142 50 48 142 50 48 142 50 48 142 62 62 142 62 62 88 62 62 88 62 62 88 62 62 88 38 62 88 38 62 88 38 76 106 38 76 106 38 76 106 50 76 106 50 76 106 50 76 106 50 76 124 50 90 124 62 90 124 62 90 124 62 90 124 62 90 124 62 90 142 38 90 142 38 34 142 38 34 142 38 34 142 38 34 142 50 34 88 50 34 88 50 34 88 50 48 88 50 48 88 62 48 88 62 48 106 62 48 106 62 48 106 62 48 106 38 62 106 38 62 106 38 62 124 38 62 124 38 62 124 50 62 124 50 62 124 50 76 124 50 76 142 50 76 142 62 76 142 62 76 142 62 76 142 62 76 142 62 90 88 38 90 88 38 90 88 38 90 88 38 90 88 38 90 88 50 90 106 50 34 106 50 34 106 50 34 106 50 34 106 62 34 106 62 34 124 62 34 124 62 48 124 62 48 124 38 48 124 38 48 124 38 48 142 38 48 142 38 48 142 50 62 142 50 62 142 50 62 142 50 62 88 50 62 88 62 62 88 62 62 88 62 76 88 62 76 88 62 76 106 38 76 106 38 76 106 38 76 106 38 76 106 38 90 106 50 90 124 50 90 124 50 90 124 50 90 124 50 90 124 62 90 124 62 34 142 62 34 142 62 34 142 62 34 142 38 34 142 38 34 142 38 34 88 38 48 88 38 48 88 50 48 88 50 48 88 50 48 88 50 48 106 50 48 106 62 62 106 62 62 106 62 62 106 62 62 106 62 62 124 38 62 124 38 62 124 38 76 124 38 76 124 38 76 124 50 76 142 50 76 142 50 76 142 50 76 142 50 90 142 62 90 142 62 90 88 62 90 88 62 90 88 62 90 88 38 90 88 38 34 88 38 34 106 38 34 106 38 34 106 50 34 106 50 34 106 50 34 106 50 48 124 50 48 124 62 48 124 62 48 124 62 48 124 62 48 124 62 48 142 38 62 142 38 62 142 38 62 142 38 62 142 38 62 142 50 62 88 50 62 88 50 76 88 50 76 88 50 76 88 62 76 88 62 76 106 62 76 106 62 76 106 62 90 106 38 90 106 38 90 106 38 90 124 38 90 124 38
34 106 38 34 106 38 34 106 38 34 106 38 34 106 38 34 106 50 34 124 50 48 124 50 48 124 50 48 124 50 48 124 62 48 124 62 48 142 62 48 142 62 62 142 62 62 142 38 62 142 38 62 142 38 62 88 38 62 88 38 62 88 50 76 88 50 76 88 50 76 88 50 76 106 50 76 106 62 76 106 62 76 106 62 90 106 62 90 106 62 90 124 38 90 124 38 90 124 38 90 124 38 90 124 38 34 124 50 34 142 50 34 142 50 34 142 50 34 142 50 34 142 62 34 142 62 48 88 62 48 88 62 48 88 62 48 88 38 48 88 38 48 88 38 48 106 38 62 106 38 62 106 50 62 106 50 62 106 50 62 106 50 62 124 50 62 124 62 76 124 62 76 124 62 76 124 62 76 124 62 76 142 38 76 142 38 76 142 38 90 142 38 90 142 38 90 142 50 90 88 50 90 88 50 90 88 50 90 88 50 34 88 62 34 88 62 34 106 62 34 106 62 34 106 62 34 106 38 34 106 38 48 106 38 48 124 38 48 124 38 48 124 50 48 124 50 48 124 50 48 124 50 62 142 50 62 142 62 62 142 62 62 142 62 62 142 62 62 142 62 62 88 38 76 88 38 76 88 38 76 88 38 76 88 38 76 88 50 76 106 50 76 106 50 90 106 50 90 106 50 90 106 62 90 106 62 90 124 62 90 124 62 90 124 62 34 124 38 34 124 38 34 124 38 34 142 38 34 142 38 34 142 50 34 142 50 48 142 50 48 142 50 48 88 50 48 88 62 48 88 62 48 88 62 48 88 62 62 88 62 62 106 38 62 106 38 62 106 38 62 106 38 62 106 38 62 106 50 76 124 50 76 124 50 76 124 50 76 124 50 76 124 62 76 124 62 76 142 62 90 142 62 90 142 62 90 142 38 90 142 38 90 142 38 90 88 38 90 88 38 34 88 50 34 88 50 34 88 50 34 88 50 34 106 50 34 106 62 34 106 62 48 106 62 48 106 62 48 106 62 48 124 38 48 124 38 48 124 38 48 124 38 62 124 38 62 124 50 62 142 50 62 142 50 62 142 50 62 142 50 62 142 62 76 142 62 76 88 62 76 88 62 76 88 62 76 88 38 76 88 38 76 88 38 90 106 38 90 106 38 90 106 50 90 106 50 90 106 50 90 106 50 90 124 50 34 124 62 34 124 62 34 124 62 34 124 62 34 124 62 34 142 38 34 142 38 48 142 38 48 142 38 48 142 38 48 142 50 48 88 50 48 88 50 48 88 50 62 88 50 62 88 62 62 88 62 62 106 62 62 106 62 62 106 62 62 106 38 76 106 38 76 106 38 76 124 38 76 124 38 76 124 50 76 124 50 76 124 50 90 124 50 90 142 50 90 142 62 90 142 62 90 142 62 90 142 62 90 142 62 34 88 38 34 88 38 34 88 38 34 88 38 34 88 38 34 88 50 34 106 50 48 106 50 48 106 50 48 106 50 48 106 62 48 106 62 48 124 62 48 124 62 62 124 62 62 124 38 62 124 38 62 124 38 62 142 38 62 142 38 62 142 50 76 142 50 76 142 50 76 142 50 76 88 50 76 88 62 76 88 62 76 88 62 90 88 62 90 88 62 90 106 38 90 106 38 90 106 38 90 106 38 90 106 38 34 106 50 34 124 50 34 124 50 34 124 50 34 124 50 34 124 62 34 124 62 48 142 62 48 142 62 48 142 62 48 142 38 48 142 38 48 142 38 48 88 38 62 88 38 62 88 50 62 88 50 62 88 50 62 88 50 62 106 50 62 106 62 76 106 62 76 106 62 76 106 62 76 106 62 76 124 38 76 124 38 76 124 38 90 124 38 90 124 38 90 124 50 90 142 50 90 142 50 90 142 50 90 142 50 34 142 62 34 142 62 34 88 62 34 88 62 34 88 62 34 88 38 34 88 38 48 88 38 48 106 38 48 106 38 48 106 50 48 106 50 48 106 50 48 106 50 62 124 50 62 124 62 62 124 62 62 124 62 62 124 62 62 124 62 62 142 38 76 142 38 76 142 38 76 142 38 76 142 38 76 142 50 76 88 50 76 88 50 90 88 50 90 88 50 90 88 62 90 88 62 90 106 62 90 106 62 90 106 62 34 106 38 34 106 38 34 106 38 34 124 38 34 124 38
34 106 38 34 106 38 34 106 38 34 106 38 34 106 38 34 106 50 34 124 50 48 124 50 48 124 50 48 124 50 48 124 62 48 124 62 48 142 62 48 142 62 62 142 62 62 142 38 62 142 38 62 142 38 62 88 38 62 88 38 62 88 50 76 88 50 76 88 50 76 88 50 76 106 50 76 106 62 76 106 62 76 106 62 90 106 62 90 106 62 90 124 38 90 124 38 90 124 38 90 124 38 90 124 38 34 124 50 34 142 50 34 142 50 34 142 50 34 142 50 34 142 62 34 142 62 48 88 62 48 88 62 48 88 62 48 88 38 48 88 38 48 88 38 48 106 38 62 106 38 62 106 50 62 106 50 62 106 50 62 106 50 62 124 50 62 124 62 76 124 62 76 124 62 76 124 62 76 124 62 76 142 38 76 142 38 76 142 38 90 142 38 90 142 38 90 142 50 90 88 50 90 88 50 90 88 50 90 88 50 34 88 62 34 88 62 34 106 62 34 106 62 34 106 62 34 106 38 34 106 38 48 106 38 48 124 38 48 124 38 48 124 50 48 124 50 48 124 50 48 124 50 62 142 50 62 142 62 62 142 62 62 142 62 62 142 62 62 142 62 62 88 38 76 88 38 76 88 38 76 88 38 76 88 38 76 88 50 76 106 50 76 106 50 90 106 50 90 106 50 90 106 62 90 106 62 90 124 62 90 124 62 90 124 62 34 124 38 34 124 38 34 124 38 34 142 38 34 142 38 34 142 50 34 142 50 48 142 50 48 142 50 48 88 50 48 88 62 48 88 62 48 88 62 48 88 62 62 88 62 62 106 38 62 106 38 62 106 38 62 106 38 62 106 38 62 106 50 76 124 50 76 124 50 76 124 50 76 124 50 76 124 62 76 124 62 76 142 62 90 142 62 90 142 62 90 142 38 90 142 38 90 142 38 90 88 38 90 88 38 34 88 50 34 88 50 34 88 50 34 88 50 34 106 50 34 106 62 34 106 62 48 106 62 48 106 62 48 106 62 48 124 38 48 124 38 48 124 38 48 124 38 62 124 38 62 124 50 62 142 50 62 142 50 62 142 50 62 142 50 62 142 62 76 142 62 76 88 62 76 88 62 76 88 62 76 88 38 76 88 38 76 88 38 90 106 38 90 106 38 90 106 50 90 106 50 90 106 50 90 106 50 90 124 50 34 124 62 34 124 62 34 124 62 34 124 62 34 124 62 34 142 38 34 142 38 48 142 38 48 142 38 48 142 38 48 142 50 48 88 50 48 88 50 48 88 50 62 88 50 62 88 62 62 88 62 62 106 62 62 106 62 62 106 62 62 106 38 76 106 38 76 106 38 76 124 38 76 124 38 76 124 50 76 124 50 76 124 50 90 124 50 90 142 50 90 142 62 90 142 62 90 142 62 90 142 62 90 142 62 34 88 38 34 88 38 34 88 38 34 88 38 34 88 38 34 88 50 34 106 50 48 106 50 48 106 50 48 106 50 48 106 62 48 106 62 48 124 62 48 124 62 62 124 62 62 124 38 62 124 38 62 124 38 62 142 38 62 142 38 62 142 50 76 142 50 76 142 50 76 142 50 76 88 50 76 88 62 76 88 62 76 88 62 90 88 62 90 88 62 90 106 38 90 106 38 90 106 38 90 106 38 90 106 38 34 106 50 34 124 50 34 124 50 34 124 50 34 124 50 34 124 62 34 124 62 48 142 62 48 142 62 48 142 62 48 142 38 48 142 38 48 142 38 48 88 38 62 88 38 62 88 50 62 88 50 62 88 50 62 88 50 62 106 50 62 106 62 76 106 62 76 106 62 76 106 62 76 106 62 76 124 38 76 124 38 76 124 38 90 124 38 90 124 38 90 124 50 90 142 50 90 142 50 90 142 50 90 142 50 34 142 62 34 142 62 34 88 62 34 88 62 34 88 62 34 88 38 34 88 38 48 88 38 48 106 38 48 106 38 48 106 50 48 106 50 48 106 50 48 106 50 62 124 50 62 124 62 62 124 62 62 124 62 62 124 62 62 124 62 62 142 38 76 142 38 76 142 38 76 142 38 76 142 38 76 142 50 76 88 50 76 88 50 90 88 50 90 88 50 90 88 62 90 88 62 90 106 62 90 106 62 90 106 62 34 106 38 34 106 38 34 106 38 34 124 38 34 124 38
34 106 50 34 106 50 34 106 50 34 106 50 34 106 50 34 106 62 34 124 62 48 124 62 48 124 62 48 124 62 48 124 38 48 124 38 48 142 38 48 142 38 62 142 38 62 142 50 62 142 50 62 142 50 62 88 50 62 88 50 62 88 62 76 88 62 76 88 62 76 88 62 76 106 62 76 106 38 76 106 38 76 106 38 90 106 38 90 106 38 90 124 50 90 124 50 90 124 50 90 124 50 90 124 50 34 124 62 34 142 62 34 142 62 34 142 62 34 142 62 34 142 38 34 142 38 48 88 38 48 88 38 48 88 38 48 88 50 48 88 50 48 88 50 48 106 50 62 106 50 62 106 62 62 106 62 62 106 62 62 106 62 62 124 62 62 124 38 76 124 38 76 124 38 76 124 38 76 124 38 76 142 50 76 142 50 76 142 50 90 142 50 90 142 50 90 142 62 90 88 62 90 88 62 90 88 62 90 88 62 34 88 38 34 88 38 34 106 38 34 106 38 34 106 38 34 106 50 34 106 50 48 106 50 48 124 50 48 124 50 48 124 62 48 124 62 48 124 62 48 124 62 62 142 62 62 142 38 62 142 38 62 142 38 62 142 38 62 142 38 62 88 50 76 88 50 76 88 50 76 88 50 76 88 50 76 88 62 76 106 62 76 106 62 90 106 62 90 106 62 90 106 38 90 106 38 90 124 38 90 124 38 90 124 38 34 124 50 34 124 50 34 124 50 34 142 50 34 142 50 34 142 62 34 142 62 48 142 62 48 142 62 48 88 62 48 88 38 48 88 38 48 88 38 48 88 38 62 88 38 62 106 50 62 106 50 62 106 50 62 106 50 62 106 50 62 106 62 76 124 62 76 124 62 76 124 62 76 124 62 76 124 38 76 124 38 76 142 38 90 142 38 90 142 38 90 142 50 90 142 50 90 142 50 90 88 50 90 88 50 34 88 62 34 88 62 34 88 62 34 88 62 34 106 62 34 106 38 34 106 38 48 106 38 48 106 38 48 106 38 48 124 50 48 124 50 48 124 50 48 124 50 62 124 50 62 124 62 62 142 62 62 142 62 62 142 62 62 142 62 62 142 38 76 142 38 76 88 38 76 88 38 76 88 38 76 88 50 76 88 50 76 88 50 90 106 50 90 106 50 90 106 62 90 106 62 90 106 62 90 106 62 90 124 62 34 124 38 34 124 38 34 124 38 34 124 38 34 124 38 34 142 50 34 142 50 48 142 50 48 142 50 48 142 50 48 142 62 48 88 62 48 88 62 48 88 62 62 88 62 62 88 38 62 88 38 62 106 38 62 106 38 62 106 38 62 106 50 76 106 50 76 106 50 76 124 50 76 124 50 76 124 62 76 124 62 76 124 62 90 124 62 90 142 62 90 142 38 90 142 38 90 142 38 90 142 38 90 142 38 34 88 50 34 88 50 34 88 50 34 88 50 34 88 50 34 88 62 34 106 62 48 106 62 48 106 62 48 106 62 48 106 38 48 106 38 48 124 38 48 124 38 62 124 38 62 124 50 62 124 50 62 124 50 62 142 50 62 142 50 62 142 62 76 142 62 76 142 62 76 142 62 76 88 62 76 88 38 76 88 38 76 88 38 90 88 38 90 88 38 90 106 50 90 106 50 90 106 50 90 106 50 90 106 50 34 106 62 34 124 62 34 124 62 34 124 62 34 124 62 34 124 38 34 124 38 48 142 38 48 142 38 48 142 38 48 142 50 48 142 50 48 142 50 48 88 50 62 88 50 62 88 62 62 88 62 62 88 62 62 88 62 62 106 62 62 106 38 76 106 38 76 106 38 76 106 38 76 106 38 76 124 50 76 124 50 76 124 50 90 124 50 90 124 50 90 124 62 90 142 62 90 142 62 90 142 62 90 142 62 34 142 38 34 142 38 34 88 38 34 88 38 34 88 38 34 88 50 34 88 50 48 88 50 48 106 50 48 106 50 48 106 62 48 106 62 48 106 62 48 106 62 62 124 62 62 124 38 62 124 38 62 124 38 62 124 38 62 124 38 62 142 50 76 142 50 76 142 50 76 142 50 76 142 50 76 142 62 76 88 62 76 88 62 90 88 62 90 88 62 90 88 38 90 88 38 90 106 38 90 106 38 90 106 38 34 106 50 34 106 50 34 106 50 34 124 50 34 124 50
34 106 50 34 106 50 34 106 50 34 106 50 34 106 50 34 106 62 34 124 62 48 124 62 48 124 62 48 124 62 48 124 38 48 124 38 48 142 38 48 142 38 62 142 38 62 142 50 62 142 50 62 142 50 62 88 50 62 88 50 62 88 62 76 88 62 76 88 62 76 88 62 76 106 62 76 106 38 76 106 38 76 106 38 90 106 38 90 106 38 90 124 50 90 124 50 90 124 50 90 124 50 90 124 50 34 124 62 34 142 62 34 142 62 34 142 62 34 142 62 34 142 38 34 142 38 48 88 38 48 88 38 48 88 38 48 88 50 48 88 50 48 88 50 48 106 50 62 106 50 62 106 62 62 106 62 62 106 62 62 106 62 62 124 62 62 124 38 76 124 38 76 124 38 76 124 38 76 124 38 76 142 50 76 142 50 76 142 50 90 142 50 90 142 50 90 142 62 90 88 62 90 88 62 90 88 62 90 88 62 34 88 38 34 88 38 34 106 38 34 106 38 34 106 38 34 106 50 34 106 50 48 106 50 48 124 50 48 124 50 48 124 62 48 124 62 48 124 62 48 124 62 62 142 62 62 142 38 62 142 38 62 142 38 62 142 38 62 142 38 62 88 50 76 88 50 76 88 50 76 88 50 76 88 50 76 88 62 76 106 62 76 106 62 90 106 62 90 106 62 90 106 38 90 106 38 90 124 38 90 124 38 90 124 38 34 124 50 34 124 50 34 124 50 34 142 50 34 142 50 34 142 62 34 142 62 48 142 62 48 142 62 48 88 62 48 88 38 48 88 38 48 88 38 48 88 38 62 88 38 62 106 50 62 106 50 62 106 50 62 106 50 62 106 50 62 106 62 76 124 62 76 124 62 76 124 62 76 124 62 76 124 38 76 124 38 76 142 38 90 142 38 90 142 38 90 142 50 90 142 50 90 142 50 90 88 50 90 88 50 34 88 62 34 88 62 34 88 62 34 88 62 34 106 62 34 106 38 34 106 38 48 106 38 48 106 38 48 106 38 48 124 50 48 124 50 48 124 50 48 124 50 62 124 50 62 124 62 62 142 62 62 142 62 62 142 62 62 142 62 62 142 38 76 142 38 76 88 38 76 88 38 76 88 38 76 88 50 76 88 50 76 88 50 90 106 50 90 106 50 90 106 62 90 106 62 90 106 62 90 106 62 90 124 62 34 124 38 34 124 38 34 124 38 34 124 38 34 124 38 34 142 50 34 142 50 48 142 50 48 142 50 48 142 50 48 142 62 48 88 62 48 88 62 48 88 62 62 88 62 62 88 38 62 88 38 62 106 38 62 106 38 62 106 38 62 106 50 76 106 50 76 106 50 76 124 50 76 124 50 76 124 62 76 124 62 76 124 62 90 124 62 90 142 62 90 142 38 90 142 38 90 142 38 90 142 38 90 142 38 34 88 50 34 88 50 34 88 50 34 88 50 34 88 50 34 88 62 34 106 62 48 106 62 48 106 62 48 106 62 48 106 38 48 106 38 48 124 38 48 124 38 62 124 38 62 124 50 62 124 50 62 124 50 62 142 50 62 142 50 62 142 62 76 142 62 76 142 62 76 142 62 76 88 62 76 88 38 76 88 38 76 88 38 90 88 38 90 88 38 90 106 50 90 106 50 90 106 50 90 106 50 90 106 50 34 106 62 34 124 62 34 124 62 34 124 62 34 124 62 34 124 38 34 124 38 48 142 38 48 142 38 48 142 38 48 142 50 48 142 50 48 142 50 48 88 50 62 88 50 62 88 62 62 88 62 62 88 62 62 88 62 62 106 62 62 106 38 76 106 38 76 106 38 76 106 38 76 106 38 76 124 50 76 124 50 76 124 50 90 124 50 90 124 50 90 124 62 90 142 62 90 142 62 90 142 62 90 142 62 34 142 38 34 142 38 34 88 38 34 88 38 34 88 38 34 88 50 34 88 50 48 88 50 48 106 50 48 106 50 48 106 62 48 106 62 48 106 62 48 106 62 62 124 62 62 124 38 62 124 38 62 124 38 62 124 38 62 124 38 62 142 50 76 142 50 76 142 50 76 142 50 76 142 50 76 142 62 76 88 62 76 88 62 90 88 62 90 88 62 90 88 38 90 88 38 90 106 38 90 106 38 90 106 38 34 106 50 34 106 50 34 106 50 34 124 50 34 124 50
34 124 50 34 124 50 34 124 50 34 124 50 34 124 50 34 124 62 34 142 62 48 142 62 48 142 62 48 142 62 48 142 38 48 142 38 48 88 38 48 88 38 62 88 38 62 88 50 62 88 50 62 88 50 62 106 50 62 106 50 62 106 62 76 106 62 76 106 62 76 106 62 76 124 62 76 124 38 76 124 38 76 124 38 90 124 38 90 124 38 90 142 50 90 142 50 90 142 50 90 142 50 90 142 50 34 142 62 34 88 62 34 88 62 34 88 62 34 88 62 34 88 38 34 88 38 48 106 38 48 106 38 48 106 38 48 106 50 48 106 50 48 106 50 48 124 50 62 124 50 62 124 62 62 124 62 62 124 62 62 124 62 62 142 62 62 142 38 76 142 38 76 142 38 76 142 38 76 142 38 76 88 50 76 88 50 76 88 50 90 88 50 90 88 50 90 88 62 90 106 62 90 106 62 90 106 62 90 106 62 34 106 38 34 106 38 34 124 38 34 124 38 34 124 38 34 124 50 34 124 50 48 124 50 48 142 50 48 142 50 48 142 62 48 142 62 48 142 62 48 142 62 62 88 62 62 88 38 62 88 38 62 88 38 62 88 38 62 88 38 62 106 50 76 106 50 76 106 50 76 106 50 76 106 50 76 106 62 76 124 62 76 124 62 90 124 62 90 124 62 90 124 38 90 124 38 90 142 38 90 142 38 90 142 38 34 142 50 34 142 50 34 142 50 34 88 50 34 88 50 34 88 62 34 88 62 48 88 62 48 88 62 48 106 62 48 106 38 48 106 38 48 106 38 48 106 38 62 106 38 62 124 50 62 124 50 62 124 50 62 124 50 62 124 50 62 124 62 76 142 62 76 142 62 76 142 62 76 142 62 76 142 38 76 142 38 76 88 38 90 88 38 90 88 38 90 88 50 90 88 50 90 88 50 90 106 50 90 106 50 34 106 62 34 106 62 34 106 62 34 106 62 34 124 62 34 124 38 34 124 38 48 124 38 48 124 38 48 124 38 48 142 50 48 142 50 48 142 50 48 142 50 62 142 50 62 142 62 62 88 62 62 88 62 62 88 62 62 88 62 62 88 38 76 88 38 76 106 38 76 106 38 76 106 38 76 106 50 76 106 50 76 106 50 90 124 50 90 124 50 90 124 62 90 124 62 90 124 62 90 124 62 90 142 62 34 142 38 34 142 38 34 142 38 34 142 38 34 142 38 34 88 50 34 88 50 48 88 50 48 88 50 48 88 50 48 88 62 48 106 62 48 106 62 48 106 62 62 106 62 62 106 38 62 106 38 62 124 38 62 124 38 62 124 38 62 124 50 76 124 50 76 124 50 76 142 50 76 142 50 76 142 62 76 142 62 76 142 62 90 142 62 90 88 62 90 88 38 90 88 38 90 88 38 90 88 38 90 88 38 34 106 50 34 106 50 34 106 50 34 106 50 34 106 50 34 106 62 34 124 62 48 124 62 48 124 62 48 124 62 48 124 38 48 124 38 48 142 38 48 142 38 62 142 38 62 142 50 62 142 50 62 142 50 62 88 50 62 88 50 62 88 62 76 88 62 76 88 62 76 88 62 76 106 62 76 106 38 76 106 38 76 106 38 90 106 38 90 106 38 90 124 50 90 124 50 90 124 50 90 124 50 90 124 50 34 124 62 34 142 62 34 142 62 34 142 62 34 142 62 34 142 38 34 142 38 48 88 38 48 88 38 48 88 38 48 88 50 48 88 50 48 88 50 48 106 50 62 106 50 62 106 62 62 106 62 62 106 62 62 106 62 62 124 62 62 124 38 76 124 38 76 124 38 76 124 38 76 124 38 76 142 50 76 142 50 76 142 50 90 142 50 90 142 50 90 142 62 90 88 62 90 88 62 90 88 62 90 88 62 34 88 38 34 88 38 34 106 38 34 106 38 34 106 38 34 106 50 34 106 50 48 106 50 48 124 50 48 124 50 48 124 62 48 124 62 48 124 62 48 124 62 62 142 62 62 142 38 62 142 38 62 142 38 62 142 38 62 142 38 62 88 50 76 88 50 76 88 50 76 88 50 76 88 50 76 88 62 76 106 62 76 106 62 90 106 62 90 106 62 90 106 38 90 106 38 90 124 38 90 124 38 90 124 38 34 124 50 34 124 50 34 124 50 34 142 50 34 142 50
48 124 50 48 124 50 48 124 50 48 124 50 48 124 50 48 124 62 48 142 62 62 142 62 62 142 62 62 142 62 62 142 38 62 142 38 62 88 38 62 88 38 76 88 38 76 88 50 76 88 50 76 88 50 76 106 50 76 106 50 76 106 62 90 106 62 90 106 62 90 106 62 90 124 62 90 124 38 90 124 38 90 124 38 34 124 38 34 124 38 34 142 50 34 142 50 34 142 50 34 142 50 34 142 50 48 142 62 48 88 62 48 88 62 48 88 62 48 88 62 48 88 38 48 88 38 62 106 38 62 106 38 62 106 38 62 106 50 62 106 50 62 106 50 62 124 50 76 124 50 76 124 62 76 124 62 76 124 62 76 124 62 76 142 62 76 142 38 90 142 38 90 142 38 90 142 38 90 142 38 90 88 50 90 88 50 90 88 50 34 88 50 34 88 50 34 88 62 34 106 62 34 106 62 34 106 62 34 106 62 48 106 38 48 106 38 48 124 38 48 124 38 48 124 38 48 124 50 48 124 50 62 124 50 62 142 50 62 142 50 62 142 62 62 142 62 62 142 62 62 142 62 76 88 62 76 88 38 76 88 38 76 88 38 76 88 38 76 88 38 76 106 50 90 106 50 90 106 50 90 106 50 90 106 50 90 106 62 90 124 62 90 124 62 34 124 62 34 124 62 34 124 38 34 124 38 34 142 38 34 142 38 34 142 38 48 142 50 48 142 50 48 142 50 48 88 50 48 88 50 48 88 62 48 88 62 62 88 62 62 88 62 62 106 62 62 106 38 62 106 38 62 106 38 62 106 38 76 106 38 76 124 50 76 124 50 76 124 50 76 124 50 76 124 50 76 124 62 90 142 62 90 142 62 90 142 62 90 142 62 90 142 38 90 142 38 90 88 38 34 88 38 34 88 38 34 88 50 34 88 50 34 88 50 34 106 50 34 106 50 48 106 62 48 106 62 48 106 62 48 106 62 48 124 62 48 124 38 48 124 38 62 124 38 62 124 38 62 124 38 62 142 50 62 142 50 62 142 50 62 142 50 76 142 50 76 142 62 76 88 62 76 88 62 76 88 62 76 88 62 76 88 38 90 88 38 90 106 38 90 106 38 90 106 38 90 106 50 90 106 50 90 106 50 34 124 50 34 124 50 34 124 62 34 124 62 34 124 62 34 124 62 34 142 62 48 142 38 48 142 38 48 142 38 48 142 38 48 142 38 48 88 50 48 88 50 62 88 50 62 88 50 62 88 50 62 88 62 62 106 62 62 106 62 62 106 62 76 106 62 76 106 38 76 106 38 76 124 38 76 124 38 76 124 38 76 124 50 90 124 50 90 124 50 90 142 50 90 142 50 90 142 62 90 142 62 90 142 62 34 142 62 34 88 62 34 88 38 34 88 38 34 88 38 34 88 38 34 88 38 48 106 50 48 106 50 48 106 50 48 106 50 48 106 50 48 106 62 48 124 62 62 124 62 62 124 62 62 124 62 62 124 38 62 124 38 62 142 38 62 142 38 76 142 38 76 142 50 76 142 50 76 142 50 76 88 50 76 88 50 76 88 62 90 88 62 90 88 62 90 88 62 90 106 62 90 106 38 90 106 38 90 106 38 34 106 38 34 106 38 34 124 50 34 124 50 34 124 50 34 124 50 34 124 50 48 124 62 48 142 62 48 142 62 48 142 62 48 142 62 48 142 38 48 142 38 62 88 38 62 88 38 62 88 38 62 88 50 62 88 50 62 88 50 62 106 50 76 106 50 76 106 62 76 106 62 76 106 62 76 106 62 76 124 62 76 124 38 90 124 38 90 124 38 90 124 38 90 124 38 90 142 50 90 142 50 90 142 50 34 142 50 34 142 50 34 142 62 34 88 62 34 88 62 34 88 62 34 88 62 48 88 38 48 88 38 48 106 38 48 106 38 48 106 38 48 106 50 48 106 50 62 106 50 62 124 50 62 124 50 62 124 62 62 124 62 62 124 62 62 124 62 76 142 62 76 142 38 76 142 38 76 142 38 76 142 38 76 142 38 76 88 50 90 88 50 90 88 50 90 88 50 90 88 50 90 88 62 90 106 62 90 106 62 34 106 62 34 106 62 34 106 38 34 106 38 34 124 38 34 124 38 34 124 38 48 124 50 48 124 50 48 124 50 48 142 50 48 142 50
48 124 50 48 124 50 48 124 50 48 124 50 48 124 50 48 124 62 48 142 62 62 142 62 62 142 62 62 142 62 62 142 38 62 142 38 62 88 38 62 88 38 76 88 38 76 88 50 76 88 50 76 88 50 76 106 50 76 106 50 76 106 62 90 106 62 90 106 62 90 106 62 90 124 62 90 124 38 90 124 38 90 124 38 34 124 38 34 124 38 34 142 50 34 142 50 34 142 50 34 142 50 34 142 50 48 142 62 48 88 62 48 88 62 48 88 62 48 88 62 48 88 38 48 88 38 62 106 38 62 106 38 62 106 38 62 106 50 62 106 50 62 106 50 62 124 50 76 124 50 76 124 62 76 124 62 76 124 62 76 124 62 76 142 62 76 142 38 90 142 38 90 142 38 90 142 38 90 142 38 90 88 50 90 88 50 90 88 50 34 88 50 34 88 50 34 88 62 34 106 62 34 106 62 34 106 62 34 106 62 48 106 38 48 106 38 48 124 38 48 124 38 48 124 38 48 124 50 48 124 50 62 124 50 62 142 50 62 142 50 62 142 62 62 142 62 62 142 62 62 142 62 76 88 62 76 88 38 76 88 38 76 88 38 76 88 38 76 88 38 76 106 50 90 106 50 90 106 50 90 106 50 90 106 50 90 106 62 90 124 62 90 124 62 34 124 62 34 124 62 34 124 38 34 124 38 34 142 38 34 142 38 34 142 38 48 142 50 48 142 50 48 142 50 48 88 50 48 88 50 48 88 62 48 88 62 62 88 62 62 88 62 62 106 62 62 106 38 62 106 38 62 106 38 62 106 38 76 106 38 76 124 50 76 124 50 76 124 50 76 124 50 76 124 50 76 124 62 90 142 62 90 142 62 90 142 62 90 142 62 90 142 38 90 142 38 90 88 38 34 88 38 34 88 38 34 88 50 34 88 50 34 88 50 34 106 50 34 106 50 48 106 62 48 106 62 48 106 62 48 106 62 48 124 62 48 124 38 48 124 38 62 124 38 62 124 38 62 124 38 62 142 50 62 142 50 62 142 50 62 142 50 76 142 50 76 142 62 76 88 62 76 88 62 76 88 62 76 88 62 76 88 38 90 88 38 90 106 38 90 106 38 90 106 38 90 106 50 90 106 50 90 106 50 34 124 50 34 124 50 34 124 62 34 124 62 34 124 62 34 124 62 34 142 62 48 142 38 48 142 38 48 142 38 48 142 38 48 142 38 48 88 50 48 88 50 62 88 50 62 88 50 62 88 50 62 88 62 62 106 62 62 106 62 62 106 62 76 106 62 76 106 38 76 106 38 76 124 38 76 124 38 76 124 38 76 124 50 90 124 50 90 124 50 90 142 50 90 142 50 90 142 62 90 142 62 90 142 62 34 142 62 34 88 62 34 88 38 34 88 38 34 88 38 34 88 38 34 88 38 48 106 50 48 106 50 48 106 50 48 106 50 48 106 50 48 106 62 48 124 62 62 124 62 62 124 62 62 124 62 62 124 38 62 124 38 62 142 38 62 142 38 76 142 38 76 142 50 76 142 50 76 142 50 76 88 50 76 88 50 76 88 62 90 88 62 90 88 62 90 88 62 90 106 62 90 106 38 90 106 38 90 106 38 34 106 38 34 106 38 34 124 50 34 124 50 34 124 50 34 124 50 34 124 50 48 124 62 48 142 62 48 142 62 48 142 62 48 142 62 48 142 38 48 142 38 62 88 38 62 88 38 62 88 38 62 88 50 62 88 50 62 88 50 62 106 50 76 106 50 76 106 62 76 106 62 76 106 62 76 106 62 76 124 62 76 124 38 90 124 38 90 124 38 90 124 38 90 124 38 90 142 50 90 142 50 90 142 50 34 142 50 34 142 50 34 142 62 34 88 62 34 88 62 34 88 62 34 88 62 48 88 38 48 88 38 48 106 38 48 106 38 48 106 38 48 106 50 48 106 50 62 106 50 62 124 50 62 124 50 62 124 62 62 124 62 62 124 62 62 124 62 76 142 62 76 142 38 76 142 38 76 142 38 76 142 38 76 142 38 76 88 50 90 88 50 90 88 50 90 88 50 90 88 50 90 88 62 90 106 62 90 106 62 34 106 62 34 106 62 34 106 38 34 106 38 34 124 38 34 124 38 34 124 38 48 124 50 48 124 50 48 124 50 48 142 50 48 142 50
48 124 50 48 124 50 48 124 50 48 124 50 48 124 50 48 124 62 48 142 62 62 142 62 62 142 62 62 142 62 62 142 38 62 142 38 62 88 38 62 88 38 76 88 38 76 88 50 76 88 50 76 88 50 76 106 50 76 106 50 76 106 62 90 106 62 90 106 62 90 106 62 90 124 62 90 124 38 90 124 38 90 124 38 34 124 38 34 124 38 34 142 50 34 142 50 34 142 50 34 142 50 34 142 50 48 142 62 48 88 62 48 88 62 48 88 62 48 88 62 48 88 38 48 88 38 62 106 38 62 106 38 62 106 38 62 106 50 62 106 50 62 106 50 62 124 50 76 124 50 76 124 62 76 124 62 76 124 62 76 124 62 76 142 62 76 142 38 90 142 38 90 142 38 90 142 38 90 142 38 90 88 50 90 88 50 90 88 50 34 88 50 34 88 50 34 88 62 34 106 62 34 106 62 34 106 62 34 106 62 48 106 38 48 106 38 48 124 38 48 124 38 48 124 38 48 124 50 48 124 50 62 124 50 62 142 50 62 142 50 62 142 62 62 142 62 62 142 62 62 142 62 76 88 62 76 88 38 76 88 38 76 88 38 76 88 38 76 88 38 76 106 50 90 106 50 90 106 50 90 106 50 90 106 50 90 106 62 90 124 62 90 124 62 34 124 62 34 124 62 34 124 38 34 124 38 34 142 38 34 142 38 34 142 38 48 142 50 48 142 50 48 142 50 48 88 50 48 88 50 48 88 62 48 88 62 62 88 62 62 88 62 62 106 62 62 106 38 62 106 38 62 106 38 62 106 38 76 106 38 76 124 50 76 124 50 76 124 50 76 124 50 76 124 50 76 124 62 90 142 62 90 142 62 90 142 62 90 142 62 90 142 38 90 142 38 90 88 38 34 88 38 34 88 38 34 88 50 34 88 50 34 88 50 34 106 50 34 106 50 48 106 62 48 106 62 48 106 62 48 106 62 48 124 62 48 124 38 48 124 38 62 124 38 62 124 38 62 124 38 62 142 50 62 142 50 62 142 50 62 142 50 76 142 50 76 142 62 76 88 62 76 88 62 76 88 62 76 88 62 76 88 38 90 88 38 90 106 38 90 106 38 90 106 38 90 106 50 90 106 50 90 106 50 34 124 50 34 124 50 34 124 62 34 124 62 34 124 62 34 124 62 34 142 62 48 142 38 48 142 38 48 142 38 48 142 38 48 142 38 48 88 50 48 88 50 62 88 50 62 88 50 62 88 50 62 88 62 62 106 62 62 106 62 62 106 62 76 106 62 76 106 38 76 106 38 76 124 38 76 124 38 76 124 38 76 124 50 90 124 50 90 124 50 90 142 50 90 142 50 90 142 62 90 142 62 90 142 62 34 142 62 34 88 62 34 88 38 34 88 38 34 88 38 34 88 38 34 88 38 48 106 50 48 106 50 48 106 50 48 106 50 48 106 50 48 106 62 48 124 62 62 124 62 62 124 62 62 124 62 62 124 38 62 124 38 62 142 38 62 142 38 76 142 38 76 142 50 76 142 50 76 142 50 76 88 50 76 88 50 76 88 62 90 88 62 90 88 62 90 88 62 90 106 62 90 106 38 90 106 38 90 106 38 34 106 38 34 106 38 34 124 50 34 124 50 34 124 50 34 124 50 34 124 50 48 124 62 48 142 62 48 142 62 48 142 62 48 142 62 48 142 38 48 142 38 62 88 38 62 88 38 62 88 38 62 88 50 62 88 50 62 88 50 62 106 50 76 106 50 76 106 62 76 106 62 76 106 62 76 106 62 76 124 62 76 124 38 90 124 38 90 124 38 90 124 38 90 124 38 90 142 50 90 142 50 90 142 50 34 142 50 34 142 50 34 142 62 34 88 62 34 88 62 34 88 62 34 88 62 48 88 38 48 88 38 48 106 38 48 106 38 48 106 38 48 106 50 48 106 50 62 106 50 62 124 50 62 124 50 62 124 62 62 124 62 62 124 62 62 124 62 76 142 62 76 142 38 76 142 38 76 142 38 76 142 38 76 142 38 76 88 50 90 88 50 90 88 50 90 88 50 90 88 50 90 88 62 90 106 62 90 106 62 34 106 62 34 106 62 34 106 38 34 106 38 34 124 38 34 124 38 34 124 38 48 124 50 48 124 50 48 124 50 48 142 50 48 142 50
48 124 50 48 124 50 48 124 50 48 124 50 48 124 50 48 124 62 48 142 62 62 142 62 62 142 62 62 142 62 62 142 38 62 142 38 62 88 38 62 88 38 76 88 38 76 88 50 76 88 50 76 88 50 76 106 50 76 106 50 76 106 62 90 106 62 90 106 62 90 106 62 90 124 62 90 124 38 90 124 38 90 124 38 34 124 38 34 124 38 34 142 50 34 142 50 34 142 50 34 142 50 34 142 50 48 142 62 48 88 62 48 88 62 48 88 62 48 88 62 48 88 38 48 88 38 62 106 38 62 106 38 62 106 38 62 106 50 62 106 50 62 106 50 62 124 50 76 124 50 76 124 62 76 124 62 76 124 62 76 124 62 76 142 62 76 142 38 90 142 38 90 142 38 90 142 38 90 142 38 90 88 50 90 88 50 90 88 50 34 88 50 34 88 50 34 88 62 34 106 62 34 106 62 34 106 62 34 106 62 48 106 38 48 106 38 48 124 38 48 124 38 48 124 38 48 124 50 48 124 50 62 124 50 62 142 50 62 142 50 62 142 62 62 142 62 62 142 62 62 142 62 76 88 62 76 88 38 76 88 38 76 88 38 76 88 38 76 88 38 76 106 50 90 106 50 90 106 50 90 106 50 90 106 50 90 106 62 90 124 62 90 124 62 34 124 62 34 124 62 34 124 38 34 124 38 34 142 38 34 142 38 34 142 38 48 142 50 48 142 50 48 142 50 48 88 50 48 88 50 48 88 62 48 88 62 62 88 62 62 88 62 62 106 62 62 106 38 62 106 38 62 106 38 62 106 38 76 106 38 76 124 50 76 124 50 76 124 50 76 124 50 76 124 50 76 124 62 90 142 62 90 142 62 90 142 62 90 142 62 90 142 38 90 142 38 90 88 38 34 88 38 34 88 38 34 88 50 34 88 50 34 88 50 34 106 50 34 106 50 48 106 62 48 106 62 48 106 62 48 106 62 48 124 62 48 124 38 48 124 38 62 124 38 62 124 38 62 124 38 62 142 50 62 142 50 62 142 50 62 142 50 76 142 50 76 142 62 76 88 62 76 88 62 76 88 62 76 88 62 76 88 38 90 88 38 90 106 38 90 106 38 90 106 38 90 106 50 90 106 50 90 106 50 34 124 50 34 124 50 34 124 62 34 124 62 34 124 62 34 124 62 34 142 62 48 142 38 48 142 38 48 142 38 48 142 38 48 142 38 48 88 50 48 88 50 62 88 50 62 88 50 62 88 50 62 88 62 62 106 62 62 106 62 62 106 62 76 106 62 76 106 38 76 106 38 76 124 38 76 124 38 76 124 38 76 124 50 90 124 50 90 124 50 90 142 50 90 142 50 90 142 62 90 142 62 90 142 62 34 142 62 34 88 62 34 88 38 34 88 38 34 88 38 34 88 38 34 88 38 48 106 50 48 106 50 48 106 50 48 106 50 48 106 50 48 106 62 48 124 62 62 124 62 62 124 62 62 124 62 62 124 38 62 124 38 62 142 38 62 142 38 76 142 38 76 142 50 76 142 50 76 142 50 76 88 50 76 88 50 76 88 62 90 88 62 90 88 62 90 88 62 90 106 62 90 106 38 90 106 38 90 106 38 34 106 38 34 106 38 34 124 50 34 124 50 34 124 50 34 124 50 34 124 50 48 124 62 48 142 62 48 142 62 48 142 62 48 142 62 48 142 38 48 142 38 62 88 38 62 88 38 62 88 38 62 88 50 62 88 50 62 88 50 62 106 50 76 106 50 76 106 62 76 106 62 76 106 62 76 106 62 76 124 62 76 124 38 90 124 38 90 124 38 90 124 38 90 124 38 90 142 50 90 142 50 90 142 50 34 142 50 34 142 50 34 142 62 34 88 62 34 88 62 34 88 62 34 88 62 48 88 38 48 88 38 48 106 38 48 106 38 48 106 38 48 106 50 48 106 50 62 106 50 62 124 50 62 124 50 62 124 62 62 124 62 62 124 62 62 124 62 76 142 62 76 142 38 76 142 38 76 142 38 76 142 38 76 142 38 76 88 50 90 88 50 90 88 50 90 88 50 90 88 50 90 88 62 90 106 62 90 106 62 34 106 62 34 106 62 34 106 38 34 106 38 34 124 38 34 124 38 34 124 38 48 124 50 48 124 50 48 124 50 48 142 50 48 142 50
48 124 50 48 124 50 48 124 50 48 124 50 48 124 50 48 124 62 48 142 62 62 142 62 62 142 62 62 142 62 62 142 38 62 142 38 62 88 38 62 88 38 76 88 38 76 88 50 76 88 50 76 88 50 76 106 50 76 106 50 76 106 62 90 106 62 90 106 62 90 106 62 90 124 62 90 124 38 90 124 38 90 124 38 34 124 38 34 124 38 34 142 50 34 142 50 34 142 50 34 142 50 34 142 50 48 142 62 48 88 62 48 88 62 48 88 62 48 88 62 48 88 38 48 88 38 62 106 38 62 106 38 62 106 38 62 106 50 62 106 50 62 106 50 62 124 50 76 124 50 76 124 62 76 124 62 76 124 62 76 124 62 76 142 62 76 142 38 90 142 38 90 142 38 90 142 38 90 142 38 90 88 50 90 88 50 90 88 50 34 88 50 34 88 50 34 88 62 34 106 62 34 106 62 34 106 62 34 106 62 48 106 38 48 106 38 48 124 38 48 124 38 48 124 38 48 124 50 48 124 50 62 124 50 62 142 50 62 142 50 62 142 62 62 142 62 62 142 62 62 142 62 76 88 62 76 88 38 76 88 38 76 88 38 76 88 38 76 88 38 76 106 50 90 106 50 90 106 50 90 106 50 90 106 50 90 106 62 90 124 62 90 124 62 34 124 62 34 124 62 34 124 38 34 124 38 34 142 38 34 142 38 34 142 38 48 142 50 48 142 50 48 142 50 48 88 50 48 88 50 48 88 62 48 88 62 62 88 62 62 88 62 62 106 62 62 106 38 62 106 38 62 106 38 62 106 38 76 106 38 76 124 50 76 124 50 76 124 50 76 124 50 76 124 50 76 124 62 90 142 62 90 142 62 90 142 62 90 142 62 90 142 38 90 142 38 90 88 38 34 88 38 34 88 38 34 88 50 34 88 50 34 88 50 34 106 50 34 106 50 48 106 62 48 106 62 48 106 62 48 106 62 48 124 62 48 124 38 48 124 38 62 124 38 62 124 38 62 124 38 62 142 50 62 142 50 62 142 50 62 142 50 76 142 50 76 142 62 76 88 62 76 88 62 76 88 62 76 88 62 76 88 38 90 88 38 90 106 38 90 106 38 90 106 38 90 106 50 90 106 50 90 106 50 34 124 50 34 124 50 34 124 62 34 124 62 34 124 62 34 124 62 34 142 62 48 142 38 48 142 38 48 142 38 48 142 38 48 142 38 48 88 50 48 88 50 62 88 50 62 88 50 62 88 50 62 88 62 62 106 62 62 106 62 62 106 62 76 106 62 76 106 38 76 106 38 76 124 38 76 124 38 76 124 38 76 124 50 90 124 50 90 124 50 90 142 50 90 142 50 90 142 62 90 142 62 90 142 62 34 142 62 34 88 62 34 88 38 34 88 38 34 88 38 34 88 38 34 88 38 48 106 50 48 106 50 48 106 50 48 106 50 48 106 50 48 106 62 48 124 62 62 124 62 62 124 62 62 124 62 62 124 38 62 124 38 62 142 38 62 142 38 76 142 38 76 142 50 76 142 50 76 142 50 76 88 50 76 88 50 76 88 62 90 88 62 90 88 62 90 88 62 90 106 62 90 106 38 90 106 38 90 106 38 34 106 38 34 106 38 34 124 50 34 124 50 34 124 50 34 124 50 34 124 50 48 124 62 48 142 62 48 142 62 48 142 62 48 142 62 48 142 38 48 142 38 62 88 38 62 88 38 62 88 38 62 88 50 62 88 50 62 88 50 62 106 50 76 106 50 76 106 62 76 106 62 76 106 62 76 106 62 76 124 62 76 124 38 90 124 38 90 124 38 90 124 38 90 124 38 90 142 50 90 142 50 90 142 50 34 142 50 34 142 50 34 142 62 34 88 62 34 88 62 34 88 62 34 88 62 48 88 38 48 88 38 48 106 38 48 106 38 48 106 38 48 106 50 48 106 50 62 106 50 62 124 50 62 124 50 62 124 62 62 124 62 62 124 62 62 124 62 76 142 62 76 142 38 76 142 38 76 142 38 76 142 38 76 142 38 76 88 50 90 88 50 90 88 50 90 88 50 90 88 50 90 88 62 90 106 62 90 106 62 34 106 62 34 106 62 34 106 38 34 106 38 34 124 38 34 124 38 34 124 38 48 124 50 48 124 50 48 124 50 48 142 50 48 142 50
62 124 62 62 124 62 62 124 62 62 124 62 62 124 62 62 124 38 62 142 38 76 142 38 76 142 38 76 142 38 76 142 50 76 142 50 76 88 50 76 88 50 90 88 50 90 88 62 90 88 62 90 88 62 90 106 62 90 106 62 90 106 38 34 106 38 34 106 38 34 106 38 34 124 38 34 124 50 34 124 50 34 124 50 48 124 50 48 124 50 48 142 62 48 142 62 48 142 62 48 142 62 48 142 62 62 142 38 62 88 38 62 88 38 62 88 38 62 88 38 62 88 50 62 88 50 76 106 50 76 106 50 76 106 50 76 106 62 76 106 62 76 106 62 76 124 62 90 124 62 90 124 38 90 124 38 90 124 38 90 124 38 90 142 38 90 142 50 34 142 50 34 142 50 34 142 50 34 142 50 34 88 62 34 88 62 34 88 62 48 88 62 48 88 62 48 88 38 48 106 38 48 106 38 48 106 38 48 106 38 62 106 50 62 106 50 62 124 50 62 124 50 62 124 50 62 124 62 62 124 62 76 124 62 76 142 62 76 142 62 76 142 38 76 142 38 76 142 38 76 142 38 90 88 38 90 88 50 90 88 50 90 88 50 90 88 50 90 88 50 90 106 62 34 106 62 34 106 62 34 106 62 34 106 62 34 106 38 34 124 38 34 124 38 48 124 38 48 124 38 48 124 50 48 124 50 48 142 50 48 142 50 48 142 50 62 142 62 62 142 62 62 142 62 62 88 62 62 88 62 62 88 38 62 88 38 76 88 38 76 88 38 76 106 38 76 106 50 76 106 50 76 106 50 76 106 50 90 106 50 90 124 62 90 124 62 90 124 62 90 124 62 90 124 62 90 124 38 34 142 38 34 142 38 34 142 38 34 142 38 34 142 50 34 142 50 34 88 50 48 88 50 48 88 50 48 88 62 48 88 62 48 88 62 48 106 62 48 106 62 62 106 38 62 106 38 62 106 38 62 106 38 62 124 38 62 124 50 62 124 50 76 124 50 76 124 50 76 124 50 76 142 62 76 142 62 76 142 62 76 142 62 90 142 62 90 142 38 90 88 38 90 88 38 90 88 38 90 88 38 90 88 50 34 88 50 34 106 50 34 106 50 34 106 50 34 106 62 34 106 62 34 106 62 48 124 62 48 124 62 48 124 38 48 124 38 48 124 38 48 124 38 48 142 38 62 142 50 62 142 50 62 142 50 62 142 50 62 142 50 62 88 62 62 88 62 76 88 62 76 88 62 76 88 62 76 88 38 76 106 38 76 106 38 76 106 38 90 106 38 90 106 50 90 106 50 90 124 50 90 124 50 90 124 50 90 124 62 34 124 62 34 124 62 34 142 62 34 142 62 34 142 38 34 142 38 34 142 38 48 142 38 48 88 38 48 88 50 48 88 50 48 88 50 48 88 50 48 88 50 62 106 62 62 106 62 62 106 62 62 106 62 62 106 62 62 106 38 62 124 38 76 124 38 76 124 38 76 124 38 76 124 50 76 124 50 76 142 50 76 142 50 90 142 50 90 142 62 90 142 62 90 142 62 90 88 62 90 88 62 90 88 38 34 88 38 34 88 38 34 88 38 34 106 38 34 106 50 34 106 50 34 106 50 48 106 50 48 106 50 48 124 62 48 124 62 48 124 62 48 124 62 48 124 62 62 124 38 62 142 38 62 142 38 62 142 38 62 142 38 62 142 50 62 142 50 76 88 50 76 88 50 76 88 50 76 88 62 76 88 62 76 88 62 76 106 62 90 106 62 90 106 38 90 106 38 90 106 38 90 106 38 90 124 38 90 124 50 34 124 50 34 124 50 34 124 50 34 124 50 34 142 62 34 142 62 34 142 62 48 142 62 48 142 62 48 142 38 48 88 38 48 88 38 48 88 38 48 88 38 62 88 50 62 88 50 62 106 50 62 106 50 62 106 50 62 106 62 62 106 62 76 106 62 76 124 62 76 124 62 76 124 38 76 124 38 76 124 38 76 124 38 90 142 38 90 142 50 90 142 50 90 142 50 90 142 50 90 142 50 90 88 62 34 88 62 34 88 62 34 88 62 34 88 62 34 88 38 34 106 38 34 106 38 48 106 38 48 106 38 48 106 50 48 106 50 48 124 50 48 124 50 48 124 50 62 124 62 62 124 62 62 124 62 62 142 62 62 142 62
62 142 62 62 142 62 62 142 62 62 142 62 62 142 62 62 142 38 62 88 38 76 88 38 76 88 38 76 88 38 76 88 50 76 88 50 76 106 50 76 106 50 90 106 50 90 106 62 90 106 62 90 106 62 90 124 62 90 124 62 90 124 38 34 124 38 34 124 38 34 124 38 34 142 38 34 142 50 34 142 50 34 142 50 48 142 50 48 142 50 48 88 62 48 88 62 48 88 62 48 88 62 48 88 62 62 88 38 62 106 38 62 106 38 62 106 38 62 106 38 62 106 50 62 106 50 76 124 50 76 124 50 76 124 50 76 124 62 76 124 62 76 124 62 76 142 62 90 142 62 90 142 38 90 142 38 90 142 38 90 142 38 90 88 38 90 88 50 34 88 50 34 88 50 34 88 50 34 88 50 34 106 62 34 106 62 34 106 62 48 106 62 48 106 62 48 106 38 48 124 38 48 124 38 48 124 38 48 124 38 62 124 50 62 124 50 62 142 50 62 142 50 62 142 50 62 142 62 62 142 62 76 142 62 76 88 62 76 88 62 76 88 38 76 88 38 76 88 38 76 88 38 90 106 38 90 106 50 90 106 50 90 106 50 90 106 50 90 106 50 90 124 62 34 124 62 34 124 62 34 124 62 34 124 62 34 124 38 34 142 38 34 142 38 48 142 38 48 142 38 48 142 50 48 142 50 48 88 50 48 88 50 48 88 50 62 88 62 62 88 62 62 88 62 62 106 62 62 106 62 62 106 38 62 106 38 76 106 38 76 106 38 76 124 38 76 124 50 76 124 50 76 124 50 76 124 50 90 124 50 90 142 62 90 142 62 90 142 62 90 142 62 90 142 62 90 142 38 34 88 38 34 88 38 34 88 38 34 88 38 34 88 50 34 88 50 34 106 50 48 106 50 48 106 50 48 106 62 48 106 62 48 106 62 48 124 62 48 124 62 62 124 38 62 124 38 62 124 38 62 124 38 62 142 38 62 142 50 62 142 50 76 142 50 76 142 50 76 142 50 76 88 62 76 88 62 76 88 62 76 88 62 90 88 62 90 88 38 90 106 38 90 106 38 90 106 38 90 106 38 90 106 50 34 106 50 34 124 50 34 124 50 34 124 50 34 124 62 34 124 62 34 124 62 48 142 62 48 142 62 48 142 38 48 142 38 48 142 38 48 142 38 48 88 38 62 88 50 62 88 50 62 88 50 62 88 50 62 88 50 62 106 62 62 106 62 76 106 62 76 106 62 76 106 62 76 106 38 76 124 38 76 124 38 76 124 38 90 124 38 90 124 50 90 124 50 90 142 50 90 142 50 90 142 50 90 142 62 34 142 62 34 142 62 34 88 62 34 88 62 34 88 38 34 88 38 34 88 38 48 88 38 48 106 38 48 106 50 48 106 50 48 106 50 48 106 50 48 106 50 62 124 62 62 124 62 62 124 62 62 124 62 62 124 62 62 124 38 62 142 38 76 142 38 76 142 38 76 142 38 76 142 50 76 142 50 76 88 50 76 88 50 90 88 50 90 88 62 90 88 62 90 88 62 90 106 62 90 106 62 90 106 38 34 106 38 34 106 38 34 106 38 34 124 38 34 124 50 34 124 50 34 124 50 48 124 50 48 124 50 48 142 62 48 142 62 48 142 62 48 142 62 48 142 62 62 142 38 62 88 38 62 88 38 62 88 38 62 88 38 62 88 50 62 88 50 76 106 50 76 106 50 76 106 50 76 106 62 76 106 62 76 106 62 76 124 62 90 124 62 90 124 38 90 124 38 90 124 38 90 124 38 90 142 38 90 142 50 34 142 50 34 142 50 34 142 50 34 142 50 34 88 62 34 88 62 34 88 62 48 88 62 48 88 62 48 88 38 48 106 38 48 106 38 48 106 38 48 106 38 62 106 50 62 106 50 62 124 50 62 124 50 62 124 50 62 124 62 62 124 62 76 124 62 76 142 62 76 142 62 76 142 38 76 142 38 76 142 38 76 142 38 90 88 38 90 88 50 90 88 50 90 88 50 90 88 50 90 88 50 90 106 62 34 106 62 34 106 62 34 106 62 34 106 62 34 106 38 34 124 38 34 124 38 48 124 38 48 124 38 48 124 50 48 124 50 48 142 50 48 142 50 48 142 50 62 142 62 62 142 62 62 142 62 62 88 62 62 88 62
62 142 62 62 142 62 62 142 62 62 142 62 62 142 62 62 142 38 62 88 38 76 88 38 76 88 38 76 88 38 76 88 50 76 88 50 76 106 50 76 106 50 90 106 50 90 106 62 90 106 62 90 106 62 90 124 62 90 124 62 90 124 38 34 124 38 34 124 38 34 124 38 34 142 38 34 142 50 34 142 50 34 142 50 48 142 50 48 142 50 48 88 62 48 88 62 48 88 62 48 88 62 48 88 62 62 88 38 62 106 38 62 106 38 62 106 38 62 106 38 62 106 50 62 106 50 76 124 50 76 124 50 76 124 50 76 124 62 76 124 62 76 124 62 76 142 62 90 142 62 90 142 38 90 142 38 90 142 38 90 142 38 90 88 38 90 88 50 34 88 50 34 88 50 34 88 50 34 88 50 34 106 62 34 106 62 34 106 62 48 106 62 48 106 62 48 106 38 48 124 38 48 124 38 48 124 38 48 124 38 62 124 50 62 124 50 62 142 50 62 142 50 62 142 50 62 142 62 62 142 62 76 142 62 76 88 62 76 88 62 76 88 38 76 88 38 76 88 38 76 88 38 90 106 38 90 106 50 90 106 50 90 106 50 90 106 50 90 106 50 90 124 62 34 124 62 34 124 62 34 124 62 34 124 62 34 124 38 34 142 38 34 142 38 48 142 38 48 142 38 48 142 50 48 142 50 48 88 50 48 88 50 48 88 50 62 88 62 62 88 62 62 88 62 62 106 62 62 106 62 62 106 38 62 106 38 76 106 38 76 106 38 76 124 38 76 124 50 76 124 50 76 124 50 76 124 50 90 124 50 90 142 62 90 142 62 90 142 62 90 142 62 90 142 62 90 142 38 34 88 38 34 88 38 34 88 38 34 88 38 34 88 50 34 88 50 34 106 50 48 106 50 48 106 50 48 106 62 48 106 62 48 106 62 48 124 62 48 124 62 62 124 38 62 124 38 62 124 38 62 124 38 62 142 38 62 142 50 62 142 50 76 142 50 76 142 50 76 142 50 76 88 62 76 88 62 76 88 62 76 88 62 90 88 62 90 88 38 90 106 38 90 106 38 90 106 38 90 106 38 90 106 50 34 106 50 34 124 50 34 124 50 34 124 50 34 124 62 34 124 62 34 124 62 48 142 62 48 142 62 48 142 38 48 142 38 48 142 38 48 142 38 48 88 38 62 88 50 62 88 50 62 88 50 62 88 50 62 88 50 62 106 62 62 106 62 76 106 62 76 106 62 76 106 62 76 106 38 76 124 38 76 124 38 76 124 38 90 124 38 90 124 50 90 124 50 90 142 50 90 142 50 90 142 50 90 142 62 34 142 62 34 142 62 34 88 62 34 88 62 34 88 38 34 88 38 34 88 38 48 88 38 48 106 38 48 106 50 48 106 50 48 106 50 48 106 50 48 106 50 62 124 62 62 124 62 62 124 62 62 124 62 62 124 62 62 124 38 62 142 38 76 142 38 76 142 38 76 142 38 76 142 50 76 142 50 76 88 50 76 88 50 90 88 50 90 88 62 90 88 62 90 88 62 90 106 62 90 106 62 90 106 38 34 106 38 34 106 38 34 106 38 34 124 38 34 124 50 34 124 50 34 124 50 48 124 50 48 124 50 48 142 62 48 142 62 48 142 62 48 142 62 48 142 62 62 142 38 62 88 38 62 88 38 62 88 38 62 88 38 62 88 50 62 88 50 76 106 50 76 106 50 76 106 50 76 106 62 76 106 62 76 106 62 76 124 62 90 124 62 90 124 38 90 124 38 90 124 38 90 124 38 90 142 38 90 142 50 34 142 50 34 142 50 34 142 50 34 142 50 34 88 62 34 88 62 34 88 62 48 88 62 48 88 62 48 88 38 48 106 38 48 106 38 48 106 38 48 106 38 62 106 50 62 106 50 62 124 50 62 124 50 62 124 50 62 124 62 62 124 62 76 124 62 76 142 62 76 142 62 76 142 38 76 142 38 76 142 38 76 142 38 90 88 38 90 88 50 90 88 50 90 88 50 90 88 50 90 88 50 90 106 62 34 106 62 34 106 62 34 106 62 34 106 62 34 106 38 34 124 38 34 124 38 48 124 38 48 124 38 48 124 50 48 124 50 48 142 50 48 142 50 48 142 50 62 142 62 62 142 62 62 142 62 62 88 62 62 88 62
62 142 62 62 142 62 62 142 62 62 142 62 62 142 62 62 142 38 62 88 38 76 88 38 76 88 38 76 88 38 76 88 50 76 88 50 76 106 50 76 106 50 90 106 50 90 106 62 90 106 62 90 106 62 90 124 62 90 124 62 90 124 38 34 124 38 34 124 38 34 124 38 34 142 38 34 142 50 34 142 50 34 142 50 48 142 50 48 142 50 48 88 62 48 88 62 48 88 62 48 88 62 48 88 62 62 88 38 62 106 38 62 106 38 62 106 38 62 106 38 62 106 50 62 106 50 76 124 50 76 124 50 76 124 50 76 124 62 76 124 62 76 124 62 76 142 62 90 142 62 90 142 38 90 142 38 90 142 38 90 142 38 90 88 38 90 88 50 34 88 50 34 88 50 34 88 50 34 88 50 34 106 62 34 106 62 34 106 62 48 106 62 48 106 62 48 106 38 48 124 38 48 124 38 48 124 38 48 124 38 62 124 50 62 124 50 62 142 50 62 142 50 62 142 50 62 142 62 62 142 62 76 142 62 76 88 62 76 88 62 76 88 38 76 88 38 76 88 38 76 88 38 90 106 38 90 106 50 90 106 50 90 106 50 90 106 50 90 106 50 90 124 62 34 124 62 34 124 62 34 124 62 34 124 62 34 124 38 34 142 38 34 142 38 48 142 38 48 142 38 48 142 50 48 142 50 48 88 50 48 88 50 48 88 50 62 88 62 62 88 62 62 88 62 62 106 62 62 106 62 62 106 38 62 106 38 76 106 38 76 106 38 76 124 38 76 124 50 76 124 50 76 124 50 76 124 50 90 124 50 90 142 62 90 142 62 90 142 62 90 142 62 90 142 62 90 142 38 34 88 38 34 88 38 34 88 38 34 88 38 34 88 50 34 88 50 34 106 50 48 106 50 48 106 50 48 106 62 48 106 62 48 106 62 48 124 62 48 124 62 62 124 38 62 124 38 62 124 38 62 124 38 62 142 38 62 142 50 62 142 50 76 142 50 76 142 50 76 142 50 76 88 62 76 88 62 76 88 62 76 88 62 90 88 62 90 88 38 90 106 38 90 106 38 90 106 38 90 106 38 90 106 50 34 106 50 34 124 50 34 124 50 34 124 50 34 124 62 34 124 62 34 124 62 48 142 62 48 142 62 48 142 38 48 142 38 48 142 38 48 142 38 48 88 38 62 88 50 62 88 50 62 88 50 62 88 50 62 88 50 62 106 62 62 106 62 76 106 62 76 106 62 76 106 62 76 106 38 76 124 38 76 124 38 76 124 38 90 124 38 90 124 50 90 124 50 90 142 50 90 142 50 90 142 50 90 142 62 34 142 62 34 142 62 34 88 62 34 88 62 34 88 38 34 88 38 34 88 38 48 88 38 48 106 38 48 106 50 48 106 50 48 106 50 48 106 50 48 106 50 62 124 62 62 124 62 62 124 62 62 124 62 62 124 62 62 124 38 62 142 38 76 142 38 76 142 38 76 142 38 76 142 50 76 142 50 76 88 50 76 88 50 90 88 50 90 88 62 90 88 62 90 88 62 90 106 62 90 106 62 90 106 38 34 106 38 34 106 38 34 106 38 34 124 38 34 124 50 34 124 50 34 124 50 48 124 50 48 124 50 48 142 62 48 142 62 48 142 62 48 142 62 48 142 62 62 142 38 62 88 38 62 88 38 62 88 38 62 88 38 62 88 50 62 88 50 76 106 50 76 106 50 76 106 50 76 106 62 76 106 62 76 106 62 76 124 62 90 124 62 90 124 38 90 124 38 90 124 38 90 124 38 90 142 38 90 142 50 34 142 50 34 142 50 34 142 50 34 142 50 34 88 62 34 88 62 34 88 62 48 88 62 48 88 62 48 88 38 48 106 38 48 106 38 48 106 38 48 106 38 62 106 50 62 106 50 62 124 50 62 124 50 62 124 50 62 124 62 62 124 62 76 124 62 76 142 62 76 142 62 76 142 38 76 142 38 76 142 38 76 142 38 90 88 38 90 88 50 90 88 50 90 88 50 90 88 50 90 88 50 90 106 62 34 106 62 34 106 62 34 106 62 34 106 62 34 106 38 34 124 38 34 124 38 48 124 38 48 124 38 48 124 50 48 124 50 48 142 50 48 142 50 48 142 50 62 142 62 62 142 62 62 142 62 62 88 62 62 88 62
62 142 62 62 142 62 62 142 62 62 142 62 62 142 62 62 142 38 62 88 38 76 88 38 76 88 38 76 88 38 76 88 50 76 88 50 76 106 50 76 106 50 90 106 50 90 106 62 90 106 62 90 106 62 90 124 62 90 124 62 90 124 38 34 124 38 34 124 38 34 124 38 34 142 38 34 142 50 34 142 50 34 142 50 48 142 50 48 142 50 48 88 62 48 88 62 48 88 62 48 88 62 48 88 62 62 88 38 62 106 38 62 106 38 62 106 38 62 106 38 62 106 50 62 106 50 76 124 50 76 124 50 76 124 50 76 124 62 76 124 62 76 124 62 76 142 62 90 142 62 90 142 38 90 142 38 90 142 38 90 142 38 90 88 38 90 88 50 34 88 50 34 88 50 34 88 50 34 88 50 34 106 62 34 106 62 34 106 62 48 106 62 48 106 62 48 106 38 48 124 38 48 124 38 48 124 38 48 124 38 62 124 50 62 124 50 62 142 50 62 142 50 62 142 50 62 142 62 62 142 62 76 142 62 76 88 62 76 88 62 76 88 38 76 88 38 76 88 38 76 88 38 90 106 38 90 106 50 90 106 50 90 106 50 90 106 50 90 106 50 90 124 62 34 124 62 34 124 62 34 124 62 34 124 62 34 124 38 34 142 38 34 142 38 48 142 38 48 142 38 48 142 50 48 142 50 48 88 50 48 88 50 48 88 50 62 88 62 62 88 62 62 88 62 62 106 62 62 106 62 62 106 38 62 106 38 76 106 38 76 106 38 76 124 38 76 124 50 76 124 50 76 124 50 76 124 50 90 124 50 90 142 62 90 142 62 90 142 62 90 142 62 90 142 62 90 142 38 34 88 38 34 88 38 34 88 38 34 88 38 34 88 50 34 88 50 34 106 50 48 106 50 48 106 50 48 106 62 48 106 62 48 106 62 48 124 62 48 124 62 62 124 38 62 124 38 62 124 38 62 124 38 62 142 38 62 142 50 62 142 50 76 142 50 76 142 50 76 142 50 76 88 62 76 88 62 76 88 62 76 88 62 90 88 62 90 88 38 90 106 38 90 106 38 90 106 38 90 106 38 90 106 50 34 106 50 34 124 50 34 124 50 34 124 50 34 124 62 34 124 62 34 124 62 48 142 62 48 142 62 48 142 38 48 142 38 48 142 38 48 142 38 48 88 38 62 88 50 62 88 50 62 88 50 62 88 50 62 88 50 62 106 62 62 106 62 76 106 62 76 106 62 76 106 62 76 106 38 76 124 38 76 124 38 76 124 38 90 124 38 90 124 50 90 124 50 90 142 50 90 142 50 90 142 50 90 142 62 34 142 62 34 142 62 34 88 62 34 88 62 34 88 38 34 88 38 34 88 38 48 88 38 48 106 38 48 106 50 48 106 50 48 106 50 48 106 50 48 106 50 62 124 62 62 124 62 62 124 62 62 124 62 62 124 62 62 124 38 62 142 38 76 142 38 76 142 38 76 142 38 76 142 50 76 142 50 76 88 50 76 88 50 90 88 50 90 88 62 90 88 62 90 88 62 90 106 62 90 106 62 90 106 38 34 106 38 34 106 38 34 106 38 34 124 38 34 124 50 34 124 50 34 124 50 48 124 50 48 124 50 48 142 62 48 142 62 48 142 62 48 142 62 48 142 62 62 142 38 62 88 38 62 88 38 62 88 38 62 88 38 62 88 50 62 88 50 76 106 50 76 106 50 76 106 50 76 106 62 76 106 62 76 106 62 76 124 62 90 124 62 90 124 38 90 124 38 90 124 38 90 124 38 90 142 38 90 142 50 34 142 50 34 142 50 34 142 50 34 142 50 34 88 62 34 88 62 34 88 62 48 88 62 48 88 62 48 88 38 48 106 38 48 106 38 48 106 38 48 106 38 62 106 50 62 106 50 62 124 50 62 124 50 62 124 50 62 124 62 62 124 62 76 124 62 76 142 62 76 142 62 76 142 38 76 142 38 76 142 38 76 142 38 90 88 38 90 88 50 90 88 50 90 88 50 90 88 50 90 88 50 90 106 62 34 106 62 34 106 62 34 106 62 34 106 62 34 106 38 34 124 38 34 124 38 48 124 38 48 124 38 48 124 50 48 124 50 48 142 50 48 142 50 48 142 50 62 142 62 62 142 62 62 142 62 62 88 62 62 88 62
76 142 62 76 142 62 76 142 62 76 142 62 76 142 62 76 142 38 76 88 38 90 88 38 90 88 38 90 88 38 90 88 50 90 88 50 90 106 50 90 106 50 34 106 50 34 106 62 34 106 62 34 106 62 34 124 62 34 124 62 34 124 38 48 124 38 48 124 38 48 124 38 48 142 38 48 142 50 48 142 50 48 142 50 62 142 50 62 142 50 62 88 62 62 88 62 62 88 62 62 88 62 62 88 62 76 88 38 76 106 38 76 106 38 76 106 38 76 106 38 76 106 50 76 106 50 90 124 50 90 124 50 90 124 50 90 124 62 90 124 62 90 124 62 90 142 62 34 142 62 34 142 38 34 142 38 34 142 38 34 142 38 34 88 38 34 88 50 48 88 50 48 88 50 48 88 50 48 88 50 48 106 62 48 106 62 48 106 62 62 106 62 62 106 62 62 106 38 62 124 38 62 124 38 62 124 38 62 124 38 76 124 50 76 124 50 76 142 50 76 142 50 76 142 50 76 142 62 76 142 62 90 142 62 90 88 62 90 88 62 90 88 38 90 88 38 90 88 38 90 88 38 34 106 38 34 106 50 34 106 50 34 106 50 34 106 50 34 106 50 34 124 62 48 124 62 48 124 62 48 124 62 48 124 62 48 124 38 48 142 38 48 142 38 62 142 38 62 142 38 62 142 50 62 142 50 62 88 50 62 88 50 62 88 50 76 88 62 76 88 62 76 88 62 76 106 62 76 106 62 76 106 38 76 106 38 90 106 38 90 106 38 90 124 38 90 124 50 90 124 50 90 124 50 90 124 50 34 124 50 34 142 62 34 142 62 34 142 62 34 142 62 34 142 62 34 142 38 48 88 38 48 88 38 48 88 38 48 88 38 48 88 50 48 88 50 48 106 50 62 106 50 62 106 50 62 106 62 62 106 62 62 106 62 62 124 62 62 124 62 76 124 38 76 124 38 76 124 38 76 124 38 76 142 38 76 142 50 76 142 50 90 142 50 90 142 50 90 142 50 90 88 62 90 88 62 90 88 62 90 88 62 34 88 62 34 88 38 34 106 38 34 106 38 34 106 38 34 106 38 34 106 50 48 106 50 48 124 50 48 124 50 48 124 50 48 124 62 48 124 62 48 124 62 62 142 62 62 142 62 62 142 38 62 142 38 62 142 38 62 142 38 62 88 38 76 88 50 76 88 50 76 88 50 76 88 50 76 88 50 76 106 62 76 106 62 90 106 62 90 106 62 90 106 62 90 106 38 90 124 38 90 124 38 90 124 38 34 124 38 34 124 50 34 124 50 34 142 50 34 142 50 34 142 50 34 142 62 48 142 62 48 142 62 48 88 62 48 88 62 48 88 38 48 88 38 48 88 38 62 88 38 62 106 38 62 106 50 62 106 50 62 106 50 62 106 50 62 106 50 76 124 62 76 124 62 76 124 62 76 124 62 76 124 62 76 124 38 76 142 38 90 142 38 90 142 38 90 142 38 90 142 50 90 142 50 90 88 50 90 88 50 34 88 50 34 88 62 34 88 62 34 88 62 34 106 62 34 106 62 34 106 38 48 106 38 48 106 38 48 106 38 48 124 38 48 124 50 48 124 50 48 124 50 62 124 50 62 124 50 62 142 62 62 142 62 62 142 62 62 142 62 62 142 62 76 142 38 76 88 38 76 88 38 76 88 38 76 88 38 76 88 50 76 88 50 90 106 50 90 106 50 90 106 50 90 106 62 90 106 62 90 106 62 90 124 62 34 124 62 34 124 38 34 124 38 34 124 38 34 124 38 34 142 38 34 142 50 48 142 50 48 142 50 48 142 50 48 142 50 48 88 62 48 88 62 48 88 62 62 88 62 62 88 62 62 88 38 62 106 38 62 106 38 62 106 38 62 106 38 76 106 50 76 106 50 76 124 50 76 124 50 76 124 50 76 124 62 76 124 62 90 124 62 90 142 62 90 142 62 90 142 38 90 142 38 90 142 38 90 142 38 34 88 38 34 88 50 34 88 50 34 88 50 34 88 50 34 88 50 34 106 62 48 106 62 48 106 62 48 106 62 48 106 62 48 106 38 48 124 38 48 124 38 62 124 38 62 124 38 62 124 50 62 124 50 62 142 50 62 142 50 62 142 50 76 142 62 76 142 62 76 142 62 76 88 62 76 88 62
76 142 62 76 142 62 76 142 62 76 142 62 76 142 62 76 142 38 76 88 38 90 88 38 90 88 38 90 88 38 90 88 50 90 88 50 90 106 50 90 106 50 34 106 50 34 106 62 34 106 62 34 106 62 34 124 62 34 124 62 34 124 38 48 124 38 48 124 38 48 124 38 48 142 38 48 142 50 48 142 50 48 142 50 62 142 50 62 142 50 62 88 62 62 88 62 62 88 62 62 88 62 62 88 62 76 88 38 76 106 38 76 106 38 76 106 38 76 106 38 76 106 50 76 106 50 90 124 50 90 124 50 90 124 50 90 124 62 90 124 62 90 124 62 90 142 62 34 142 62 34 142 38 34 142 38 34 142 38 34 142 38 34 88 38 34 88 50 48 88 50 48 88 50 48 88 50 48 88 50 48 106 62 48 106 62 48 106 62 62 106 62 62 106 62 62 106 38 62 124 38 62 124 38 62 124 38 62 124 38 76 124 50 76 124 50 76 142 50 76 142 50 76 142 50 76 142 62 76 142 62 90 142 62 90 88 62 90 88 62 90 88 38 90 88 38 90 88 38 90 88 38 34 106 38 34 106 50 34 106 50 34 106 50 34 106 50 34 106 50 34 124 62 48 124 62 48 124 62 48 124 62 48 124 62 48 124 38 48 142 38 48 142 38 62 142 38 62 142 38 62 142 50 62 142 50 62 88 50 62 88 50 62 88 50 76 88 62 76 88 62 76 88 62 76 106 62 76 106 62 76 106 38 76 106 38 90 106 38 90 106 38 90 124 38 90 124 50 90 124 50 90 124 50 90 124 50 34 124 50 34 142 62 34 142 62 34 142 62 34 142 62 34 142 62 34 142 38 48 88 38 48 88 38 48 88 38 48 88 38 48 88 50 48 88 50 48 106 50 62 106 50 62 106 50 62 106 62 62 106 62 62 106 62 62 124 62 62 124 62 76 124 38 76 124 38 76 124 38 76 124 38 76 142 38 76 142 50 76 142 50 90 142 50 90 142 50 90 142 50 90 88 62 90 88 62 90 88 62 90 88 62 34 88 62 34 88 38 34 106 38 34 106 38 34 106 38 34 106 38 34 106 50 48 106 50 48 124 50 48 124 50 48 124 50 48 124 62 48 124 62 48 124 62 62 142 62 62 142 62 62 142 38 62 142 38 62 142 38 62 142 38 62 88 38 76 88 50 76 88 50 76 88 50 76 88 50 76 88 50 76 106 62 76 106 62 90 106 62 90 106 62 90 106 62 90 106 38 90 124 38 90 124 38 90 124 38 34 124 38 34 124 50 34 124 50 34 142 50 34 142 50 34 142 50 34 142 62 48 142 62 48 142 62 48 88 62 48 88 62 48 88 38 48 88 38 48 88 38 62 88 38 62 106 38 62 106 50 62 106 50 62 106 50 62 106 50 62 106 50 76 124 62 76 124 62 76 124 62 76 124 62 76 124 62 76 124 38 76 142 38 90 142 38 90 142 38 90 142 38 90 142 50 90 142 50 90 88 50 90 88 50 34 88 50 34 88 62 34 88 62 34 88 62 34 106 62 34 106 62 34 106 38 48 106 38 48 106 38 48 106 38 48 124 38 48 124 50 48 124 50 48 124 50 62 124 50 62 124 50 62 142 62 62 142 62 62 142 62 62 142 62 62 142 62 76 142 38 76 88 38 76 88 38 76 88 38 76 88 38 76 88 50 76 88 50 90 106 50 90 106 50 90 106 50 90 106 62 90 106 62 90 106 62 90 124 62 34 124 62 34 124 38 34 124 38 34 124 38 34 124 38 34 142 38 34 142 50 48 142 50 48 142 50 48 142 50 48 142 50 48 88 62 48 88 62 48 88 62 62 88 62 62 88 62 62 88 38 62 106 38 62 106 38 62 106 38 62 106 38 76 106 50 76 106 50 76 124 50 76 124 50 76 124 50 76 124 62 76 124 62 90 124 62 90 142 62 90 142 62 90 142 38 90 142 38 90 142 38 90 142 38 34 88 38 34 88 50 34 88 50 34 88 50 34 88 50 34 88 50 34 106 62 48 106 62 48 106 62 48 106 62 48 106 62 48 106 38 48 124 38 48 124 38 62 124 38 62 124 38 62 124 50 62 124 50 62 142 50 62 142 50 62 142 50 76 142 62 76 142 62 76 142 62 76 88 62 76 88 62
76 142 62 76 142 62 76 142 62 76 142 62 76 142 62 76 142 38 76 88 38 90 88 38 90 88 38 90 88 38 90 88 50 90 88 50 90 106 50 90 106 50 34 106 50 34 106 62 34 106 62 34 106 62 34 124 62 34 124 62 34 124 38 48 124 38 48 124 38 48 124 38 48 142 38 48 142 50 48 142 50 48 142 50 62 142 50 62 142 50 62 88 62 62 88 62 62 88 62 62 88 62 62 88 62 76 88 38 76 106 38 76 106 38 76 106 38 76 106 38 76 106 50 76 106 50 90 124 50 90 124 50 90 124 50 90 124 62 90 124 62 90 124 62 90 142 62 34 142 62 34 142 38 34 142 38 34 142 38 34 142 38 34 88 38 34 88 50 48 88 50 48 88 50 48 88 50 48 88 50 48 106 62 48 106 62 48 106 62 62 106 62 62 106 62 62 106 38 62 124 38 62 124 38 62 124 38 62 124 38 76 124 50 76 124 50 76 142 50 76 142 50 76 142 50 76 142 62 76 142 62 90 142 62 90 88 62 90 88 62 90 88 38 90 88 38 90 88 38 90 88 38 34 106 38 34 106 50 34 106 50 34 106 50 34 106 50 34 106 50 34 124 62 48 124 62 48 124 62 48 124 62 48 124 62 48 124 38 48 142 38 48 142 38 62 142 38 62 142 38 62 142 50 62 142 50 62 88 50 62 88 50 62 88 50 76 88 62 76 88 62 76 88 62 76 106 62 76 106 62 76 106 38 76 106 38 90 106 38 90 106 38 90 124 38 90 124 50 90 124 50 90 124 50 90 124 50 34 124 50 34 142 62 34 142 62 34 142 62 34 142 62 34 142 62 34 142 38 48 88 38 48 88 38 48 88 38 48 88 38 48 88 50 48 88 50 48 106 50 62 106 50 62 106 50 62 106 62 62 106 62 62 106 62 62 124 62 62 124 62 76 124 38 76 124 38 76 124 38 76 124 38 76 142 38 76 142 50 76 142 50 90 142 50 90 142 50 90 142 50 90 88 62 90 88 62 90 88 62 90 88 62 34 88 62 34 88 38 34 106 38 34 106 38 34 106 38 34 106 38 34 106 50 48 106 50 48 124 50 48 124 50 48 124 50 48 124 62 48 124 62 48 124 62 62 142 62 62 142 62 62 142 38 62 142 38 62 142 38 62 142 38 62 88 38 76 88 50 76 88 50 76 88 50 76 88 50 76 88 50 76 106 62 76 106 62 90 106 62 90 106 62 90 106 62 90 106 38 90 124 38 90 124 38 90 124 38 34 124 38 34 124 50 34 124 50 34 142 50 34 142 50 34 142 50 34 142 62 48 142 62 48 142 62 48 88 62 48 88 62 48 88 38 48 88 38 48 88 38 62 88 38 62 106 38 62 106 50 62 106 50 62 106 50 62 106 50 62 106 50 76 124 62 76 124 62 76 124 62 76 124 62 76 124 62 76 124 38 76 142 38 90 142 38 90 142 38 90 142 38 90 142 50 90 142 50 90 88 50 90 88 50 34 88 50 34 88 62 34 88 62 34 88 62 34 106 62 34 106 62 34 106 38 48 106 38 48 106 38 48 106 38 48 124 38 48 124 50 48 124 50 48 124 50 62 124 50 62 124 50 62 142 62 62 142 62 62 142 62 62 142 62 62 142 62 76 142 38 76 88 38 76 88 38 76 88 38 76 88 38 76 88 50 76 88 50 90 106 50 90 106 50 90 106 50 90 106 62 90 106 62 90 106 62 90 124 62 34 124 62 34 124 38 34 124 38 34 124 38 34 124 38 34 142 38 34 142 50 48 142 50 48 142 50 48 142 50 48 142 50 48 88 62 48 88 62 48 88 62 62 88 62 62 88 62 62 88 38 62 106 38 62 106 38 62 106 38 62 106 38 76 106 50 76 106 50 76 124 50 76 124 50 76 124 50 76 124 62 76 124 62 90 124 62 90 142 62 90 142 62 90 142 38 90 142 38 90 142 38 90 142 38 34 88 38 34 88 50 34 88 50 34 88 50 34 88 50 34 88 50 34 106 62 48 106 62 48 106 62 48 106 62 48 106 62 48 106 38 48 124 38 48 124 38 62 124 38 62 124 38 62 124 50 62 124 50 62 142 50 62 142 50 62 142 50 76 142 62 76 142 62 76 142 62 76 88 62 76 88 62
76 88 38 76 88 38 76 88 38 76 88 38 76 88 38 76 88 50 76 106 50 90 106 50 90 106 50 90 106 50 90 106 62 90 106 62 90 124 62 90 124 62 34 124 62 34 124 38 34 124 38 34 124 38 34 142 38 34 142 38 34 142 50 48 142 50 48 142 50 48 142 50 48 88 50 48 88 62 48 88 62 48 88 62 62 88 62 62 88 62 62 106 38 62 106 38 62 106 38 62 106 38 62 106 38 76 106 50 76 124 50 76 124 50 76 124 50 76 124 50 76 124 62 76 124 62 90 142 62 90 142 62 90 142 62 90 142 38 90 142 38 90 142 38 90 88 38 34 88 38 34 88 50 34 88 50 34 88 50 34 88 50 34 106 50 34 106 62 48 106 62 48 106 62 48 106 62 48 106 62 48 124 38 48 124 38 48 124 38 62 124 38 62 124 38 62 124 50 62 142 50 62 142 50 62 142 50 62 142 50 76 142 62 76 142 62 76 88 62 76 88 62 76 88 62 76 88 38 76 88 38 90 88 38 90 106 38 90 106 38 90 106 50 90 106 50 90 106 50 90 106 50 34 124 50 34 124 62 34 124 62 34 124 62 34 124 62 34 124 62 34 142 38 48 142 38 48 142 38 48 142 38 48 142 38 48 142 50 48 88 50 48 88 50 62 88 50 62 88 50 62 88 62 62 88 62 62 106 62 62 106 62 62 106 62 76 106 38 76 106 38 76 106 38 76 124 38 76 124 38 76 124 50 76 124 50 90 124 50 90 124 50 90 142 50 90 142 62 90 142 62 90 142 62 90 142 62 34 142 62 34 88 38 34 88 38 34 88 38 34 88 38 34 88 38 34 88 50 48 106 50 48 106 50 48 106 50 48 106 50 48 106 62 48 106 62 48 124 62 62 124 62 62 124 62 62 124 38 62 124 38 62 124 38 62 142 38 62 142 38 76 142 50 76 142 50 76 142 50 76 142 50 76 88 50 76 88 62 76 88 62 90 88 62 90 88 62 90 88 62 90 106 38 90 106 38 90 106 38 90 106 38 34 106 38 34 106 50 34 124 50 34 124 50 34 124 50 34 124 50 34 124 62 48 124 62 48 142 62 48 142 62 48 142 62 48 142 38 48 142 38 48 142 38 62 88 38 62 88 38 62 88 50 62 88 50 62 88 50 62 88 50 62 106 50 76 106 62 76 106 62 76 106 62 76 106 62 76 106 62 76 124 38 76 124 38 90 124 38 90 124 38 90 124 38 90 124 50 90 142 50 90 142 50 90 142 50 34 142 50 34 142 62 34 142 62 34 88 62 34 88 62 34 88 62 34 88 38 48 88 38 48 88 38 48 106 38 48 106 38 48 106 50 48 106 50 48 106 50 62 106 50 62 124 50 62 124 62 62 124 62 62 124 62 62 124 62 62 124 62 76 142 38 76 142 38 76 142 38 76 142 38 76 142 38 76 142 50 76 88 50 90 88 50 90 88 50 90 88 50 90 88 62 90 88 62 90 106 62 90 106 62 34 106 62 34 106 38 34 106 38 34 106 38 34 124 38 34 124 38 34 124 50 48 124 50 48 124 50 48 124 50 48 142 50 48 142 62 48 142 62 48 142 62 62 142 62 62 142 62 62 88 38 62 88 38 62 88 38 62 88 38 62 88 38 76 88 50 76 106 50 76 106 50 76 106 50 76 106 50 76 106 62 76 106 62 90 124 62 90 124 62 90 124 62 90 124 38 90 124 38 90 124 38 90 142 38 34 142 38 34 142 50 34 142 50 34 142 50 34 142 50 34 88 50 34 88 62 48 88 62 48 88 62 48 88 62 48 88 62 48 106 38 48 106 38 48 106 38 62 106 38 62 106 38 62 106 50 62 124 50 62 124 50 62 124 50 62 124 50 76 124 62 76 124 62 76 142 62 76 142 62 76 142 62 76 142 38 76 142 38 90 142 38 90 88 38 90 88 38 90 88 50 90 88 50 90 88 50 90 88 50 34 106 50 34 106 62 34 106 62 34 106 62 34 106 62 34 106 62 34 124 38 48 124 38 48 124 38 48 124 38 48 124 38 48 124 50 48 142 50 48 142 50 62 142 50 62 142 50 62 142 62 62 142 62 62 88 62 62 88 62 62 88 62 76 88 38 76 88 38 76 88 38 76 106 38 76 106 38
76 88 38 76 88 38 76 88 38 76 88 38 76 88 38 76 88 50 76 106 50 90 106 50 90 106 50 90 106 50 90 106 62 90 106 62 90 124 62 90 124 62 34 124 62 34 124 38 34 124 38 34 124 38 34 142 38 34 142 38 34 142 50 48 142 50 48 142 50 48 142 50 48 88 50 48 88 62 48 88 62 48 88 62 62 88 62 62 88 62 62 106 38 62 106 38 62 106 38 62 106 38 62 106 38 76 106 50 76 124 50 76 124 50 76 124 50 76 124 50 76 124 62 76 124 62 90 142 62 90 142 62 90 142 62 90 142 38 90 142 38 90 142 38 90 88 38 34 88 38 34 88 50 34 88 50 34 88 50 34 88 50 34 106 50 34 106 62 48 106 62 48 106 62 48 106 62 48 106 62 48 124 38 48 124 38 48 124 38 62 124 38 62 124 38 62 124 50 62 142 50 62 142 50 62 142 50 62 142 50 76 142 62 76 142 62 76 88 62 76 88 62 76 88 62 76 88 38 76 88 38 90 88 38 90 106 38 90 106 38 90 106 50 90 106 50 90 106 50 90 106 50 34 124 50 34 124 62 34 124 62 34 124 62 34 124 62 34 124 62 34 142 38 48 142 38 48 142 38 48 142 38 48 142 38 48 142 50 48 88 50 48 88 50 62 88 50 62 88 50 62 88 62 62 88 62 62 106 62 62 106 62 62 106 62 76 106 38 76 106 38 76 106 38 76 124 38 76 124 38 76 124 50 76 124 50 90 124 50 90 124 50 90 142 50 90 142 62 90 142 62 90 142 62 90 142 62 34 142 62 34 88 38 34 88 38 34 88 38 34 88 38 34 88 38 34 88 50 48 106 50 48 106 50 48 106 50 48 106 50 48 106 62 48 106 62 48 124 62 62 124 62 62 124 62 62 124 38 62 124 38 62 124 38 62 142 38 62 142 38 76 142 50 76 142 50 76 142 50 76 142 50 76 88 50 76 88 62 76 88 62 90 88 62 90 88 62 90 88 62 90 106 38 90 106 38 90 106 38 90 106 38 34 106 38 34 106 50 34 124 50 34 124 50 34 124 50 34 124 50 34 124 62 48 124 62 48 142 62 48 142 62 48 142 62 48 142 38 48 142 38 48 142 38 62 88 38 62 88 38 62 88 50 62 88 50 62 88 50 62 88 50 62 106 50 76 106 62 76 106 62 76 106 62 76 106 62 76 106 62 76 124 38 76 124 38 90 124 38 90 124 38 90 124 38 90 124 50 90 142 50 90 142 50 90 142 50 34 142 50 34 142 62 34 142 62 34 88 62 34 88 62 34 88 62 34 88 38 48 88 38 48 88 38 48 106 38 48 106 38 48 106 50 48 106 50 48 106 50 62 106 50 62 124 50 62 124 62 62 124 62 62 124 62 62 124 62 62 124 62 76 142 38 76 142 38 76 142 38 76 142 38 76 142 38 76 142 50 76 88 50 90 88 50 90 88 50 90 88 50 90 88 62 90 88 62 90 106 62 90 106 62 34 106 62 34 106 38 34 106 38 34 106 38 34 124 38 34 124 38 34 124 50 48 124 50 48 124 50 48 124 50 48 142 50 48 142 62 48 142 62 48 142 62 62 142 62 62 142 62 62 88 38 62 88 38 62 88 38 62 88 38 62 88 38 76 88 50 76 106 50 76 106 50 76 106 50 76 106 50 76 106 62 76 106 62 90 124 62 90 124 62 90 124 62 90 124 38 90 124 38 90 124 38 90 142 38 34 142 38 34 142 50 34 142 50 34 142 50 34 142 50 34 88 50 34 88 62 48 88 62 48 88 62 48 88 62 48 88 62 48 106 38 48 106 38 48 106 38 62 106 38 62 106 38 62 106 50 62 124 50 62 124 50 62 124 50 62 124 50 76 124 62 76 124 62 76 142 62 76 142 62 76 142 62 76 142 38 76 142 38 90 142 38 90 88 38 90 88 38 90 88 50 90 88 50 90 88 50 90 88 50 34 106 50 34 106 62 34 106 62 34 106 62 34 106 62 34 106 62 34 124 38 48 124 38 48 124 38 48 124 38 48 124 38 48 124 50 48 142 50 48 142 50 62 142 50 62 142 50 62 142 62 62 142 62 62 88 62 62 88 62 62 88 62 76 88 38 76 88 38 76 88 38 76 106 38 76 106 38
90 88 38 90 88 38 90 88 38 90 88 38 90 88 38 90 88 50 90 106 50 34 106 50 34 106 50 34 106 50 34 106 62 34 106 62 34 124 62 34 124 62 48 124 62 48 124 38 48 124 38 48 124 38 48 142 38 48 142 38 48 142 50 62 142 50 62 142 50 62 142 50 62 88 50 62 88 62 62 88 62 62 88 62 76 88 62 76 88 62 76 106 38 76 106 38 76 106 38 76 106 38 76 106 38 90 106 50 90 124 50 90 124 50 90 124 50 90 124 50 90 124 62 90 124 62 34 142 62 34 142 62 34 142 62 34 142 38 34 142 38 34 142 38 34 88 38 48 88 38 48 88 50 48 88 50 48 88 50 48 88 50 48 106 50 48 106 62 62 106 62 62 106 62 62 106 62 62 106 62 62 124 38 62 124 38 62 124 38 76 124 38 76 124 38 76 124 50 76 142 50 76 142 50 76 142 50 76 142 50 90 142 62 90 142 62 90 88 62 90 88 62 90 88 62 90 88 38 90 88 38 34 88 38 34 106 38 34 106 38 34 106 50 34 106 50 34 106 50 34 106 50 48 124 50 48 124 62 48 124 62 48 124 62 48 124 62 48 124 62 48 142 38 62 142 38 62 142 38 62 142 38 62 142 38 62 142 50 62 88 50 62 88 50 76 88 50 76 88 50 76 88 62 76 88 62 76 106 62 76 106 62 76 106 62 90 106 38 90 106 38 90 106 38 90 124 38 90 124 38 90 124 50 90 124 50 34 124 50 34 124 50 34 142 50 34 142 62 34 142 62 34 142 62 34 142 62 48 142 62 48 88 38 48 88 38 48 88 38 48 88 38 48 88 38 48 88 50 62 106 50 62 106 50 62 106 50 62 106 50 62 106 62 62 106 62 62 124 62 76 124 62 76 124 62 76 124 38 76 124 38 76 124 38 76 142 38 76 142 38 90 142 50 90 142 50 90 142 50 90 142 50 90 88 50 90 88 62 90 88 62 34 88 62 34 88 62 34 88 62 34 106 38 34 106 38 34 106 38 34 106 38 48 106 38 48 106 50 48 124 50 48 124 50 48 124 50 48 124 50 48 124 62 62 124 62 62 142 62 62 142 62 62 142 62 62 142 38 62 142 38 62 142 38 76 88 38 76 88 38 76 88 50 76 88 50 76 88 50 76 88 50 76 106 50 90 106 62 90 106 62 90 106 62 90 106 62 90 106 62 90 124 38 90 124 38 34 124 38 34 124 38 34 124 38 34 124 50 34 142 50 34 142 50 34 142 50 48 142 50 48 142 62 48 142 62 48 88 62 48 88 62 48 88 62 48 88 38 62 88 38 62 88 38 62 106 38 62 106 38 62 106 50 62 106 50 62 106 50 76 106 50 76 124 50 76 124 62 76 124 62 76 124 62 76 124 62 76 124 62 90 142 38 90 142 38 90 142 38 90 142 38 90 142 38 90 142 50 90 88 50 34 88 50 34 88 50 34 88 50 34 88 62 34 88 62 34 106 62 34 106 62 48 106 62 48 106 38 48 106 38 48 106 38 48 124 38 48 124 38 48 124 50 62 124 50 62 124 50 62 124 50 62 142 50 62 142 62 62 142 62 62 142 62 76 142 62 76 142 62 76 88 38 76 88 38 76 88 38 76 88 38 76 88 38 90 88 50 90 106 50 90 106 50 90 106 50 90 106 50 90 106 62 90 106 62 34 124 62 34 124 62 34 124 62 34 124 38 34 124 38 34 124 38 34 142 38 48 142 38 48 142 50 48 142 50 48 142 50 48 142 50 48 88 50 48 88 62 62 88 62 62 88 62 62 88 62 62 88 62 62 106 38 62 106 38 62 106 38 76 106 38 76 106 38 76 106 50 76 124 50 76 124 50 76 124 50 76 124 50 90 124 62 90 124 62 90 142 62 90 142 62 90 142 62 90 142 38 90 142 38 34 142 38 34 88 38 34 88 38 34 88 50 34 88 50 34 88 50 34 88 50 48 106 50 48 106 62 48 106 62 48 106 62 48 106 62 48 106 62 48 124 38 62 124 38 62 124 38 62 124 38 62 124 38 62 124 50 62 142 50 62 142 50 76 142 50 76 142 50 76 142 62 76 142 62 76 88 62 76 88 62 76 88 62 90 88 38 90 88 38 90 88 38 90 106 38 90 106 38
90 88 38 90 88 38 90 88 38 90 88 38 90 88 38 90 88 50 90 106 50 34 106 50 34 106 50 34 106 50 34 106 62 34 106 62 34 124 62 34 124 62 48 124 62 48 124 38 48 124 38 48 124 38 48 142 38 48 142 38 48 142 50 62 142 50 62 142 50 62 142 50 62 88 50 62 88 62 62 88 62 62 88 62 76 88 62 76 88 62 76 106 38 76 106 38 76 106 38 76 106 38 76 106 38 90 106 50 90 124 50 90 124 50 90 124 50 90 124 50 90 124 62 90 124 62 34 142 62 34 142 62 34 142 62 34 142 38 34 142 38 34 142 38 34 88 38 48 88 38 48 88 50 48 88 50 48 88 50 48 88 50 48 106 50 48 106 62 62 106 62 62 106 62 62 106 62 62 106 62 62 124 38 62 124 38 62 124 38 76 124 38 76 124 38 76 124 50 76 142 50 76 142 50 76 142 50 76 142 50 90 142 62 90 142 62 90 88 62 90 88 62 90 88 62 90 88 38 90 88 38 34 88 38 34 106 38 34 106 38 34 106 50 34 106 50 34 106 50 34 106 50 48 124 50 48 124 62 48 124 62 48 124 62 48 124 62 48 124 62 48 142 38 62 142 38 62 142 38 62 142 38 62 142 38 62 142 50 62 88 50 62 88 50 76 88 50 76 88 50 76 88 62 76 88 62 76 106 62 76 106 62 76 106 62 90 106 38 90 106 38 90 106 38 90 124 38 90 124 38 90 124 50 90 124 50 34 124 50 34 124 50 34 142 50 34 142 62 34 142 62 34 142 62 34 142 62 48 142 62 48 88 38 48 88 38 48 88 38 48 88 38 48 88 38 48 88 50 62 106 50 62 106 50 62 106 50 62 106 50 62 106 62 62 106 62 62 124 62 76 124 62 76 124 62 76 124 38 76 124 38 76 124 38 76 142 38 76 142 38 90 142 50 90 142 50 90 142 50 90 142 50 90 88 50 90 88 62 90 88 62 34 88 62 34 88 62 34 88 62 34 106 38 34 106 38 34 106 38 34 106 38 48 106 38 48 106 50 48 124 50 48 124 50 48 124 50 48 124 50 48 124 62 62 124 62 62 142 62 62 142 62 62 142 62 62 142 38 62 142 38 62 142 38 76 88 38 76 88 38 76 88 50 76 88 50 76 88 50 76 88 50 76 106 50 90 106 62 90 106 62 90 106 62 90 106 62 90 106 62 90 124 38 90 124 38 34 124 38 34 124 38 34 124 38 34 124 50 34 142 50 34 142 50 34 142 50 48 142 50 48 142 62 48 142 62 48 88 62 48 88 62 48 88 62 48 88 38 62 88 38 62 88 38 62 106 38 62 106 38 62 106 50 62 106 50 62 106 50 76 106 50 76 124 50 76 124 62 76 124 62 76 124 62 76 124 62 76 124 62 90 142 38 90 142 38 90 142 38 90 142 38 90 142 38 90 142 50 90 88 50 34 88 50 34 88 50 34 88 50 34 88 62 34 88 62 34 106 62 34 106 62 48 106 62 48 106 38 48 106 38 48 106 38 48 124 38 48 124 38 48 124 50 62 124 50 62 124 50 62 124 50 62 142 50 62 142 62 62 142 62 62 142 62 76 142 62 76 142 62 76 88 38 76 88 38 76 88 38 76 88 38 76 88 38 90 88 50 90 106 50 90 106 50 90 106 50 90 106 50 90 106 62 90 106 62 34 124 62 34 124 62 34 124 62 34 124 38 34 124 38 34 124 38 34 142 38 48 142 38 48 142 50 48 142 50 48 142 50 48 142 50 48 88 50 48 88 62 62 88 62 62 88 62 62 88 62 62 88 62 62 106 38 62 106 38 62 106 38 76 106 38 76 106 38 76 106 50 76 124 50 76 124 50 76 124 50 76 124 50 90 124 62 90 124 62 90 142 62 90 142 62 90 142 62 90 142 38 90 142 38 34 142 38 34 88 38 34 88 38 34 88 50 34 88 50 34 88 50 34 88 50 48 106 50 48 106 62 48 106 62 48 106 62 48 106 62 48 106 62 48 124 38 62 124 38 62 124 38 62 124 38 62 124 38 62 124 50 62 142 50 62 142 50 76 142 50 76 142 50 76 142 62 76 142 62 76 88 62 76 88 62 76 88 62 90 88 38 90 88 38 90 88 38 90 106 38 90 106 38
90 88 38 90 88 38 90 88 38 90 88 38 90 88 38 90 88 50 90 106 50 34 106 50 34 106 50 34 106 50 34 106 62 34 106 62 34 124 62 34 124 62 48 124 62 48 124 38 48 124 38 48 124 38 48 142 38 48 142 38 48 142 50 62 142 50 62 142 50 62 142 50 62 88 50 62 88 62 62 88 62 62 88 62 76 88 62 76 88 62 76 106 38 76 106 38 76 106 38 76 106 38 76 106 38 90 106 50 90 124 50 90 124 50 90 124 50 90 124 50 90 124 62 90 124 62 34 142 62 34 142 62 34 142 62 34 142 38 34 142 38 34 142 38 34 88 38 48 88 38 48 88 50 48 88 50 48 88 50 48 88 50 48 106 50 48 106 62 62 106 62 62 106 62 62 106 62 62 106 62 62 124 38 62 124 38 62 124 38 76 124 38 76 124 38 76 124 50 76 142 50 76 142 50 76 142 50 76 142 50 90 142 62 90 142 62 90 88 62 90 88 62 90 88 62 90 88 38 90 88 38 34 88 38 34 106 38 34 106 38 34 106 50 34 106 50 34 106 50 34 106 50 48 124 50 48 124 62 48 124 62 48 124 62 48 124 62 48 124 62 48 142 38 62 142 38 62 142 38 62 142 38 62 142 38 62 142 50 62 88 50 62 88 50 76 88 50 76 88 50 76 88 62 76 88 62 76 106 62 76 106 62 76 106 62 90 106 38 90 106 38 90 106 38 90 124 38 90 124 38 90 124 50 90 124 50 34 124 50 34 124 50 34 142 50 34 142 62 34 142 62 34 142 62 34 142 62 48 142 62 48 88 38 48 88 38 48 88 38 48 88 38 48 88 38 48 88 50 62 106 50 62 106 50 62 106 50 62 106 50 62 106 62 62 106 62 62 124 62 76 124 62 76 124 62 76 124 38 76 124 38 76 124 38 76 142 38 76 142 38 90 142 50 90 142 50 90 142 50 90 142 50 90 88 50 90 88 62 90 88 62 34 88 62 34 88 62 34 88 62 34 106 38 34 106 38 34 106 38 34 106 38 48 106 38 48 106 50 48 124 50 48 124 50 48 124 50 48 124 50 48 124 62 62 124 62 62 142 62 62 142 62 62 142 62 62 142 38 62 142 38 62 142 38 76 88 38 76 88 38 76 88 50 76 88 50 76 88 50 76 88 50 76 106 50 90 106 62 90 106 62 90 106 62 90 106 62 90 106 62 90 124 38 90 124 38 34 124 38 34 124 38 34 124 38 34 124 50 34 142 50 34 142 50 34 142 50 48 142 50 48 142 62 48 142 62 48 88 62 48 88 62 48 88 62 48 88 38 62 88 38 62 88 38 62 106 38 62 106 38 62 106 50 62 106 50 62 106 50 76 106 50 76 124 50 76 124 62 76 124 62 76 124 62 76 124 62 76 124 62 90 142 38 90 142 38 90 142 38 90 142 38 90 142 38 90 142 50 90 88 50 34 88 50 34 88 50 34 88 50 34 88 62 34 88 62 34 106 62 34 106 62 48 106 62 48 106 38 48 106 38 48 106 38 48 124 38 48 124 38 48 124 50 62 124 50 62 124 50 62 124 50 62 142 50 62 142 62 62 142 62 62 142 62 76 142 62 76 142 62 76 88 38 76 88 38 76 88 38 76 88 38 76 88 38 90 88 50 90 106 50 90 106 50 90 106 50 90 106 50 90 106 62 90 106 62 34 124 62 34 124 62 34 124 62 34 124 38 34 124 38 34 124 38 34 142 38 48 142 38 48 142 50 48 142 50 48 142 50 48 142 50 48 88 50 48 88 62 62 88 62 62 88 62 62 88 62 62 88 62 62 106 38 62 106 38 62 106 38 76 106 38 76 106 38 76 106 50 76 124 50 76 124 50 76 124 50 76 124 50 90 124 62 90 124 62 90 142 62 90 142 62 90 142 62 90 142 38 90 142 38 34 142 38 34 88 38 34 88 38 34 88 50 34 88 50 34 88 50 34 88 50 48 106 50 48 106 62 48 106 62 48 106 62 48 106 62 48 106 62 48 124 38 62 124 38 62 124 38 62 124 38 62 124 38 62 124 50 62 142 50 62 142 50 76 142 50 76 142 50 76 142 62 76 142 62 76 88 62 76 88 62 76 88 62 90 88 38 90 88 38 90 88 38 90 106 38 90 106 38
90 88 38 90 88 38 90 88 38 90 88 38 90 88 38 90 88 50 90 106 50 34 106 50 34 106 50 34 106 50 34 106 62 34 106 62 34 124 62 34 124 62 48 124 62 48 124 38 48 124 38 48 124 38 48 142 38 48 142 38 48 142 50 62 142 50 62 142 50 62 142 50 62 88 50 62 88 62 62 88 62 62 88 62 76 88 62 76 88 62 76 106 38 76 106 38 76 106 38 76 106 38 76 106 38 90 106 50 90 124 50 90 124 50 90 124 50 90 124 50 90 124 62 90 124 62 34 142 62 34 142 62 34 142 62 34 142 38 34 142 38 34 142 38 34 88 38 48 88 38 48 88 50 48 88 50 48 88 50 48 88 50 48 106 50 48 106 62 62 106 62 62 106 62 62 106 62 62 106 62 62 124 38 62 124 38 62 124 38 76 124 38 76 124 38 76 124 50 76 142 50 76 142 50 76 142 50 76 142 50 90 142 62 90 142 62 90 88 62 90 88 62 90 88 62 90 88 38 90 88 38 34 88 38 34 106 38 34 106 38 34 106 50 34 106 50 34 106 50 34 106 50 48 124 50 48 124 62 48 124 62 48 124 62 48 124 62 48 124 62 48 142 38 62 142 38 62 142 38 62 142 38 62 142 38 62 142 50 62 88 50 62 88 50 76 88 50 76 88 50 76 88 62 76 88 62 76 106 62 76 106 62 76 106 62 90 106 38 90 106 38 90 106 38 90 124 38 90 124 38 90 124 50 90 124 50 34 124 50 34 124 50 34 142 50 34 142 62 34 142 62 34 142 62 34 142 62 48 142 62 48 88 38 48 88 38 48 88 38 48 88 38 48 88 38 48 88 50 62 106 50 62 106 50 62 106 50 62 106 50 62 106 62 62 106 62 62 124 62 76 124 62 76 124 62 76 124 38 76 124 38 76 124 38 76 142 38 76 142 38 90 142 50 90 142 50 90 142 50 90 142 50 90 88 50 90 88 62 90 88 62 34 88 62 34 88 62 34 88 62 34 106 38 34 106 38 34 106 38 34 106 38 48 106 38 48 106 50 48 124 50 48 124 50 48 124 50 48 124 50 48 124 62 62 124 62 62 142 62 62 142 62 62 142 62 62 142 38 62 142 38 62 142 38 76 88 38 76 88 38 76 88 50 76 88 50 76 88 50 76 88 50 76 106 50 90 106 62 90 106 62 90 106 62 90 106 62 90 106 62 90 124 38 90 124 38 34 124 38 34 124 38 34 124 38 34 124 50 34 142 50 34 142 50 34 142 50 48 142 50 48 142 62 48 142 62 48 88 62 48 88 62 48 88 62 48 88 38 62 88 38 62 88 38 62 106 38 62 106 38 62 106 50 62 106 50 62 106 50 76 106 50 76 124 50 76 124 62 76 124 62 76 124 62 76 124 62 76 124 62 90 142 38 90 142 38 90 142 38 90 142 38 90 142 38 90 142 50 90 88 50 34 88 50 34 88 50 34 88 50 34 88 62 34 88 62 34 106 62 34 106 62 48 106 62 48 106 38 48 106 38 48 106 38 48 124 38 48 124 38 48 124 50 62 124 50 62 124 50 62 124 50 62 142 50 62 142 62 62 142 62 62 142 62 76 142 62 76 142 62 76 88 38 76 88 38 76 88 38 76 88 38 76 88 38 90 88 50 90 106 50 90 106 50 90 106 50 90 106 50 90 106 62 90 106 62 34 124 62 34 124 62 34 124 62 34 124 38 34 124 38 34 124 38 34 142 38 48 142 38 48 142 50 48 142 50 48 142 50 48 142 50 48 88 50 48 88 62 62 88 62 62 88 62 62 88 62 62 88 62 62 106 38 62 106 38 62 106 38 76 106 38 76 106 38 76 106 50 76 124 50 76 124 50 76 124 50 76 124 50 90 124 62 90 124 62 90 142 62 90 142 62 90 142 62 90 142 38 90 142 38 34 142 38 34 88 38 34 88 38 34 88 50 34 88 50 34 88 50 34 88 50 48 106 50 48 106 62 48 106 62 48 106 62 48 106 62 48 106 62 48 124 38 62 124 38 62 124 38 62 124 38 62 124 38 62 124 50 62 142 50 62 142 50 76 142 50 76 142 50 76 142 62 76 142 62 76 88 62 76 88 62 76 88 62 90 88 38 90 88 38 90 88 38 90 106 38 90 106 38
90 88 38 90 88 38 90 88 38 90 88 38 90 88 38 90 88 50 90 106 50 34 106 50 34 106 50 34 106 50 34 106 62 34 106 62 34 124 62 34 124 62 48 124 62 48 124 38 48 124 38 48 124 38 48 142 38 48 142 38 48 142 50 62 142 50 62 142 50 62 142 50 62 88 50 62 88 62 62 88 62 62 88 62 76 88 62 76 88 62 76 106 38 76 106 38 76 106 38 76 106 38 76 106 38 90 106 50 90 124 50 90 124 50 90 124 50 90 124 50 90 124 62 90 124 62 34 142 62 34 142 62 34 142 62 34 142 38 34 142 38 34 142 38 34 88 38 48 88 38 48 88 50 48 88 50 48 88 50 48 88 50 48 106 50 48 106 62 62 106 62 62 106 62 62 106 62 62 106 62 62 124 38 62 124 38 62 124 38 76 124 38 76 124 38 76 124 50 76 142 50 76 142 50 76 142 50 76 142 50 90 142 62 90 142 62 90 88 62 90 88 62 90 88 62 90 88 38 90 88 38 34 88 38 34 106 38 34 106 38 34 106 50 34 106 50 34 106 50 34 106 50 48 124 50 48 124 62 48 124 62 48 124 62 48 124 62 48 124 62 48 142 38 62 142 38 62 142 38 62 142 38 62 142 38 62 142 50 62 88 50 62 88 50 76 88 50 76 88 50 76 88 62 76 88 62 76 106 62 76 106 62 76 106 62 90 106 38 90 106 38 90 106 38 90 124 38 90 124 38 90 124 50 90 124 50 34 124 50 34 124 50 34 142 50 34 142 62 34 142 62 34 142 62 34 142 62 48 142 62 48 88 38 48 88 38 48 88 38 48 88 38 48 88 38 48 88 50 62 106 50 62 106 50 62 106 50 62 106 50 62 106 62 62 106 62 62 124 62 76 124 62 76 124 62 76 124 38 76 124 38 76 124 38 76 142 38 76 142 38 90 142 50 90 142 50 90 142 50 90 142 50 90 88 50 90 88 62 90 88 62 34 88 62 34 88 62 34 88 62 34 106 38 34 106 38 34 106 38 34 106 38 48 106 38 48 106 50 48 124 50 48 124 50 48 124 50 48 124 50 48 124 62 62 124 62 62 142 62 62 142 62 62 142 62 62 142 38 62 142 38 62 142 38 76 88 38 76 88 38 76 88 50 76 88 50 76 88 50 76 88 50 76 106 50 90 106 62 90 106 62 90 106 62 90 106 62 90 106 62 90 124 38 90 124 38 34 124 38 34 124 38 34 124 38 34 124 50 34 142 50 34 142 50 34 142 50 48 142 50 48 142 62 48 142 62 48 88 62 48 88 62 48 88 62 48 88 38 62 88 38 62 88 38 62 106 38 62 106 38 62 106 50 62 106 50 62 106 50 76 106 50 76 124 50 76 124 62 76 124 62 76 124 62 76 124 62 76 124 62 90 142 38 90 142 38 90 142 38 90 142 38 90 142 38 90 142 50 90 88 50 34 88 50 34 88 50 34 88 50 34 88 62 34 88 62 34 106 62 34 106 62 48 106 62 48 106 38 48 106 38 48 106 38 48 124 38 48 124 38 48 124 50 62 124 50 62 124 50 62 124 50 62 142 50 62 142 62 62 142 62 62 142 62 76 142 62 76 142 62 76 88 38 76 88 38 76 88 38 76 88 38 76 88 38 90 88 50 90 106 50 90 106 50 90 106 50 90 106 50 90 106 62 90 106 62 34 124 62 34 124 62 34 124 62 34 124 38 34 124 38 34 124 38 34 142 38 48 142 38 48 142 50 48 142 50 48 142 50 48 142 50 48 88 50 48 88 62 62 88 62 62 88 62 62 88 62 62 88 62 62 106 38 62 106 38 62 106 38 76 106 38 76 106 38 76 106 50 76 124 50 76 124 50 76 124 50 76 124 50 90 124 62 90 124 62 90 142 62 90 142 62 90 142 62 90 142 38 90 142 38 34 142 38 34 88 38 34 88 38 34 88 50 34 88 50 34 88 50 34 88 50 48 106 50 48 106 62 48 106 62 48 106 62 48 106 62 48 106 62 48 124 38 62 124 38 62 124 38 62 124 38 62 124 38 62 124 50 62 142 50 62 142 50 76 142 50 76 142 50 76 142 62 76 142 62 76 88 62 76 88 62 76 88 62 90 88 38 90 88 38 90 88 38 90 106 38 90 106 38
34 106 38 34 106 38 34 106 38 34 106 38 34 106 38 34 106 50 34 124 50 48 124 50 48 124 50 48 124 50 48 124 62 48 124 62 48 142 62 48 142 62 62 142 62 62 142 38 62 142 38 62 142 38 62 88 38 62 88 38 62 88 50 76 88 50 76 88 50 76 88 50 76 106 50 76 106 62 76 106 62 76 106 62 90 106 62 90 106 62 90 124 38 90 124 38 90 124 38 90 124 38 90 124 38 34 124 50 34 142 50 34 142 50 34 142 50 34 142 50 34 142 62 34 142 62 48 88 62 48 88 62 48 88 62 48 88 38 48 88 38 48 88 38 48 106 38 62 106 38 62 106 50 62 106 50 62 106 50 62 106 50 62 124 50 62 124 62 76 124 62 76 124 62 76 124 62 76 124 62 76 142 38 76 142 38 76 142 38 90 142 38 90 142 38 90 142 50 90 88 50 90 88 50 90 88 50 90 88 50 34 88 62 34 88 62 34 106 62 34 106 62 34 106 62 34 106 38 34 106 38 48 106 38 48 124 38 48 124 38 48 124 50 48 124 50 48 124 50 48 124 50 62 142 50 62 142 62 62 142 62 62 142 62 62 142 62 62 142 62 62 88 38 76 88 38 76 88 38 76 88 38 76 88 38 76 88 50 76 106 50 76 106 50 90 106 50 90 106 50 90 106 62 90 106 62 90 124 62 90 124 62 90 124 62 34 124 38 34 124 38 34 124 38 34 142 38 34 142 38 34 142 50 34 142 50 48 142 50 48 142 50 48 88 50 48 88 62 48 88 62 48 88 62 48 88 62 62 88 62 62 106 38 62 106 38 62 106 38 62 106 38 62 106 38 62 106 50 76 124 50 76 124 50 76 124 50 76 124 50 76 124 62 76 124 62 76 142 62 90 142 62 90 142 62 90 142 38 90 142 38 90 142 38 90 88 38 90 88 38 34 88 50 34 88 50 34 88 50 34 88 50 34 106 50 34 106 62 34 106 62 48 106 62 48 106 62 48 106 62 48 124 38 48 124 38 48 124 38 48 124 38 62 124 38 62 124 50 62 142 50 62 142 50 62 142 50 62 142 50 62 142 62 76 142 62 76 88 62 76 88 62 76 88 62 76 88 38 76 88 38 76 88 38 90 106 38 90 106 38 90 106 50 90 106 50 90 106 50 90 106 50 90 124 50 34 124 62 34 124 62 34 124 62 34 124 62 34 124 62 34 142 38 34 142 38 48 142 38 48 142 38 48 142 38 48 142 50 48 88 50 48 88 50 48 88 50 62 88 50 62 88 62 62 88 62 62 106 62 62 106 62 62 106 62 62 106 38 76 106 38 76 106 38 76 124 38 76 124 38 76 124 50 76 124 50 76 124 50 90 124 50 90 142 50 90 142 62 90 142 62 90 142 62 90 142 62 90 142 62 34 88 38 34 88 38 34 88 38 34 88 38 34 88 38 34 88 50 34 106 50 48 106 50 48 106 50 48 106 50 48 106 62 48 106 62 48 124 62 48 124 62 62 124 62 62 124 38 62 124 38 62 124 38 62 142 38 62 142 38 62 142 50 76 142 50 76 142 50 76 142 50 76 88 50 76 88 62 76 88 62 76 88 62 90 88 62 90 88 62 90 106 38 90 106 38 90 106 38 90 106 38 90 106 38 34 106 50 34 124 50 34 124 50 34 124 50 34 124 50 34 124 62 34 124 62 48 142 62 48 142 62 48 142 62 48 142 38 48 142 38 48 142 38 48 88 38 62 88 38 62 88 50 62 88 50 62 88 50 62 88 50 62 106 50 62 106 62 76 106 62 76 106 62 76 106 62 76 106 62 76 124 38 76 124 38 76 124 38 90 124 38 90 124 38 90 124 50 90 142 50 90 142 50 90 142 50 90 142 50 34 142 62 34 142 62 34 88 62 34 88 62 34 88 62 34 88 38 34 88 38 48 88 38 48 106 38 48 106 38 48 106 50 48 106 50 48 106 50 48 106 50 62 124 50 62 124 62 62 124 62 62 124 62 62 124 62 62 124 62 62 142 38 76 142 38 76 142 38 76 142 38 76 142 38 76 142 50 76 88 50 76 88 50 90 88 50 90 88 50 90 88 62 90 88 62 90 106 62 90 106 62 90 106 62 34 106 38 34 106 38 34 106 38 34 124 38 34 124 38
34 106 50 34 106 50 34 106 50 34 106 50 34 106 50 34 106 62 34 124 62 48 124 62 48 124 62 48 124 62 48 124 38 48 124 38 48 142 38 48 142 38 62 142 38 62 142 50 62 142 50 62 142 50 62 88 50 62 88 50 62 88 62 76 88 62 76 88 62 76 88 62 76 106 62 76 106 38 76 106 38 76 106 38 90 106 38 90 106 38 90 124 50 90 124 50 90 124 50 90 124 50 90 124 50 34 124 62 34 142 62 34 142 62 34 142 62 34 142 62 34 142 38 34 142 38 48 88 38 48 88 38 48 88 38 48 88 50 48 88 50 48 88 50 48 106 50 62 106 50 62 106 62 62 106 62 62 106 62 62 106 62 62 124 62 62 124 38 76 124 38 76 124 38 76 124 38 76 124 38 76 142 50 76 142 50 76 142 50 90 142 50 90 142 50 90 142 62 90 88 62 90 88 62 90 88 62 90 88 62 34 88 38 34 88 38 34 106 38 34 106 38 34 106 38 34 106 50 34 106 50 48 106 50 48 124 50 48 124 50 48 124 62 48 124 62 48 124 62 48 124 62 62 142 62 62 142 38 62 142 38 62 142 38 62 142 38 62 142 38 62 88 50 76 88 50 76 88 50 76 88 50 76 88 50 76 88 62 76 106 62 76 106 62 90 106 62 90 106 62 90 106 38 90 106 38 90 124 38 90 124 38 90 124 38 34 124 50 34 124 50 34 124 50 34 142 50 34 142 50 34 142 62 34 142 62 48 142 62 48 142 62 48 88 62 48 88 38 48 88 38 48 88 38 48 88 38 62 88 38 62 106 50 62 106 50 62 106 50 62 106 50 62 106 50 62 106 62 76 124 62 76 124 62 76 124 62 76 124 62 76 124 38 76 124 38 76 142 38 90 142 38 90 142 38 90 142 50 90 142 50 90 142 50 90 88 50 90 88 50 34 88 62 34 88 62 34 88 62 34 88 62 34 106 62 34 106 38 34 106 38 48 106 38 48 106 38 48 106 38 48 124 50 48 124 50 48 124 50 48 124 50 62 124 50 62 124 62 62 142 62 62 142 62 62 142 62 62 142 62 62 142 38 76 142 38 76 88 38 76 88 38 76 88 38 76 88 50 76 88 50 76 88 50 90 106 50 90 106 50 90 106 62 90 106 62 90 106 62 90 106 62 90 124 62 34 124 38 34 124 38 34 124 38 34 124 38 34 124 38 34 142 50 34 142 50 48 142 50 48 142 50 48 142 50 48 142 62 48 88 62 48 88 62 48 88 62 62 88 62 62 88 38 62 88 38 62 106 38 62 106 38 62 106 38 62 106 50 76 106 50 76 106 50 76 124 50 76 124 50 76 124 62 76 124 62 76 124 62 90 124 62 90 142 62 90 142 38 90 142 38 90 142 38 90 142 38 90 142 38 34 88 50 34 88 50 34 88 50 34 88 50 34 88 50 34 88 62 34 106 62 48 106 62 48 106 62 48 106 62 48 106 38 48 106 38 48 124 38 48 124 38 62 124 38 62 124 50 62 124 50 62 124 50 62 142 50 62 142 50 62 142 62 76 142 62 76 142 62 76 142 62 76 88 62 76 88 38 76 88 38 76 88 38 90 88 38 90 88 38 90 106 50 90 106 50 90 106 50 90 106 50 90 106 50 34 106 62 34 124 62 34 124 62 34 124 62 34 124 62 34 124 38 34 124 38 48 142 38 48 142 38 48 142 38 48 142 50 48 142 50 48 142 50 48 88 50 62 88 50 62 88 62 62 88 62 62 88 62 62 88 62 62 106 62 62 106 38 76 106 38 76 106 38 76 106 38 76 106 38 76 124 50 76 124 50 76 124 50 90 124 50 90 124 50 90 124 62 90 142 62 90 142 62 90 142 62 90 142 62 34 142 38 34 142 38 34 88 38 34 88 38 34 88 38 34 88 50 34 88 50 48 88 50 48 106 50 48 106 50 48 106 62 48 106 62 48 106 62 48 106 62 62 124 62 62 124 38 62 124 38 62 124 38 62 124 38 62 124 38 62 142 50 76 142 50 76 142 50 76 142 50 76 142 50 76 142 62 76 88 62 76 88 62 90 88 62 90 88 62 90 88 38 90 88 38 90 106 38 90 106 38 90 106 38 34 106 50 34 106 50 34 106 50 34 124 50 34 124 50
34 106 50 34 106 50 34 106 50 34 106 50 34 106 50 34 106 62 34 124 62 48 124 62 48 124 62 48 124 62 48 124 38 48 124 38 48 142 38 48 142 38 62 142 38 62 142 50 62 142 50 62 142 50 62 88 50 62 88 50 62 88 62 76 88 62 76 88 62 76 88 62 76 106 62 76 106 38 76 106 38 76 106 38 90 106 38 90 106 38 90 124 50 90 124 50 90 124 50 90 124 50 90 124 50 34 124 62 34 142 62 34 142 62 34 142 62 34 142 62 34 142 38 34 142 38 48 88 38 48 88 38 48 88 38 48 88 50 48 88 50 48 88 50 48 106 50 62 106 50 62 106 62 62 106 62 62 106 62 62 106 62 62 124 62 62 124 38 76 124 38 76 124 38 76 124 38 76 124 38 76 142 50 76 142 50 76 142 50 90 142 50 90 142 50 90 142 62 90 88 62 90 88 62 90 88 62 90 88 62 34 88 38 34 88 38 34 106 38 34 106 38 34 106 38 34 106 50 34 106 50 48 106 50 48 124 50 48 124 50 48 124 62 48 124 62 48 124 62 48 124 62 62 142 62 62 142 38 62 142 38 62 142 38 62 142 38 62 142 38 62 88 50 76 88 50 76 88 50 76 88 50 76 88 50 76 88 62 76 106 62 76 106 62 90 106 62 90 106 62 90 106 38 90 106 38 90 124 38 90 124 38 90 124 38 34 124 50 34 124 50 34 124 50 34 142 50 34 142 50 34 142 62 34 142 62 48 142 62 48 142 62 48 88 62 48 88 38 48 88 38 48 88 38 48 88 38 62 88 38 62 106 50 62 106 50 62 106 50 62 106 50 62 106 50 62 106 62 76 124 62 76 124 62 76 124 62 76 124 62 76 124 38 76 124 38 76 142 38 90 142 38 90 142 38 90 142 50 90 142 50 90 142 50 90 88 50 90 88 50 34 88 62 34 88 62 34 88 62 34 88 62 34 106 62 34 106 38 34 106 38 48 106 38 48 106 38 48 106 38 48 124 50 48 124 50 48 124 50 48 124 50 62 124 50 62 124 62 62 142 62 62 142 62 62 142 62 62 142 62 62 142 38 76 142 38 76 88 38 76 88 38 76 88 38 76 88 50 76 88 50 76 88 50 90 106 50 90 106 50 90 106 62 90 106 62 90 106 62 90 106 62 90 124 62 34 124 38 34 124 38 34 124 38 34 124 38 34 124 38 34 142 50 34 142 50 48 142 50 48 142 50 48 142 50 48 142 62 48 88 62 48 88 62 48 88 62 62 88 62 62 88 38 62 88 38 62 106 38 62 106 38 62 106 38 62 106 50 76 106 50 76 106 50 76 124 50 76 124 50 76 124 62 76 124 62 76 124 62 90 124 62 90 142 62 90 142 38 90 142 38 90 142 38 90 142 38 90 142 38 34 88 50 34 88 50 34 88 50 34 88 50 34 88 50 34 88 62 34 106 62 48 106 62 48 106 62 48 106 62 48 106 38 48 106 38 48 124 38 48 124 38 62 124 38 62 124 50 62 124 50 62 124 50 62 142 50 62 142 50 62 142 62 76 142 62 76 142 62 76 142 62 76 88 62 76 88 38 76 88 38 76 88 38 90 88 38 90 88 38 90 106 50 90 106 50 90 106 50 90 106 50 90 106 50 34 106 62 34 124 62 34 124 62 34 124 62 34 124 62 34 124 38 34 124 38 48 142 38 48 142 38 48 142 38 48 142 50 48 142 50 48 142 50 48 88 50 62 88 50 62 88 62 62 88 62 62 88 62 62 88 62 62 106 62 62 106 38 76 106 38 76 106 38 76 106 38 76 106 38 76 124 50 76 124 50 76 124 50 90 124 50 90 124 50 90 124 62 90 142 62 90 142 62 90 142 62 90 142 62 34 142 38 34 142 38 34 88 38 34 88 38 34 88 38 34 88 50 34 88 50 48 88 50 48 106 50 48 106 50 48 106 62 48 106 62 48 106 62 48 106 62 62 124 62 62 124 38 62 124 38 62 124 38 62 124 38 62 124 38 62 142 50 76 142 50 76 142 50 76 142 50 76 142 50 76 142 62 76 88 62 76 88 62 90 88 62 90 88 62 90 88 38 90 88 38 90 106 38 90 106 38 90 106 38 34 106 50 34 106 50 34 106 50 34 124 50 34 124 50
34 106 50 34 106 50 34 106 50 34 106 50 34 106 50 34 106 62 34 124 62 48 124 62 48 124 62 48 124 62 48 124 38 48 124 38 48 142 38 48 142 38 62 142 38 62 142 50 62 142 50 62 142 50 62 88 50 62 88 50 62 88 62 76 88 62 76 88 62 76 88 62 76 106 62 76 106 38 76 106 38 76 106 38 90 106 38 90 106 38 90 124 50 90 124 50 90 124 50 90 124 50 90 124 50 34 124 62 34 142 62 34 142 62 34 142 62 34 142 62 34 142 38 34 142 38 48 88 38 48 88 38 48 88 38 48 88 50 48 88 50 48 88 50 48 106 50 62 106 50 62 106 62 62 106 62 62 106 62 62 106 62 62 124 62 62 124 38 76 124 38 76 124 38 76 124 38 76 124 38 76 142 50 76 142 50 76 142 50 90 142 50 90 142 50 90 142 62 90 88 62 90 88 62 90 88 62 90 88 62 34 88 38 34 88 38 34 106 38 34 106 38 34 106 38 34 106 50 34 106 50 48 106 50 48 124 50 48 124 50 48 124 62 48 124 62 48 124 62 48 124 62 62 142 62 62 142 38 62 142 38 62 142 38 62 142 38 62 142 38 62 88 50 76 88 50 76 88 50 76 88 50 76 88 50 76 88 62 76 106 62 76 106 62 90 106 62 90 106 62 90 106 38 90 106 38 90 124 38 90 124 38 90 124 38 34 124 50 34 124 50 34 124 50 34 142 50 34 142 50 34 142 62 34 142 62 48 142 62 48 142 62 48 88 62 48 88 38 48 88 38 48 88 38 48 88 38 62 88 38 62 106 50 62 106 50 62 106 50 62 106 50 62 106 50 62 106 62 76 124 62 76 124 62 76 124 62 76 124 62 76 124 38 76 124 38 76 142 38 90 142 38 90 142 38 90 142 50 90 142 50 90 142 50 90 88 50 90 88 50 34 88 62 34 88 62 34 88 62 34 88 62 34 106 62 34 106 38 34 106 38 48 106 38 48 106 38 48 106 38 48 124 50 48 124 50 48 124 50 48 124 50 62 124 50 62 124 62 62 142 62 62 142 62 62 142 62 62 142 62 62 142 38 76 142 38 76 88 38 76 88 38 76 88 38 76 88 50 76 88 50 76 88 50 90 106 50 90 106 50 90 106 62 90 106 62 90 106 62 90 106 62 90 124 62 34 124 38 34 124 38 34 124 38 34 124 38 34 124 38 34 142 50 34 142 50 48 142 50 48 142 50 48 142 50 48 142 62 48 88 62 48 88 62 48 88 62 62 88 62 62 88 38 62 88 38 62 106 38 62 106 38 62 106 38 62 106 50 76 106 50 76 106 50 76 124 50 76 124 50 76 124 62 76 124 62 76 124 62 90 124 62 90 142 62 90 142 38 90 142 38 90 142 38 90 142 38 90 142 38 34 88 50 34 88 50 34 88 50 34 88 50 34 88 50 34 88 62 34 106 62 48 106 62 48 106 62 48 106 62 48 106 38 48 106 38 48 124 38 48 124 38 62 124 38 62 124 50 62 124 50 62 124 50 62 142 50 62 142 50 62 142 62 76 142 62 76 142 62 76 142 62 76 88 62 76 88 38 76 88 38 76 88 38 90 88 38 90 88 38 90 106 50 90 106 50 90 106 50 90 106 50 90 106 50 34 106 62 34 124 62 34 124 62 34 124 62 34 124 62 34 124 38 34 124 38 48 142 38 48 142 38 48 142 38 48 142 50 48 142 50 48 142 50 48 88 50 62 88 50 62 88 62 62 88 62 62 88 62 62 88 62 62 106 62 62 106 38 76 106 38 76 106 38 76 106 38 76 106 38 76 124 50 76 124 50 76 124 50 90 124 50 90 124 50 90 124 62 90 142 62 90 142 62 90 142 62 90 142 62 34 142 38 34 142 38 34 88 38 34 88 38 34 88 38 34 88 50 34 88 50 48 88 50 48 106 50 48 106 50 48 106 62 48 106 62 48 106 62 48 106 62 62 124 62 62 124 38 62 124 38 62 124 38 62 124 38 62 124 38 62 142 50 76 142 50 76 142 50 76 142 50 76 142 50 76 142 62 76 88 62 76 88 62 90 88 62 90 88 62 90 88 38 90 88 38 90 106 38 90 106 38 90 106 38 34 106 50 34 106 50 34 106 50 34 124 50 34 124 50
34 106 50 34 106 50 34 106 50 34 106 50 34 106 50 34 106 62 34 124 62 48 124 62 48 124 62 48 124 62 48 124 38 48 124 38 48 142 38 48 142 38 62 142 38 62 142 50 62 142 50 62 142 50 62 88 50 62 88 50 62 88 62 76 88 62 76 88 62 76 88 62 76 106 62 76 106 38 76 106 38 76 106 38 90 106 38 90 106 38 90 124 50 90 124 50 90 124 50 90 124 50 90 124 50 34 124 62 34 142 62 34 142 62 34 142 62 34 142 62 34 142 38 34 142 38 48 88 38 48 88 38 48 88 38 48 88 50 48 88 50 48 88 50 48 106 50 62 106 50 62 106 62 62 106 62 62 106 62 62 106 62 62 124 62 62 124 38 76 124 38 76 124 38 76 124 38 76 124 38 76 142 50 76 142 50 76 142 50 90 142 50 90 142 50 90 142 62 90 88 62 90 88 62 90 88 62 90 88 62 34 88 38 34 88 38 34 106 38 34 106 38 34 106 38 34 106 50 34 106 50 48 106 50 48 124 50 48 124 50 48 124 62 48 124 62 48 124 62 48 124 62 62 142 62 62 142 38 62 142 38 62 142 38 62 142 38 62 142 38 62 88 50 76 88 50 76 88 50 76 88 50 76 88 50 76 88 62 76 106 62 76 106 62 90 106 62 90 106 62 90 106 38 90 106 38 90 124 38 90 124 38 90 124 38 34 124 50 34 124 50 34 124 50 34 142 50 34 142 50 34 142 62 34 142 62 48 142 62 48 142 62 48 88 62 48 88 38 48 88 38 48 88 38 48 88 38 62 88 38 62 106 50 62 106 50 62 106 50 62 106 50 62 106 50 62 106 62 76 124 62 76 124 62 76 124 62 76 124 62 76 124 38 76 124 38 76 142 38 90 142 38 90 142 38 90 142 50 90 142 50 90 142 50 90 88 50 90 88 50 34 88 62 34 88 62 34 88 62 34 88 62 34 106 62 34 106 38 34 106 38 48 106 38 48 106 38 48 106 38 48 124 50 48 124 50 48 124 50 48 124 50 62 124 50 62 124 62 62 142 62 62 142 62 62 142 62 62 142 62 62 142 38 76 142 38 76 88 38 76 88 38 76 88 38 76 88 50 76 88 50 76 88 50 90 106 50 90 106 50 90 106 62 90 106 62 90 106 62 90 106 62 90 124 62 34 124 38 34 124 38 34 124 38 34 124 38 34 124 38 34 142 50 34 142 50 48 142 50 48 142 50 48 142 50 48 142 62 48 88 62 48 88 62 48 88 62 62 88 62 62 88 38 62 88 38 62 106 38 62 106 38 62 106 38 62 106 50 76 106 50 76 106 50 76 124 50 76 124 50 76 124 62 76 124 62 76 124 62 90 124 62 90 142 62 90 142 38 90 142 38 90 142 38 90 142 38 90 142 38 34 88 50 34 88 50 34 88 50 34 88 50 34 88 50 34 88 62 34 106 62 48 106 62 48 106 62 48 106 62 48 106 38 48 106 38 48 124 38 48 124 38 62 124 38 62 124 50 62 124 50 62 124 50 62 142 50 62 142 50 62 142 62 76 142 62 76 142 62 76 142 62 76 88 62 76 88 38 76 88 38 76 88 38 90 88 38 90 88 38 90 106 50 90 106 50 90 106 50 90 106 50 90 106 50 34 106 62 34 124 62 34 124 62 34 124 62 34 124 62 34 124 38 34 124 38 48 142 38 48 142 38 48 142 38 48 142 50 48 142 50 48 142 50 48 88 50 62 88 50 62 88 62 62 88 62 62 88 62 62 88 62 62 106 62 62 106 38 76 106 38 76 106 38 76 106 38 76 106 38 76 124 50 76 124 50 76 124 50 90 124 50 90 124 50 90 124 62 90 142 62 90 142 62 90 142 62 90 142 62 34 142 38 34 142 38 34 88 38 34 88 38 34 88 38 34 88 50 34 88 50 48 88 50 48 106 50 48 106 50 48 106 62 48 106 62 48 106 62 48 106 62 62 124 62 62 124 38 62 124 38 62 124 38 62 124 38 62 124 38 62 142 50 76 142 50 76 142 50 76 142 50 76 142 50 76 142 62 76 88 62 76 88 62 90 88 62 90 88 62 90 88 38 90 88 38 90 106 38 90 106 38 90 106 38 34 106 50 34 106 50 34 106 50 34 124 50 34 124 50
48 106 50 48 106 50 48 106 50 48 106 50 48 106 50 48 106 62 48 124 62 62 124 62 62 124 62 62 124 62 62 124 38 62 124 38 62 142 38 62 142 38 76 142 38 76 142 50 76 142 50 76 142 50 76 88 50 76 88 50 76 88 62 90 88 62 90 88 62 90 88 62 90 106 62 90 106 38 90 106 38 90 106 38 34 106 38 34 106 38 34 124 50 34 124 50 34 124 50 34 124 50 34 124 50 48 124 62 48 142 62 48 142 62 48 142 62 48 142 62 48 142 38 48 142 38 62 88 38 62 88 38 62 88 38 62 88 50 62 88 50 62 88 50 62 106 50 76 106 50 76 106 62 76 106 62 76 106 62 76 106 62 76 124 62 76 124 38 90 124 38 90 124 38 90 124 38 90 124 38 90 142 50 90 142 50 90 142 50 34 142 50 34 142 50 34 142 62 34 88 62 34 88 62 34 88 62 34 88 62 48 88 38 48 88 38 48 106 38 48 106 38 48 106 38 48 106 50 48 106 50 62 106 50 62 124 50 62 124 50 62 124 62 62 124 62 62 124 62 62 124 62 76 142 62 76 142 38 76 142 38 76 142 38 76 142 38 76 142 38 76 88 50 90 88 50 90 88 50 90 88 50 90 88 50 90 88 62 90 106 62 90 106 62 34 106 62 34 106 62 34 106 38 34 106 38 34 124 38 34 124 38 34 124 38 48 124 50 48 124 50 48 124 50 48 142 50 48 142 50 48 142 62 48 142 62 62 142 62 62 142 62 62 88 62 62 88 38 62 88 38 62 88 38 62 88 38 76 88 38 76 106 50 76 106 50 76 106 50 76 106 50 76 106 50 76 106 62 90 124 62 90 124 62 90 124 62 90 124 62 90 124 38 90 124 38 90 142 38 34 142 38 34 142 38 34 142 50 34 142 50 34 142 50 34 88 50 34 88 50 48 88 62 48 88 62 48 88 62 48 88 62 48 106 62 48 106 38 48 106 38 62 106 38 62 106 38 62 106 38 62 124 50 62 124 50 62 124 50 62 124 50 76 124 50 76 124 62 76 142 62 76 142 62 76 142 62 76 142 62 76 142 38 90 142 38 90 88 38 90 88 38 90 88 38 90 88 50 90 88 50 90 88 50 34 106 50 34 106 50 34 106 62 34 106 62 34 106 62 34 106 62 34 124 62 48 124 38 48 124 38 48 124 38 48 124 38 48 124 38 48 142 50 48 142 50 62 142 50 62 142 50 62 142 50 62 142 62 62 88 62 62 88 62 62 88 62 76 88 62 76 88 38 76 88 38 76 106 38 76 106 38 76 106 38 76 106 50 90 106 50 90 106 50 90 124 50 90 124 50 90 124 62 90 124 62 90 124 62 34 124 62 34 142 62 34 142 38 34 142 38 34 142 38 34 142 38 34 142 38 48 88 50 48 88 50 48 88 50 48 88 50 48 88 50 48 88 62 48 106 62 62 106 62 62 106 62 62 106 62 62 106 38 62 106 38 62 124 38 62 124 38 76 124 38 76 124 50 76 124 50 76 124 50 76 142 50 76 142 50 76 142 62 90 142 62 90 142 62 90 142 62 90 88 62 90 88 38 90 88 38 90 88 38 34 88 38 34 88 38 34 106 50 34 106 50 34 106 50 34 106 50 34 106 50 48 106 62 48 124 62 48 124 62 48 124 62 48 124 62 48 124 38 48 124 38 62 142 38 62 142 38 62 142 38 62 142 50 62 142 50 62 142 50 62 88 50 76 88 50 76 88 62 76 88 62 76 88 62 76 88 62 76 106 62 76 106 38 90 106 38 90 106 38 90 106 38 90 106 38 90 124 50 90 124 50 90 124 50 34 124 50 34 124 50 34 124 62 34 142 62 34 142 62 34 142 62 34 142 62 48 142 38 48 142 38 48 88 38 48 88 38 48 88 38 48 88 50 48 88 50 62 88 50 62 106 50 62 106 50 62 106 62 62 106 62 62 106 62 62 106 62 76 124 62 76 124 38 76 124 38 76 124 38 76 124 38 76 124 38 76 142 50 90 142 50 90 142 50 90 142 50 90 142 50 90 142 62 90 88 62 90 88 62 34 88 62 34 88 62 34 88 38 34 88 38 34 106 38 34 106 38 34 106 38 48 106 50 48 106 50 48 106 50 48 124 50 48 124 50
48 106 50 48 106 50 48 106 50 48 106 50 48 106 50 48 106 62 48 124 62 62 124 62 62 124 62 62 124 62 62 124 38 62 124 38 62 142 38 62 142 38 76 142 38 76 142 50 76 142 50 76 142 50 76 88 50 76 88 50 76 88 62 90 88 62 90 88 62 90 88 62 90 106 62 90 106 38 90 106 38 90 106 38 34 106 38 34 106 38 34 124 50 34 124 50 34 124 50 34 124 50 34 124 50 48 124 62 48 142 62 48 142 62 48 142 62 48 142 62 48 142 38 48 142 38 62 88 38 62 88 38 62 88 38 62 88 50 62 88 50 62 88 50 62 106 50 76 106 50 76 106 62 76 106 62 76 106 62 76 106 62 76 124 62 76 124 38 90 124 38 90 124 38 90 124 38 90 124 38 90 142 50 90 142 50 90 142 50 34 142 50 34 142 50 34 142 62 34 88 62 34 88 62 34 88 62 34 88 62 48 88 38 48 88 38 48 106 38 48 106 38 48 106 38 48 106 50 48 106 50 62 106 50 62 124 50 62 124 50 62 124 62 62 124 62 62 124 62 62 124 62 76 142 62 76 142 38 76 142 38 76 142 38 76 142 38 76 142 38 76 88 50 90 88 50 90 88 50 90 88 50 90 88 50 90 88 62 90 106 62 90 106 62 34 106 62 34 106 62 34 106 38 34 106 38 34 124 38 34 124 38 34 124 38 48 124 50 48 124 50 48 124 50 48 142 50 48 142 50 48 142 62 48 142 62 62 142 62 62 142 62 62 88 62 62 88 38 62 88 38 62 88 38 62 88 38 76 88 38 76 106 50 76 106 50 76 106 50 76 106 50 76 106 50 76 106 62 90 124 62 90 124 62 90 124 62 90 124 62 90 124 38 90 124 38 90 142 38 34 142 38 34 142 38 34 142 50 34 142 50 34 142 50 34 88 50 34 88 50 48 88 62 48 88 62 48 88 62 48 88 62 48 106 62 48 106 38 48 106 38 62 106 38 62 106 38 62 106 38 62 124 50 62 124 50 62 124 50 62 124 50 76 124 50 76 124 62 76 142 62 76 142 62 76 142 62 76 142 62 76 142 38 90 142 38 90 88 38 90 88 38 90 88 38 90 88 50 90 88 50 90 88 50 34 106 50 34 106 50 34 106 62 34 106 62 34 106 62 34 106 62 34 124 62 48 124 38 48 124 38 48 124 38 48 124 38 48 124 38 48 142 50 48 142 50 62 142 50 62 142 50 62 142 50 62 142 62 62 88 62 62 88 62 62 88 62 76 88 62 76 88 38 76 88 38 76 106 38 76 106 38 76 106 38 76 106 50 90 106 50 90 106 50 90 124 50 90 124 50 90 124 62 90 124 62 90 124 62 34 124 62 34 142 62 34 142 38 34 142 38 34 142 38 34 142 38 34 142 38 48 88 50 48 88 50 48 88 50 48 88 50 48 88 50 48 88 62 48 106 62 62 106 62 62 106 62 62 106 62 62 106 38 62 106 38 62 124 38 62 124 38 76 124 38 76 124 50 76 124 50 76 124 50 76 142 50 76 142 50 76 142 62 90 142 62 90 142 62 90 142 62 90 88 62 90 88 38 90 88 38 90 88 38 34 88 38 34 88 38 34 106 50 34 106 50 34 106 50 34 106 50 34 106 50 48 106 62 48 124 62 48 124 62 48 124 62 48 124 62 48 124 38 48 124 38 62 142 38 62 142 38 62 142 38 62 142 50 62 142 50 62 142 50 62 88 50 76 88 50 76 88 62 76 88 62 76 88 62 76 88 62 76 106 62 76 106 38 90 106 38 90 106 38 90 106 38 90 106 38 90 124 50 90 124 50 90 124 50 34 124 50 34 124 50 34 124 62 34 142 62 34 142 62 34 142 62 34 142 62 48 142 38 48 142 38 48 88 38 48 88 38 48 88 38 48 88 50 48 88 50 62 88 50 62 106 50 62 106 50 62 106 62 62 106 62 62 106 62 62 106 62 76 124 62 76 124 38 76 124 38 76 124 38 76 124 38 76 124 38 76 142 50 90 142 50 90 142 50 90 142 50 90 142 50 90 142 62 90 88 62 90 88 62 34 88 62 34 88 62 34 88 38 34 88 38 34 106 38 34 106 38 34 106 38 48 106 50 48 106 50 48 106 50 48 124 50 48 124 50
48 124 50 48 124 50 48 124 50 48 124 50 48 124 50 48 124 62 48 142 62 62 142 62 62 142 62 62 142 62 62 142 38 62 142 38 62 88 38 62 88 38 76 88 38 76 88 50 76 88 50 76 88 50 76 106 50 76 106 50 76 106 62 90 106 62 90 106 62 90 106 62 90 124 62 90 124 38 90 124 38 90 124 38 34 124 38 34 124 38 34 142 50 34 142 50 34 142 50 34 142 50 34 142 50 48 142 62 48 88 62 48 88 62 48 88 62 48 88 62 48 88 38 48 88 38 62 106 38 62 106 38 62 106 38 62 106 50 62 106 50 62 106 50 62 124 50 76 124 50 76 124 62 76 124 62 76 124 62 76 124 62 76 142 62 76 142 38 90 142 38 90 142 38 90 142 38 90 142 38 90 88 50 90 88 50 90 88 50 34 88 50 34 88 50 34 88 62 34 106 62 34 106 62 34 106 62 34 106 62 48 106 38 48 106 38 48 124 38 48 124 38 48 124 38 48 124 50 48 124 50 62 124 50 62 142 50 62 142 50 62 142 62 62 142 62 62 142 62 62 142 62 76 88 62 76 88 38 76 88 38 76 88 38 76 88 38 76 88 38 76 106 50 90 106 50 90 106 50 90 106 50 90 106 50 90 106 62 90 124 62 90 124 62 34 124 62 34 124 62 34 124 38 34 124 38 34 142 38 34 142 38 34 142 38 48 142 50 48 142 50 48 142 50 48 88 50 48 88 50 48 88 62 48 88 62 62 88 62 62 88 62 62 106 62 62 106 38 62 106 38 62 106 38 62 106 38 76 106 38 76 124 50 76 124 50 76 124 50 76 124 50 76 124 50 76 124 62 90 142 62 90 142 62 90 142 62 90 142 62 90 142 38 90 142 38 90 88 38 34 88 38 34 88 38 34 88 50 34 88 50 34 88 50 34 106 50 34 106 50 48 106 62 48 106 62 48 106 62 48 106 62 48 124 62 48 124 38 48 124 38 62 124 38 62 124 38 62 124 38 62 142 50 62 142 50 62 142 50 62 142 50 76 142 50 76 142 62 76 88 62 76 88 62 76 88 62 76 88 62 76 88 38 90 88 38 90 106 38 90 106 38 90 106 38 90 106 50 90 106 50 90 106 50 34 124 50 34 124 50 34 124 62 34 124 62 34 124 62 34 124 62 34 142 62 48 142 38 48 142 38 48 142 38 48 142 38 48 142 38 48 88 50 48 88 50 62 88 50 62 88 50 62 88 50 62 88 62 62 106 62 62 106 62 62 106 62 76 106 62 76 106 38 76 106 38 76 124 38 76 124 38 76 124 38 76 124 50 90 124 50 90 124 50 90 142 50 90 142 50 90 142 62 90 142 62 90 142 62 34 142 62 34 88 62 34 88 38 34 88 38 34 88 38 34 88 38 34 88 38 48 106 50 48 106 50 48 106 50 48 106 50 48 106 50 48 106 62 48 124 62 62 124 62 62 124 62 62 124 62 62 124 38 62 124 38 62 142 38 62 142 38 76 142 38 76 142 50 76 142 50 76 142 50 76 88 50 76 88 50 76 88 62 90 88 62 90 88 62 90 88 62 90 106 62 90 106 38 90 106 38 90 106 38 34 106 38 34 106 38 34 124 50 34 124 50 34 124 50 34 124 50 34 124 50 48 124 62 48 142 62 48 142 62 48 142 62 48 142 62 48 142 38 48 142 38 62 88 38 62 88 38 62 88 38 62 88 50 62 88 50 62 88 50 62 106 50 76 106 50 76 106 62 76 106 62 76 106 62 76 106 62 76 124 62 76 124 38 90 124 38 90 124 38 90 124 38 90 124 38 90 142 50 90 142 50 90 142 50 34 142 50 34 142 50 34 142 62 34 88 62 34 88 62 34 88 62 34 88 62 48 88 38 48 88 38 48 106 38 48 106 38 48 106 38 48 106 50 48 106 50 62 106 50 62 124 50 62 124 50 62 124 62 62 124 62 62 124 62 62 124 62 76 142 62 76 142 38 76 142 38 76 142 38 76 142 38 76 142 38 76 88 50 90 88 50 90 88 50 90 88 50 90 88 50 90 88 62 90 106 62 90 106 62 34 106 62 34 106 62 34 106 38 34 106 38 34 124 38 34 124 38 34 124 38 48 124 50 48 124 50 48 124 50 48 142 50 48 142 50
48 124 50 48 124 50 48 124 50 48 124 50 48 124 50 48 124 62 48 142 62 62 142 62 62 142 62 62 142 62 62 142 38 62 142 38 62 88 38 62 88 38 76 88 38 76 88 50 76 88 50 76 88 50 76 106 50 76 106 50 76 106 62 90 106 62 90 106 62 90 106 62 90 124 62 90 124 38 90 124 38 90 124 38 34 124 38 34 124 38 34 142 50 34 142 50 34 142 50 34 142 50 34 142 50 48 142 62 48 88 62 48 88 62 48 88 62 48 88 62 48 88 38 48 88 38 62 106 38 62 106 38 62 106 38 62 106 50 62 106 50 62 106 50 62 124 50 76 124 50 76 124 62 76 124 62 76 124 62 76 124 62 76 142 62 76 142 38 90 142 38 90 142 38 90 142 38 90 142 38 90 88 50 90 88 50 90 88 50 34 88 50 34 88 50 34 88 62 34 106 62 34 106 62 34 106 62 34 106 62 48 106 38 48 106 38 48 124 38 48 124 38 48 124 38 48 124 50 48 124 50 62 124 50 62 142 50 62 142 50 62 142 62 62 142 62 62 142 62 62 142 62 76 88 62 76 88 38 76 88 38 76 88 38 76 88 38 76 88 38 76 106 50 90 106 50 90 106 50 90 106 50 90 106 50 90 106 62 90 124 62 90 124 62 34 124 62 34 124 62 34 124 38 34 124 38 34 142 38 34 142 38 34 142 38 48 142 50 48 142 50 48 142 50 48 88 50 48 88 50 48 88 62 48 88 62 62 88 62 62 88 62 62 106 62 62 106 38 62 106 38 62 106 38 62 106 38 76 106 38 76 124 50 76 124 50 76 124 50 76 124 50 76 124 50 76 124 62 90 142 62 90 142 62 90 142 62 90 142 62 90 142 38 90 142 38 90 88 38 34 88 38 34 88 38 34 88 50 34 88 50 34 88 50 34 106 50 34 106 50 48 106 62 48 106 62 48 106 62 48 106 62 48 124 62 48 124 38 48 124 38 62 124 38 62 124 38 62 124 38 62 142 50 62 142 50 62 142 50 62 142 50 76 142 50 76 142 62 76 88 62 76 88 62 76 88 62 76 88 62 76 88 38 90 88 38 90 106 38 90 106 38 90 106 38 90 106 50 90 106 50 90 106 50 34 124 50 34 124 50 34 124 62 34 124 62 34 124 62 34 124 62 34 142 62 48 142 38 48 142 38 48 142 38 48 142 38 48 142 38 48 88 50 48 88 50 62 88 50 62 88 50 62 88 50 62 88 62 62 106 62 62 106 62 62 106 62 76 106 62 76 106 38 76 106 38 76 124 38 76 124 38 76 124 38 76 124 50 90 124 50 90 124 50 90 142 50 90 142 50 90 142 62 90 142 62 90 142 62 34 142 62 34 88 62 34 88 38 34 88 38 34 88 38 34 88 38 34 88 38 48 106 50 48 106 50 48 106 50 48 106 50 48 106 50 48 106 62 48 124 62 62 124 62 62 124 62 62 124 62 62 124 38 62 124 38 62 142 38 62 142 38 76 142 38 76 142 50 76 142 50 76 142 50 76 88 50 76 88 50 76 88 62 90 88 62 90 88 62 90 88 62 90 106 62 90 106 38 90 106 38 90 106 38 34 106 38 34 106 38 34 124 50 34 124 50 34 124 50 34 124 50 34 124 50 48 124 62 48 142 62 48 142 62 48 142 62 48 142 62 48 142 38 48 142 38 62 88 38 62 88 38 62 88 38 62 88 50 62 88 50 62 88 50 62 106 50 76 106 50 76 106 62 76 106 62 76 106 62 76 106 62 76 124 62 76 124 38 90 124 38 90 124 38 90 124 38 90 124 38 90 142 50 90 142 50 90 142 50 34 142 50 34 142 50 34 142 62 34 88 62 34 88 62 34 88 62 34 88 62 48 88 38 48 88 38 48 106 38 48 106 38 48 106 38 48 106 50 48 106 50 62 106 50 62 124 50 62 124 50 62 124 62 62 124 62 62 124 62 62 124 62 76 142 62 76 142 38 76 142 38 76 142 38 76 142 38 76 142 38 76 88 50 90 88 50 90 88 50 90 88 50 90 88 50 90 88 62 90 106 62 90 106 62 34 106 62 34 106 62 34 106 38 34 106 38 34 124 38 34 124 38 34 124 38 48 124 50 48 124 50 48 124 50 48 142 50 48 142 50
48 124 62 48 124 62 48 124 62 48 124 62 48 124 62 48 124 38 48 142 38 62 142 38 62 142 38 62 142 38 62 142 50 62 142 50 62 88 50 62 88 50 76 88 50 76 88 62 76 88 62 76 88 62 76 106 62 76 106 62 76 106 38 90 106 38 90 106 38 90 106 38 90 124 38 90 124 50 90 124 50 90 124 50 34 124 50 34 124 50 34 142 62 34 142 62 34 142 62 34 142 62 34 142 62 48 142 38 48 88 38 48 88 38 48 88 38 48 88 38 48 88 50 48 88 50 62 106 50 62 106 50 62 106 50 62 106 62 62 106 62 62 106 62 62 124 62 76 124 62 76 124 38 76 124 38 76 124 38 76 124 38 76 142 38 76 142 50 90 142 50 90 142 50 90 142 50 90 142 50 90 88 62 90 88 62 90 88 62 34 88 62 34 88 62 34 88 38 34 106 38 34 106 38 34 106 38 34 106 38 48 106 50 48 106 50 48 124 50 48 124 50 48 124 50 48 124 62 48 124 62 62 124 62 62 142 62 62 142 62 62 142 38 62 142 38 62 142 38 62 142 38 76 88 38 76 88 50 76 88 50 76 88 50 76 88 50 76 88 50 76 106 62 90 106 62 90 106 62 90 106 62 90 106 62 90 106 38 90 124 38 90 124 38 34 124 38 34 124 38 34 124 50 34 124 50 34 142 50 34 142 50 34 142 50 48 142 62 48 142 62 48 142 62 48 88 62 48 88 62 48 88 38 48 88 38 62 88 38 62 88 38 62 106 38 62 106 50 62 106 50 62 106 50 62 106 50 76 106 50 76 124 62 76 124 62 76 124 62 76 124 62 76 124 62 76 124 38 90 142 38 90 142 38 90 142 38 90 142 38 90 142 50 90 142 50 90 88 50 34 88 50 34 88 50 34 88 62 34 88 62 34 88 62 34 106 62 34 106 62 48 106 38 48 106 38 48 106 38 48 106 38 48 124 38 48 124 50 48 124 50 62 124 50 62 124 50 62 124 50 62 142 62 62 142 62 62 142 62 62 142 62 76 142 62 76 142 38 76 88 38 76 88 38 76 88 38 76 88 38 76 88 50 90 88 50 90 106 50 90 106 50 90 106 50 90 106 62 90 106 62 90 106 62 34 124 62 34 124 62 34 124 38 34 124 38 34 124 38 34 124 38 34 142 38 48 142 50 48 142 50 48 142 50 48 142 50 48 142 50 48 88 62 48 88 62 62 88 62 62 88 62 62 88 62 62 88 38 62 106 38 62 106 38 62 106 38 76 106 38 76 106 50 76 106 50 76 124 50 76 124 50 76 124 50 76 124 62 90 124 62 90 124 62 90 142 62 90 142 62 90 142 38 90 142 38 90 142 38 34 142 38 34 88 38 34 88 50 34 88 50 34 88 50 34 88 50 34 88 50 48 106 62 48 106 62 48 106 62 48 106 62 48 106 62 48 106 38 48 124 38 62 124 38 62 124 38 62 124 38 62 124 50 62 124 50 62 142 50 62 142 50 76 142 50 76 142 62 76 142 62 76 142 62 76 88 62 76 88 62 76 88 38 90 88 38 90 88 38 90 88 38 90 106 38 90 106 50 90 106 50 90 106 50 34 106 50 34 106 50 34 124 62 34 124 62 34 124 62 34 124 62 34 124 62 48 124 38 48 142 38 48 142 38 48 142 38 48 142 38 48 142 50 48 142 50 62 88 50 62 88 50 62 88 50 62 88 62 62 88 62 62 88 62 62 106 62 76 106 62 76 106 38 76 106 38 76 106 38 76 106 38 76 124 38 76 124 50 90 124 50 90 124 50 90 124 50 90 124 50 90 142 62 90 142 62 90 142 62 34 142 62 34 142 62 34 142 38 34 88 38 34 88 38 34 88 38 34 88 38 48 88 50 48 88 50 48 106 50 48 106 50 48 106 50 48 106 62 48 106 62 62 106 62 62 124 62 62 124 62 62 124 38 62 124 38 62 124 38 62 124 38 76 142 38 76 142 50 76 142 50 76 142 50 76 142 50 76 142 50 76 88 62 90 88 62 90 88 62 90 88 62 90 88 62 90 88 38 90 106 38 90 106 38 34 106 38 34 106 38 34 106 50 34 106 50 34 124 50 34 124 50 34 124 50 48 124 62 48 124 62 48 124 62 48 142 62 48 142 62
62 124 62 62 124 62 62 124 62 62 124 62 62 124 62 62 124 38 62 142 38 76 142 38 76 142 38 76 142 38 76 142 50 76 142 50 76 88 50 76 88 50 90 88 50 90 88 62 90 88 62 90 88 62 90 106 62 90 106 62 90 106 38 34 106 38 34 106 38 34 106 38 34 124 38 34 124 50 34 124 50 34 124 50 48 124 50 48 124 50 48 142 62 48 142 62 48 142 62 48 142 62 48 142 62 62 142 38 62 88 38 62 88 38 62 88 38 62 88 38 62 88 50 62 88 50 76 106 50 76 106 50 76 106 50 76 106 62 76 106 62 76 106 62 76 124 62 90 124 62 90 124 38 90 124 38 90 124 38 90 124 38 90 142 38 90 142 50 34 142 50 34 142 50 34 142 50 34 142 50 34 88 62 34 88 62 34 88 62 48 88 62 48 88 62 48 88 38 48 106 38 48 106 38 48 106 38 48 106 38 62 106 50 62 106 50 62 124 50 62 124 50 62 124 50 62 124 62 62 124 62 76 124 62 76 142 62 76 142 62 76 142 38 76 142 38 76 142 38 76 142 38 90 88 38 90 88 50 90 88 50 90 88 50 90 88 50 90 88 50 90 106 62 34 106 62 34 106 62 34 106 62 34 106 62 34 106 38 34 124 38 34 124 38 48 124 38 48 124 38 48 124 50 48 124 50 48 142 50 48 142 50 48 142 50 62 142 62 62 142 62 62 142 62 62 88 62 62 88 62 62 88 38 62 88 38 76 88 38 76 88 38 76 106 38 76 106 50 76 106 50 76 106 50 76 106 50 90 106 50 90 124 62 90 124 62 90 124 62 90 124 62 90 124 62 90 124 38 34 142 38 34 142 38 34 142 38 34 142 38 34 142 50 34 142 50 34 88 50 48 88 50 48 88 50 48 88 62 48 88 62 48 88 62 48 106 62 48 106 62 62 106 38 62 106 38 62 106 38 62 106 38 62 124 38 62 124 50 62 124 50 76 124 50 76 124 50 76 124 50 76 142 62 76 142 62 76 142 62 76 142 62 90 142 62 90 142 38 90 88 38 90 88 38 90 88 38 90 88 38 90 88 50 34 88 50 34 106 50 34 106 50 34 106 50 34 106 62 34 106 62 34 106 62 48 124 62 48 124 62 48 124 38 48 124 38 48 124 38 48 124 38 48 142 38 62 142 50 62 142 50 62 142 50 62 142 50 62 142 50 62 88 62 62 88 62 76 88 62 76 88 62 76 88 62 76 88 38 76 106 38 76 106 38 76 106 38 90 106 38 90 106 50 90 106 50 90 124 50 90 124 50 90 124 50 90 124 62 34 124 62 34 124 62 34 142 62 34 142 62 34 142 38 34 142 38 34 142 38 48 142 38 48 88 38 48 88 50 48 88 50 48 88 50 48 88 50 48 88 50 62 106 62 62 106 62 62 106 62 62 106 62 62 106 62 62 106 38 62 124 38 76 124 38 76 124 38 76 124 38 76 124 50 76 124 50 76 142 50 76 142 50 90 142 50 90 142 62 90 142 62 90 142 62 90 88 62 90 88 62 90 88 38 34 88 38 34 88 38 34 88 38 34 106 38 34 106 50 34 106 50 34 106 50 48 106 50 48 106 50 48 124 62 48 124 62 48 124 62 48 124 62 48 124 62 62 124 38 62 142 38 62 142 38 62 142 38 62 142 38 62 142 50 62 142 50 76 88 50 76 88 50 76 88 50 76 88 62 76 88 62 76 88 62 76 106 62 90 106 62 90 106 38 90 106 38 90 106 38 90 106 38 90 124 38 90 124 50 34 124 50 34 124 50 34 124 50 34 124 50 34 142 62 34 142 62 34 142 62 48 142 62 48 142 62 48 142 38 48 88 38 48 88 38 48 88 38 48 88 38 62 88 50 62 88 50 62 106 50 62 106 50 62 106 50 62 106 62 62 106 62 76 106 62 76 124 62 76 124 62 76 124 38 76 124 38 76 124 38 76 124 38 90 142 38 90 142 50 90 142 50 90 142 50 90 142 50 90 142 50 90 88 62 34 88 62 34 88 62 34 88 62 34 88 62 34 88 38 34 106 38 34 106 38 48 106 38 48 106 38 48 106 50 48 106 50 48 124 50 48 124 50 48 124 50 62 124 62 62 124 62 62 124 62 62 142 62 62 142 62
62 124 62 62 124 62 62 124 62 62 124 62 62 124 62 62 124 38 62 142 38 76 142 38 76 142 38 76 142 38 76 142 50 76 142 50 76 88 50 76 88 50 90 88 50 90 88 62 90 88 62 90 88 62 90 106 62 90 106 62 90 106 38 34 106 38 34 106 38 34 106 38 34 124 38 34 124 50 34 124 50 34 124 50 48 124 50 48 124 50 48 142 62 48 142 62 48 142 62 48 142 62 48 142 62 62 142 38 62 88 38 62 88 38 62 88 38 62 88 38 62 88 50 62 88 50 76 106 50 76 106 50 76 106 50 76 106 62 76 106 62 76 106 62 76 124 62 90 124 62 90 124 38 90 124 38 90 124 38 90 124 38 90 142 38 90 142 50 34 142 50 34 142 50 34 142 50 34 142 50 34 88 62 34 88 62 34 88 62 48 88 62 48 88 62 48 88 38 48 106 38 48 106 38 48 106 38 48 106 38 62 106 50 62 106 50 62 124 50 62 124 50 62 124 50 62 124 62 62 124 62 76 124 62 76 142 62 76 142 62 76 142 38 76 142 38 76 142 38 76 142 38 90 88 38 90 88 50 90 88 50 90 88 50 90 88 50 90 88 50 90 106 62 34 106 62 34 106 62 34 106 62 34 106 62 34 106 38 34 124 38 34 124 38 48 124 38 48 124 38 48 124 50 48 124 50 48 142 50 48 142 50 48 142 50 62 142 62 62 142 62 62 142 62 62 88 62 62 88 62 62 88 38 62 88 38 76 88 38 76 88 38 76 106 38 76 106 50 76 106 50 76 106 50 76 106 50 90 106 50 90 124 62 90 124 62 90 124 62 90 124 62 90 124 62 90 124 38 34 142 38 34 142 38 34 142 38 34 142 38 34 142 50 34 142 50 34 88 50 48 88 50 48 88 50 48 88 62 48 88 62 48 88 62 48 106 62 48 106 62 62 106 38 62 106 38 62 106 38 62 106 38 62 124 38 62 124 50 62 124 50 76 124 50 76 124 50 76 124 50 76 142 62 76 142 62 76 142 62 76 142 62 90 142 62 90 142 38 90 88 38 90 88 38 90 88 38 90 88 38 90 88 50 34 88 50 34 106 50 34 106 50 34 106 50 34 106 62 34 106 62 34 106 62 48 124 62 48 124 62 48 124 38 48 124 38 48 124 38 48 124 38 48 142 38 62 142 50 62 142 50 62 142 50 62 142 50 62 142 50 62 88 62 62 88 62 76 88 62 76 88 62 76 88 62 76 88 38 76 106 38 76 106 38 76 106 38 90 106 38 90 106 50 90 106 50 90 124 50 90 124 50 90 124 50 90 124 62 34 124 62 34 124 62 34 142 62 34 142 62 34 142 38 34 142 38 34 142 38 48 142 38 48 88 38 48 88 50 48 88 50 48 88 50 48 88 50 48 88 50 62 106 62 62 106 62 62 106 62 62 106 62 62 106 62 62 106 38 62 124 38 76 124 38 76 124 38 76 124 38 76 124 50 76 124 50 76 142 50 76 142 50 90 142 50 90 142 62 90 142 62 90 142 62 90 88 62 90 88 62 90 88 38 34 88 38 34 88 38 34 88 38 34 106 38 34 106 50 34 106 50 34 106 50 48 106 50 48 106 50 48 124 62 48 124 62 48 124 62 48 124 62 48 124 62 62 124 38 62 142 38 62 142 38 62 142 38 62 142 38 62 142 50 62 142 50 76 88 50 76 88 50 76 88 50 76 88 62 76 88 62 76 88 62 76 106 62 90 106 62 90 106 38 90 106 38 90 106 38 90 106 38 90 124 38 90 124 50 34 124 50 34 124 50 34 124 50 34 124 50 34 142 62 34 142 62 34 142 62 48 142 62 48 142 62 48 142 38 48 88 38 48 88 38 48 88 38 48 88 38 62 88 50 62 88 50 62 106 50 62 106 50 62 106 50 62 106 62 62 106 62 76 106 62 76 124 62 76 124 62 76 124 38 76 124 38 76 124 38 76 124 38 90 142 38 90 142 50 90 142 50 90 142 50 90 142 50 90 142 50 90 88 62 34 88 62 34 88 62 34 88 62 34 88 62 34 88 38 34 106 38 34 106 38 48 106 38 48 106 38 48 106 50 48 106 50 48 124 50 48 124 50 48 124 50 62 124 62 62 124 62 62 124 62 62 142 62 62 142 62
62 124 62 62 124 62 62 124 62 62 124 62 62 124 62 62 124 38 62 142 38 76 142 38 76 142 38 76 142 38 76 142 50 76 142 50 76 88 50 76 88 50 90 88 50 90 88 62 90 88 62 90 88 62 90 106 62 90 106 62 90 106 38 34 106 38 34 106 38 34 106 38 34 124 38 34 124 50 34 124 50 34 124 50 48 124 50 48 124 50 48 142 62 48 142 62 48 142 62 48 142 62 48 142 62 62 142 38 62 88 38 62 88 38 62 88 38 62 88 38 62 88 50 62 88 50 76 106 50 76 106 50 76 106 50 76 106 62 76 106 62 76 106 62 76 124 62 90 124 62 90 124 38 90 124 38 90 124 38 90 124 38 90 142 38 90 142 50 34 142 50 34 142 50 34 142 50 34 142 50 34 88 62 34 88 62 34 88 62 48 88 62 48 88 62 48 88 38 48 106 38 48 106 38 48 106 38 48 106 38 62 106 50 62 106 50 62 124 50 62 124 50 62 124 50 62 124 62 62 124 62 76 124 62 76 142 62 76 142 62 76 142 38 76 142 38 76 142 38 76 142 38 90 88 38 90 88 50 90 88 50 90 88 50 90 88 50 90 88 50 90 106 62 34 106 62 34 106 62 34 106 62 34 106 62 34 106 38 34 124 38 34 124 38 48 124 38 48 124 38 48 124 50 48 124 50 48 142 50 48 142 50 48 142 50 62 142 62 62 142 62 62 142 62 62 88 62 62 88 62 62 88 38 62 88 38 76 88 38 76 88 38 76 106 38 76 106 50 76 106 50 76 106 50 76 106 50 90 106 50 90 124 62 90 124 62 90 124 62 90 124 62 90 124 62 90 124 38 34 142 38 34 142 38 34 142 38 34 142 38 34 142 50 34 142 50 34 88 50 48 88 50 48 88 50 48 88 62 48 88 62 48 88 62 48 106 62 48 106 62 62 106 38 62 106 38 62 106 38 62 106 38 62 124 38 62 124 50 62 124 50 76 124 50 76 124 50 76 124 50 76 142 62 76 142 62 76 142 62 76 142 62 90 142 62 90 142 38 90 88 38 90 88 38 90 88 38 90 88 38 90 88 50 34 88 50 34 106 50 34 106 50 34 106 50 34 106 62 34 106 62 34 106 62 48 124 62 48 124 62 48 124 38 48 124 38 48 124 38 48 124 38 48 142 38 62 142 50 62 142 50 62 142 50 62 142 50 62 142 50 62 88 62 62 88 62 76 88 62 76 88 62 76 88 62 76 88 38 76 106 38 76 106 38 76 106 38 90 106 38 90 106 50 90 106 50 90 124 50 90 124 50 90 124 50 90 124 62 34 124 62 34 124 62 34 142 62 34 142 62 34 142 38 34 142 38 34 142 38 48 142 38 48 88 38 48 88 50 48 88 50 48 88 50 48 88 50 48 88 50 62 106 62 62 106 62 62 106 62 62 106 62 62 106 62 62 106 38 62 124 38 76 124 38 76 124 38 76 124 38 76 124 50 76 124 50 76 142 50 76 142 50 90 142 50 90 142 62 90 142 62 90 142 62 90 88 62 90 88 62 90 88 38 34 88 38 34 88 38 34 88 38 34 106 38 34 106 50 34 106 50 34 106 50 48 106 50 48 106 50 48 124 62 48 124 62 48 124 62 48 124 62 48 124 62 62 124 38 62 142 38 62 142 38 62 142 38 62 142 38 62 142 50 62 142 50 76 88 50 76 88 50 76 88 50 76 88 62 76 88 62 76 88 62 76 106 62 90 106 62 90 106 38 90 106 38 90 106 38 90 106 38 90 124 38 90 124 50 34 124 50 34 124 50 34 124 50 34 124 50 34 142 62 34 142 62 34 142 62 48 142 62 48 142 62 48 142 38 48 88 38 48 88 38 48 88 38 48 88 38 62 88 50 62 88 50 62 106 50 62 106 50 62 106 50 62 106 62 62 106 62 76 106 62 76 124 62 76 124 62 76 124 38 76 124 38 76 124 38 76 124 38 90 142 38 90 142 50 90 142 50 90 142 50 90 142 50 90 142 50 90 88 62 34 88 62 34 88 62 34 88 62 34 88 62 34 88 38 34 106 38 34 106 38 48 106 38 48 106 38 48 106 50 48 106 50 48 124 50 48 124 50 48 124 50 62 124 62 62 124 62 62 124 62 62 142 62 62 142 62
62 124 62 62 124 62 62 124 62 62 124 62 62 124 62 62 124 38 62 142 38 76 142 38 76 142 38 76 142 38 76 142 50 76 142 50 76 88 50 76 88 50 90 88 50 90 88 62 90 88 62 90 88 62 90 106 62 90 106 62 90 106 38 34 106 38 34 106 38 34 106 38 34 124 38 34 124 50 34 124 50 34 124 50 48 124 50 48 124 50 48 142 62 48 142 62 48 142 62 48 142 62 48 142 62 62 142 38 62 88 38 62 88 38 62 88 38 62 88 38 62 88 50 62 88 50 76 106 50 76 106 50 76 106 50 76 106 62 76 106 62 76 106 62 76 124 62 90 124 62 90 124 38 90 124 38 90 124 38 90 124 38 90 142 38 90 142 50 34 142 50 34 142 50 34 142 50 34 142 50 34 88 62 34 88 62 34 88 62 48 88 62 48 88 62 48 88 38 48 106 38 48 106 38 48 106 38 48 106 38 62 106 50 62 106 50 62 124 50 62 124 50 62 124 50 62 124 62 62 124 62 76 124 62 76 142 62 76 142 62 76 142 38 76 142 38 76 142 38 76 142 38 90 88 38 90 88 50 90 88 50 90 88 50 90 88 50 90 88 50 90 106 62 34 106 62 34 106 62 34 106 62 34 106 62 34 106 38 34 124 38 34 124 38 48 124 38 48 124 38 48 124 50 48 124 50 48 142 50 48 142 50 48 142 50 62 142 62 62 142 62 62 142 62 62 88 62 62 88 62 62 88 38 62 88 38 76 88 38 76 88 38 76 106 38 76 106 50 76 106 50 76 106 50 76 106 50 90 106 50 90 124 62 90 124 62 90 124 62 90 124 62 90 124 62 90 124 38 34 142 38 34 142 38 34 142 38 34 142 38 34 142 50 34 142 50 34 88 50 48 88 50 48 88 50 48 88 62 48 88 62 48 88 62 48 106 62 48 106 62 62 106 38 62 106 38 62 106 38 62 106 38 62 124 38 62 124 50 62 124 50 76 124 50 76 124 50 76 124 50 76 142 62 76 142 62 76 142 62 76 142 62 90 142 62 90 142 38 90 88 38 90 88 38 90 88 38 90 88 38 90 88 50 34 88 50 34 106 50 34 106 50 34 106 50 34 106 62 34 106 62 34 106 62 48 124 62 48 124 62 48 124 38 48 124 38 48 124 38 48 124 38 48 142 38 62 142 50 62 142 50 62 142 50 62 142 50 62 142 50 62 88 62 62 88 62 76 88 62 76 88 62 76 88 62 76 88 38 76 106 38 76 106 38 76 106 38 90 106 38 90 106 50 90 106 50 90 124 50 90 124 50 90 124 50 90 124 62 34 124 62 34 124 62 34 142 62 34 142 62 34 142 38 34 142 38 34 142 38 48 142 38 48 88 38 48 88 50 48 88 50 48 88 50 48 88 50 48 88 50 62 106 62 62 106 62 62 106 62 62 106 62 62 106 62 62 106 38 62 124 38 76 124 38 76 124 38 76 124 38 76 124 50 76 124 50 76 142 50 76 142 50 90 142 50 90 142 62 90 142 62 90 142 62 90 88 62 90 88 62 90 88 38 34 88 38 34 88 38 34 88 38 34 106 38 34 106 50 34 106 50 34 106 50 48 106 50 48 106 50 48 124 62 48 124 62 48 124 62 48 124 62 48 124 62 62 124 38 62 142 38 62 142 38 62 142 38 62 142 38 62 142 50 62 142 50 76 88 50 76 88 50 76 88 50 76 88 62 76 88 62 76 88 62 76 106 62 90 106 62 90 106 38 90 106 38 90 106 38 90 106 38 90 124 38 90 124 50 34 124 50 34 124 50 34 124 50 34 124 50 34 142 62 34 142 62 34 142 62 48 142 62 48 142 62 48 142 38 48 88 38 48 88 38 48 88 38 48 88 38 62 88 50 62 88 50 62 106 50 62 106 50 62 106 50 62 106 62 62 106 62 76 106 62 76 124 62 76 124 62 76 124 38 76 124 38 76 124 38 76 124 38 90 142 38 90 142 50 90 142 50 90 142 50 90 142 50 90 142 50 90 88 62 34 88 62 34 88 62 34 88 62 34 88 62 34 88 38 34 106 38 34 106 38 48 106 38 48 106 38 48 106 50 48 106 50 48 124 50 48 124 50 48 124 50 62 124 62 62 124 62 62 124 62 62 142 62 62 142 62
62 142 62 62 142 62 62 142 62 62 142 62 62 142 62 62 142 38 62 88 38 76 88 38 76 88 38 76 88 38 76 88 50 76 88 50 76 106 50 76 106 50 90 106 50 90 106 62 90 106 62 90 106 62 90 124 62 90 124 62 90 124 38 34 124 38 34 124 38 34 124 38 34 142 38 34 142 50 34 142 50 34 142 50 48 142 50 48 142 50 48 88 62 48 88 62 48 88 62 48 88 62 48 88 62 62 88 38 62 106 38 62 106 38 62 106 38 62 106 38 62 106 50 62 106 50 76 124 50 76 124 50 76 124 50 76 124 62 76 124 62 76 124 62 76 142 62 90 142 62 90 142 38 90 142 38 90 142 38 90 142 38 90 88 38 90 88 50 34 88 50 34 88 50 34 88 50 34 88 50 34 106 62 34 106 62 34 106 62 48 106 62 48 106 62 48 106 38 48 124 38 48 124 38 48 124 38 48 124 38 62 124 50 62 124 50 62 142 50 62 142 50 62 142 50 62 142 62 62 142 62 76 142 62 76 88 62 76 88 62 76 88 38 76 88 38 76 88 38 76 88 38 90 106 38 90 106 50 90 106 50 90 106 50 90 106 50 90 106 50 90 124 62 34 124 62 34 124 62 34 124 62 34 124 62 34 124 38 34 142 38 34 142 38 48 142 38 48 142 38 48 142 50 48 142 50 48 88 50 48 88 50 48 88 50 62 88 62 62 88 62 62 88 62 62 106 62 62 106 62 62 106 38 62 106 38 76 106 38 76 106 38 76 124 38 76 124 50 76 124 50 76 124 50 76 124 50 90 124 50 90 142 62 90 142 62 90 142 62 90 142 62 90 142 62 90 142 38 34 88 38 34 88 38 34 88 38 34 88 38 34 88 50 34 88 50 34 106 50 48 106 50 48 106 50 48 106 62 48 106 62 48 106 62 48 124 62 48 124 62 62 124 38 62 124 38 62 124 38 62 124 38 62 142 38 62 142 50 62 142 50 76 142 50 76 142 50 76 142 50 76 88 62 76 88 62 76 88 62 76 88 62 90 88 62 90 88 38 90 106 38 90 106 38 90 106 38 90 106 38 90 106 50 34 106 50 34 124 50 34 124 50 34 124 50 34 124 62 34 124 62 34 124 62 48 142 62 48 142 62 48 142 38 48 142 38 48 142 38 48 142 38 48 88 38 62 88 50 62 88 50 62 88 50 62 88 50 62 88 50 62 106 62 62 106 62 76 106 62 76 106 62 76 106 62 76 106 38 76 124 38 76 124 38 76 124 38 90 124 38 90 124 50 90 124 50 90 142 50 90 142 50 90 142 50 90 142 62 34 142 62 34 142 62 34 88 62 34 88 62 34 88 38 34 88 38 34 88 38 48 88 38 48 106 38 48 106 50 48 106 50 48 106 50 48 106 50 48 106 50 62 124 62 62 124 62 62 124 62 62 124 62 62 124 62 62 124 38 62 142 38 76 142 38 76 142 38 76 142 38 76 142 50 76 142 50 76 88 50 76 88 50 90 88 50 90 88 62 90 88 62 90 88 62 90 106 62 90 106 62 90 106 38 34 106 38 34 106 38 34 106 38 34 124 38 34 124 50 34 124 50 34 124 50 48 124 50 48 124 50 48 142 62 48 142 62 48 142 62 48 142 62 48 142 62 62 142 38 62 88 38 62 88 38 62 88 38 62 88 38 62 88 50 62 88 50 76 106 50 76 106 50 76 106 50 76 106 62 76 106 62 76 106 62 76 124 62 90 124 62 90 124 38 90 124 38 90 124 38 90 124 38 90 142 38 90 142 50 34 142 50 34 142 50 34 142 50 34 142 50 34 88 62 34 88 62 34 88 62 48 88 62 48 88 62 48 88 38 48 106 38 48 106 38 48 106 38 48 106 38 62 106 50 62 106 50 62 124 50 62 124 50 62 124 50 62 124 62 62 124 62 76 124 62 76 142 62 76 142 62 76 142 38 76 142 38 76 142 38 76 142 38 90 88 38 90 88 50 90 88 50 90 88 50 90 88 50 90 88 50 90 106 62 34 106 62 34 106 62 34 106 62 34 106 62 34 106 38 34 124 38 34 124 38 48 124 38 48 124 38 48 124 50 48 124 50 48 142 50 48 142 50 48 142 50 62 142 62 62 142 62 62 142 62 62 88 62 62 88 62
76 142 62 76 142 62 76 142 62 76 142 62 76 142 62 76 142 38 76 88 38 90 88 38 90 88 38 90 88 38 90 88 50 90 88 50 90 106 50 90 106 50 34 106 50 34 106 62 34 106 62 34 106 62 34 124 62 34 124 62 34 124 38 48 124 38 48 124 38 48 124 38 48 142 38 48 142 50 48 142 50 48 142 50 62 142 50 62 142 50 62 88 62 62 88 62 62 88 62 62 88 62 62 88 62 76 88 38 76 106 38 76 106 38 76 106 38 76 106 38 76 106 50 76 106 50 90 124 50 90 124 50 90 124 50 90 124 62 90 124 62 90 124 62 90 142 62 34 142 62 34 142 38 34 142 38 34 142 38 34 142 38 34 88 38 34 88 50 48 88 50 48 88 50 48 88 50 48 88 50 48 106 62 48 106 62 48 106 62 62 106 62 62 106 62 62 106 38 62 124 38 62 124 38 62 124 38 62 124 38 76 124 50 76 124 50 76 142 50 76 142 50 76 142 50 76 142 62 76 142 62 90 142 62 90 88 62 90 88 62 90 88 38 90 88 38 90 88 38 90 88 38 34 106 38 34 106 50 34 106 50 34 106 50 34 106 50 34 106 50 34 124 62 48 124 62 48 124 62 48 124 62 48 124 62 48 124 38 48 142 38 48 142 38 62 142 38 62 142 38 62 142 50 62 142 50 62 88 50 62 88 50 62 88 50 76 88 62 76 88 62 76 88 62 76 106 62 76 106 62 76 106 38 76 106 38 90 106 38 90 106 38 90 124 38 90 124 50 90 124 50 90 124 50 90 124 50 34 124 50 34 142 62 34 142 62 34 142 62 34 142 62 34 142 62 34 142 38 48 88 38 48 88 38 48 88 38 48 88 38 48 88 50 48 88 50 48 106 50 62 106 50 62 106 50 62 106 62 62 106 62 62 106 62 62 124 62 62 124 62 76 124 38 76 124 38 76 124 38 76 124 38 76 142 38 76 142 50 76 142 50 90 142 50 90 142 50 90 142 50 90 88 62 90 88 62 90 88 62 90 88 62 34 88 62 34 88 38 34 106 38 34 106 38 34 106 38 34 106 38 34 106 50 48 106 50 48 124 50 48 124 50 48 124 50 48 124 62 48 124 62 48 124 62 62 142 62 62 142 62 62 142 38 62 142 38 62 142 38 62 142 38 62 88 38 76 88 50 76 88 50 76 88 50 76 88 50 76 88 50 76 106 62 76 106 62 90 106 62 90 106 62 90 106 62 90 106 38 90 124 38 90 124 38 90 124 38 34 124 38 34 124 50 34 124 50 34 142 50 34 142 50 34 142 50 34 142 62 48 142 62 48 142 62 48 88 62 48 88 62 48 88 38 48 88 38 48 88 38 62 88 38 62 106 38 62 106 50 62 106 50 62 106 50 62 106 50 62 106 50 76 124 62 76 124 62 76 124 62 76 124 62 76 124 62 76 124 38 76 142 38 90 142 38 90 142 38 90 142 38 90 142 50 90 142 50 90 88 50 90 88 50 34 88 50 34 88 62 34 88 62 34 88 62 34 106 62 34 106 62 34 106 38 48 106 38 48 106 38 48 106 38 48 124 38 48 124 50 48 124 50 48 124 50 62 124 50 62 124 50 62 142 62 62 142 62 62 142 62 62 142 62 62 142 62 76 142 38 76 88 38 76 88 38 76 88 38 76 88 38 76 88 50 76 88 50 90 106 50 90 106 50 90 106 50 90 106 62 90 106 62 90 106 62 90 124 62 34 124 62 34 124 38 34 124 38 34 124 38 34 124 38 34 142 38 34 142 50 48 142 50 48 142 50 48 142 50 48 142 50 48 88 62 48 88 62 48 88 62 62 88 62 62 88 62 62 88 38 62 106 38 62 106 38 62 106 38 62 106 38 76 106 50 76 106 50 76 124 50 76 124 50 76 124 50 76 124 62 76 124 62 90 124 62 90 142 62 90 142 62 90 142 38 90 142 38 90 142 38 90 142 38 34 88 38 34 88 50 34 88 50 34 88 50 34 88 50 34 88 50 34 106 62 48 106 62 48 106 62 48 106 62 48 106 62 48 106 38 48 124 38 48 124 38 62 124 38 62 124 38 62 124 50 62 124 50 62 142 50 62 142 50 62 142 50 76 142 62 76 142 62 76 142 62 76 88 62 76 88 62
76 142 62 76 142 62 76 142 62 76 142 62 76 142 62 76 142 38 76 88 38 90 88 38 90 88 38 90 88 38 90 88 50 90 88 50 90 106 50 90 106 50 34 106 50 34 106 62 34 106 62 34 106 62 34 124 62 34 124 62 34 124 38 48 124 38 48 124 38 48 124 38 48 142 38 48 142 50 48 142 50 48 142 50 62 142 50 62 142 50 62 88 62 62 88 62 62 88 62 62 88 62 62 88 62 76 88 38 76 106 38 76 106 38 76 106 38 76 106 38 76 106 50 76 106 50 90 124 50 90 124 50 90 124 50 90 124 62 90 124 62 90 124 62 90 142 62 34 142 62 34 142 38 34 142 38 34 142 38 34 142 38 34 88 38 34 88 50 48 88 50 48 88 50 48 88 50 48 88 50 48 106 62 48 106 62 48 106 62 62 106 62 62 106 62 62 106 38 62 124 38 62 124 38 62 124 38 62 124 38 76 124 50 76 124 50 76 142 50 76 142 50 76 142 50 76 142 62 76 142 62 90 142 62 90 88 62 90 88 62 90 88 38 90 88 38 90 88 38 90 88 38 34 106 38 34 106 50 34 106 50 34 106 50 34 106 50 34 106 50 34 124 62 48 124 62 48 124 62 48 124 62 48 124 62 48 124 38 48 142 38 48 142 38 62 142 38 62 142 38 62 142 50 62 142 50 62 88 50 62 88 50 62 88 50 76 88 62 76 88 62 76 88 62 76 106 62 76 106 62 76 106 38 76 106 38 90 106 38 90 106 38 90 124 38 90 124 50 90 124 50 90 124 50 90 124 50 34 124 50 34 142 62 34 142 62 34 142 62 34 142 62 34 142 62 34 142 38 48 88 38 48 88 38 48 88 38 48 88 38 48 88 50 48 88 50 48 106 50 62 106 50 62 106 50 62 106 62 62 106 62 62 106 62 62 124 62 62 124 62 76 124 38 76 124 38 76 124 38 76 124 38 76 142 38 76 142 50 76 142 50 90 142 50 90 142 50 90 142 50 90 88 62 90 88 62 90 88 62 90 88 62 34 88 62 34 88 38 34 106 38 34 106 38 34 106 38 34 106 38 34 106 50 48 106 50 48 124 50 48 124 50 48 124 50 48 124 62 48 124 62 48 124 62 62 142 62 62 142 62 62 142 38 62 142 38 62 142 38 62 142 38 62 88 38 76 88 50 76 88 50 76 88 50 76 88 50 76 88 50 76 106 62 76 106 62 90 106 62 90 106 62 90 106 62 90 106 38 90 124 38 90 124 38 90 124 38 34 124 38 34 124 50 34 124 50 34 142 50 34 142 50 34 142 50 34 142 62 48 142 62 48 142 62 48 88 62 48 88 62 48 88 38 48 88 38 48 88 38 62 88 38 62 106 38 62 106 50 62 106 50 62 106 50 62 106 50 62 106 50 76 124 62 76 124 62 76 124 62 76 124 62 76 124 62 76 124 38 76 142 38 90 142 38 90 142 38 90 142 38 90 142 50 90 142 50 90 88 50 90 88 50 34 88 50 34 88 62 34 88 62 34 88 62 34 106 62 34 106 62 34 106 38 48 106 38 48 106 38 48 106 38 48 124 38 48 124 50 48 124 50 48 124 50 62 124 50 62 124 50 62 142 62 62 142 62 62 142 62 62 142 62 62 142 62 76 142 38 76 88 38 76 88 38 76 88 38 76 88 38 76 88 50 76 88 50 90 106 50 90 106 50 90 106 50 90 106 62 90 106 62 90 106 62 90 124 62 34 124 62 34 124 38 34 124 38 34 124 38 34 124 38 34 142 38 34 142 50 48 142 50 48 142 50 48 142 50 48 142 50 48 88 62 48 88 62 48 88 62 62 88 62 62 88 62 62 88 38 62 106 38 62 106 38 62 106 38 62 106 38 76 106 50 76 106 50 76 124 50 76 124 50 76 124 50 76 124 62 76 124 62 90 124 62 90 142 62 90 142 62 90 142 38 90 142 38 90 142 38 90 142 38 34 88 38 34 88 50 34 88 50 34 88 50 34 88 50 34 88 50 34 106 62 48 106 62 48 106 62 48 106 62 48 106 62 48 106 38 48 124 38 48 124 38 62 124 38 62 124 38 62 124 50 62 124 50 62 142 50 62 142 50 62 142 50 76 142 62 76 142 62 76 142 62 76 88 62 76 88 62
76 142 38 76 142 38 76 142 38 76 142 38 76 142 38 76 142 50 76 88 50 90 88 50 90 88 50 90 88 50 90 88 62 90 88 62 90 106 62 90 106 62 34 106 62 34 106 38 34 106 38 34 106 38 34 124 38 34 124 38 34 124 50 48 124 50 48 124 50 48 124 50 48 142 50 48 142 62 48 142 62 48 142 62 62 142 62 62 142 62 62 88 38 62 88 38 62 88 38 62 88 38 62 88 38 76 88 50 76 106 50 76 106 50 76 106 50 76 106 50 76 106 62 76 106 62 90 124 62 90 124 62 90 124 62 90 124 38 90 124 38 90 124 38 90 142 38 34 142 38 34 142 50 34 142 50 34 142 50 34 142 50 34 88 50 34 88 62 48 88 62 48 88 62 48 88 62 48 88 62 48 106 38 48 106 38 48 106 38 62 106 38 62 106 38 62 106 50 62 124 50 62 124 50 62 124 50 62 124 50 76 124 62 76 124 62 76 142 62 76 142 62 76 142 62 76 142 38 76 142 38 90 142 38 90 88 38 90 88 38 90 88 50 90 88 50 90 88 50 90 88 50 34 106 50 34 106 62 34 106 62 34 106 62 34 106 62 34 106 62 34 124 38 48 124 38 48 124 38 48 124 38 48 124 38 48 124 50 48 142 50 48 142 50 62 142 50 62 142 50 62 142 62 62 142 62 62 88 62 62 88 62 62 88 62 76 88 38 76 88 38 76 88 38 76 106 38 76 106 38 76 106 50 76 106 50 90 106 50 90 106 50 90 124 50 90 124 62 90 124 62 90 124 62 90 124 62 34 124 62 34 142 38 34 142 38 34 142 38 34 142 38 34 142 38 34 142 50 48 88 50 48 88 50 48 88 50 48 88 50 48 88 62 48 88 62 48 106 62 62 106 62 62 106 62 62 106 38 62 106 38 62 106 38 62 124 38 62 124 38 76 124 50 76 124 50 76 124 50 76 124 50 76 142 50 76 142 62 76 142 62 90 142 62 90 142 62 90 142 62 90 88 38 90 88 38 90 88 38 90 88 38 34 88 38 34 88 50 34 106 50 34 106 50 34 106 50 34 106 50 34 106 62 48 106 62 48 124 62 48 124 62 48 124 62 48 124 38 48 124 38 48 124 38 62 142 38 62 142 38 62 142 50 62 142 50 62 142 50 62 142 50 62 88 50 76 88 62 76 88 62 76 88 62 76 88 62 76 88 62 76 106 38 76 106 38 90 106 38 90 106 38 90 106 38 90 106 50 90 124 50 90 124 50 90 124 50 34 124 50 34 124 62 34 124 62 34 142 62 34 142 62 34 142 62 34 142 38 48 142 38 48 142 38 48 88 38 48 88 38 48 88 50 48 88 50 48 88 50 62 88 50 62 106 50 62 106 62 62 106 62 62 106 62 62 106 62 62 106 62 76 124 38 76 124 38 76 124 38 76 124 38 76 124 38 76 124 50 76 142 50 90 142 50 90 142 50 90 142 50 90 142 62 90 142 62 90 88 62 90 88 62 34 88 62 34 88 38 34 88 38 34 88 38 34 106 38 34 106 38 34 106 50 48 106 50 48 106 50 48 106 50 48 124 50 48 124 62 48 124 62 48 124 62 62 124 62 62 124 62 62 142 38 62 142 38 62 142 38 62 142 38 62 142 38 76 142 50 76 88 50 76 88 50 76 88 50 76 88 50 76 88 62 76 88 62 90 106 62 90 106 62 90 106 62 90 106 38 90 106 38 90 106 38 90 124 38 34 124 38 34 124 50 34 124 50 34 124 50 34 124 50 34 142 50 34 142 62 48 142 62 48 142 62 48 142 62 48 142 62 48 88 38 48 88 38 48 88 38 62 88 38 62 88 38 62 88 50 62 106 50 62 106 50 62 106 50 62 106 50 76 106 62 76 106 62 76 124 62 76 124 62 76 124 62 76 124 38 76 124 38 90 124 38 90 142 38 90 142 38 90 142 50 90 142 50 90 142 50 90 142 50 34 88 50 34 88 62 34 88 62 34 88 62 34 88 62 34 88 62 34 106 38 48 106 38 48 106 38 48 106 38 48 106 38 48 106 50 48 124 50 48 124 50 62 124 50 62 124 50 62 124 62 62 124 62 62 142 62 62 142 62 62 142 62 76 142 38 76 142 38 76 142 38 76 88 38 76 88 38
76 142 38 76 142 38 76 142 38 76 142 38 76 142 38 76 142 50 76 88 50 90 88 50 90 88 50 90 88 50 90 88 62 90 88 62 90 106 62 90 106 62 34 106 62 34 106 38 34 106 38 34 106 38 34 124 38 34 124 38 34 124 50 48 124 50 48 124 50 48 124 50 48 142 50 48 142 62 48 142 62 48 142 62 62 142 62 62 142 62 62 88 38 62 88 38 62 88 38 62 88 38 62 88 38 76 88 50 76 106 50 76 106 50 76 106 50 76 106 50 76 106 62 76 106 62 90 124 62 90 124 62 90 124 62 90 124 38 90 124 38 90 124 38 90 142 38 34 142 38 34 142 50 34 142 50 34 142 50 34 142 50 34 88 50 34 88 62 48 88 62 48 88 62 48 88 62 48 88 62 48 106 38 48 106 38 48 106 38 62 106 38 62 106 38 62 106 50 62 124 50 62 124 50 62 124 50 62 124 50 76 124 62 76 124 62 76 142 62 76 142 62 76 142 62 76 142 38 76 142 38 90 142 38 90 88 38 90 88 38 90 88 50 90 88 50 90 88 50 90 88 50 34 106 50 34 106 62 34 106 62 34 106 62 34 106 62 34 106 62 34 124 38 48 124 38 48 124 38 48 124 38 48 124 38 48 124 50 48 142 50 48 142 50 62 142 50 62 142 50 62 142 62 62 142 62 62 88 62 62 88 62 62 88 62 76 88 38 76 88 38 76 88 38 76 106 38 76 106 38 76 106 50 76 106 50 90 106 50 90 106 50 90 124 50 90 124 62 90 124 62 90 124 62 90 124 62 34 124 62 34 142 38 34 142 38 34 142 38 34 142 38 34 142 38 34 142 50 48 88 50 48 88 50 48 88 50 48 88 50 48 88 62 48 88 62 48 106 62 62 106 62 62 106 62 62 106 38 62 106 38 62 106 38 62 124 38 62 124 38 76 124 50 76 124 50 76 124 50 76 124 50 76 142 50 76 142 62 76 142 62 90 142 62 90 142 62 90 142 62 90 88 38 90 88 38 90 88 38 90 88 38 34 88 38 34 88 50 34 106 50 34 106 50 34 106 50 34 106 50 34 106 62 48 106 62 48 124 62 48 124 62 48 124 62 48 124 38 48 124 38 48 124 38 62 142 38 62 142 38 62 142 50 62 142 50 62 142 50 62 142 50 62 88 50 76 88 62 76 88 62 76 88 62 76 88 62 76 88 62 76 106 38 76 106 38 90 106 38 90 106 38 90 106 38 90 106 50 90 124 50 90 124 50 90 124 50 34 124 50 34 124 62 34 124 62 34 142 62 34 142 62 34 142 62 34 142 38 48 142 38 48 142 38 48 88 38 48 88 38 48 88 50 48 88 50 48 88 50 62 88 50 62 106 50 62 106 62 62 106 62 62 106 62 62 106 62 62 106 62 76 124 38 76 124 38 76 124 38 76 124 38 76 124 38 76 124 50 76 142 50 90 142 50 90 142 50 90 142 50 90 142 62 90 142 62 90 88 62 90 88 62 34 88 62 34 88 38 34 88 38 34 88 38 34 106 38 34 106 38 34 106 50 48 106 50 48 106 50 48 106 50 48 124 50 48 124 62 48 124 62 48 124 62 62 124 62 62 124 62 62 142 38 62 142 38 62 142 38 62 142 38 62 142 38 76 142 50 76 88 50 76 88 50 76 88 50 76 88 50 76 88 62 76 88 62 90 106 62 90 106 62 90 106 62 90 106 38 90 106 38 90 106 38 90 124 38 34 124 38 34 124 50 34 124 50 34 124 50 34 124 50 34 142 50 34 142 62 48 142 62 48 142 62 48 142 62 48 142 62 48 88 38 48 88 38 48 88 38 62 88 38 62 88 38 62 88 50 62 106 50 62 106 50 62 106 50 62 106 50 76 106 62 76 106 62 76 124 62 76 124 62 76 124 62 76 124 38 76 124 38 90 124 38 90 142 38 90 142 38 90 142 50 90 142 50 90 142 50 90 142 50 34 88 50 34 88 62 34 88 62 34 88 62 34 88 62 34 88 62 34 106 38 48 106 38 48 106 38 48 106 38 48 106 38 48 106 50 48 124 50 48 124 50 62 124 50 62 124 50 62 124 62 62 124 62 62 142 62 62 142 62 62 142 62 76 142 38 76 142 38 76 142 38 76 88 38 76 88 38
76 142 38 76 142 38 76 142 38 76 142 38 76 142 38 76 142 50 76 88 50 90 88 50 90 88 50 90 88 50 90 88 62 90 88 62 90 106 62 90 106 62 34 106 62 34 106 38 34 106 38 34 106 38 34 124 38 34 124 38 34 124 50 48 124 50 48 124 50 48 124 50 48 142 50 48 142 62 48 142 62 48 142 62 62 142 62 62 142 62 62 88 38 62 88 38 62 88 38 62 88 38 62 88 38 76 88 50 76 106 50 76 106 50 76 106 50 76 106 50 76 106 62 76 106 62 90 124 62 90 124 62 90 124 62 90 124 38 90 124 38 90 124 38 90 142 38 34 142 38 34 142 50 34 142 50 34 142 50 34 142 50 34 88 50 34 88 62 48 88 62 48 88 62 48 88 62 48 88 62 48 106 38 48 106 38 48 106 38 62 106 38 62 106 38 62 106 50 62 124 50 62 124 50 62 124 50 62 124 50 76 124 62 76 124 62 76 142 62 76 142 62 76 142 62 76 142 38 76 142 38 90 142 38 90 88 38 90 88 38 90 88 50 90 88 50 90 88 50 90 88 50 34 106 50 34 106 62 34 106 62 34 106 62 34 106 62 34 106 62 34 124 38 48 124 38 48 124 38 48 124 38 48 124 38 48 124 50 48 142 50 48 142 50 62 142 50 62 142 50 62 142 62 62 142 62 62 88 62 62 88 62 62 88 62 76 88 38 76 88 38 76 88 38 76 106 38 76 106 38 76 106 50 76 106 50 90 106 50 90 106 50 90 124 50 90 124 62 90 124 62 90 124 62 90 124 62 34 124 62 34 142 38 34 142 38 34 142 38 34 142 38 34 142 38 34 142 50 48 88 50 48 88 50 48 88 50 48 88 50 48 88 62 48 88 62 48 106 62 62 106 62 62 106 62 62 106 38 62 106 38 62 106 38 62 124 38 62 124 38 76 124 50 76 124 50 76 124 50 76 124 50 76 142 50 76 142 62 76 142 62 90 142 62 90 142 62 90 142 62 90 88 38 90 88 38 90 88 38 90 88 38 34 88 38 34 88 50 34 106 50 34 106 50 34 106 50 34 106 50 34 106 62 48 106 62 48 124 62 48 124 62 48 124 62 48 124 38 48 124 38 48 124 38 62 142 38 62 142 38 62 142 50 62 142 50 62 142 50 62 142 50 62 88 50 76 88 62 76 88 62 76 88 62 76 88 62 76 88 62 76 106 38 76 106 38 90 106 38 90 106 38 90 106 38 90 106 50 90 124 50 90 124 50 90 124 50 34 124 50 34 124 62 34 124 62 34 142 62 34 142 62 34 142 62 34 142 38 48 142 38 48 142 38 48 88 38 48 88 38 48 88 50 48 88 50 48 88 50 62 88 50 62 106 50 62 106 62 62 106 62 62 106 62 62 106 62 62 106 62 76 124 38 76 124 38 76 124 38 76 124 38 76 124 38 76 124 50 76 142 50 90 142 50 90 142 50 90 142 50 90 142 62 90 142 62 90 88 62 90 88 62 34 88 62 34 88 38 34 88 38 34 88 38 34 106 38 34 106 38 34 106 50 48 106 50 48 106 50 48 106 50 48 124 50 48 124 62 48 124 62 48 124 62 62 124 62 62 124 62 62 142 38 62 142 38 62 142 38 62 142 38 62 142 38 76 142 50 76 88 50 76 88 50 76 88 50 76 88 50 76 88 62 76 88 62 90 106 62 90 106 62 90 106 62 90 106 38 90 106 38 90 106 38 90 124 38 34 124 38 34 124 50 34 124 50 34 124 50 34 124 50 34 142 50 34 142 62 48 142 62 48 142 62 48 142 62 48 142 62 48 88 38 48 88 38 48 88 38 62 88 38 62 88 38 62 88 50 62 106 50 62 106 50 62 106 50 62 106 50 76 106 62 76 106 62 76 124 62 76 124 62 76 124 62 76 124 38 76 124 38 90 124 38 90 142 38 90 142 38 90 142 50 90 142 50 90 142 50 90 142 50 34 88 50 34 88 62 34 88 62 34 88 62 34 88 62 34 88 62 34 106 38 48 106 38 48 106 38 48 106 38 48 106 38 48 106 50 48 124 50 48 124 50 62 124 50 62 124 50 62 124 62 62 124 62 62 142 62 62 142 62 62 142 62 76 142 38 76 142 38 76 142 38 76 88 38 76 88 38
90 142 38 90 142 38 90 142 38 90 142 38 90 142 38 90 142 50 90 88 50 34 88 50 34 88 50 34 88 50 34 88 62 34 88 62 34 106 62 34 106 62 48 106 62 48 106 38 48 106 38 48 106 38 48 124 38 48 124 38 48 124 50 62 124 50 62 124 50 62 124 50 62 142 50 62 142 62 62 142 62 62 142 62 76 142 62 76 142 62 76 88 38 76 88 38 76 88 38 76 88 38 76 88 38 90 88 50 90 106 50 90 106 50 90 106 50 90 106 50 90 106 62 90 106 62 34 124 62 34 124 62 34 124 62 34 124 38 34 124 38 34 124 38 34 142 38 48 142 38 48 142 50 48 142 50 48 142 50 48 142 50 48 88 50 48 88 62 62 88 62 62 88 62 62 88 62 62 88 62 62 106 38 62 106 38 62 106 38 76 106 38 76 106 38 76 106 50 76 124 50 76 124 50 76 124 50 76 124 50 90 124 62 90 124 62 90 142 62 90 142 62 90 142 62 90 142 38 90 142 38 34 142 38 34 88 38 34 88 38 34 88 50 34 88 50 34 88 50 34 88 50 48 106 50 48 106 62 48 106 62 48 106 62 48 106 62 48 106 62 48 124 38 62 124 38 62 124 38 62 124 38 62 124 38 62 124 50 62 142 50 62 142 50 76 142 50 76 142 50 76 142 62 76 142 62 76 88 62 76 88 62 76 88 62 90 88 38 90 88 38 90 88 38 90 106 38 90 106 38 90 106 50 90 106 50 34 106 50 34 106 50 34 124 50 34 124 62 34 124 62 34 124 62 34 124 62 48 124 62 48 142 38 48 142 38 48 142 38 48 142 38 48 142 38 48 142 50 62 88 50 62 88 50 62 88 50 62 88 50 62 88 62 62 88 62 62 106 62 76 106 62 76 106 62 76 106 38 76 106 38 76 106 38 76 124 38 76 124 38 90 124 50 90 124 50 90 124 50 90 124 50 90 142 50 90 142 62 90 142 62 34 142 62 34 142 62 34 142 62 34 88 38 34 88 38 34 88 38 34 88 38 48 88 38 48 88 50 48 106 50 48 106 50 48 106 50 48 106 50 48 106 62 62 106 62 62 124 62 62 124 62 62 124 62 62 124 38 62 124 38 62 124 38 76 142 38 76 142 38 76 142 50 76 142 50 76 142 50 76 142 50 76 88 50 90 88 62 90 88 62 90 88 62 90 88 62 90 88 62 90 106 38 90 106 38 34 106 38 34 106 38 34 106 38 34 106 50 34 124 50 34 124 50 34 124 50 48 124 50 48 124 62 48 124 62 48 142 62 48 142 62 48 142 62 48 142 38 62 142 38 62 142 38 62 88 38 62 88 38 62 88 50 62 88 50 62 88 50 76 88 50 76 106 50 76 106 62 76 106 62 76 106 62 76 106 62 76 106 62 90 124 38 90 124 38 90 124 38 90 124 38 90 124 38 90 124 50 90 142 50 34 142 50 34 142 50 34 142 50 34 142 62 34 142 62 34 88 62 34 88 62 48 88 62 48 88 38 48 88 38 48 88 38 48 106 38 48 106 38 48 106 50 62 106 50 62 106 50 62 106 50 62 124 50 62 124 62 62 124 62 62 124 62 76 124 62 76 124 62 76 142 38 76 142 38 76 142 38 76 142 38 76 142 38 90 142 50 90 88 50 90 88 50 90 88 50 90 88 50 90 88 62 90 88 62 34 106 62 34 106 62 34 106 62 34 106 38 34 106 38 34 106 38 34 124 38 48 124 38 48 124 50 48 124 50 48 124 50 48 124 50 48 142 50 48 142 62 62 142 62 62 142 62 62 142 62 62 142 62 62 88 38 62 88 38 62 88 38 76 88 38 76 88 38 76 88 50 76 106 50 76 106 50 76 106 50 76 106 50 90 106 62 90 106 62 90 124 62 90 124 62 90 124 62 90 124 38 90 124 38 34 124 38 34 142 38 34 142 38 34 142 50 34 142 50 34 142 50 34 142 50 48 88 50 48 88 62 48 88 62 48 88 62 48 88 62 48 88 62 48 106 38 62 106 38 62 106 38 62 106 38 62 106 38 62 106 50 62 124 50 62 124 50 76 124 50 76 124 50 76 124 62 76 124 62 76 142 62 76 142 62 76 142 62 90 142 38 90 142 38 90 142 38 90 88 38 90 88 38
90 88 38 90 88 38 90 88 38 90 88 38 90 88 38 90 88 50 90 106 50 34 106 50 34 106 50 34 106 50 34 106 62 34 106 62 34 124 62 34 124 62 48 124 62 48 124 38 48 124 38 48 124 38 48 142 38 48 142 38 48 142 50 62 142 50 62 142 50 62 142 50 62 88 50 62 88 62 62 88 62 62 88 62 76 88 62 76 88 62 76 106 38 76 106 38 76 106 38 76 106 38 76 106 38 90 106 50 90 124 50 90 124 50 90 124 50 90 124 50 90 124 62 90 124 62 34 142 62 34 142 62 34 142 62 34 142 38 34 142 38 34 142 38 34 88 38 48 88 38 48 88 50 48 88 50 48 88 50 48 88 50 48 106 50 48 106 62 62 106 62 62 106 62 62 106 62 62 106 62 62 124 38 62 124 38 62 124 38 76 124 38 76 124 38 76 124 50 76 142 50 76 142 50 76 142 50 76 142 50 90 142 62 90 142 62 90 88 62 90 88 62 90 88 62 90 88 38 90 88 38 34 88 38 34 106 38 34 106 38 34 106 50 34 106 50 34 106 50 34 106 50 48 124 50 48 124 62 48 124 62 48 124 62 48 124 62 48 124 62 48 142 38 62 142 38 62 142 38 62 142 38 62 142 38 62 142 50 62 88 50 62 88 50 76 88 50 76 88 50 76 88 62 76 88 62 76 106 62 76 106 62 76 106 62 90 106 38 90 106 38 90 106 38 90 124 38 90 124 38 90 124 50 90 124 50 34 124 50 34 124 50 34 142 50 34 142 62 34 142 62 34 142 62 34 142 62 48 142 62 48 88 38 48 88 38 48 88 38 48 88 38 48 88 38 48 88 50 62 106 50 62 106 50 62 106 50 62 106 50 62 106 62 62 106 62 62 124 62 76 124 62 76 124 62 76 124 38 76 124 38 76 124 38 76 142 38 76 142 38 90 142 50 90 142 50 90 142 50 90 142 50 90 88 50 90 88 62 90 88 62 34 88 62 34 88 62 34 88 62 34 106 38 34 106 38 34 106 38 34 106 38 48 106 38 48 106 50 48 124 50 48 124 50 48 124 50 48 124 50 48 124 62 62 124 62 62 142 62 62 142 62 62 142 62 62 142 38 62 142 38 62 142 38 76 88 38 76 88 38 76 88 50 76 88 50 76 88 50 76 88 50 76 106 50 90 106 62 90 106 62 90 106 62 90 106 62 90 106 62 90 124 38 90 124 38 34 124 38 34 124 38 34 124 38 34 124 50 34 142 50 34 142 50 34 142 50 48 142 50 48 142 62 48 142 62 48 88 62 48 88 62 48 88 62 48 88 38 62 88 38 62 88 38 62 106 38 62 106 38 62 106 50 62 106 50 62 106 50 76 106 50 76 124 50 76 124 62 76 124 62 76 124 62 76 124 62 76 124 62 90 142 38 90 142 38 90 142 38 90 142 38 90 142 38 90 142 50 90 88 50 34 88 50 34 88 50 34 88 50 34 88 62 34 88 62 34 106 62 34 106 62 48 106 62 48 106 38 48 106 38 48 106 38 48 124 38 48 124 38 48 124 50 62 124 50 62 124 50 62 124 50 62 142 50 62 142 62 62 142 62 62 142 62 76 142 62 76 142 62 76 88 38 76 88 38 76 88 38 76 88 38 76 88 38 90 88 50 90 106 50 90 106 50 90 106 50 90 106 50 90 106 62 90 106 62 34 124 62 34 124 62 34 124 62 34 124 38 34 124 38 34 124 38 34 142 38 48 142 38 48 142 50 48 142 50 48 142 50 48 142 50 48 88 50 48 88 62 62 88 62 62 88 62 62 88 62 62 88 62 62 106 38 62 106 38 62 106 38 76 106 38 76 106 38 76 106 50 76 124 50 76 124 50 76 124 50 76 124 50 90 124 62 90 124 62 90 142 62 90 142 62 90 142 62 90 142 38 90 142 38 34 142 38 34 88 38 34 88 38 34 88 50 34 88 50 34 88 50 34 88 50 48 106 50 48 106 62 48 106 62 48 106 62 48 106 62 48 106 62 48 124 38 62 124 38 62 124 38 62 124 38 62 124 38 62 124 50 62 142 50 62 142 50 76 142 50 76 142 50 76 142 62 76 142 62 76 88 62 76 88 62 76 88 62 90 88 38 90 88 38 90 88 38 90 106 38 90 106 38
90 88 38 90 88 38 90 88 38 90 88 38 90 88 38 90 88 50 90 106 50 34 106 50 34 106 50 34 106 50 34 106 62 34 106 62 34 124 62 34 124 62 48 124 62 48 124 38 48 124 38 48 124 38 48 142 38 48 142 38 48 142 50 62 142 50 62 142 50 62 142 50 62 88 50 62 88 62 62 88 62 62 88 62 76 88 62 76 88 62 76 106 38 76 106 38 76 106 38 76 106 38 76 106 38 90 106 50 90 124 50 90 124 50 90 124 50 90 124 50 90 124 62 90 124 62 34 142 62 34 142 62 34 142 62 34 142 38 34 142 38 34 142 38 34 88 38 48 88 38 48 88 50 48 88 50 48 88 50 48 88 50 48 106 50 48 106 62 62 106 62 62 106 62 62 106 62 62 106 62 62 124 38 62 124 38 62 124 38 76 124 38 76 124 38 76 124 50 76 142 50 76 142 50 76 142 50 76 142 50 90 142 62 90 142 62 90 88 62 90 88 62 90 88 62 90 88 38 90 88 38 34 88 38 34 106 38 34 106 38 34 106 50 34 106 50 34 106 50 34 106 50 48 124 50 48 124 62 48 124 62 48 124 62 48 124 62 48 124 62 48 142 38 62 142 38 62 142 38 62 142 38 62 142 38 62 142 50 62 88 50 62 88 50 76 88 50 76 88 50 76 88 62 76 88 62 76 106 62 76 106 62 76 106 62 90 106 38 90 106 38 90 106 38 90 124 38 90 124 38 90 124 50 90 124 50 34 124 50 34 124 50 34 142 50 34 142 62 34 142 62 34 142 62 34 142 62 48 142 62 48 88 38 48 88 38 48 88 38 48 88 38 48 88 38 48 88 50 62 106 50 62 106 50 62 106 50 62 106 50 62 106 62 62 106 62 62 124 62 76 124 62 76 124 62 76 124 38 76 124 38 76 124 38 76 142 38 76 142 38 90 142 50 90 142 50 90 142 50 90 142 50 90 88 50 90 88 62 90 88 62 34 88 62 34 88 62 34 88 62 34 106 38 34 106 38 34 106 38 34 106 38 48 106 38 48 106 50 48 124 50 48 124 50 48 124 50 48 124 50 48 124 62 62 124 62 62 142 62 62 142 62 62 142 62 62 142 38 62 142 38 62 142 38 76 88 38 76 88 38 76 88 50 76 88 50 76 88 50 76 88 50 76 106 50 90 106 62 90 106 62 90 106 62 90 106 62 90 106 62 90 124 38 90 124 38 34 124 38 34 124 38 34 124 38 34 124 50 34 142 50 34 142 50 34 142 50 48 142 50 48 142 62 48 142 62 48 88 62 48 88 62 48 88 62 48 88 38 62 88 38 62 88 38 62 106 38 62 106 38 62 106 50 62 106 50 62 106 50 76 106 50 76 124 50 76 124 62 76 124 62 76 124 62 76 124 62 76 124 62 90 142 38 90 142 38 90 142 38 90 142 38 90 142 38 90 142 50 90 88 50 34 88 50 34 88 50 34 88 50 34 88 62 34 88 62 34 106 62 34 106 62 48 106 62 48 106 38 48 106 38 48 106 38 48 124 38 48 124 38 48 124 50 62 124 50 62 124 50 62 124 50 62 142 50 62 142 62 62 142 62 62 142 62 76 142 62 76 142 62 76 88 38 76 88 38 76 88 38 76 88 38 76 88 38 90 88 50 90 106 50 90 106 50 90 106 50 90 106 50 90 106 62 90 106 62 34 124 62 34 124 62 34 124 62 34 124 38 34 124 38 34 124 38 34 142 38 48 142 38 48 142 50 48 142 50 48 142 50 48 142 50 48 88 50 48 88 62 62 88 62 62 88 62 62 88 62 62 88 62 62 106 38 62 106 38 62 106 38 76 106 38 76 106 38 76 106 50 76 124 50 76 124 50 76 124 50 76 124 50 90 124 62 90 124 62 90 142 62 90 142 62 90 142 62 90 142 38 90 142 38 34 142 38 34 88 38 34 88 38 34 88 50 34 88 50 34 88 50 34 88 50 48 106 50 48 106 62 48 106 62 48 106 62 48 106 62 48 106 62 48 124 38 62 124 38 62 124 38 62 124 38 62 124 38 62 124 50 62 142 50 62 142 50 76 142 50 76 142 50 76 142 62 76 142 62 76 88 62 76 88 62 76 88 62 90 88 38 90 88 38 90 88 38 90 106 38 90 106 38
90 88 38 90 88 38 90 88 38 90 88 38 90 88 38 90 88 50 90 106 50 34 106 50 34 106 50 34 106 50 34 106 62 34 106 62 34 124 62 34 124 62 48 124 62 48 124 38 48 124 38 48 124 38 48 142 38 48 142 38 48 142 50 62 142 50 62 142 50 62 142 50 62 88 50 62 88 62 62 88 62 62 88 62 76 88 62 76 88 62 76 106 38 76 106 38 76 106 38 76 106 38 76 106 38 90 106 50 90 124 50 90 124 50 90 124 50 90 124 50 90 124 62 90 124 62 34 142 62 34 142 62 34 142 62 34 142 38 34 142 38 34 142 38 34 88 38 48 88 38 48 88 50 48 88 50 48 88 50 48 88 50 48 106 50 48 106 62 62 106 62 62 106 62 62 106 62 62 106 62 62 124 38 62 124 38 62 124 38 76 124 38 76 124 38 76 124 50 76 142 50 76 142 50 76 142 50 76 142 50 90 142 62 90 142 62 90 88 62 90 88 62 90 88 62 90 88 38 90 88 38 34 88 38 34 106 38 34 106 38 34 106 50 34 106 50 34 106 50 34 106 50 48 124 50 48 124 62 48 124 62 48 124 62 48 124 62 48 124 62 48 142 38 62 142 38 62 142 38 62 142 38 62 142 38 62 142 50 62 88 50 62 88 50 76 88 50 76 88 50 76 88 62 76 88 62 76 106 62 76 106 62 76 106 62 90 106 38 90 106 38 90 106 38 90 124 38 90 124 38 90 124 50 90 124 50 34 124 50 34 124 50 34 142 50 34 142 62 34 142 62 34 142 62 34 142 62 48 142 62 48 88 38 48 88 38 48 88 38 48 88 38 48 88 38 48 88 50 62 106 50 62 106 50 62 106 50 62 106 50 62 106 62 62 106 62 62 124 62 76 124 62 76 124 62 76 124 38 76 124 38 76 124 38 76 142 38 76 142 38 90 142 50 90 142 50 90 142 50 90 142 50 90 88 50 90 88 62 90 88 62 34 88 62 34 88 62 34 88 62 34 106 38 34 106 38 34 106 38 34 106 38 48 106 38 48 106 50 48 124 50 48 124 50 48 124 50 48 124 50 48 124 62 62 124 62 62 142 62 62 142 62 62 142 62 62 142 38 62 142 38 62 142 38 76 88 38 76 88 38 76 88 50 76 88 50 76 88 50 76 88 50 76 106 50 90 106 62 90 106 62 90 106 62 90 106 62 90 106 62 90 124 38 90 124 38 34 124 38 34 124 38 34 124 38 34 124 50 34 142 50 34 142 50 34 142 50 48 142 50 48 142 62 48 142 62 48 88 62 48 88 62 48 88 62 48 88 38 62 88 38 62 88 38 62 106 38 62 106 38 62 106 50 62 106 50 62 106 50 76 106 50 76 124 50 76 124 62 76 124 62 76 124 62 76 124 62 76 124 62 90 142 38 90 142 38 90 142 38 90 142 38 90 142 38 90 142 50 90 88 50 34 88 50 34 88 50 34 88 50 34 88 62 34 88 62 34 106 62 34 106 62 48 106 62 48 106 38 48 106 38 48 106 38 48 124 38 48 124 38 48 124 50 62 124 50 62 124 50 62 124 50 62 142 50 62 142 62 62 142 62 62 142 62 76 142 62 76 142 62 76 88 38 76 88 38 76 88 38 76 88 38 76 88 38 90 88 50 90 106 50 90 106 50 90 106 50 90 106 50 90 106 62 90 106 62 34 124 62 34 124 62 34 124 62 34 124 38 34 124 38 34 124 38 34 142 38 48 142 38 48 142 50 48 142 50 48 142 50 48 142 50 48 88 50 48 88 62 62 88 62 62 88 62 62 88 62 62 88 62 62 106 38 62 106 38 62 106 38 76 106 38 76 106 38 76 106 50 76 124 50 76 124 50 76 124 50 76 124 50 90 124 62 90 124 62 90 142 62 90 142 62 90 142 62 90 142 38 90 142 38 34 142 38 34 88 38 34 88 38 34 88 50 34 88 50 34 88 50 34 88 50 48 106 50 48 106 62 48 106 62 48 106 62 48 106 62 48 106 62 48 124 38 62 124 38 62 124 38 62 124 38 62 124 38 62 124 50 62 142 50 62 142 50 76 142 50 76 142 50 76 142 62 76 142 62 76 88 62 76 88 62 76 88 62 90 88 38 90 88 38 90 88 38 90 106 38 90 106 38
90 88 38 90 88 38 90 88 38 90 88 38 90 88 38 90 88 50 90 106 50 34 106 50 34 106 50 34 106 50 34 106 62 34 106 62 34 124 62 34 124 62 48 124 62 48 124 38 48 124 38 48 124 38 48 142 38 48 142 38 48 142 50 62 142 50 62 142 50 62 142 50 62 88 50 62 88 62 62 88 62 62 88 62 76 88 62 76 88 62 76 106 38 76 106 38 76 106 38 76 106 38 76 106 38 90 106 50 90 124 50 90 124 50 90 124 50 90 124 50 90 124 62 90 124 62 34 142 62 34 142 62 34 142 62 34 142 38 34 142 38 34 142 38 34 88 38 48 88 38 48 88 50 48 88 50 48 88 50 48 88 50 48 106 50 48 106 62 62 106 62 62 106 62 62 106 62 62 106 62 62 124 38 62 124 38 62 124 38 76 124 38 76 124 38 76 124 50 76 142 50 76 142 50 76 142 50 76 142 50 90 142 62 90 142 62 90 88 62 90 88 62 90 88 62 90 88 38 90 88 38 34 88 38 34 106 38 34 106 38 34 106 50 34 106 50 34 106 50 34 106 50 48 124 50 48 124 62 48 124 62 48 124 62 48 124 62 48 124 62 48 142 38 62 142 38 62 142 38 62 142 38 62 142 38 62 142 50 62 88 50 62 88 50 76 88 50 76 88 50 76 88 62 76 88 62 76 106 62 76 106 62 76 106 62 90 106 38 90 106 38 90 106 38 90 124 38 90 124 38 90 124 50 90 124 50 34 124 50 34 124 50 34 142 50 34 142 62 34 142 62 34 142 62 34 142 62 48 142 62 48 88 38 48 88 38 48 88 38 48 88 38 48 88 38 48 88 50 62 106 50 62 106 50 62 106 50 62 106 50 62 106 62 62 106 62 62 124 62 76 124 62 76 124 62 76 124 38 76 124 38 76 124 38 76 142 38 76 142 38 90 142 50 90 142 50 90 142 50 90 142 50 90 88 50 90 88 62 90 88 62 34 88 62 34 88 62 34 88 62 34 106 38 34 106 38 34 106 38 34 106 38 48 106 38 48 106 50 48 124 50 48 124 50 48 124 50 48 124 50 48 124 62 62 124 62 62 142 62 62 142 62 62 142 62 62 142 38 62 142 38 62 142 38 76 88 38 76 88 38 76 88 50 76 88 50 76 88 50 76 88 50 76 106 50 90 106 62 90 106 62 90 106 62 90 106 62 90 106 62 90 124 38 90 124 38 34 124 38 34 124 38 34 124 38 34 124 50 34 142 50 34 142 50 34 142 50 48 142 50 48 142 62 48 142 62 48 88 62 48 88 62 48 88 62 48 88 38 62 88 38 62 88 38 62 106 38 62 106 38 62 106 50 62 106 50 62 106 50 76 106 50 76 124 50 76 124 62 76 124 62 76 124 62 76 124 62 76 124 62 90 142 38 90 142 38 90 142 38 90 142 38 90 142 38 90 142 50 90 88 50 34 88 50 34 88 50 34 88 50 34 88 62 34 88 62 34 106 62 34 106 62 48 106 62 48 106 38 48 106 38 48 106 38 48 124 38 48 124 38 48 124 50 62 124 50 62 124 50 62 124 50 62 142 50 62 142 62 62 142 62 62 142 62 76 142 62 76 142 62 76 88 38 76 88 38 76 88 38 76 88 38 76 88 38 90 88 50 90 106 50 90 106 50 90 106 50 90 106 50 90 106 62 90 106 62 34 124 62 34 124 62 34 124 62 34 124 38 34 124 38 34 124 38 34 142 38 48 142 38 48 142 50 48 142 50 48 142 50 48 142 50 48 88 50 48 88 62 62 88 62 62 88 62 62 88 62 62 88 62 62 106 38 62 106 38 62 106 38 76 106 38 76 106 38 76 106 50 76 124 50 76 124 50 76 124 50 76 124 50 90 124 62 90 124 62 90 142 62 90 142 62 90 142 62 90 142 38 90 142 38 34 142 38 34 88 38 34 88 38 34 88 50 34 88 50 34 88 50 34 88 50 48 106 50 48 106 62 48 106 62 48 106 62 48 106 62 48 106 62 48 124 38 62 124 38 62 124 38 62 124 38 62 124 38 62 124 50 62 142 50 62 142 50 76 142 50 76 142 50 76 142 62 76 142 62 76 88 62 76 88 62 76 88 62 90 88 38 90 88 38 90 88 38 90 106 38 90 106 38
34 88 50 34 88 50 34 88 50 34 88 50 34 88 50 34 88 62 34 106 62 48 106 62 48 106 62 48 106 62 48 106 38 48 106 38 48 124 38 48 124 38 62 124 38 62 124 50 62 124 50 62 124 50 62 142 50 62 142 50 62 142 62 76 142 62 76 142 62 76 142 62 76 88 62 76 88 38 76 88 38 76 88 38 90 88 38 90 88 38 90 106 50 90 106 50 90 106 50 90 106 50 90 106 50 34 106 62 34 124 62 34 124 62 34 124 62 34 124 62 34 124 38 34 124 38 48 142 38 48 142 38 48 142 38 48 142 50 48 142 50 48 142 50 48 88 50 62 88 50 62 88 62 62 88 62 62 88 62 62 88 62 62 106 62 62 106 38 76 106 38 76 106 38 76 106 38 76 106 38 76 124 50 76 124 50 76 124 50 90 124 50 90 124 50 90 124 62 90 142 62 90 142 62 90 142 62 90 142 62 34 142 38 34 142 38 34 88 38 34 88 38 34 88 38 34 88 50 34 88 50 48 88 50 48 106 50 48 106 50 48 106 62 48 106 62 48 106 62 48 106 62 62 124 62 62 124 38 62 124 38 62 124 38 62 124 38 62 124 38 62 142 50 76 142 50 76 142 50 76 142 50 76 142 50 76 142 62 76 88 62 76 88 62 90 88 62 90 88 62 90 88 38 90 88 38 90 106 38 90 106 38 90 106 38 34 106 50 34 106 50 34 106 50 34 124 50 34 124 50 34 124 62 34 124 62 48 124 62 48 124 62 48 142 62 48 142 38 48 142 38 48 142 38 48 142 38 62 142 38 62 88 50 62 88 50 62 88 50 62 88 50 62 88 50 62 88 62 76 106 62 76 106 62 76 106 62 76 106 62 76 106 38 76 106 38 76 124 38 90 124 38 90 124 38 90 124 50 90 124 50 90 124 50 90 142 50 90 142 50 34 142 62 34 142 62 34 142 62 34 142 62 34 88 62 34 88 38 34 88 38 48 88 38 48 88 38 48 88 38 48 106 50 48 106 50 48 106 50 48 106 50 62 106 50 62 106 62 62 124 62 62 124 62 62 124 62 62 124 62 62 124 38 76 124 38 76 142 38 76 142 38 76 142 38 76 142 50 76 142 50 76 142 50 90 88 50 90 88 50 90 88 62 90 88 62 90 88 62 90 88 62 90 106 62 34 106 38 34 106 38 34 106 38 34 106 38 34 106 38 34 124 50 34 124 50 48 124 50 48 124 50 48 124 50 48 124 62 48 142 62 48 142 62 48 142 62 62 142 62 62 142 38 62 142 38 62 88 38 62 88 38 62 88 38 62 88 50 76 88 50 76 88 50 76 106 50 76 106 50 76 106 62 76 106 62 76 106 62 90 106 62 90 124 62 90 124 38 90 124 38 90 124 38 90 124 38 90 124 38 34 142 50 34 142 50 34 142 50 34 142 50 34 142 50 34 142 62 34 88 62 48 88 62 48 88 62 48 88 62 48 88 38 48 88 38 48 106 38 48 106 38 62 106 38 62 106 50 62 106 50 62 106 50 62 124 50 62 124 50 62 124 62 76 124 62 76 124 62 76 124 62 76 142 62 76 142 38 76 142 38 76 142 38 90 142 38 90 142 38 90 88 50 90 88 50 90 88 50 90 88 50 90 88 50 34 88 62 34 106 62 34 106 62 34 106 62 34 106 62 34 106 38 34 106 38 48 124 38 48 124 38 48 124 38 48 124 50 48 124 50 48 124 50 48 142 50 62 142 50 62 142 62 62 142 62 62 142 62 62 142 62 62 88 62 62 88 38 76 88 38 76 88 38 76 88 38 76 88 38 76 106 50 76 106 50 76 106 50 90 106 50 90 106 50 90 106 62 90 124 62 90 124 62 90 124 62 90 124 62 34 124 38 34 124 38 34 142 38 34 142 38 34 142 38 34 142 50 34 142 50 48 142 50 48 88 50 48 88 50 48 88 62 48 88 62 48 88 62 48 88 62 62 106 62 62 106 38 62 106 38 62 106 38 62 106 38 62 106 38 62 124 50 76 124 50 76 124 50 76 124 50 76 124 50 76 124 62 76 142 62 76 142 62 90 142 62 90 142 62 90 142 38 90 142 38 90 88 38 90 88 38 90 88 38 34 88 50 34 88 50 34 88 50 34 106 50 34 106 50
34 88 50 34 88 50 34 88 50 34 88 50 34 88 50 34 88 62 34 106 62 48 106 62 48 106 62 48 106 62 48 106 38 48 106 38 48 124 38 48 124 38 62 124 38 62 124 50 62 124 50 62 124 50 62 142 50 62 142 50 62 142 62 76 142 62 76 142 62 76 142 62 76 88 62 76 88 38 76 88 38 76 88 38 90 88 38 90 88 38 90 106 50 90 106 50 90 106 50 90 106 50 90 106 50 34 106 62 34 124 62 34 124 62 34 124 62 34 124 62 34 124 38 34 124 38 48 142 38 48 142 38 48 142 38 48 142 50 48 142 50 48 142 50 48 88 50 62 88 50 62 88 62 62 88 62 62 88 62 62 88 62 62 106 62 62 106 38 76 106 38 76 106 38 76 106 38 76 106 38 76 124 50 76 124 50 76 124 50 90 124 50 90 124 50 90 124 62 90 142 62 90 142 62 90 142 62 90 142 62 34 142 38 34 142 38 34 88 38 34 88 38 34 88 38 34 88 50 34 88 50 48 88 50 48 106 50 48 106 50 48 106 62 48 106 62 48 106 62 48 106 62 62 124 62 62 124 38 62 124 38 62 124 38 62 124 38 62 124 38 62 142 50 76 142 50 76 142 50 76 142 50 76 142 50 76 142 62 76 88 62 76 88 62 90 88 62 90 88 62 90 88 38 90 88 38 90 106 38 90 106 38 90 106 38 34 106 50 34 106 50 34 106 50 34 124 50 34 124 50 34 124 62 34 124 62 48 124 62 48 124 62 48 142 62 48 142 38 48 142 38 48 142 38 48 142 38 62 142 38 62 88 50 62 88 50 62 88 50 62 88 50 62 88 50 62 88 62 76 106 62 76 106 62 76 106 62 76 106 62 76 106 38 76 106 38 76 124 38 90 124 38 90 124 38 90 124 50 90 124 50 90 124 50 90 142 50 90 142 50 34 142 62 34 142 62 34 142 62 34 142 62 34 88 62 34 88 38 34 88 38 48 88 38 48 88 38 48 88 38 48 106 50 48 106 50 48 106 50 48 106 50 62 106 50 62 106 62 62 124 62 62 124 62 62 124 62 62 124 62 62 124 38 76 124 38 76 142 38 76 142 38 76 142 38 76 142 50 76 142 50 76 142 50 90 88 50 90 88 50 90 88 62 90 88 62 90 88 62 90 88 62 90 106 62 34 106 38 34 106 38 34 106 38 34 106 38 34 106 38 34 124 50 34 124 50 48 124 50 48 124 50 48 124 50 48 124 62 48 142 62 48 142 62 48 142 62 62 142 62 62 142 38 62 142 38 62 88 38 62 88 38 62 88 38 62 88 50 76 88 50 76 88 50 76 106 50 76 106 50 76 106 62 76 106 62 76 106 62 90 106 62 90 124 62 90 124 38 90 124 38 90 124 38 90 124 38 90 124 38 34 142 50 34 142 50 34 142 50 34 142 50 34 142 50 34 142 62 34 88 62 48 88 62 48 88 62 48 88 62 48 88 38 48 88 38 48 106 38 48 106 38 62 106 38 62 106 50 62 106 50 62 106 50 62 124 50 62 124 50 62 124 62 76 124 62 76 124 62 76 124 62 76 142 62 76 142 38 76 142 38 76 142 38 90 142 38 90 142 38 90 88 50 90 88 50 90 88 50 90 88 50 90 88 50 34 88 62 34 106 62 34 106 62 34 106 62 34 106 62 34 106 38 34 106 38 48 124 38 48 124 38 48 124 38 48 124 50 48 124 50 48 124 50 48 142 50 62 142 50 62 142 62 62 142 62 62 142 62 62 142 62 62 88 62 62 88 38 76 88 38 76 88 38 76 88 38 76 88 38 76 106 50 76 106 50 76 106 50 90 106 50 90 106 50 90 106 62 90 124 62 90 124 62 90 124 62 90 124 62 34 124 38 34 124 38 34 142 38 34 142 38 34 142 38 34 142 50 34 142 50 48 142 50 48 88 50 48 88 50 48 88 62 48 88 62 48 88 62 48 88 62 62 106 62 62 106 38 62 106 38 62 106 38 62 106 38 62 106 38 62 124 50 76 124 50 76 124 50 76 124 50 76 124 50 76 124 62 76 142 62 76 142 62 90 142 62 90 142 62 90 142 38 90 142 38 90 88 38 90 88 38 90 88 38 34 88 50 34 88 50 34 88 50 34 106 50 34 106 50
34 88 50 34 88 50 34 88 50 34 88 50 34 88 50 34 88 62 34 106 62 48 106 62 48 106 62 48 106 62 48 106 38 48 106 38 48 124 38 48 124 38 62 124 38 62 124 50 62 124 50 62 124 50 62 142 50 62 142 50 62 142 62 76 142 62 76 142 62 76 142 62 76 88 62 76 88 38 76 88 38 76 88 38 90 88 38 90 88 38 90 106 50 90 106 50 90 106 50 90 106 50 90 106 50 34 106 62 34 124 62 34 124 62 34 124 62 34 124 62 34 124 38 34 124 38 48 142 38 48 142 38 48 142 38 48 142 50 48 142 50 48 142 50 48 88 50 62 88 50 62 88 62 62 88 62 62 88 62 62 88 62 62 106 62 62 106 38 76 106 38 76 106 38 76 106 38 76 106 38 76 124 50 76 124 50 76 124 50 90 124 50 90 124 50 90 124 62 90 142 62 90 142 62 90 142 62 90 142 62 34 142 38 34 142 38 34 88 38 34 88 38 34 88 38 34 88 50 34 88 50 48 88 50 48 106 50 48 106 50 48 106 62 48 106 62 48 106 62 48 106 62 62 124 62 62 124 38 62 124 38 62 124 38 62 124 38 62 124 38 62 142 50 76 142 50 76 142 50 76 142 50 76 142 50 76 142 62 76 88 62 76 88 62 90 88 62 90 88 62 90 88 38 90 88 38 90 106 38 90 106 38 90 106 38 34 106 50 34 106 50 34 106 50 34 124 50 34 124 50 34 124 62 34 124 62 48 124 62 48 124 62 48 142 62 48 142 38 48 142 38 48 142 38 48 142 38 62 142 38 62 88 50 62 88 50 62 88 50 62 88 50 62 88 50 62 88 62 76 106 62 76 106 62 76 106 62 76 106 62 76 106 38 76 106 38 76 124 38 90 124 38 90 124 38 90 124 50 90 124 50 90 124 50 90 142 50 90 142 50 34 142 62 34 142 62 34 142 62 34 142 62 34 88 62 34 88 38 34 88 38 48 88 38 48 88 38 48 88 38 48 106 50 48 106 50 48 106 50 48 106 50 62 106 50 62 106 62 62 124 62 62 124 62 62 124 62 62 124 62 62 124 38 76 124 38 76 142 38 76 142 38 76 142 38 76 142 50 76 142 50 76 142 50 90 88 50 90 88 50 90 88 62 90 88 62 90 88 62 90 88 62 90 106 62 34 106 38 34 106 38 34 106 38 34 106 38 34 106 38 34 124 50 34 124 50 48 124 50 48 124 50 48 124 50 48 124 62 48 142 62 48 142 62 48 142 62 62 142 62 62 142 38 62 142 38 62 88 38 62 88 38 62 88 38 62 88 50 76 88 50 76 88 50 76 106 50 76 106 50 76 106 62 76 106 62 76 106 62 90 106 62 90 124 62 90 124 38 90 124 38 90 124 38 90 124 38 90 124 38 34 142 50 34 142 50 34 142 50 34 142 50 34 142 50 34 142 62 34 88 62 48 88 62 48 88 62 48 88 62 48 88 38 48 88 38 48 106 38 48 106 38 62 106 38 62 106 50 62 106 50 62 106 50 62 124 50 62 124 50 62 124 62 76 124 62 76 124 62 76 124 62 76 142 62 76 142 38 76 142 38 76 142 38 90 142 38 90 142 38 90 88 50 90 88 50 90 88 50 90 88 50 90 88 50 34 88 62 34 106 62 34 106 62 34 106 62 34 106 62 34 106 38 34 106 38 48 124 38 48 124 38 48 124 38 48 124 50 48 124 50 48 124 50 48 142 50 62 142 50 62 142 62 62 142 62 62 142 62 62 142 62 62 88 62 62 88 38 76 88 38 76 88 38 76 88 38 76 88 38 76 106 50 76 106 50 76 106 50 90 106 50 90 106 50 90 106 62 90 124 62 90 124 62 90 124 62 90 124 62 34 124 38 34 124 38 34 142 38 34 142 38 34 142 38 34 142 50 34 142 50 48 142 50 48 88 50 48 88 50 48 88 62 48 88 62 48 88 62 48 88 62 62 106 62 62 106 38 62 106 38 62 106 38 62 106 38 62 106 38 62 124 50 76 124 50 76 124 50 76 124 50 76 124 50 76 124 62 76 142 62 76 142 62 90 142 62 90 142 62 90 142 38 90 142 38 90 88 38 90 88 38 90 88 38 34 88 50 34 88 50 34 88 50 34 106 50 34 106 50
34 106 50 34 106 50 34 106 50 34 106 50 34 106 50 34 106 62 34 124 62 48 124 62 48 124 62 48 124 62 48 124 38 48 124 38 48 142 38 48 142 38 62 142 38 62 142 50 62 142 50 62 142 50 62 88 50 62 88 50 62 88 62 76 88 62 76 88 62 76 88 62 76 106 62 76 106 38 76 106 38 76 106 38 90 106 38 90 106 38 90 124 50 90 124 50 90 124 50 90 124 50 90 124 50 34 124 62 34 142 62 34 142 62 34 142 62 34 142 62 34 142 38 34 142 38 48 88 38 48 88 38 48 88 38 48 88 50 48 88 50 48 88 50 48 106 50 62 106 50 62 106 62 62 106 62 62 106 62 62 106 62 62 124 62 62 124 38 76 124 38 76 124 38 76 124 38 76 124 38 76 142 50 76 142 50 76 142 50 90 142 50 90 142 50 90 142 62 90 88 62 90 88 62 90 88 62 90 88 62 34 88 38 34 88 38 34 106 38 34 106 38 34 106 38 34 106 50 34 106 50 48 106 50 48 124 50 48 124 50 48 124 62 48 124 62 48 124 62 48 124 62 62 142 62 62 142 38 62 142 38 62 142 38 62 142 38 62 142 38 62 88 50 76 88 50 76 88 50 76 88 50 76 88 50 76 88 62 76 106 62 76 106 62 90 106 62 90 106 62 90 106 38 90 106 38 90 124 38 90 124 38 90 124 38 34 124 50 34 124 50 34 124 50 34 142 50 34 142 50 34 142 62 34 142 62 48 142 62 48 142 62 48 88 62 48 88 38 48 88 38 48 88 38 48 88 38 62 88 38 62 106 50 62 106 50 62 106 50 62 106 50 62 106 50 62 106 62 76 124 62 76 124 62 76 124 62 76 124 62 76 124 38 76 124 38 76 142 38 90 142 38 90 142 38 90 142 50 90 142 50 90 142 50 90 88 50 90 88 50 34 88 62 34 88 62 34 88 62 34 88 62 34 106 62 34 106 38 34 106 38 48 106 38 48 106 38 48 106 38 48 124 50 48 124 50 48 124 50 48 124 50 62 124 50 62 124 62 62 142 62 62 142 62 62 142 62 62 142 62 62 142 38 76 142 38 76 88 38 76 88 38 76 88 38 76 88 50 76 88 50 76 88 50 90 106 50 90 106 50 90 106 62 90 106 62 90 106 62 90 106 62 90 124 62 34 124 38 34 124 38 34 124 38 34 124 38 34 124 38 34 142 50 34 142 50 48 142 50 48 142 50 48 142 50 48 142 62 48 88 62 48 88 62 48 88 62 62 88 62 62 88 38 62 88 38 62 106 38 62 106 38 62 106 38 62 106 50 76 106 50 76 106 50 76 124 50 76 124 50 76 124 62 76 124 62 76 124 62 90 124 62 90 142 62 90 142 38 90 142 38 90 142 38 90 142 38 90 142 38 34 88 50 34 88 50 34 88 50 34 88 50 34 88 50 34 88 62 34 106 62 48 106 62 48 106 62 48 106 62 48 106 38 48 106 38 48 124 38 48 124 38 62 124 38 62 124 50 62 124 50 62 124 50 62 142 50 62 142 50 62 142 62 76 142 62 76 142 62 76 142 62 76 88 62 76 88 38 76 88 38 76 88 38 90 88 38 90 88 38 90 106 50 90 106 50 90 106 50 90 106 50 90 106 50 34 106 62 34 124 62 34 124 62 34 124 62 34 124 62 34 124 38 34 124 38 48 142 38 48 142 38 48 142 38 48 142 50 48 142 50 48 142 50 48 88 50 62 88 50 62 88 62 62 88 62 62 88 62 62 88 62 62 106 62 62 106 38 76 106 38 76 106 38 76 106 38 76 106 38 76 124 50 76 124 50 76 124 50 90 124 50 90 124 50 90 124 62 90 142 62 90 142 62 90 142 62 90 142 62 34 142 38 34 142 38 34 88 38 34 88 38 34 88 38 34 88 50 34 88 50 48 88 50 48 106 50 48 106 50 48 106 62 48 106 62 48 106 62 48 106 62 62 124 62 62 124 38 62 124 38 62 124 38 62 124 38 62 124 38 62 142 50 76 142 50 76 142 50 76 142 50 76 142 50 76 142 62 76 88 62 76 88 62 90 88 62 90 88 62 90 88 38 90 88 38 90 106 38 90 106 38 90 106 38 34 106 50 34 106 50 34 106 50 34 124 50 34 124 50
34 106 50 34 106 50 34 106 50 34 106 50 34 106 50 34 106 62 34 124 62 48 124 62 48 124 62 48 124 62 48 124 38 48 124 38 48 142 38 48 142 38 62 142 38 62 142 50 62 142 50 62 142 50 62 88 50 62 88 50 62 88 62 76 88 62 76 88 62 76 88 62 76 106 62 76 106 38 76 106 38 76 106 38 90 106 38 90 106 38 90 124 50 90 124 50 90 124 50 90 124 50 90 124 50 34 124 62 34 142 62 34 142 62 34 142 62 34 142 62 34 142 38 34 142 38 48 88 38 48 88 38 48 88 38 48 88 50 48 88 50 48 88 50 48 106 50 62 106 50 62 106 62 62 106 62 62 106 62 62 106 62 62 124 62 62 124 38 76 124 38 76 124 38 76 124 38 76 124 38 76 142 50 76 142 50 76 142 50 90 142 50 90 142 50 90 142 62 90 88 62 90 88 62 90 88 62 90 88 62 34 88 38 34 88 38 34 106 38 34 106 38 34 106 38 34 106 50 34 106 50 48 106 50 48 124 50 48 124 50 48 124 62 48 124 62 48 124 62 48 124 62 62 142 62 62 142 38 62 142 38 62 142 38 62 142 38 62 142 38 62 88 50 76 88 50 76 88 50 76 88 50 76 88 50 76 88 62 76 106 62 76 106 62 90 106 62 90 106 62 90 106 38 90 106 38 90 124 38 90 124 38 90 124 38 34 124 50 34 124 50 34 124 50 34 142 50 34 142 50 34 142 62 34 142 62 48 142 62 48 142 62 48 88 62 48 88 38 48 88 38 48 88 38 48 88 38 62 88 38 62 106 50 62 106 50 62 106 50 62 106 50 62 106 50 62 106 62 76 124 62 76 124 62 76 124 62 76 124 62 76 124 38 76 124 38 76 142 38 90 142 38 90 142 38 90 142 50 90 142 50 90 142 50 90 88 50 90 88 50 34 88 62 34 88 62 34 88 62 34 88 62 34 106 62 34 106 38 34 106 38 48 106 38 48 106 38 48 106 38 48 124 50 48 124 50 48 124 50 48 124 50 62 124 50 62 124 62 62 142 62 62 142 62 62 142 62 62 142 62 62 142 38 76 142 38 76 88 38 76 88 38 76 88 38 76 88 50 76 88 50 76 88 50 90 106 50 90 106 50 90 106 62 90 106 62 90 106 62 90 106 62 90 124 62 34 124 38 34 124 38 34 124 38 34 124 38 34 124 38 34 142 50 34 142 50 48 142 50 48 142 50 48 142 50 48 142 62 48 88 62 48 88 62 48 88 62 62 88 62 62 88 38 62 88 38 62 106 38 62 106 38 62 106 38 62 106 50 76 106 50 76 106 50 76 124 50 76 124 50 76 124 62 76 124 62 76 124 62 90 124 62 90 142 62 90 142 38 90 142 38 90 142 38 90 142 38 90 142 38 34 88 50 34 88 50 34 88 50 34 88 50 34 88 50 34 88 62 34 106 62 48 106 62 48 106 62 48 106 62 48 106 38 48 106 38 48 124 38 48 124 38 62 124 38 62 124 50 62 124 50 62 124 50 62 142 50 62 142 50 62 142 62 76 142 62 76 142 62 76 142 62 76 88 62 76 88 38 76 88 38 76 88 38 90 88 38 90 88 38 90 106 50 90 106 50 90 106 50 90 106 50 90 106 50 34 106 62 34 124 62 34 124 62 34 124 62 34 124 62 34 124 38 34 124 38 48 142 38 48 142 38 48 142 38 48 142 50 48 142 50 48 142 50 48 88 50 62 88 50 62 88 62 62 88 62 62 88 62 62 88 62 62 106 62 62 106 38 76 106 38 76 106 38 76 106 38 76 106 38 76 124 50 76 124 50 76 124 50 90 124 50 90 124 50 90 124 62 90 142 62 90 142 62 90 142 62 90 142 62 34 142 38 34 142 38 34 88 38 34 88 38 34 88 38 34 88 50 34 88 50 48 88 50 48 106 50 48 106 50 48 106 62 48 106 62 48 106 62 48 106 62 62 124 62 62 124 38 62 124 38 62 124 38 62 124 38 62 124 38 62 142 50 76 142 50 76 142 50 76 142 50 76 142 50 76 142 62 76 88 62 76 88 62 90 88 62 90 88 62 90 88 38 90 88 38 90 106 38 90 106 38 90 106 38 34 106 50 34 106 50 34 106 50 34 124 50 34 124 50
48 106 50 48 106 50 48 106 50 48 106 50 48 106 50 48 106 62 48 124 62 62 124 62 62 124 62 62 124 62 62 124 38 62 124 38 62 142 38 62 142 38 76 142 38 76 142 50 76 142 50 76 142 50 76 88 50 76 88 50 76 88 62 90 88 62 90 88 62 90 88 62 90 106 62 90 106 38 90 106 38 90 106 38 34 106 38 34 106 38 34 124 50 34 124 50 34 124 50 34 124 50 34 124 50 48 124 62 48 142 62 48 142 62 48 142 62 48 142 62 48 142 38 48 142 38 62 88 38 62 88 38 62 88 38 62 88 50 62 88 50 62 88 50 62 106 50 76 106 50 76 106 62 76 106 62 76 106 62 76 106 62 76 124 62 76 124 38 90 124 38 90 124 38 90 124 38 90 124 38 90 142 50 90 142 50 90 142 50 34 142 50 34 142 50 34 142 62 34 88 62 34 88 62 34 88 62 34 88 62 48 88 38 48 88 38 48 106 38 48 106 38 48 106 38 48 106 50 48 106 50 62 106 50 62 124 50 62 124 50 62 124 62 62 124 62 62 124 62 62 124 62 76 142 62 76 142 38 76 142 38 76 142 38 76 142 38 76 142 38 76 88 50 90 88 50 90 88 50 90 88 50 90 88 50 90 88 62 90 106 62 90 106 62 34 106 62 34 106 62 34 106 38 34 106 38 34 124 38 34 124 38 34 124 38 48 124 50 48 124 50 48 124 50 48 142 50 48 142 50 48 142 62 48 142 62 62 142 62 62 142 62 62 88 62 62 88 38 62 88 38 62 88 38 62 88 38 76 88 38 76 106 50 76 106 50 76 106 50 76 106 50 76 106 50 76 106 62 90 124 62 90 124 62 90 124 62 90 124 62 90 124 38 90 124 38 90 142 38 34 142 38 34 142 38 34 142 50 34 142 50 34 142 50 34 88 50 34 88 50 48 88 62 48 88 62 48 88 62 48 88 62 48 106 62 48 106 38 48 106 38 62 106 38 62 106 38 62 106 38 62 124 50 62 124 50 62 124 50 62 124 50 76 124 50 76 124 62 76 142 62 76 142 62 76 142 62 76 142 62 76 142 38 90 142 38 90 88 38 90 88 38 90 88 38 90 88 50 90 88 50 90 88 50 34 106 50 34 106 50 34 106 62 34 106 62 34 106 62 34 106 62 34 124 62 48 124 38 48 124 38 48 124 38 48 124 38 48 124 38 48 142 50 48 142 50 62 142 50 62 142 50 62 142 50 62 142 62 62 88 62 62 88 62 62 88 62 76 88 62 76 88 38 76 88 38 76 106 38 76 106 38 76 106 38 76 106 50 90 106 50 90 106 50 90 124 50 90 124 50 90 124 62 90 124 62 90 124 62 34 124 62 34 142 62 34 142 38 34 142 38 34 142 38 34 142 38 34 142 38 48 88 50 48 88 50 48 88 50 48 88 50 48 88 50 48 88 62 48 106 62 62 106 62 62 106 62 62 106 62 62 106 38 62 106 38 62 124 38 62 124 38 76 124 38 76 124 50 76 124 50 76 124 50 76 142 50 76 142 50 76 142 62 90 142 62 90 142 62 90 142 62 90 88 62 90 88 38 90 88 38 90 88 38 34 88 38 34 88 38 34 106 50 34 106 50 34 106 50 34 106 50 34 106 50 48 106 62 48 124 62 48 124 62 48 124 62 48 124 62 48 124 38 48 124 38 62 142 38 62 142 38 62 142 38 62 142 50 62 142 50 62 142 50 62 88 50 76 88 50 76 88 62 76 88 62 76 88 62 76 88 62 76 106 62 76 106 38 90 106 38 90 106 38 90 106 38 90 106 38 90 124 50 90 124 50 90 124 50 34 124 50 34 124 50 34 124 62 34 142 62 34 142 62 34 142 62 34 142 62 48 142 38 48 142 38 48 88 38 48 88 38 48 88 38 48 88 50 48 88 50 62 88 50 62 106 50 62 106 50 62 106 62 62 106 62 62 106 62 62 106 62 76 124 62 76 124 38 76 124 38 76 124 38 76 124 38 76 124 38 76 142 50 90 142 50 90 142 50 90 142 50 90 142 50 90 142 62 90 88 62 90 88 62 34 88 62 34 88 62 34 88 38 34 88 38 34 106 38 34 106 38 34 106 38 48 106 50 48 106 50 48 106 50 48 124 50 48 124 50
48 106 50 48 106 50 48 106 50 48 106 50 48 106 50 48 106 62 48 124 62 62 124 62 62 124 62 62 124 62 62 124 38 62 124 38 62 142 38 62 142 38 76 142 38 76 142 50 76 142 50 76 142 50 76 88 50 76 88 50 76 88 62 90 88 62 90 88 62 90 88 62 90 106 62 90 106 38 90 106 38 90 106 38 34 106 38 34 106 38 34 124 50 34 124 50 34 124 50 34 124 50 34 124 50 48 124 62 48 142 62 48 142 62 48 142 62 48 142 62 48 142 38 48 142 38 62 88 38 62 88 38 62 88 38 62 88 50 62 88 50 62 88 50 62 106 50 76 106 50 76 106 62 76 106 62 76 106 62 76 106 62 76 124 62 76 124 38 90 124 38 90 124 38 90 124 38 90 124 38 90 142 50 90 142 50 90 142 50 34 142 50 34 142 50 34 142 62 34 88 62 34 88 62 34 88 62 34 88 62 48 88 38 48 88 38 48 106 38 48 106 38 48 106 38 48 106 50 48 106 50 62 106 50 62 124 50 62 124 50 62 124 62 62 124 62 62 124 62 62 124 62 76 142 62 76 142 38 76 142 38 76 142 38 76 142 38 76 142 38 76 88 50 90 88 50 90 88 50 90 88 50 90 88 50 90 88 62 90 106 62 90 106 62 34 106 62 34 106 62 34 106 38 34 106 38 34 124 38 34 124 38 34 124 38 48 124 50 48 124 50 48 124 50 48 142 50 48 142 50 48 142 62 48 142 62 62 142 62 62 142 62 62 88 62 62 88 38 62 88 38 62 88 38 62 88 38 76 88 38 76 106 50 76 106 50 76 106 50 76 106 50 76 106 50 76 106 62 90 124 62 90 124 62 90 124 62 90 124 62 90 124 38 90 124 38 90 142 38 34 142 38 34 142 38 34 142 50 34 142 50 34 142 50 34 88 50 34 88 50 48 88 62 48 88 62 48 88 62 48 88 62 48 106 62 48 106 38 48 106 38 62 106 38 62 106 38 62 106 38 62 124 50 62 124 50 62 124 50 62 124 50 76 124 50 76 124 62 76 142 62 76 142 62 76 142 62 76 142 62 76 142 38 90 142 38 90 88 38 90 88 38 90 88 38 90 88 50 90 88 50 90 88 50 34 106 50 34 106 50 34 106 62 34 106 62 34 106 62 34 106 62 34 124 62 48 124 38 48 124 38 48 124 38 48 124 38 48 124 38 48 142 50 48 142 50 62 142 50 62 142 50 62 142 50 62 142 62 62 88 62 62 88 62 62 88 62 76 88 62 76 88 38 76 88 38 76 106 38 76 106 38 76 106 38 76 106 50 90 106 50 90 106 50 90 124 50 90 124 50 90 124 62 90 124 62 90 124 62 34 124 62 34 142 62 34 142 38 34 142 38 34 142 38 34 142 38 34 142 38 48 88 50 48 88 50 48 88 50 48 88 50 48 88 50 48 88 62 48 106 62 62 106 62 62 106 62 62 106 62 62 106 38 62 106 38 62 124 38 62 124 38 76 124 38 76 124 50 76 124 50 76 124 50 76 142 50 76 142 50 76 142 62 90 142 62 90 142 62 90 142 62 90 88 62 90 88 38 90 88 38 90 88 38 34 88 38 34 88 38 34 106 50 34 106 50 34 106 50 34 106 50 34 106 50 48 106 62 48 124 62 48 124 62 48 124 62 48 124 62 48 124 38 48 124 38 62 142 38 62 142 38 62 142 38 62 142 50 62 142 50 62 142 50 62 88 50 76 88 50 76 88 62 76 88 62 76 88 62 76 88 62 76 106 62 76 106 38 90 106 38 90 106 38 90 106 38 90 106 38 90 124 50 90 124 50 90 124 50 34 124 50 34 124 50 34 124 62 34 142 62 34 142 62 34 142 62 34 142 62 48 142 38 48 142 38 48 88 38 48 88 38 48 88 38 48 88 50 48 88 50 62 88 50 62 106 50 62 106 50 62 106 62 62 106 62 62 106 62 62 106 62 76 124 62 76 124 38 76 124 38 76 124 38 76 124 38 76 124 38 76 142 50 90 142 50 90 142 50 90 142 50 90 142 50 90 142 62 90 88 62 90 88 62 34 88 62 34 88 62 34 88 38 34 88 38 34 106 38 34 106 38 34 106 38 48 106 50 48 106 50 48 106 50 48 124 50 48 124 50
48 106 50 48 106 50 48 106 50 48 106 50 48 106 50 48 106 62 48 124 62 62 124 62 62 124 62 62 124 62 62 124 38 62 124 38 62 142 38 62 142 38 76 142 38 76 142 50 76 142 50 76 142 50 76 88 50 76 88 50 76 88 62 90 88 62 90 88 62 90 88 62 90 106 62 90 106 38 90 106 38 90 106 38 34 106 38 34 106 38 34 124 50 34 124 50 34 124 50 34 124 50 34 124 50 48 124 62 48 142 62 48 142 62 48 142 62 48 142 62 48 142 38 48 142 38 62 88 38 62 88 38 62 88 38 62 88 50 62 88 50 62 88 50 62 106 50 76 106 50 76 106 62 76 106 62 76 106 62 76 106 62 76 124 62 76 124 38 90 124 38 90 124 38 90 124 38 90 124 38 90 142 50 90 142 50 90 142 50 34 142 50 34 142 50 34 142 62 34 88 62 34 88 62 34 88 62 34 88 62 48 88 38 48 88 38 48 106 38 48 106 38 48 106 38 48 106 50 48 106 50 62 106 50 62 124 50 62 124 50 62 124 62 62 124 62 62 124 62 62 124 62 76 142 62 76 142 38 76 142 38 76 142 38 76 142 38 76 142 38 76 88 50 90 88 50 90 88 50 90 88 50 90 88 50 90 88 62 90 106 62 90 106 62 34 106 62 34 106 62 34 106 38 34 106 38 34 124 38 34 124 38 34 124 38 48 124 50 48 124 50 48 124 50 48 142 50 48 142 50 48 142 62 48 142 62 62 142 62 62 142 62 62 88 62 62 88 38 62 88 38 62 88 38 62 88 38 76 88 38 76 106 50 76 106 50 76 106 50 76 106 50 76 106 50 76 106 62 90 124 62 90 124 62 90 124 62 90 124 62 90 124 38 90 124 38 90 142 38 34 142 38 34 142 38 34 142 50 34 142 50 34 142 50 34 88 50 34 88 50 48 88 62 48 88 62 48 88 62 48 88 62 48 106 62 48 106 38 48 106 38 62 106 38 62 106 38 62 106 38 62 124 50 62 124 50 62 124 50 62 124 50 76 124 50 76 124 62 76 142 62 76 142 62 76 142 62 76 142 62 76 142 38 90 142 38 90 88 38 90 88 38 90 88 38 90 88 50 90 88 50 90 88 50 34 106 50 34 106 50 34 106 62 34 106 62 34 106 62 34 106 62 34 124 62 48 124 38 48 124 38 48 124 38 48 124 38 48 124 38 48 142 50 48 142 50 62 142 50 62 142 50 62 142 50 62 142 62 62 88 62 62 88 62 62 88 62 76 88 62 76 88 38 76 88 38 76 106 38 76 106 38 76 106 38 76 106 50 90 106 50 90 106 50 90 124 50 90 124 50 90 124 62 90 124 62 90 124 62 34 124 62 34 142 62 34 142 38 34 142 38 34 142 38 34 142 38 34 142 38 48 88 50 48 88 50 48 88 50 48 88 50 48 88 50 48 88 62 48 106 62 62 106 62 62 106 62 62 106 62 62 106 38 62 106 38 62 124 38 62 124 38 76 124 38 76 124 50 76 124 50 76 124 50 76 142 50 76 142 50 76 142 62 90 142 62 90 142 62 90 142 62 90 88 62 90 88 38 90 88 38 90 88 38 34 88 38 34 88 38 34 106 50 34 106 50 34 106 50 34 106 50 34 106 50 48 106 62 48 124 62 48 124 62 48 124 62 48 124 62 48 124 38 48 124 38 62 142 38 62 142 38 62 142 38 62 142 50 62 142 50 62 142 50 62 88 50 76 88 50 76 88 62 76 88 62 76 88 62 76 88 62 76 106 62 76 106 38 90 106 38 90 106 38 90 106 38 90 106 38 90 124 50 90 124 50 90 124 50 34 124 50 34 124 50 34 124 62 34 142 62 34 142 62 34 142 62 34 142 62 48 142 38 48 142 38 48 88 38 48 88 38 48 88 38 48 88 50 48 88 50 62 88 50 62 106 50 62 106 50 62 106 62 62 106 62 62 106 62 62 106 62 76 124 62 76 124 38 76 124 38 76 124 38 76 124 38 76 124 38 76 142 50 90 142 50 90 142 50 90 142 50 90 142 50 90 142 62 90 88 62 90 88 62 34 88 62 34 88 62 34 88 38 34 88 38 34 106 38 34 106 38 34 106 38 48 106 50 48 106 50 48 106 50 48 124 50 48 124 50
48 106 62 48 106 62 48 106 62 48 106 62 48 106 62 48 106 38 48 124 38 62 124 38 62 124 38 62 124 38 62 124 50 62 124 50 62 142 50 62 142 50 76 142 50 76 142 62 76 142 62 76 142 62 76 88 62 76 88 62 76 88 38 90 88 38 90 88 38 90 88 38 90 106 38 90 106 50 90 106 50 90 106 50 34 106 50 34 106 50 34 124 62 34 124 62 34 124 62 34 124 62 34 124 62 48 124 38 48 142 38 48 142 38 48 142 38 48 142 38 48 142 50 48 142 50 62 88 50 62 88 50 62 88 50 62 88 62 62 88 62 62 88 62 62 106 62 76 106 62 76 106 38 76 106 38 76 106 38 76 106 38 76 124 38 76 124 50 90 124 50 90 124 50 90 124 50 90 124 50 90 142 62 90 142 62 90 142 62 34 142 62 34 142 62 34 142 38 34 88 38 34 88 38 34 88 38 34 88 38 48 88 50 48 88 50 48 106 50 48 106 50 48 106 50 48 106 62 48 106 62 62 106 62 62 124 62 62 124 62 62 124 38 62 124 38 62 124 38 62 124 38 76 142 38 76 142 50 76 142 50 76 142 50 76 142 50 76 142 50 76 88 62 90 88 62 90 88 62 90 88 62 90 88 62 90 88 38 90 106 38 90 106 38 34 106 38 34 106 38 34 106 50 34 106 50 34 124 50 34 124 50 34 124 50 48 124 62 48 124 62 48 124 62 48 142 62 48 142 62 48 142 38 48 142 38 62 142 38 62 142 38 62 88 38 62 88 50 62 88 50 62 88 50 62 88 50 76 88 50 76 106 62 76 106 62 76 106 62 76 106 62 76 106 62 76 106 38 90 124 38 90 124 38 90 124 38 90 124 38 90 124 50 90 124 50 90 142 50 34 142 50 34 142 50 34 142 62 34 142 62 34 142 62 34 88 62 34 88 62 48 88 38 48 88 38 48 88 38 48 88 38 48 106 38 48 106 50 48 106 50 62 106 50 62 106 50 62 106 50 62 124 62 62 124 62 62 124 62 62 124 62 76 124 62 76 124 38 76 142 38 76 142 38 76 142 38 76 142 38 76 142 50 90 142 50 90 88 50 90 88 50 90 88 50 90 88 62 90 88 62 90 88 62 34 106 62 34 106 62 34 106 38 34 106 38 34 106 38 34 106 38 34 124 38 48 124 50 48 124 50 48 124 50 48 124 50 48 124 50 48 142 62 48 142 62 62 142 62 62 142 62 62 142 62 62 142 38 62 88 38 62 88 38 62 88 38 76 88 38 76 88 50 76 88 50 76 106 50 76 106 50 76 106 50 76 106 62 90 106 62 90 106 62 90 124 62 90 124 62 90 124 38 90 124 38 90 124 38 34 124 38 34 142 38 34 142 50 34 142 50 34 142 50 34 142 50 34 142 50 48 88 62 48 88 62 48 88 62 48 88 62 48 88 62 48 88 38 48 106 38 62 106 38 62 106 38 62 106 38 62 106 50 62 106 50 62 124 50 62 124 50 76 124 50 76 124 62 76 124 62 76 124 62 76 142 62 76 142 62 76 142 38 90 142 38 90 142 38 90 142 38 90 88 38 90 88 50 90 88 50 90 88 50 34 88 50 34 88 50 34 106 62 34 106 62 34 106 62 34 106 62 34 106 62 48 106 38 48 124 38 48 124 38 48 124 38 48 124 38 48 124 50 48 124 50 62 142 50 62 142 50 62 142 50 62 142 62 62 142 62 62 142 62 62 88 62 76 88 62 76 88 38 76 88 38 76 88 38 76 88 38 76 106 38 76 106 50 90 106 50 90 106 50 90 106 50 90 106 50 90 124 62 90 124 62 90 124 62 34 124 62 34 124 62 34 124 38 34 142 38 34 142 38 34 142 38 34 142 38 48 142 50 48 142 50 48 88 50 48 88 50 48 88 50 48 88 62 48 88 62 62 88 62 62 106 62 62 106 62 62 106 38 62 106 38 62 106 38 62 106 38 76 124 38 76 124 50 76 124 50 76 124 50 76 124 50 76 124 50 76 142 62 90 142 62 90 142 62 90 142 62 90 142 62 90 142 38 90 88 38 90 88 38 34 88 38 34 88 38 34 88 50 34 88 50 34 106 50 34 106 50 34 106 50 48 106 62 48 106 62 48 106 62 48 124 62 48 124 62
48 106 62 48 106 62 48 106 62 48 106 62 48 106 62 48 106 38 48 124 38 62 124 38 62 124 38 62 124 38 62 124 50 62 124 50 62 142 50 62 142 50 76 142 50 76 142 62 76 142 62 76 142 62 76 88 62 76 88 62 76 88 38 90 88 38 90 88 38 90 88 38 90 106 38 90 106 50 90 106 50 90 106 50 34 106 50 34 106 50 34 124 62 34 124 62 34 124 62 34 124 62 34 124 62 48 124 38 48 142 38 48 142 38 48 142 38 48 142 38 48 142 50 48 142 50 62 88 50 62 88 50 62 88 50 62 88 62 62 88 62 62 88 62 62 106 62 76 106 62 76 106 38 76 106 38 76 106 38 76 106 38 76 124 38 76 124 50 90 124 50 90 124 50 90 124 50 90 124 50 90 142 62 90 142 62 90 142 62 34 142 62 34 142 62 34 142 38 34 88 38 34 88 38 34 88 38 34 88 38 48 88 50 48 88 50 48 106 50 48 106 50 48 106 50 48 106 62 48 106 62 62 106 62 62 124 62 62 124 62 62 124 38 62 124 38 62 124 38 62 124 38 76 142 38 76 142 50 76 142 50 76 142 50 76 142 50 76 142 50 76 88 62 90 88 62 90 88 62 90 88 62 90 88 62 90 88 38 90 106 38 90 106 38 34 106 38 34 106 38 34 106 50 34 106 50 34 124 50 34 124 50 34 124 50 48 124 62 48 124 62 48 124 62 48 142 62 48 142 62 48 142 38 48 142 38 62 142 38 62 142 38 62 88 38 62 88 50 62 88 50 62 88 50 62 88 50 76 88 50 76 106 62 76 106 62 76 106 62 76 106 62 76 106 62 76 106 38 90 124 38 90 124 38 90 124 38 90 124 38 90 124 50 90 124 50 90 142 50 34 142 50 34 142 50 34 142 62 34 142 62 34 142 62 34 88 62 34 88 62 48 88 38 48 88 38 48 88 38 48 88 38 48 106 38 48 106 50 48 106 50 62 106 50 62 106 50 62 106 50 62 124 62 62 124 62 62 124 62 62 124 62 76 124 62 76 124 38 76 142 38 76 142 38 76 142 38 76 142 38 76 142 50 90 142 50 90 88 50 90 88 50 90 88 50 90 88 62 90 88 62 90 88 62 34 106 62 34 106 62 34 106 38 34 106 38 34 106 38 34 106 38 34 124 38 48 124 50 48 124 50 48 124 50 48 124 50 48 124 50 48 142 62 48 142 62 62 142 62 62 142 62 62 142 62 62 142 38 62 88 38 62 88 38 62 88 38 76 88 38 76 88 50 76 88 50 76 106 50 76 106 50 76 106 50 76 106 62 90 106 62 90 106 62 90 124 62 90 124 62 90 124 38 90 124 38 90 124 38 34 124 38 34 142 38 34 142 50 34 142 50 34 142 50 34 142 50 34 142 50 48 88 62 48 88 62 48 88 62 48 88 62 48 88 62 48 88 38 48 106 38 62 106 38 62 106 38 62 106 38 62 106 50 62 106 50 62 124 50 62 124 50 76 124 50 76 124 62 76 124 62 76 124 62 76 142 62 76 142 62 76 142 38 90 142 38 90 142 38 90 142 38 90 88 38 90 88 50 90 88 50 90 88 50 34 88 50 34 88 50 34 106 62 34 106 62 34 106 62 34 106 62 34 106 62 48 106 38 48 124 38 48 124 38 48 124 38 48 124 38 48 124 50 48 124 50 62 142 50 62 142 50 62 142 50 62 142 62 62 142 62 62 142 62 62 88 62 76 88 62 76 88 38 76 88 38 76 88 38 76 88 38 76 106 38 76 106 50 90 106 50 90 106 50 90 106 50 90 106 50 90 124 62 90 124 62 90 124 62 34 124 62 34 124 62 34 124 38 34 142 38 34 142 38 34 142 38 34 142 38 48 142 50 48 142 50 48 88 50 48 88 50 48 88 50 48 88 62 48 88 62 62 88 62 62 106 62 62 106 62 62 106 38 62 106 38 62 106 38 62 106 38 76 124 38 76 124 50 76 124 50 76 124 50 76 124 50 76 124 50 76 142 62 90 142 62 90 142 62 90 142 62 90 142 62 90 142 38 90 88 38 90 88 38 34 88 38 34 88 38 34 88 50 34 88 50 34 106 50 34 106 50 34 106 50 48 106 62 48 106 62 48 106 62 48 124 62 48 124 62
62 124 62 62 124 62 62 124 62 62 124 62 62 124 62 62 124 38 62 142 38 76 142 38 76 142 38 76 142 38 76 142 50 76 142 50 76 88 50 76 88 50 90 88 50 90 88 62 90 88 62 90 88 62 90 106 62 90 106 62 90 106 38 34 106 38 34 106 38 34 106 38 34 124 38 34 124 50 34 124 50 34 124 50 48 124 50 48 124 50 48 142 62 48 142 62 48 142 62 48 142 62 48 142 62 62 142 38 62 88 38 62 88 38 62 88 38 62 88 38 62 88 50 62 88 50 76 106 50 76 106 50 76 106 50 76 106 62 76 106 62 76 106 62 76 124 62 90 124 62 90 124 38 90 124 38 90 124 38 90 124 38 90 142 38 90 142 50 34 142 50 34 142 50 34 142 50 34 142 50 34 88 62 34 88 62 34 88 62 48 88 62 48 88 62 48 88 38 48 106 38 48 106 38 48 106 38 48 106 38 62 106 50 62 106 50 62 124 50 62 124 50 62 124 50 62 124 62 62 124 62 76 124 62 76 142 62 76 142 62 76 142 38 76 142 38 76 142 38 76 142 38 90 88 38 90 88 50 90 88 50 90 88 50 90 88 50 90 88 50 90 106 62 34 106 62 34 106 62 34 106 62 34 106 62 34 106 38 34 124 38 34 124 38 48 124 38 48 124 38 48 124 50 48 124 50 48 142 50 48 142 50 48 142 50 62 142 62 62 142 62 62 142 62 62 88 62 62 88 62 62 88 38 62 88 38 76 88 38 76 88 38 76 106 38 76 106 50 76 106 50 76 106 50 76 106 50 90 106 50 90 124 62 90 124 62 90 124 62 90 124 62 90 124 62 90 124 38 34 142 38 34 142 38 34 142 38 34 142 38 34 142 50 34 142 50 34 88 50 48 88 50 48 88 50 48 88 62 48 88 62 48 88 62 48 106 62 48 106 62 62 106 38 62 106 38 62 106 38 62 106 38 62 124 38 62 124 50 62 124 50 76 124 50 76 124 50 76 124 50 76 142 62 76 142 62 76 142 62 76 142 62 90 142 62 90 142 38 90 88 38 90 88 38 90 88 38 90 88 38 90 88 50 34 88 50 34 106 50 34 106 50 34 106 50 34 106 62 34 106 62 34 106 62 48 124 62 48 124 62 48 124 38 48 124 38 48 124 38 48 124 38 48 142 38 62 142 50 62 142 50 62 142 50 62 142 50 62 142 50 62 88 62 62 88 62 76 88 62 76 88 62 76 88 62 76 88 38 76 106 38 76 106 38 76 106 38 90 106 38 90 106 50 90 106 50 90 124 50 90 124 50 90 124 50 90 124 62 34 124 62 34 124 62 34 142 62 34 142 62 34 142 38 34 142 38 34 142 38 48 142 38 48 88 38 48 88 50 48 88 50 48 88 50 48 88 50 48 88 50 62 106 62 62 106 62 62 106 62 62 106 62 62 106 62 62 106 38 62 124 38 76 124 38 76 124 38 76 124 38 76 124 50 76 124 50 76 142 50 76 142 50 90 142 50 90 142 62 90 142 62 90 142 62 90 88 62 90 88 62 90 88 38 34 88 38 34 88 38 34 88 38 34 106 38 34 106 50 34 106 50 34 106 50 48 106 50 48 106 50 48 124 62 48 124 62 48 124 62 48 124 62 48 124 62 62 124 38 62 142 38 62 142 38 62 142 38 62 142 38 62 142 50 62 142 50 76 88 50 76 88 50 76 88 50 76 88 62 76 88 62 76 88 62 76 106 62 90 106 62 90 106 38 90 106 38 90 106 38 90 106 38 90 124 38 90 124 50 34 124 50 34 124 50 34 124 50 34 124 50 34 142 62 34 142 62 34 142 62 48 142 62 48 142 62 48 142 38 48 88 38 48 88 38 48 88 38 48 88 38 62 88 50 62 88 50 62 106 50 62 106 50 62 106 50 62 106 62 62 106 62 76 106 62 76 124 62 76 124 62 76 124 38 76 124 38 76 124 38 76 124 38 90 142 38 90 142 50 90 142 50 90 142 50 90 142 50 90 142 50 90 88 62 34 88 62 34 88 62 34 88 62 34 88 62 34 88 38 34 106 38 34 106 38 48 106 38 48 106 38 48 106 50 48 106 50 48 124 50 48 124 50 48 124 50 62 124 62 62 124 62 62 124 62 62 142 62 62 142 62
62 124 62 62 124 62 62 124 62 62 124 62 62 124 62 62 124 38 62 142 38 76 142 38 76 142 38 76 142 38 76 142 50 76 142 50 76 88 50 76 88 50 90 88 50 90 88 62 90 88 62 90 88 62 90 106 62 90 106 62 90 106 38 34 106 38 34 106 38 34 106 38 34 124 38 34 124 50 34 124 50 34 124 50 48 124 50 48 124 50 48 142 62 48 142 62 48 142 62 48 142 62 48 142 62 62 142 38 62 88 38 62 88 38 62 88 38 62 88 38 62 88 50 62 88 50 76 106 50 76 106 50 76 106 50 76 106 62 76 106 62 76 106 62 76 124 62 90 124 62 90 124 38 90 124 38 90 124 38 90 124 38 90 142 38 90 142 50 34 142 50 34 142 50 34 142 50 34 142 50 34 88 62 34 88 62 34 88 62 48 88 62 48 88 62 48 88 38 48 106 38 48 106 38 48 106 38 48 106 38 62 106 50 62 106 50 62 124 50 62 124 50 62 124 50 62 124 62 62 124 62 76 124 62 76 142 62 76 142 62 76 142 38 76 142 38 76 142 38 76 142 38 90 88 38 90 88 50 90 88 50 90 88 50 90 88 50 90 88 50 90 106 62 34 106 62 34 106 62 34 106 62 34 106 62 34 106 38 34 124 38 34 124 38 48 124 38 48 124 38 48 124 50 48 124 50 48 142 50 48 142 50 48 142 50 62 142 62 62 142 62 62 142 62 62 88 62 62 88 62 62 88 38 62 88 38 76 88 38 76 88 38 76 106 38 76 106 50 76 106 50 76 106 50 76 106 50 90 106 50 90 124 62 90 124 62 90 124 62 90 124 62 90 124 62 90 124 38 34 142 38 34 142 38 34 142 38 34 142 38 34 142 50 34 142 50 34 88 50 48 88 50 48 88 50 48 88 62 48 88 62 48 88 62 48 106 62 48 106 62 62 106 38 62 106 38 62 106 38 62 106 38 62 124 38 62 124 50 62 124 50 76 124 50 76 124 50 76 124 50 76 142 62 76 142 62 76 142 62 76 142 62 90 142 62 90 142 38 90 88 38 90 88 38 90 88 38 90 88 38 90 88 50 34 88 50 34 106 50 34 106 50 34 106 50 34 106 62 34 106 62 34 106 62 48 124 62 48 124 62 48 124 38 48 124 38 48 124 38 48 124 38 48 142 38 62 142 50 62 142 50 62 142 50 62 142 50 62 142 50 62 88 62 62 88 62 76 88 62 76 88 62 76 88 62 76 88 38 76 106 38 76 106 38 76 106 38 90 106 38 90 106 50 90 106 50 90 124 50 90 124 50 90 124 50 90 124 62 34 124 62 34 124 62 34 142 62 34 142 62 34 142 38 34 142 38 34 142 38 48 142 38 48 88 38 48 88 50 48 88 50 48 88 50 48 88 50 48 88 50 62 106 62 62 106 62 62 106 62 62 106 62 62 106 62 62 106 38 62 124 38 76 124 38 76 124 38 76 124 38 76 124 50 76 124 50 76 142 50 76 142 50 90 142 50 90 142 62 90 142 62 90 142 62 90 88 62 90 88 62 90 88 38 34 88 38 34 88 38 34 88 38 34 106 38 34 106 50 34 106 50 34 106 50 48 106 50 48 106 50 48 124 62 48 124 62 48 124 62 48 124 62 48 124 62 62 124 38 62 142 38 62 142 38 62 142 38 62 142 38 62 142 50 62 142 50 76 88 50 76 88 50 76 88 50 76 88 62 76 88 62 76 88 62 76 106 62 90 106 62 90 106 38 90 106 38 90 106 38 90 106 38 90 124 38 90 124 50 34 124 50 34 124 50 34 124 50 34 124 50 34 142 62 34 142 62 34 142 62 48 142 62 48 142 62 48 142 38 48 88 38 48 88 38 48 88 38 48 88 38 62 88 50 62 88 50 62 106 50 62 106 50 62 106 50 62 106 62 62 106 62 76 106 62 76 124 62 76 124 62 76 124 38 76 124 38 76 124 38 76 124 38 90 142 38 90 142 50 90 142 50 90 142 50 90 142 50 90 142 50 90 88 62 34 88 62 34 88 62 34 88 62 34 88 62 34 88 38 34 106 38 34 106 38 48 106 38 48 106 38 48 106 50 48 106 50 48 124 50 48 124 50 48 124 50 62 124 62 62 124 62 62 124 62 62 142 62 62 142 62
62 124 62 62 124 62 62 124 62 62 124 62 62 124 62 62 124 38 62 142 38 76 142 38 76 142 38 76 142 38 76 142 50 76 142 50 76 88 50 76 88 50 90 88 50 90 88 62 90 88 62 90 88 62 90 106 62 90 106 62 90 106 38 34 106 38 34 106 38 34 106 38 34 124 38 34 124 50 34 124 50 34 124 50 48 124 50 48 124 50 48 142 62 48 142 62 48 142 62 48 142 62 48 142 62 62 142 38 62 88 38 62 88 38 62 88 38 62 88 38 62 88 50 62 88 50 76 106 50 76 106 50 76 106 50 76 106 62 76 106 62 76 106 62 76 124 62 90 124 62 90 124 38 90 124 38 90 124 38 90 124 38 90 142 38 90 142 50 34 142 50 34 142 50 34 142 50 34 142 50 34 88 62 34 88 62 34 88 62 48 88 62 48 88 62 48 88 38 48 106 38 48 106 38 48 106 38 48 106 38 62 106 50 62 106 50 62 124 50 62 124 50 62 124 50 62 124 62 62 124 62 76 124 62 76 142 62 76 142 62 76 142 38 76 142 38 76 142 38 76 142 38 90 88 38 90 88 50 90 88 50 90 88 50 90 88 50 90 88 50 90 106 62 34 106 62 34 106 62 34 106 62 34 106 62 34 106 38 34 124 38 34 124 38 48 124 38 48 124 38 48 124 50 48 124 50 48 142 50 48 142 50 48 142 50 62 142 62 62 142 62 62 142 62 62 88 62 62 88 62 62 88 38 62 88 38 76 88 38 76 88 38 76 106 38 76 106 50 76 106 50 76 106 50 76 106 50 90 106 50 90 124 62 90 124 62 90 124 62 90 124 62 90 124 62 90 124 38 34 142 38 34 142 38 34 142 38 34 142 38 34 142 50 34 142 50 34 88 50 48 88 50 48 88 50 48 88 62 48 88 62 48 88 62 48 106 62 48 106 62 62 106 38 62 106 38 62 106 38 62 106 38 62 124 38 62 124 50 62 124 50 76 124 50 76 124 50 76 124 50 76 142 62 76 142 62 76 142 62 76 142 62 90 142 62 90 142 38 90 88 38 90 88 38 90 88 38 90 88 38 90 88 50 34 88 50 34 106 50 34 106 50 34 106 50 34 106 62 34 106 62 34 106 62 48 124 62 48 124 62 48 124 38 48 124 38 48 124 38 48 124 38 48 142 38 62 142 50 62 142 50 62 142 50 62 142 50 62 142 50 62 88 62 62 88 62 76 88 62 76 88 62 76 88 62 76 88 38 76 106 38 76 106 38 76 106 38 90 106 38 90 106 50 90 106 50 90 124 50 90 124 50 90 124 50 90 124 62 34 124 62 34 124 62 34 142 62 34 142 62 34 142 38 34 142 38 34 142 38 48 142 38 48 88 38 48 88 50 48 88 50 48 88 50 48 88 50 48 88 50 62 106 62 62 106 62 62 106 62 62 106 62 62 106 62 62 106 38 62 124 38 76 124 38 76 124 38 76 124 38 76 124 50 76 124 50 76 142 50 76 142 50 90 142 50 90 142 62 90 142 62 90 142 62 90 88 62 90 88 62 90 88 38 34 88 38 34 88 38 34 88 38 34 106 38 34 106 50 34 106 50 34 106 50 48 106 50 48 106 50 48 124 62 48 124 62 48 124 62 48 124 62 48 124 62 62 124 38 62 142 38 62 142 38 62 142 38 62 142 38 62 142 50 62 142 50 76 88 50 76 88 50 76 88 50 76 88 62 76 88 62 76 88 62 76 106 62 90 106 62 90 106 38 90 106 38 90 106 38 90 106 38 90 124 38 90 124 50 34 124 50 34 124 50 34 124 50 34 124 50 34 142 62 34 142 62 34 142 62 48 142 62 48 142 62 48 142 38 48 88 38 48 88 38 48 88 38 48 88 38 62 88 50 62 88 50 62 106 50 62 106 50 62 106 50 62 106 62 62 106 62 76 106 62 76 124 62 76 124 62 76 124 38 76 124 38 76 124 38 76 124 38 90 142 38 90 142 50 90 142 50 90 142 50 90 142 50 90 142 50 90 88 62 34 88 62 34 88 62 34 88 62 34 88 62 34 88 38 34 106 38 34 106 38 48 106 38 48 106 38 48 106 50 48 106 50 48 124 50 48 124 50 48 124 50 62 124 62 62 124 62 62 124 62 62 142 62 62 142 62
62 124 62 62 124 62 62 124 62 62 124 62 62 124 62 62 124 38 62 142 38 76 142 38 76 142 38 76 142 38 76 142 50 76 142 50 76 88 50 76 88 50 90 88 50 90 88 62 90 88 62 90 88 62 90 106 62 90 106 62 90 106 38 34 106 38 34 106 38 34 106 38 34 124 38 34 124 50 34 124 50 34 124 50 48 124 50 48 124 50 48 142 62 48 142 62 48 142 62 48 142 62 48 142 62 62 142 38 62 88 38 62 88 38 62 88 38 62 88 38 62 88 50 62 88 50 76 106 50 76 106 50 76 106 50 76 106 62 76 106 62 76 106 62 76 124 62 90 124 62 90 124 38 90 124 38 90 124 38 90 124 38 90 142 38 90 142 50 34 142 50 34 142 50 34 142 50 34 142 50 34 88 62 34 88 62 34 88 62 48 88 62 48 88 62 48 88 38 48 106 38 48 106 38 48 106 38 48 106 38 62 106 50 62 106 50 62 124 50 62 124 50 62 124 50 62 124 62 62 124 62 76 124 62 76 142 62 76 142 62 76 142 38 76 142 38 76 142 38 76 142 38 90 88 38 90 88 50 90 88 50 90 88 50 90 88 50 90 88 50 90 106 62 34 106 62 34 106 62 34 106 62 34 106 62 34 106 38 34 124 38 34 124 38 48 124 38 48 124 38 48 124 50 48 124 50 48 142 50 48 142 50 48 142 50 62 142 62 62 142 62 62 142 62 62 88 62 62 88 62 62 88 38 62 88 38 76 88 38 76 88 38 76 106 38 76 106 50 76 106 50 76 106 50 76 106 50 90 106 50 90 124 62 90 124 62 90 124 62 90 124 62 90 124 62 90 124 38 34 142 38 34 142 38 34 142 38 34 142 38 34 142 50 34 142 50 34 88 50 48 88 50 48 88 50 48 88 62 48 88 62 48 88 62 48 106 62 48 106 62 62 106 38 62 106 38 62 106 38 62 106 38 62 124 38 62 124 50 62 124 50 76 124 50 76 124 50 76 124 50 76 142 62 76 142 62 76 142 62 76 142 62 90 142 62 90 142 38 90 88 38 90 88 38 90 88 38 90 88 38 90 88 50 34 88 50 34 106 50 34 106 50 34 106 50 34 106 62 34 106 62 34 106 62 48 124 62 48 124 62 48 124 38 48 124 38 48 124 38 48 124 38 48 142 38 62 142 50 62 142 50 62 142 50 62 142 50 62 142 50 62 88 62 62 88 62 76 88 62 76 88 62 76 88 62 76 88 38 76 106 38 76 106 38 76 106 38 90 106 38 90 106 50 90 106 50 90 124 50 90 124 50 90 124 50 90 124 62 34 124 62 34 124 62 34 142 62 34 142 62 34 142 38 34 142 38 34 142 38 48 142 38 48 88 38 48 88 50 48 88 50 48 88 50 48 88 50 48 88 50 62 106 62 62 106 62 62 106 62 62 106 62 62 106 62 62 106 38 62 124 38 76 124 38 76 124 38 76 124 38 76 124 50 76 124 50 76 142 50 76 142 50 90 142 50 90 142 62 90 142 62 90 142 62 90 88 62 90 88 62 90 88 38 34 88 38 34 88 38 34 88 38 34 106 38 34 106 50 34 106 50 34 106 50 48 106 50 48 106 50 48 124 62 48 124 62 48 124 62 48 124 62 48 124 62 62 124 38 62 142 38 62 142 38 62 142 38 62 142 38 62 142 50 62 142 50 76 88 50 76 88 50 76 88 50 76 88 62 76 88 62 76 88 62 76 106 62 90 106 62 90 106 38 90 106 38 90 106 38 90 106 38 90 124 38 90 124 50 34 124 50 34 124 50 34 124 50 34 124 50 34 142 62 34 142 62 34 142 62 48 142 62 48 142 62 48 142 38 48 88 38 48 88 38 48 88 38 48 88 38 62 88 50 62 88 50 62 106 50 62 106 50 62 106 50 62 106 62 62 106 62 76 106 62 76 124 62 76 124 62 76 124 38 76 124 38 76 124 38 76 124 38 90 142 38 90 142 50 90 142 50 90 142 50 90 142 50 90 142 50 90 88 62 34 88 62 34 88 62 34 88 62 34 88 62 34 88 38 34 106 38 34 106 38 48 106 38 48 106 38 48 106 50 48 106 50 48 124 50 48 124 50 48 124 50 62 124 62 62 124 62 62 124 62 62 142 62 62 142 62
62 124 62 62 124 62 62 124 62 62 124 62 62 124 62 62 124 38 62 142 38 76 142 38 76 142 38 76 142 38 76 142 50 76 142 50 76 88 50 76 88 50 90 88 50 90 88 62 90 88 62 90 88 62 90 106 62 90 106 62 90 106 38 34 106 38 34 106 38 34 106 38 34 124 38 34 124 50 34 124 50 34 124 50 48 124 50 48 124 50 48 142 62 48 142 62 48 142 62 48 142 62 48 142 62 62 142 38 62 88 38 62 88 38 62 88 38 62 88 38 62 88 50 62 88 50 76 106 50 76 106 50 76 106 50 76 106 62 76 106 62 76 106 62 76 124 62 90 124 62 90 124 38 90 124 38 90 124 38 90 124 38 90 142 38 90 142 50 34 142 50 34 142 50 34 142 50 34 142 50 34 88 62 34 88 62 34 88 62 48 88 62 48 88 62 48 88 38 48 106 38 48 106 38 48 106 38 48 106 38 62 106 50 62 106 50 62 124 50 62 124 50 62 124 50 62 124 62 62 124 62 76 124 62 76 142 62 76 142 62 76 142 38 76 142 38 76 142 38 76 142 38 90 88 38 90 88 50 90 88 50 90 88 50 90 88 50 90 88 50 90 106 62 34 106 62 34 106 62 34 106 62 34 106 62 34 106 38 34 124 38 34 124 38 48 124 38 48 124 38 48 124 50 48 124 50 48 142 50 48 142 50 48 142 50 62 142 62 62 142 62 62 142 62 62 88 62 62 88 62 62 88 38 62 88 38 76 88 38 76 88 38 76 106 38 76 106 50 76 106 50 76 106 50 76 106 50 90 106 50 90 124 62 90 124 62 90 124 62 90 124 62 90 124 62 90 124 38 34 142 38 34 142 38 34 142 38 34 142 38 34 142 50 34 142 50 34 88 50 48 88 50 48 88 50 48 88 62 48 88 62 48 88 62 48 106 62 48 106 62 62 106 38 62 106 38 62 106 38 62 106 38 62 124 38 62 124 50 62 124 50 76 124 50 76 124 50 76 124 50 76 142 62 76 142 62 76 142 62 76 142 62 90 142 62 90 142 38 90 88 38 90 88 38 90 88 38 90 88 38 90 88 50 34 88 50 34 106 50 34 106 50 34 106 50 34 106 62 34 106 62 34 106 62 48 124 62 48 124 62 48 124 38 48 124 38 48 124 38 48 124 38 48 142 38 62 142 50 62 142 50 62 142 50 62 142 50 62 142 50 62 88 62 62 88 62 76 88 62 76 88 62 76 88 62 76 88 38 76 106 38 76 106 38 76 106 38 90 106 38 90 106 50 90 106 50 90 124 50 90 124 50 90 124 50 90 124 62 34 124 62 34 124 62 34 142 62 34 142 62 34 142 38 34 142 38 34 142 38 48 142 38 48 88 38 48 88 50 48 88 50 48 88 50 48 88 50 48 88 50 62 106 62 62 106 62 62 106 62 62 106 62 62 106 62 62 106 38 62 124 38 76 124 38 76 124 38 76 124 38 76 124 50 76 124 50 76 142 50 76 142 50 90 142 50 90 142 62 90 142 62 90 142 62 90 88 62 90 88 62 90 88 38 34 88 38 34 88 38 34 88 38 34 106 38 34 106 50 34 106 50 34 106 50 48 106 50 48 106 50 48 124 62 48 124 62 48 124 62 48 124 62 48 124 62 62 124 38 62 142 38 62 142 38 62 142 38 62 142 38 62 142 50 62 142 50 76 88 50 76 88 50 76 88 50 76 88 62 76 88 62 76 88 62 76 106 62 90 106 62 90 106 38 90 106 38 90 106 38 90 106 38 90 124 38 90 124 50 34 124 50 34 124 50 34 124 50 34 124 50 34 142 62 34 142 62 34 142 62 48 142 62 48 142 62 48 142 38 48 88 38 48 88 38 48 88 38 48 88 38 62 88 50 62 88 50 62 106 50 62 106 50 62 106 50 62 106 62 62 106 62 76 106 62 76 124 62 76 124 62 76 124 38 76 124 38 76 124 38 76 124 38 90 142 38 90 142 50 90 142 50 90 142 50 90 142 50 90 142 50 90 88 62 34 88 62 34 88 62 34 88 62 34 88 62 34 88 38 34 106 38 34 106 38 48 106 38 48 106 38 48 106 50 48 106 50 48 124 50 48 124 50 48 124 50 62 124 62 62 124 62 62 124 62 62 142 62 62 142 62
76 124 62 76 124 62 76 124 62 76 124 62 76 124 62 76 124 38 76 142 38 90 142 38 90 142 38 90 142 38 90 142 50 90 142 50 90 88 50 90 88 50 34 88 50 34 88 62 34 88 62 34 88 62 34 106 62 34 106 62 34 106 38 48 106 38 48 106 38 48 106 38 48 124 38 48 124 50 48 124 50 48 124 50 62 124 50 62 124 50 62 142 62 62 142 62 62 142 62 62 142 62 62 142 62 76 142 38 76 88 38 76 88 38 76 88 38 76 88 38 76 88 50 76 88 50 90 106 50 90 106 50 90 106 50 90 106 62 90 106 62 90 106 62 90 124 62 34 124 62 34 124 38 34 124 38 34 124 38 34 124 38 34 142 38 34 142 50 48 142 50 48 142 50 48 142 50 48 142 50 48 88 62 48 88 62 48 88 62 62 88 62 62 88 62 62 88 38 62 106 38 62 106 38 62 106 38 62 106 38 76 106 50 76 106 50 76 124 50 76 124 50 76 124 50 76 124 62 76 124 62 90 124 62 90 142 62 90 142 62 90 142 38 90 142 38 90 142 38 90 142 38 34 88 38 34 88 50 34 88 50 34 88 50 34 88 50 34 88 50 34 106 62 48 106 62 48 106 62 48 106 62 48 106 62 48 106 38 48 124 38 48 124 38 62 124 38 62 124 38 62 124 50 62 124 50 62 142 50 62 142 50 62 142 50 76 142 62 76 142 62 76 142 62 76 88 62 76 88 62 76 88 38 76 88 38 90 88 38 90 88 38 90 106 38 90 106 50 90 106 50 90 106 50 90 106 50 34 106 50 34 124 62 34 124 62 34 124 62 34 124 62 34 124 62 34 124 38 48 142 38 48 142 38 48 142 38 48 142 38 48 142 50 48 142 50 48 88 50 62 88 50 62 88 50 62 88 62 62 88 62 62 88 62 62 106 62 62 106 62 76 106 38 76 106 38 76 106 38 76 106 38 76 124 38 76 124 50 76 124 50 90 124 50 90 124 50 90 124 50 90 142 62 90 142 62 90 142 62 90 142 62 34 142 62 34 142 38 34 88 38 34 88 38 34 88 38 34 88 38 34 88 50 48 88 50 48 106 50 48 106 50 48 106 50 48 106 62 48 106 62 48 106 62 62 124 62 62 124 62 62 124 38 62 124 38 62 124 38 62 124 38 62 142 38 76 142 50 76 142 50 76 142 50 76 142 50 76 142 50 76 88 62 76 88 62 90 88 62 90 88 62 90 88 62 90 88 38 90 106 38 90 106 38 90 106 38 34 106 38 34 106 50 34 106 50 34 124 50 34 124 50 34 124 50 34 124 62 48 124 62 48 124 62 48 142 62 48 142 62 48 142 38 48 142 38 48 142 38 62 142 38 62 88 38 62 88 50 62 88 50 62 88 50 62 88 50 62 88 50 76 106 62 76 106 62 76 106 62 76 106 62 76 106 62 76 106 38 76 124 38 90 124 38 90 124 38 90 124 38 90 124 50 90 124 50 90 142 50 90 142 50 34 142 50 34 142 62 34 142 62 34 142 62 34 88 62 34 88 62 34 88 38 48 88 38 48 88 38 48 88 38 48 106 38 48 106 50 48 106 50 48 106 50 62 106 50 62 106 50 62 124 62 62 124 62 62 124 62 62 124 62 62 124 62 76 124 38 76 142 38 76 142 38 76 142 38 76 142 38 76 142 50 76 142 50 90 88 50 90 88 50 90 88 50 90 88 62 90 88 62 90 88 62 90 106 62 34 106 62 34 106 38 34 106 38 34 106 38 34 106 38 34 124 38 34 124 50 48 124 50 48 124 50 48 124 50 48 124 50 48 142 62 48 142 62 48 142 62 62 142 62 62 142 62 62 142 38 62 88 38 62 88 38 62 88 38 62 88 38 76 88 50 76 88 50 76 106 50 76 106 50 76 106 50 76 106 62 76 106 62 90 106 62 90 124 62 90 124 62 90 124 38 90 124 38 90 124 38 90 124 38 34 142 38 34 142 50 34 142 50 34 142 50 34 142 50 34 142 50 34 88 62 48 88 62 48 88 62 48 88 62 48 88 62 48 88 38 48 106 38 48 106 38 62 106 38 62 106 38 62 106 50 62 106 50 62 124 50 62 124 50 62 124 50 76 124 62 76 124 62 76 124 62 76 142 62 76 142 62
76 124 38 76 124 38 76 124 38 76 124 38 76 124 38 76 124 50 76 142 50 90 142 50 90 142 50 90 142 50 90 142 62 90 142 62 90 88 62 90 88 62 34 88 62 34 88 38 34 88 38 34 88 38 34 106 38 34 106 38 34 106 50 48 106 50 48 106 50 48 106 50 48 124 50 48 124 62 48 124 62 48 124 62 62 124 62 62 124 62 62 142 38 62 142 38 62 142 38 62 142 38 62 142 38 76 142 50 76 88 50 76 88 50 76 88 50 76 88 50 76 88 62 76 88 62 90 106 62 90 106 62 90 106 62 90 106 38 90 106 38 90 106 38 90 124 38 34 124 38 34 124 50 34 124 50 34 124 50 34 124 50 34 142 50 34 142 62 48 142 62 48 142 62 48 142 62 48 142 62 48 88 38 48 88 38 48 88 38 62 88 38 62 88 38 62 88 50 62 106 50 62 106 50 62 106 50 62 106 50 76 106 62 76 106 62 76 124 62 76 124 62 76 124 62 76 124 38 76 124 38 90 124 38 90 142 38 90 142 38 90 142 50 90 142 50 90 142 50 90 142 50 34 88 50 34 88 62 34 88 62 34 88 62 34 88 62 34 88 62 34 106 38 48 106 38 48 106 38 48 106 38 48 106 38 48 106 50 48 124 50 48 124 50 62 124 50 62 124 50 62 124 62 62 124 62 62 142 62 62 142 62 62 142 62 76 142 38 76 142 38 76 142 38 76 88 38 76 88 38 76 88 50 76 88 50 90 88 50 90 88 50 90 106 50 90 106 62 90 106 62 90 106 62 90 106 62 34 106 62 34 124 38 34 124 38 34 124 38 34 124 38 34 124 38 34 124 50 48 142 50 48 142 50 48 142 50 48 142 50 48 142 62 48 142 62 48 88 62 62 88 62 62 88 62 62 88 38 62 88 38 62 88 38 62 106 38 62 106 38 76 106 50 76 106 50 76 106 50 76 106 50 76 124 50 76 124 62 76 124 62 90 124 62 90 124 62 90 124 62 90 142 38 90 142 38 90 142 38 90 142 38 34 142 38 34 142 50 34 88 50 34 88 50 34 88 50 34 88 50 34 88 62 48 88 62 48 106 62 48 106 62 48 106 62 48 106 38 48 106 38 48 106 38 62 124 38 62 124 38 62 124 50 62 124 50 62 124 50 62 124 50 62 142 50 76 142 62 76 142 62 76 142 62 76 142 62 76 142 62 76 88 38 76 88 38 90 88 38 90 88 38 90 88 38 90 88 50 90 106 50 90 106 50 90 106 50 34 106 50 34 106 62 34 106 62 34 124 62 34 124 62 34 124 62 34 124 38 48 124 38 48 124 38 48 142 38 48 142 38 48 142 50 48 142 50 48 142 50 62 142 50 62 88 50 62 88 62 62 88 62 62 88 62 62 88 62 62 88 62 76 106 38 76 106 38 76 106 38 76 106 38 76 106 38 76 106 50 76 124 50 90 124 50 90 124 50 90 124 50 90 124 62 90 124 62 90 142 62 90 142 62 34 142 62 34 142 38 34 142 38 34 142 38 34 88 38 34 88 38 34 88 50 48 88 50 48 88 50 48 88 50 48 106 50 48 106 62 48 106 62 48 106 62 62 106 62 62 106 62 62 124 38 62 124 38 62 124 38 62 124 38 62 124 38 76 124 50 76 142 50 76 142 50 76 142 50 76 142 50 76 142 62 76 142 62 90 88 62 90 88 62 90 88 62 90 88 38 90 88 38 90 88 38 90 106 38 34 106 38 34 106 50 34 106 50 34 106 50 34 106 50 34 124 50 34 124 62 48 124 62 48 124 62 48 124 62 48 124 62 48 142 38 48 142 38 48 142 38 62 142 38 62 142 38 62 142 50 62 88 50 62 88 50 62 88 50 62 88 50 76 88 62 76 88 62 76 106 62 76 106 62 76 106 62 76 106 38 76 106 38 90 106 38 90 124 38 90 124 38 90 124 50 90 124 50 90 124 50 90 124 50 34 142 50 34 142 62 34 142 62 34 142 62 34 142 62 34 142 62 34 88 38 48 88 38 48 88 38 48 88 38 48 88 38 48 88 50 48 106 50 48 106 50 62 106 50 62 106 50 62 106 62 62 106 62 62 124 62 62 124 62 62 124 62 76 124 38 76 124 38 76 124 38 76 142 38 76 142 38
76 142 38 76 142 38 76 142 38 76 142 38 76 142 38 76 142 50 76 88 50 90 88 50 90 88 50 90 88 50 90 88 62 90 88 62 90 106 62 90 106 62 34 106 62 34 106 38 34 106 38 34 106 38 34 124 38 34 124 38 34 124 50 48 124 50 48 124 50 48 124 50 48 142 50 48 142 62 48 142 62 48 142 62 62 142 62 62 142 62 62 88 38 62 88 38 62 88 38 62 88 38 62 88 38 76 88 50 76 106 50 76 106 50 76 106 50 76 106 50 76 106 62 76 106 62 90 124 62 90 124 62 90 124 62 90 124 38 90 124 38 90 124 38 90 142 38 34 142 38 34 142 50 34 142 50 34 142 50 34 142 50 34 88 50 34 88 62 48 88 62 48 88 62 48 88 62 48 88 62 48 106 38 48 106 38 48 106 38 62 106 38 62 106 38 62 106 50 62 124 50 62 124 50 62 124 50 62 124 50 76 124 62 76 124 62 76 142 62 76 142 62 76 142 62 76 142 38 76 142 38 90 142 38 90 88 38 90 88 38 90 88 50 90 88 50 90 88 50 90 88 50 34 106 50 34 106 62 34 106 62 34 106 62 34 106 62 34 106 62 34 124 38 48 124 38 48 124 38 48 124 38 48 124 38 48 124 50 48 142 50 48 142 50 62 142 50 62 142 50 62 142 62 62 142 62 62 88 62 62 88 62 62 88 62 76 88 38 76 88 38 76 88 38 76 106 38 76 106 38 76 106 50 76 106 50 90 106 50 90 106 50 90 124 50 90 124 62 90 124 62 90 124 62 90 124 62 34 124 62 34 142 38 34 142 38 34 142 38 34 142 38 34 142 38 34 142 50 48 88 50 48 88 50 48 88 50 48 88 50 48 88 62 48 88 62 48 106 62 62 106 62 62 106 62 62 106 38 62 106 38 62 106 38 62 124 38 62 124 38 76 124 50 76 124 50 76 124 50 76 124 50 76 142 50 76 142 62 76 142 62 90 142 62 90 142 62 90 142 62 90 88 38 90 88 38 90 88 38 90 88 38 34 88 38 34 88 50 34 106 50 34 106 50 34 106 50 34 106 50 34 106 62 48 106 62 48 124 62 48 124 62 48 124 62 48 124 38 48 124 38 48 124 38 62 142 38 62 142 38 62 142 50 62 142 50 62 142 50 62 142 50 62 88 50 76 88 62 76 88 62 76 88 62 76 88 62 76 88 62 76 106 38 76 106 38 90 106 38 90 106 38 90 106 38 90 106 50 90 124 50 90 124 50 90 124 50 34 124 50 34 124 62 34 124 62 34 142 62 34 142 62 34 142 62 34 142 38 48 142 38 48 142 38 48 88 38 48 88 38 48 88 50 48 88 50 48 88 50 62 88 50 62 106 50 62 106 62 62 106 62 62 106 62 62 106 62 62 106 62 76 124 38 76 124 38 76 124 38 76 124 38 76 124 38 76 124 50 76 142 50 90 142 50 90 142 50 90 142 50 90 142 62 90 142 62 90 88 62 90 88 62 34 88 62 34 88 38 34 88 38 34 88 38 34 106 38 34 106 38 34 106 50 48 106 50 48 106 50 48 106 50 48 124 50 48 124 62 48 124 62 48 124 62 62 124 62 62 124 62 62 142 38 62 142 38 62 142 38 62 142 38 62 142 38 76 142 50 76 88 50 76 88 50 76 88 50 76 88 50 76 88 62 76 88 62 90 106 62 90 106 62 90 106 62 90 106 38 90 106 38 90 106 38 90 124 38 34 124 38 34 124 50 34 124 50 34 124 50 34 124 50 34 142 50 34 142 62 48 142 62 48 142 62 48 142 62 48 142 62 48 88 38 48 88 38 48 88 38 62 88 38 62 88 38 62 88 50 62 106 50 62 106 50 62 106 50 62 106 50 76 106 62 76 106 62 76 124 62 76 124 62 76 124 62 76 124 38 76 124 38 90 124 38 90 142 38 90 142 38 90 142 50 90 142 50 90 142 50 90 142 50 34 88 50 34 88 62 34 88 62 34 88 62 34 88 62 34 88 62 34 106 38 48 106 38 48 106 38 48 106 38 48 106 38 48 106 50 48 124 50 48 124 50 62 124 50 62 124 50 62 124 62 62 124 62 62 142 62 62 142 62 62 142 62 76 142 38 76 142 38 76 142 38 76 88 38 76 88 38
76 142 38 76 142 38 76 142 38 76 142 38 76 142 38 76 142 50 76 88 50 90 88 50 90 88 50 90 88 50 90 88 62 90 88 62 90 106 62 90 106 62 34 106 62 34 106 38 34 106 38 34 106 38 34 124 38 34 124 38 34 124 50 48 124 50 48 124 50 48 124 50 48 142 50 48 142 62 48 142 62 48 142 62 62 142 62 62 142 62 62 88 38 62 88 38 62 88 38 62 88 38 62 88 38 76 88 50 76 106 50 76 106 50 76 106 50 76 106 50 76 106 62 76 106 62 90 124 62 90 124 62 90 124 62 90 124 38 90 124 38 90 124 38 90 142 38 34 142 38 34 142 50 34 142 50 34 142 50 34 142 50 34 88 50 34 88 62 48 88 62 48 88 62 48 88 62 48 88 62 48 106 38 48 106 38 48 106 38 62 106 38 62 106 38 62 106 50 62 124 50 62 124 50 62 124 50 62 124 50 76 124 62 76 124 62 76 142 62 76 142 62 76 142 62 76 142 38 76 142 38 90 142 38 90 88 38 90 88 38 90 88 50 90 88 50 90 88 50 90 88 50 34 106 50 34 106 62 34 106 62 34 106 62 34 106 62 34 106 62 34 124 38 48 124 38 48 124 38 48 124 38 48 124 38 48 124 50 48 142 50 48 142 50 62 142 50 62 142 50 62 142 62 62 142 62 62 88 62 62 88 62 62 88 62 76 88 38 76 88 38 76 88 38 76 106 38 76 106 38 76 106 50 76 106 50 90 106 50 90 106 50 90 124 50 90 124 62 90 124 62 90 124 62 90 124 62 34 124 62 34 142 38 34 142 38 34 142 38 34 142 38 34 142 38 34 142 50 48 88 50 48 88 50 48 88 50 48 88 50 48 88 62 48 88 62 48 106 62 62 106 62 62 106 62 62 106 38 62 106 38 62 106 38 62 124 38 62 124 38 76 124 50 76 124 50 76 124 50 76 124 50 76 142 50 76 142 62 76 142 62 90 142 62 90 142 62 90 142 62 90 88 38 90 88 38 90 88 38 90 88 38 34 88 38 34 88 50 34 106 50 34 106 50 34 106 50 34 106 50 34 106 62 48 106 62 48 124 62 48 124 62 48 124 62 48 124 38 48 124 38 48 124 38 62 142 38 62 142 38 62 142 50 62 142 50 62 142 50 62 142 50 62 88 50 76 88 62 76 88 62 76 88 62 76 88 62 76 88 62 76 106 38 76 106 38 90 106 38 90 106 38 90 106 38 90 106 50 90 124 50 90 124 50 90 124 50 34 124 50 34 124 62 34 124 62 34 142 62 34 142 62 34 142 62 34 142 38 48 142 38 48 142 38 48 88 38 48 88 38 48 88 50 48 88 50 48 88 50 62 88 50 62 106 50 62 106 62 62 106 62 62 106 62 62 106 62 62 106 62 76 124 38 76 124 38 76 124 38 76 124 38 76 124 38 76 124 50 76 142 50 90 142 50 90 142 50 90 142 50 90 142 62 90 142 62 90 88 62 90 88 62 34 88 62 34 88 38 34 88 38 34 88 38 34 106 38 34 106 38 34 106 50 48 106 50 48 106 50 48 106 50 48 124 50 48 124 62 48 124 62 48 124 62 62 124 62 62 124 62 62 142 38 62 142 38 62 142 38 62 142 38 62 142 38 76 142 50 76 88 50 76 88 50 76 88 50 76 88 50 76 88 62 76 88 62 90 106 62 90 106 62 90 106 62 90 106 38 90 106 38 90 106 38 90 124 38 34 124 38 34 124 50 34 124 50 34 124 50 34 124 50 34 142 50 34 142 62 48 142 62 48 142 62 48 142 62 48 142 62 48 88 38 48 88 38 48 88 38 62 88 38 62 88 38 62 88 50 62 106 50 62 106 50 62 106 50 62 106 50 76 106 62 76 106 62 76 124 62 76 124 62 76 124 62 76 124 38 76 124 38 90 124 38 90 142 38 90 142 38 90 142 50 90 142 50 90 142 50 90 142 50 34 88 50 34 88 62 34 88 62 34 88 62 34 88 62 34 88 62 34 106 38 48 106 38 48 106 38 48 106 38 48 106 38 48 106 50 48 124 50 48 124 50 62 124 50 62 124 50 62 124 62 62 124 62 62 142 62 62 142 62 62 142 62 76 142 38 76 142 38 76 142 38 76 88 38 76 88 38
76 142 38 76 142 38 76 142 38 76 142 38 76 142 38 76 142 50 76 88 50 90 88 50 90 88 50 90 88 50 90 88 62 90 88 62 90 106 62 90 106 62 34 106 62 34 106 38 34 106 38 34 106 38 34 124 38 34 124 38 34 124 50 48 124 50 48 124 50 48 124 50 48 142 50 48 142 62 48 142 62 48 142 62 62 142 62 62 142 62 62 88 38 62 88 38 62 88 38 62 88 38 62 88 38 76 88 50 76 106 50 76 106 50 76 106 50 76 106 50 76 106 62 76 106 62 90 124 62 90 124 62 90 124 62 90 124 38 90 124 38 90 124 38 90 142 38 34 142 38 34 142 50 34 142 50 34 142 50 34 142 50 34 88 50 34 88 62 48 88 62 48 88 62 48 88 62 48 88 62 48 106 38 48 106 38 48 106 38 62 106 38 62 106 38 62 106 50 62 124 50 62 124 50 62 124 50 62 124 50 76 124 62 76 124 62 76 142 62 76 142 62 76 142 62 76 142 38 76 142 38 90 142 38 90 88 38 90 88 38 90 88 50 90 88 50 90 88 50 90 88 50 34 106 50 34 106 62 34 106 62 34 106 62 34 106 62 34 106 62 34 124 38 48 124 38 48 124 38 48 124 38 48 124 38 48 124 50 48 142 50 48 142 50 62 142 50 62 142 50 62 142 62 62 142 62 62 88 62 62 88 62 62 88 62 76 88 38 76 88 38 76 88 38 76 106 38 76 106 38 76 106 50 76 106 50 90 106 50 90 106 50 90 124 50 90 124 62 90 124 62 90 124 62 90 124 62 34 124 62 34 142 38 34 142 38 34 142 38 34 142 38 34 142 38 34 142 50 48 88 50 48 88 50 48 88 50 48 88 50 48 88 62 48 88 62 48 106 62 62 106 62 62 106 62 62 106 38 62 106 38 62 106 38 62 124 38 62 124 38 76 124 50 76 124 50 76 124 50 76 124 50 76 142 50 76 142 62 76 142 62 90 142 62 90 142 62 90 142 62 90 88 38 90 88 38 90 88 38 90 88 38 34 88 38 34 88 50 34 106 50 34 106 50 34 106 50 34 106 50 34 106 62 48 106 62 48 124 62 48 124 62 48 124 62 48 124 38 48 124 38 48 124 38 62 142 38 62 142 38 62 142 50 62 142 50 62 142 50 62 142 50 62 88 50 76 88 62 76 88 62 76 88 62 76 88 62 76 88 62 76 106 38 76 106 38 90 106 38 90 106 38 90 106 38 90 106 50 90 124 50 90 124 50 90 124 50 34 124 50 34 124 62 34 124 62 34 142 62 34 142 62 34 142 62 34 142 38 48 142 38 48 142 38 48 88 38 48 88 38 48 88 50 48 88 50 48 88 50 62 88 50 62 106 50 62 106 62 62 106 62 62 106 62 62 106 62 62 106 62 76 124 38 76 124 38 76 124 38 76 124 38 76 124 38 76 124 50 76 142 50 90 142 50 90 142 50 90 142 50 90 142 62 90 142 62 90 88 62 90 88 62 34 88 62 34 88 38 34 88 38 34 88 38 34 106 38 34 106 38 34 106 50 48 106 50 48 106 50 48 106 50 48 124 50 48 124 62 48 124 62 48 124 62 62 124 62 62 124 62 62 142 38 62 142 38 62 142 38 62 142 38 62 142 38 76 142 50 76 88 50 76 88 50 76 88 50 76 88 50 76 88 62 76 88 62 90 106 62 90 106 62 90 106 62 90 106 38 90 106 38 90 106 38 90 124 38 34 124 38 34 124 50 34 124 50 34 124 50 34 124 50 34 142 50 34 142 62 48 142 62 48 142 62 48 142 62 48 142 62 48 88 38 48 88 38 48 88 38 62 88 38 62 88 38 62 88 50 62 106 50 62 106 50 62 106 50 62 106 50 76 106 62 76 106 62 76 124 62 76 124 62 76 124 62 76 124 38 76 124 38 90 124 38 90 142 38 90 142 38 90 142 50 90 142 50 90 142 50 90 142 50 34 88 50 34 88 62 34 88 62 34 88 62 34 88 62 34 88 62 34 106 38 48 106 38 48 106 38 48 106 38 48 106 38 48 106 50 48 124 50 48 124 50 62 124 50 62 124 50 62 124 62 62 124 62 62 142 62 62 142 62 62 142 62 76 142 38 76 142 38 76 142 38 76 88 38 76 88 38
90 142 38 90 142 38 90 142 38 90 142 38 90 142 38 90 142 50 90 88 50 34 88 50 34 88 50 34 88 50 34 88 62 34 88 62 34 106 62 34 106 62 48 106 62 48 106 38 48 106 38 48 106 38 48 124 38 48 124 38 48 124 50 62 124 50 62 124 50 62 124 50 62 142 50 62 142 62 62 142 62 62 142 62 76 142 62 76 142 62 76 88 38 76 88 38 76 88 38 76 88 38 76 88 38 90 88 50 90 106 50 90 106 50 90 106 50 90 106 50 90 106 62 90 106 62 34 124 62 34 124 62 34 124 62 34 124 38 34 124 38 34 124 38 34 142 38 48 142 38 48 142 50 48 142 50 48 142 50 48 142 50 48 88 50 48 88 62 62 88 62 62 88 62 62 88 62 62 88 62 62 106 38 62 106 38 62 106 38 76 106 38 76 106 38 76 106 50 76 124 50 76 124 50 76 124 50 76 124 50 90 124 62 90 124 62 90 142 62 90 142 62 90 142 62 90 142 38 90 142 38 34 142 38 34 88 38 34 88 38 34 88 50 34 88 50 34 88 50 34 88 50 48 106 50 48 106 62 48 106 62 48 106 62 48 106 62 48 106 62 48 124 38 62 124 38 62 124 38 62 124 38 62 124 38 62 124 50 62 142 50 62 142 50 76 142 50 76 142 50 76 142 62 76 142 62 76 88 62 76 88 62 76 88 62 90 88 38 90 88 38 90 88 38 90 106 38 90 106 38 90 106 50 90 106 50 34 106 50 34 106 50 34 124 50 34 124 62 34 124 62 34 124 62 34 124 62 48 124 62 48 142 38 48 142 38 48 142 38 48 142 38 48 142 38 48 142 50 62 88 50 62 88 50 62 88 50 62 88 50 62 88 62 62 88 62 62 106 62 76 106 62 76 106 62 76 106 38 76 106 38 76 106 38 76 124 38 76 124 38 90 124 50 90 124 50 90 124 50 90 124 50 90 142 50 90 142 62 90 142 62 34 142 62 34 142 62 34 142 62 34 88 38 34 88 38 34 88 38 34 88 38 48 88 38 48 88 50 48 106 50 48 106 50 48 106 50 48 106 50 48 106 62 62 106 62 62 124 62 62 124 62 62 124 62 62 124 38 62 124 38 62 124 38 76 142 38 76 142 38 76 142 50 76 142 50 76 142 50 76 142 50 76 88 50 90 88 62 90 88 62 90 88 62 90 88 62 90 88 62 90 106 38 90 106 38 34 106 38 34 106 38 34 106 38 34 106 50 34 124 50 34 124 50 34 124 50 48 124 50 48 124 62 48 124 62 48 142 62 48 142 62 48 142 62 48 142 38 62 142 38 62 142 38 62 88 38 62 88 38 62 88 50 62 88 50 62 88 50 76 88 50 76 106 50 76 106 62 76 106 62 76 106 62 76 106 62 76 106 62 90 124 38 90 124 38 90 124 38 90 124 38 90 124 38 90 124 50 90 142 50 34 142 50 34 142 50 34 142 50 34 142 62 34 142 62 34 88 62 34 88 62 48 88 62 48 88 38 48 88 38 48 88 38 48 106 38 48 106 38 48 106 50 62 106 50 62 106 50 62 106 50 62 124 50 62 124 62 62 124 62 62 124 62 76 124 62 76 124 62 76 142 38 76 142 38 76 142 38 76 142 38 76 142 38 90 142 50 90 88 50 90 88 50 90 88 50 90 88 50 90 88 62 90 88 62 34 106 62 34 106 62 34 106 62 34 106 38 34 106 38 34 106 38 34 124 38 48 124 38 48 124 50 48 124 50 48 124 50 48 124 50 48 142 50 48 142 62 62 142 62 62 142 62 62 142 62 62 142 62 62 88 38 62 88 38 62 88 38 76 88 38 76 88 38 76 88 50 76 106 50 76 106 50 76 106 50 76 106 50 90 106 62 90 106 62 90 124 62 90 124 62 90 124 62 90 124 38 90 124 38 34 124 38 34 142 38 34 142 38 34 142 50 34 142 50 34 142 50 34 142 50 48 88 50 48 88 62 48 88 62 48 88 62 48 88 62 48 88 62 48 106 38 62 106 38 62 106 38 62 106 38 62 106 38 62 106 50 62 124 50 62 124 50 76 124 50 76 124 50 76 124 62 76 124 62 76 142 62 76 142 62 76 142 62 90 142 38 90 142 38 90 142 38 90 88 38 90 88 38
90 142 38 90 142 38 90 142 38 90 142 38 90 142 38 90 142 50 90 88 50 34 88 50 34 88 50 34 88 50 34 88 62 34 88 62 34 106 62 34 106 62 48 106 62 48 106 38 48 106 38 48 106 38 48 124 38 48 124 38 48 124 50 62 124 50 62 124 50 62 124 50 62 142 50 62 142 62 62 142 62 62 142 62 76 142 62 76 142 62 76 88 38 76 88 38 76 88 38 76 88 38 76 88 38 90 88 50 90 106 50 90 106 50 90 106 50 90 106 50 90 106 62 90 106 62 34 124 62 34 124 62 34 124 62 34 124 38 34 124 38 34 124 38 34 142 38 48 142 38 48 142 50 48 142 50 48 142 50 48 142 50 48 88 50 48 88 62 62 88 62 62 88 62 62 88 62 62 88 62 62 106 38 62 106 38 62 106 38 76 106 38 76 106 38 76 106 50 76 124 50 76 124 50 76 124 50 76 124 50 90 124 62 90 124 62 90 142 62 90 142 62 90 142 62 90 142 38 90 142 38 34 142 38 34 88 38 34 88 38 34 88 50 34 88 50 34 88 50 34 88 50 48 106 50 48 106 62 48 106 62 48 106 62 48 106 62 48 106 62 48 124 38 62 124 38 62 124 38 62 124 38 62 124 38 62 124 50 62 142 50 62 142 50 76 142 50 76 142 50 76 142 62 76 142 62 76 88 62 76 88 62 76 88 62 90 88 38 90 88 38 90 88 38 90 106 38 90 106 38 90 106 50 90 106 50 34 106 50 34 106 50 34 124 50 34 124 62 34 124 62 34 124 62 34 124 62 48 124 62 48 142 38 48 142 38 48 142 38 48 142 38 48 142 38 48 142 50 62 88 50 62 88 50 62 88 50 62 88 50 62 88 62 62 88 62 62 106 62 76 106 62 76 106 62 76 106 38 76 106 38 76 106 38 76 124 38 76 124 38 90 124 50 90 124 50 90 124 50 90 124 50 90 142 50 90 142 62 90 142 62 34 142 62 34 142 62 34 142 62 34 88 38 34 88 38 34 88 38 34 88 38 48 88 38 48 88 50 48 106 50 48 106 50 48 106 50 48 106 50 48 106 62 62 106 62 62 124 62 62 124 62 62 124 62 62 124 38 62 124 38 62 124 38 76 142 38 76 142 38 76 142 50 76 142 50 76 142 50 76 142 50 76 88 50 90 88 62 90 88 62 90 88 62 90 88 62 90 88 62 90 106 38 90 106 38 34 106 38 34 106 38 34 106 38 34 106 50 34 124 50 34 124 50 34 124 50 48 124 50 48 124 62 48 124 62 48 142 62 48 142 62 48 142 62 48 142 38 62 142 38 62 142 38 62 88 38 62 88 38 62 88 50 62 88 50 62 88 50 76 88 50 76 106 50 76 106 62 76 106 62 76 106 62 76 106 62 76 106 62 90 124 38 90 124 38 90 124 38 90 124 38 90 124 38 90 124 50 90 142 50 34 142 50 34 142 50 34 142 50 34 142 62 34 142 62 34 88 62 34 88 62 48 88 62 48 88 38 48 88 38 48 88 38 48 106 38 48 106 38 48 106 50 62 106 50 62 106 50 62 106 50 62 124 50 62 124 62 62 124 62 62 124 62 76 124 62 76 124 62 76 142 38 76 142 38 76 142 38 76 142 38 76 142 38 90 142 50 90 88 50 90 88 50 90 88 50 90 88 50 90 88 62 90 88 62 34 106 62 34 106 62 34 106 62 34 106 38 34 106 38 34 106 38 34 124 38 48 124 38 48 124 50 48 124 50 48 124 50 48 124 50 48 142 50 48 142 62 62 142 62 62 142 62 62 142 62 62 142 62 62 88 38 62 88 38 62 88 38 76 88 38 76 88 38 76 88 50 76 106 50 76 106 50 76 106 50 76 106 50 90 106 62 90 106 62 90 124 62 90 124 62 90 124 62 90 124 38 90 124 38 34 124 38 34 142 38 34 142 38 34 142 50 34 142 50 34 142 50 34 142 50 48 88 50 48 88 62 48 88 62 48 88 62 48 88 62 48 88 62 48 106 38 62 106 38 62 106 38 62 106 38 62 106 38 62 106 50 62 124 50 62 124 50 76 124 50 76 124 50 76 124 62 76 124 62 76 142 62 76 142 62 76 142 62 90 142 38 90 142 38 90 142 38 90 88 38 90 88 38
90 142 38 90 142 38 90 142 38 90 142 38 90 142 38 90 142 50 90 88 50 34 88 50 34 88 50 34 88 50 34 88 62 34 88 62 34 106 62 34 106 62 48 106 62 48 106 38 48 106 38 48 106 38 48 124 38 48 124 38 48 124 50 62 124 50 62 124 50 62 124 50 62 142 50 62 142 62 62 142 62 62 142 62 76 142 62 76 142 62 76 88 38 76 88 38 76 88 38 76 88 38 76 88 38 90 88 50 90 106 50 90 106 50 90 106 50 90 106 50 90 106 62 90 106 62 34 124 62 34 124 62 34 124 62 34 124 38 34 124 38 34 124 38 34 142 38 48 142 38 48 142 50 48 142 50 48 142 50 48 142 50 48 88 50 48 88 62 62 88 62 62 88 62 62 88 62 62 88 62 62 106 38 62 106 38 62 106 38 76 106 38 76 106 38 76 106 50 76 124 50 76 124 50 76 124 50 76 124 50 90 124 62 90 124 62 90 142 62 90 142 62 90 142 62 90 142 38 90 142 38 34 142 38 34 88 38 34 88 38 34 88 50 34 88 50 34 88 50 34 88 50 48 106 50 48 106 62 48 106 62 48 106 62 48 106 62 48 106 62 48 124 38 62 124 38 62 124 38 62 124 38 62 124 38 62 124 50 62 142 50 62 142 50 76 142 50 76 142 50 76 142 62 76 142 62 76 88 62 76 88 62 76 88 62 90 88 38 90 88 38 90 88 38 90 106 38 90 106 38 90 106 50 90 106 50 34 106 50 34 106 50 34 124 50 34 124 62 34 124 62 34 124 62 34 124 62 48 124 62 48 142 38 48 142 38 48 142 38 48 142 38 48 142 38 48 142 50 62 88 50 62 88 50 62 88 50 62 88 50 62 88 62 62 88 62 62 106 62 76 106 62 76 106 62 76 106 38 76 106 38 76 106 38 76 124 38 76 124 38 90 124 50 90 124 50 90 124 50 90 124 50 90 142 50 90 142 62 90 142 62 34 142 62 34 142 62 34 142 62 34 88 38 34 88 38 34 88 38 34 88 38 48 88 38 48 88 50 48 106 50 48 106 50 48 106 50 48 106 50 48 106 62 62 106 62 62 124 62 62 124 62 62 124 62 62 124 38 62 124 38 62 124 38 76 142 38 76 142 38 76 142 50 76 142 50 76 142 50 76 142 50 76 88 50 90 88 62 90 88 62 90 88 62 90 88 62 90 88 62 90 106 38 90 106 38 34 106 38 34 106 38 34 106 38 34 106 50 34 124 50 34 124 50 34 124 50 48 124 50 48 124 62 48 124 62 48 142 62 48 142 62 48 142 62 48 142 38 62 142 38 62 142 38 62 88 38 62 88 38 62 88 50 62 88 50 62 88 50 76 88 50 76 106 50 76 106 62 76 106 62 76 106 62 76 106 62 76 106 62 90 124 38 90 124 38 90 124 38 90 124 38 90 124 38 90 124 50 90 142 50 34 142 50 34 142 50 34 142 50 34 142 62 34 142 62 34 88 62 34 88 62 48 88 62 48 88 38 48 88 38 48 88 38 48 106 38 48 106 38 48 106 50 62 106 50 62 106 50 62 106 50 62 124 50 62 124 62 62 124 62 62 124 62 76 124 62 76 124 62 76 142 38 76 142 38 76 142 38 76 142 38 76 142 38 90 142 50 90 88 50 90 88 50 90 88 50 90 88 50 90 88 62 90 88 62 34 106 62 34 106 62 34 106 62 34 106 38 34 106 38 34 106 38 34 124 38 48 124 38 48 124 50 48 124 50 48 124 50 48 124 50 48 142 50 48 142 62 62 142 62 62 142 62 62 142 62 62 142 62 62 88 38 62 88 38 62 88 38 76 88 38 76 88 38 76 88 50 76 106 50 76 106 50 76 106 50 76 106 50 90 106 62 90 106 62 90 124 62 90 124 62 90 124 62 90 124 38 90 124 38 34 124 38 34 142 38 34 142 38 34 142 50 34 142 50 34 142 50 34 142 50 48 88 50 48 88 62 48 88 62 48 88 62 48 88 62 48 88 62 48 106 38 62 106 38 62 106 38 62 106 38 62 106 38 62 106 50 62 124 50 62 124 50 76 124 50 76 124 50 76 124 62 76 124 62 76 142 62 76 142 62 76 142 62 90 142 38 90 142 38 90 142 38 90 88 38 90 88 38
90 142 38 90 142 38 90 142 38 90 142 38 90 142 38 90 142 50 90 88 50 34 88 50 34 88 50 34 88 50 34 88 62 34 88 62 34 106 62 34 106 62 48 106 62 48 106 38 48 106 38 48 106 38 48 124 38 48 124 38 48 124 50 62 124 50 62 124 50 62 124 50 62 142 50 62 142 62 62 142 62 62 142 62 76 142 62 76 142 62 76 88 38 76 88 38 76 88 38 76 88 38 76 88 38 90 88 50 90 106 50 90 106 50 90 106 50 90 106 50 90 106 62 90 106 62 34 124 62 34 124 62 34 124 62 34 124 38 34 124 38 34 124 38 34 142 38 48 142 38 48 142 50 48 142 50 48 142 50 48 142 50 48 88 50 48 88 62 62 88 62 62 88 62 62 88 62 62 88 62 62 106 38 62 106 38 62 106 38 76 106 38 76 106 38 76 106 50 76 124 50 76 124 50 76 124 50 76 124 50 90 124 62 90 124 62 90 142 62 90 142 62 90 142 62 90 142 38 90 142 38 34 142 38 34 88 38 34 88 38 34 88 50 34 88 50 34 88 50 34 88 50 48 106 50 48 106 62 48 106 62 48 106 62 48 106 62 48 106 62 48 124 38 62 124 38 62 124 38 62 124 38 62 124 38 62 124 50 62 142 50 62 142 50 76 142 50 76 142 50 76 142 62 76 142 62 76 88 62 76 88 62 76 88 62 90 88 38 90 88 38 90 88 38 90 106 38 90 106 38 90 106 50 90 106 50 34 106 50 34 106 50 34 124 50 34 124 62 34 124 62 34 124 62 34 124 62 48 124 62 48 142 38 48 142 38 48 142 38 48 142 38 48 142 38 48 142 50 62 88 50 62 88 50 62 88 50 62 88 50 62 88 62 62 88 62 62 106 62 76 106 62 76 106 62 76 106 38 76 106 38 76 106 38 76 124 38 76 124 38 90 124 50 90 124 50 90 124 50 90 124 50 90 142 50 90 142 62 90 142 62 34 142 62 34 142 62 34 142 62 34 88 38 34 88 38 34 88 38 34 88 38 48 88 38 48 88 50 48 106 50 48 106 50 48 106 50 48 106 50 48 106 62 62 106 62 62 124 62 62 124 62 62 124 62 62 124 38 62 124 38 62 124 38 76 142 38 76 142 38 76 142 50 76 142 50 76 142 50 76 142 50 76 88 50 90 88 62 90 88 62 90 88 62 90 88 62 90 88 62 90 106 38 90 106 38 34 106 38 34 106 38 34 106 38 34 106 50 34 124 50 34 124 50 34 124 50 48 124 50 48 124 62 48 124 62 48 142 62 48 142 62 48 142 62 48 142 38 62 142 38 62 142 38 62 88 38 62 88 38 62 88 50 62 88 50 62 88 50 76 88 50 76 106 50 76 106 62 76 106 62 76 106 62 76 106 62 76 106 62 90 124 38 90 124 38 90 124 38 90 124 38 90 124 38 90 124 50 90 142 50 34 142 50 34 142 50 34 142 50 34 142 62 34 142 62 34 88 62 34 88 62 48 88 62 48 88 38 48 88 38 48 88 38 48 106 38 48 106 38 48 106 50 62 106 50 62 106 50 62 106 50 62 124 50 62 124 62 62 124 62 62 124 62 76 124 62 76 124 62 76 142 38 76 142 38 76 142 38 76 142 38 76 142 38 90 142 50 90 88 50 90 88 50 90 88 50 90 88 50 90 88 62 90 88 62 34 106 62 34 106 62 34 106 62 34 106 38 34 106 38 34 106 38 34 124 38 48 124 38 48 124 50 48 124 50 48 124 50 48 124 50 48 142 50 48 142 62 62 142 62 62 142 62 62 142 62 62 142 62 62 88 38 62 88 38 62 88 38 76 88 38 76 88 38 76 88 50 76 106 50 76 106 50 76 106 50 76 106 50 90 106 62 90 106 62 90 124 62 90 124 62 90 124 62 90 124 38 90 124 38 34 124 38 34 142 38 34 142 38 34 142 50 34 142 50 34 142 50 34 142 50 48 88 50 48 88 62 48 88 62 48 88 62 48 88 62 48 88 62 48 106 38 62 106 38 62 106 38 62 106 38 62 106 38 62 106 50 62 124 50 62 124 50 76 124 50 76 124 50 76 124 62 76 124 62 76 142 62 76 142 62 76 142 62 90 142 38 90 142 38 90 142 38 90 88 38 90 88 38
90 88 50 90 88 50 90 88 50 90 88 50 90 88 50 90 88 62 90 106 62 34 106 62 34 106 62 34 106 62 34 106 38 34 106 38 34 124 38 34 124 38 48 124 38 48 124 50 48 124 50 48 124 50 48 142 50 48 142 50 48 142 62 62 142 62 62 142 62 62 142 62 62 88 62 62 88 38 62 88 38 62 88 38 76 88 38 76 88 38 76 106 50 76 106 50 76 106 50 76 106 50 76 106 50 90 106 62 90 124 62 90 124 62 90 124 62 90 124 62 90 124 38 90 124 38 34 142 38 34 142 38 34 142 38 34 142 50 34 142 50 34 142 50 34 88 50 48 88 50 48 88 62 48 88 62 48 88 62 48 88 62 48 106 62 48 106 38 62 106 38 62 106 38 62 106 38 62 106 38 62 124 50 62 124 50 62 124 50 76 124 50 76 124 50 76 124 62 76 142 62 76 142 62 76 142 62 76 142 62 90 142 38 90 142 38 90 88 38 90 88 38 90 88 38 90 88 50 90 88 50 34 88 50 34 106 50 34 106 50 34 106 62 34 106 62 34 106 62 34 106 62 48 124 62 48 124 38 48 124 38 48 124 38 48 124 38 48 124 38 48 142 50 62 142 50 62 142 50 62 142 50 62 142 50 62 142 62 62 88 62 62 88 62 76 88 62 76 88 62 76 88 38 76 88 38 76 106 38 76 106 38 76 106 38 90 106 50 90 106 50 90 106 50 90 124 50 90 124 50 90 124 62 90 124 62 34 124 62 34 124 62 34 142 62 34 142 38 34 142 38 34 142 38 34 142 38 48 142 38 48 88 50 48 88 50 48 88 50 48 88 50 48 88 50 48 88 62 62 106 62 62 106 62 62 106 62 62 106 62 62 106 38 62 106 38 62 124 38 76 124 38 76 124 38 76 124 50 76 124 50 76 124 50 76 142 50 76 142 50 90 142 62 90 142 62 90 142 62 90 142 62 90 88 62 90 88 38 90 88 38 34 88 38 34 88 38 34 88 38 34 106 50 34 106 50 34 106 50 34 106 50 48 106 50 48 106 62 48 124 62 48 124 62 48 124 62 48 124 62 48 124 38 62 124 38 62 142 38 62 142 38 62 142 38 62 142 50 62 142 50 62 142 50 76 88 50 76 88 50 76 88 62 76 88 62 76 88 62 76 88 62 76 106 62 90 106 38 90 106 38 90 106 38 90 106 38 90 106 38 90 124 50 90 124 50 34 124 50 34 124 50 34 124 50 34 124 62 34 142 62 34 142 62 34 142 62 48 142 62 48 142 38 48 142 38 48 88 38 48 88 38 48 88 38 48 88 50 62 88 50 62 88 50 62 106 50 62 106 50 62 106 62 62 106 62 62 106 62 76 106 62 76 124 62 76 124 38 76 124 38 76 124 38 76 124 38 76 124 38 90 142 50 90 142 50 90 142 50 90 142 50 90 142 50 90 142 62 90 88 62 34 88 62 34 88 62 34 88 62 34 88 38 34 88 38 34 106 38 34 106 38 48 106 38 48 106 50 48 106 50 48 106 50 48 124 50 48 124 50 48 124 62 62 124 62 62 124 62 62 124 62 62 142 62 62 142 38 62 142 38 62 142 38 76 142 38 76 142 38 76 88 50 76 88 50 76 88 50 76 88 50 76 88 50 90 88 62 90 106 62 90 106 62 90 106 62 90 106 62 90 106 38 90 106 38 34 124 38 34 124 38 34 124 38 34 124 50 34 124 50 34 124 50 34 142 50 48 142 50 48 142 62 48 142 62 48 142 62 48 142 62 48 88 62 48 88 38 62 88 38 62 88 38 62 88 38 62 88 38 62 106 50 62 106 50 62 106 50 76 106 50 76 106 50 76 106 62 76 124 62 76 124 62 76 124 62 76 124 62 90 124 38 90 124 38 90 142 38 90 142 38 90 142 38 90 142 50 90 142 50 34 142 50 34 88 50 34 88 50 34 88 62 34 88 62 34 88 62 34 88 62 48 106 62 48 106 38 48 106 38 48 106 38 48 106 38 48 106 38 48 124 50 62 124 50 62 124 50 62 124 50 62 124 50 62 124 62 62 142 62 62 142 62 76 142 62 76 142 62 76 142 38 76 142 38 76 88 38 76 88 38 76 88 38 90 88 50 90 88 50 90 88 50 90 106 50 90 106 50
34 88 50 34 88 50 34 88 50 34 88 50 34 88 50 34 88 62 34 106 62 48 106 62 48 106 62 48 106 62 48 106 38 48 106 38 48 124 38 48 124 38 62 124 38 62 124 50 62 124 50 62 124 50 62 142 50 62 142 50 62 142 62 76 142 62 76 142 62 76 142 62 76 88 62 76 88 38 76 88 38 76 88 38 90 88 38 90 88 38 90 106 50 90 106 50 90 106 50 90 106 50 90 106 50 34 106 62 34 124 62 34 124 62 34 124 62 34 124 62 34 124 38 34 124 38 48 142 38 48 142 38 48 142 38 48 142 50 48 142 50 48 142 50 48 88 50 62 88 50 62 88 62 62 88 62 62 88 62 62 88 62 62 106 62 62 106 38 76 106 38 76 106 38 76 106 38 76 106 38 76 124 50 76 124 50 76 124 50 90 124 50 90 124 50 90 124 62 90 142 62 90 142 62 90 142 62 90 142 62 34 142 38 34 142 38 34 88 38 34 88 38 34 88 38 34 88 50 34 88 50 48 88 50 48 106 50 48 106 50 48 106 62 48 106 62 48 106 62 48 106 62 62 124 62 62 124 38 62 124 38 62 124 38 62 124 38 62 124 38 62 142 50 76 142 50 76 142 50 76 142 50 76 142 50 76 142 62 76 88 62 76 88 62 90 88 62 90 88 62 90 88 38 90 88 38 90 106 38 90 106 38 90 106 38 34 106 50 34 106 50 34 106 50 34 124 50 34 124 50 34 124 62 34 124 62 48 124 62 48 124 62 48 142 62 48 142 38 48 142 38 48 142 38 48 142 38 62 142 38 62 88 50 62 88 50 62 88 50 62 88 50 62 88 50 62 88 62 76 106 62 76 106 62 76 106 62 76 106 62 76 106 38 76 106 38 76 124 38 90 124 38 90 124 38 90 124 50 90 124 50 90 124 50 90 142 50 90 142 50 34 142 62 34 142 62 34 142 62 34 142 62 34 88 62 34 88 38 34 88 38 48 88 38 48 88 38 48 88 38 48 106 50 48 106 50 48 106 50 48 106 50 62 106 50 62 106 62 62 124 62 62 124 62 62 124 62 62 124 62 62 124 38 76 124 38 76 142 38 76 142 38 76 142 38 76 142 50 76 142 50 76 142 50 90 88 50 90 88 50 90 88 62 90 88 62 90 88 62 90 88 62 90 106 62 34 106 38 34 106 38 34 106 38 34 106 38 34 106 38 34 124 50 34 124 50 48 124 50 48 124 50 48 124 50 48 124 62 48 142 62 48 142 62 48 142 62 62 142 62 62 142 38 62 142 38 62 88 38 62 88 38 62 88 38 62 88 50 76 88 50 76 88 50 76 106 50 76 106 50 76 106 62 76 106 62 76 106 62 90 106 62 90 124 62 90 124 38 90 124 38 90 124 38 90 124 38 90 124 38 34 142 50 34 142 50 34 142 50 34 142 50 34 142 50 34 142 62 34 88 62 48 88 62 48 88 62 48 88 62 48 88 38 48 88 38 48 106 38 48 106 38 62 106 38 62 106 50 62 106 50 62 106 50 62 124 50 62 124 50 62 124 62 76 124 62 76 124 62 76 124 62 76 142 62 76 142 38 76 142 38 76 142 38 90 142 38 90 142 38 90 88 50 90 88 50 90 88 50 90 88 50 90 88 50 34 88 62 34 106 62 34 106 62 34 106 62 34 106 62 34 106 38 34 106 38 48 124 38 48 124 38 48 124 38 48 124 50 48 124 50 48 124 50 48 142 50 62 142 50 62 142 62 62 142 62 62 142 62 62 142 62 62 88 62 62 88 38 76 88 38 76 88 38 76 88 38 76 88 38 76 106 50 76 106 50 76 106 50 90 106 50 90 106 50 90 106 62 90 124 62 90 124 62 90 124 62 90 124 62 34 124 38 34 124 38 34 142 38 34 142 38 34 142 38 34 142 50 34 142 50 48 142 50 48 88 50 48 88 50 48 88 62 48 88 62 48 88 62 48 88 62 62 106 62 62 106 38 62 106 38 62 106 38 62 106 38 62 106 38 62 124 50 76 124 50 76 124 50 76 124 50 76 124 50 76 124 62 76 142 62 76 142 62 90 142 62 90 142 62 90 142 38 90 142 38 90 88 38 90 88 38 90 88 38 34 88 50 34 88 50 34 88 50 34 106 50 34 106 50
34 88 50 34 88 50 34 88 50 34 88 50 34 88 50 34 88 62 34 106 62 48 106 62 48 106 62 48 106 62 48 106 38 48 106 38 48 124 38 48 124 38 62 124 38 62 124 50 62 124 50 62 124 50 62 142 50 62 142 50 62 142 62 76 142 62 76 142 62 76 142 62 76 88 62 76 88 38 76 88 38 76 88 38 90 88 38 90 88 38 90 106 50 90 106 50 90 106 50 90 106 50 90 106 50 34 106 62 34 124 62 34 124 62 34 124 62 34 124 62 34 124 38 34 124 38 48 142 38 48 142 38 48 142 38 48 142 50 48 142 50 48 142 50 48 88 50 62 88 50 62 88 62 62 88 62 62 88 62 62 88 62 62 106 62 62 106 38 76 106 38 76 106 38 76 106 38 76 106 38 76 124 50 76 124 50 76 124 50 90 124 50 90 124 50 90 124 62 90 142 62 90 142 62 90 142 62 90 142 62 34 142 38 34 142 38 34 88 38 34 88 38 34 88 38 34 88 50 34 88 50 48 88 50 48 106 50 48 106 50 48 106 62 48 106 62 48 106 62 48 106 62 62 124 62 62 124 38 62 124 38 62 124 38 62 124 38 62 124 38 62 142 50 76 142 50 76 142 50 76 142 50 76 142 50 76 142 62 76 88 62 76 88 62 90 88 62 90 88 62 90 88 38 90 88 38 90 106 38 90 106 38 90 106 38 34 106 50 34 106 50 34 106 50 34 124 50 34 124 50 34 124 62 34 124 62 48 124 62 48 124 62 48 142 62 48 142 38 48 142 38 48 142 38 48 142 38 62 142 38 62 88 50 62 88 50 62 88 50 62 88 50 62 88 50 62 88 62 76 106 62 76 106 62 76 106 62 76 106 62 76 106 38 76 106 38 76 124 38 90 124 38 90 124 38 90 124 50 90 124 50 90 124 50 90 142 50 90 142 50 34 142 62 34 142 62 34 142 62 34 142 62 34 88 62 34 88 38 34 88 38 48 88 38 48 88 38 48 88 38 48 106 50 48 106 50 48 106 50 48 106 50 62 106 50 62 106 62 62 124 62 62 124 62 62 124 62 62 124 62 62 124 38 76 124 38 76 142 38 76 142 38 76 142 38 76 142 50 76 142 50 76 142 50 90 88 50 90 88 50 90 88 62 90 88 62 90 88 62 90 88 62 90 106 62 34 106 38 34 106 38 34 106 38 34 106 38 34 106 38 34 124 50 34 124 50 48 124 50 48 124 50 48 124 50 48 124 62 48 142 62 48 142 62 48 142 62 62 142 62 62 142 38 62 142 38 62 88 38 62 88 38 62 88 38 62 88 50 76 88 50 76 88 50 76 106 50 76 106 50 76 106 62 76 106 62 76 106 62 90 106 62 90 124 62 90 124 38 90 124 38 90 124 38 90 124 38 90 124 38 34 142 50 34 142 50 34 142 50 34 142 50 34 142 50 34 142 62 34 88 62 48 88 62 48 88 62 48 88 62 48 88 38 48 88 38 48 106 38 48 106 38 62 106 38 62 106 50 62 106 50 62 106 50 62 124 50 62 124 50 62 124 62 76 124 62 76 124 62 76 124 62 76 142 62 76 142 38 76 142 38 76 142 38 90 142 38 90 142 38 90 88 50 90 88 50 90 88 50 90 88 50 90 88 50 34 88 62 34 106 62 34 106 62 34 106 62 34 106 62 34 106 38 34 106 38 48 124 38 48 124 38 48 124 38 48 124 50 48 124 50 48 124 50 48 142 50 62 142 50 62 142 62 62 142 62 62 142 62 62 142 62 62 88 62 62 88 38 76 88 38 76 88 38 76 88 38 76 88 38 76 106 50 76 106 50 76 106 50 90 106 50 90 106 50 90 106 62 90 124 62 90 124 62 90 124 62 90 124 62 34 124 38 34 124 38 34 142 38 34 142 38 34 142 38 34 142 50 34 142 50 48 142 50 48 88 50 48 88 50 48 88 62 48 88 62 48 88 62 48 88 62 62 106 62 62 106 38 62 106 38 62 106 38 62 106 38 62 106 38 62 124 50 76 124 50 76 124 50 76 124 50 76 124 50 76 124 62 76 142 62 76 142 62 90 142 62 90 142 62 90 142 38 90 142 38 90 88 38 90 88 38 90 88 38 34 88 50 34 88 50 34 88 50 34 106 50 34 106 50
34 88 50 34 88 50 34 88 50 34 88 50 34 88 50 34 88 62 34 106 62 48 106 62 48 106 62 48 106 62 48 106 38 48 106 38 48 124 38 48 124 38 62 124 38 62 124 50 62 124 50 62 124 50 62 142 50 62 142 50 62 142 62 76 142 62 76 142 62 76 142 62 76 88 62 76 88 38 76 88 38 76 88 38 90 88 38 90 88 38 90 106 50 90 106 50 90 106 50 90 106 50 90 106 50 34 106 62 34 124 62 34 124 62 34 124 62 34 124 62 34 124 38 34 124 38 48 142 38 48 142 38 48 142 38 48 142 50 48 142 50 48 142 50 48 88 50 62 88 50 62 88 62 62 88 62 62 88 62 62 88 62 62 106 62 62 106 38 76 106 38 76 106 38 76 106 38 76 106 38 76 124 50 76 124 50 76 124 50 90 124 50 90 124 50 90 124 62 90 142 62 90 142 62 90 142 62 90 142 62 34 142 38 34 142 38 34 88 38 34 88 38 34 88 38 34 88 50 34 88 50 48 88 50 48 106 50 48 106 50 48 106 62 48 106 62 48 106 62 48 106 62 62 124 62 62 124 38 62 124 38 62 124 38 62 124 38 62 124 38 62 142 50 76 142 50 76 142 50 76 142 50 76 142 50 76 142 62 76 88 62 76 88 62 90 88 62 90 88 62 90 88 38 90 88 38 90 106 38 90 106 38 90 106 38 34 106 50 34 106 50 34 106 50 34 124 50 34 124 50 34 124 62 34 124 62 48 124 62 48 124 62 48 142 62 48 142 38 48 142 38 48 142 38 48 142 38 62 142 38 62 88 50 62 88 50 62 88 50 62 88 50 62 88 50 62 88 62 76 106 62 76 106 62 76 106 62 76 106 62 76 106 38 76 106 38 76 124 38 90 124 38 90 124 38 90 124 50 90 124 50 90 124 50 90 142 50 90 142 50 34 142 62 34 142 62 34 142 62 34 142 62 34 88 62 34 88 38 34 88 38 48 88 38 48 88 38 48 88 38 48 106 50 48 106 50 48 106 50 48 106 50 62 106 50 62 106 62 62 124 62 62 124 62 62 124 62 62 124 62 62 124 38 76 124 38 76 142 38 76 142 38 76 142 38 76 142 50 76 142 50 76 142 50 90 88 50 90 88 50 90 88 62 90 88 62 90 88 62 90 88 62 90 106 62 34 106 38 34 106 38 34 106 38 34 106 38 34 106 38 34 124 50 34 124 50 48 124 50 48 124 50 48 124 50 48 124 62 48 142 62 48 142 62 48 142 62 62 142 62 62 142 38 62 142 38 62 88 38 62 88 38 62 88 38 62 88 50 76 88 50 76 88 50 76 106 50 76 106 50 76 106 62 76 106 62 76 106 62 90 106 62 90 124 62 90 124 38 90 124 38 90 124 38 90 124 38 90 124 38 34 142 50 34 142 50 34 142 50 34 142 50 34 142 50 34 142 62 34 88 62 48 88 62 48 88 62 48 88 62 48 88 38 48 88 38 48 106 38 48 106 38 62 106 38 62 106 50 62 106 50 62 106 50 62 124 50 62 124 50 62 124 62 76 124 62 76 124 62 76 124 62 76 142 62 76 142 38 76 142 38 76 142 38 90 142 38 90 142 38 90 88 50 90 88 50 90 88 50 90 88 50 90 88 50 34 88 62 34 106 62 34 106 62 34 106 62 34 106 62 34 106 38 34 106 38 48 124 38 48 124 38 48 124 38 48 124 50 48 124 50 48 124 50 48 142 50 62 142 50 62 142 62 62 142 62 62 142 62 62 142 62 62 88 62 62 88 38 76 88 38 76 88 38 76 88 38 76 88 38 76 106 50 76 106 50 76 106 50 90 106 50 90 106 50 90 106 62 90 124 62 90 124 62 90 124 62 90 124 62 34 124 38 34 124 38 34 142 38 34 142 38 34 142 38 34 142 50 34 142 50 48 142 50 48 88 50 48 88 50 48 88 62 48 88 62 48 88 62 48 88 62 62 106 62 62 106 38 62 106 38 62 106 38 62 106 38 62 106 38 62 124 50 76 124 50 76 124 50 76 124 50 76 124 50 76 124 62 76 142 62 76 142 62 90 142 62 90 142 62 90 142 38 90 142 38 90 88 38 90 88 38 90 88 38 34 88 50 34 88 50 34 88 50 34 106 50 34 106 50
34 88 50 34 88 50 34 88 50 34 88 50 34 88 50 34 88 62 34 106 62 48 106 62 48 106 62 48 106 62 48 106 38 48 106 38 48 124 38 48 124 38 62 124 38 62 124 50 62 124 50 62 124 50 62 142 50 62 142 50 62 142 62 76 142 62 76 142 62 76 142 62 76 88 62 76 88 38 76 88 38 76 88 38 90 88 38 90 88 38 90 106 50 90 106 50 90 106 50 90 106 50 90 106 50 34 106 62 34 124 62 34 124 62 34 124 62 34 124 62 34 124 38 34 124 38 48 142 38 48 142 38 48 142 38 48 142 50 48 142 50 48 142 50 48 88 50 62 88 50 62 88 62 62 88 62 62 88 62 62 88 62 62 106 62 62 106 38 76 106 38 76 106 38 76 106 38 76 106 38 76 124 50 76 124 50 76 124 50 90 124 50 90 124 50 90 124 62 90 142 62 90 142 62 90 142 62 90 142 62 34 142 38 34 142 38 34 88 38 34 88 38 34 88 38 34 88 50 34 88 50 48 88 50 48 106 50 48 106 50 48 106 62 48 106 62 48 106 62 48 106 62 62 124 62 62 124 38 62 124 38 62 124 38 62 124 38 62 124 38 62 142 50 76 142 50 76 142 50 76 142 50 76 142 50 76 142 62 76 88 62 76 88 62 90 88 62 90 88 62 90 88 38 90 88 38 90 106 38 90 106 38 90 106 38 34 106 50 34 106 50 34 106 50 34 124 50 34 124 50 34 124 62 34 124 62 48 124 62 48 124 62 48 142 62 48 142 38 48 142 38 48 142 38 48 142 38 62 142 38 62 88 50 62 88 50 62 88 50 62 88 50 62 88 50 62 88 62 76 106 62 76 106 62 76 106 62 76 106 62 76 106 38 76 106 38 76 124 38 90 124 38 90 124 38 90 124 50 90 124 50 90 124 50 90 142 50 90 142 50 34 142 62 34 142 62 34 142 62 34 142 62 34 88 62 34 88 38 34 88 38 48 88 38 48 88 38 48 88 38 48 106 50 48 106 50 48 106 50 48 106 50 62 106 50 62 106 62 62 124 62 62 124 62 62 124 62 62 124 62 62 124 38 76 124 38 76 142 38 76 142 38 76 142 38 76 142 50 76 142 50 76 142 50 90 88 50 90 88 50 90 88 62 90 88 62 90 88 62 90 88 62 90 106 62 34 106 38 34 106 38 34 106 38 34 106 38 34 106 38 34 124 50 34 124 50 48 124 50 48 124 50 48 124 50 48 124 62 48 142 62 48 142 62 48 142 62 62 142 62 62 142 38 62 142 38 62 88 38 62 88 38 62 88 38 62 88 50 76 88 50 76 88 50 76 106 50 76 106 50 76 106 62 76 106 62 76 106 62 90 106 62 90 124 62 90 124 38 90 124 38 90 124 38 90 124 38 90 124 38 34 142 50 34 142 50 34 142 50 34 142 50 34 142 50 34 142 62 34 88 62 48 88 62 48 88 62 48 88 62 48 88 38 48 88 38 48 106 38 48 106 38 62 106 38 62 106 50 62 106 50 62 106 50 62 124 50 62 124 50 62 124 62 76 124 62 76 124 62 76 124 62 76 142 62 76 142 38 76 142 38 76 142 38 90 142 38 90 142 38 90 88 50 90 88 50 90 88 50 90 88 50 90 88 50 34 88 62 34 106 62 34 106 62 34 106 62 34 106 62 34 106 38 34 106 38 48 124 38 48 124 38 48 124 38 48 124 50 48 124 50 48 124 50 48 142 50 62 142 50 62 142 62 62 142 62 62 142 62 62 142 62 62 88 62 62 88 38 76 88 38 76 88 38 76 88 38 76 88 38 76 106 50 76 106 50 76 106 50 90 106 50 90 106 50 90 106 62 90 124 62 90 124 62 90 124 62 90 124 62 34 124 38 34 124 38 34 142 38 34 142 38 34 142 38 34 142 50 34 142 50 48 142 50 48 88 50 48 88 50 48 88 62 48 88 62 48 88 62 48 88 62 62 106 62 62 106 38 62 106 38 62 106 38 62 106 38 62 106 38 62 124 50 76 124 50 76 124 50 76 124 50 76 124 50 76 124 62 76 142 62 76 142 62 90 142 62 90 142 62 90 142 38 90 142 38 90 88 38 90 88 38 90 88 38 34 88 50 34 88 50 34 88 50 34 106 50 34 106 50
34 88 50 34 88 50 34 88 50 34 88 50 34 88 50 34 88 62 34 106 62 48 106 62 48 106 62 48 106 62 48 106 38 48 106 38 48 124 38 48 124 38 62 124 38 62 124 50 62 124 50 62 124 50 62 142 50 62 142 50 62 142 62 76 142 62 76 142 62 76 142 62 76 88 62 76 88 38 76 88 38 76 88 38 90 88 38 90 88 38 90 106 50 90 106 50 90 106 50 90 106 50 90 106 50 34 106 62 34 124 62 34 124 62 34 124 62 34 124 62 34 124 38 34 124 38 48 142 38 48 142 38 48 142 38 48 142 50 48 142 50 48 142 50 48 88 50 62 88 50 62 88 62 62 88 62 62 88 62 62 88 62 62 106 62 62 106 38 76 106 38 76 106 38 76 106 38 76 106 38 76 124 50 76 124 50 76 124 50 90 124 50 90 124 50 90 124 62 90 142 62 90 142 62 90 142 62 90 142 62 34 142 38 34 142 38 34 88 38 34 88 38 34 88 38 34 88 50 34 88 50 48 88 50 48 106 50 48 106 50 48 106 62 48 106 62 48 106 62 48 106 62 62 124 62 62 124 38 62 124 38 62 124 38 62 124 38 62 124 38 62 142 50 76 142 50 76 142 50 76 142 50 76 142 50 76 142 62 76 88 62 76 88 62 90 88 62 90 88 62 90 88 38 90 88 38 90 106 38 90 106 38 90 106 38 34 106 50 34 106 50 34 106 50 34 124 50 34 124 50 34 124 62 34 124 62 48 124 62 48 124 62 48 142 62 48 142 38 48 142 38 48 142 38 48 142 38 62 142 38 62 88 50 62 88 50 62 88 50 62 88 50 62 88 50 62 88 62 76 106 62 76 106 62 76 106 62 76 106 62 76 106 38 76 106 38 76 124 38 90 124 38 90 124 38 90 124 50 90 124 50 90 124 50 90 142 50 90 142 50 34 142 62 34 142 62 34 142 62 34 142 62 34 88 62 34 88 38 34 88 38 48 88 38 48 88 38 48 88 38 48 106 50 48 106 50 48 106 50 48 106 50 62 106 50 62 106 62 62 124 62 62 124 62 62 124 62 62 124 62 62 124 38 76 124 38 76 142 38 76 142 38 76 142 38 76 142 50 76 142 50 76 142 50 90 88 50 90 88 50 90 88 62 90 88 62 90 88 62 90 88 62 90 106 62 34 106 38 34 106 38 34 106 38 34 106 38 34 106 38 34 124 50 34 124 50 48 124 50 48 124 50 48 124 50 48 124 62 48 142 62 48 142 62 48 142 62 62 142 62 62 142 38 62 142 38 62 88 38 62 88 38 62 88 38 62 88 50 76 88 50 76 88 50 76 106 50 76 106 50 76 106 62 76 106 62 76 106 62 90 106 62 90 124 62 90 124 38 90 124 38 90 124 38 90 124 38 90 124 38 34 142 50 34 142 50 34 142 50 34 142 50 34 142 50 34 142 62 34 88 62 48 88 62 48 88 62 48 88 62 48 88 38 48 88 38 48 106 38 48 106 38 62 106 38 62 106 50 62 106 50 62 106 50 62 124 50 62 124 50 62 124 62 76 124 62 76 124 62 76 124 62 76 142 62 76 142 38 76 142 38 76 142 38 90 142 38 90 142 38 90 88 50 90 88 50 90 88 50 90 88 50 90 88 50 34 88 62 34 106 62 34 106 62 34 106 62 34 106 62 34 106 38 34 106 38 48 124 38 48 124 38 48 124 38 48 124 50 48 124 50 48 124 50 48 142 50 62 142 50 62 142 62 62 142 62 62 142 62 62 142 62 62 88 62 62 88 38 76 88 38 76 88 38 76 88 38 76 88 38 76 106 50 76 106 50 76 106 50 90 106 50 90 106 50 90 106 62 90 124 62 90 124 62 90 124 62 90 124 62 34 124 38 34 124 38 34 142 38 34 142 38 34 142 38 34 142 50 34 142 50 48 142 50 48 88 50 48 88 50 48 88 62 48 88 62 48 88 62 48 88 62 62 106 62 62 106 38 62 106 38 62 106 38 62 106 38 62 106 38 62 124 50 76 124 50 76 124 50 76 124 50 76 124 50 76 124 62 76 142 62 76 142 62 90 142 62 90 142 62 90 142 38 90 142 38 90 88 38 90 88 38 90 88 38 34 88 50 34 88 50 34 88 50 34 106 50 34 106 50
48 88 50 48 88 50 48 88 50 48 88 50 48 88 50 48 88 62 48 106 62 62 106 62 62 106 62 62 106 62 62 106 38 62 106 38 62 124 38 62 124 38 76 124 38 76 124 50 76 124 50 76 124 50 76 142 50 76 142 50 76 142 62 90 142 62 90 142 62 90 142 62 90 88 62 90 88 38 90 88 38 90 88 38 34 88 38 34 88 38 34 106 50 34 106 50 34 106 50 34 106 50 34 106 50 48 106 62 48 124 62 48 124 62 48 124 62 48 124 62 48 124 38 48 124 38 62 142 38 62 142 38 62 142 38 62 142 50 62 142 50 62 142 50 62 88 50 76 88 50 76 88 62 76 88 62 76 88 62 76 88 62 76 106 62 76 106 38 90 106 38 90 106 38 90 106 38 90 106 38 90 124 50 90 124 50 90 124 50 34 124 50 34 124 50 34 124 62 34 142 62 34 142 62 34 142 62 34 142 62 48 142 38 48 142 38 48 88 38 48 88 38 48 88 38 48 88 50 48 88 50 62 88 50 62 106 50 62 106 50 62 106 62 62 106 62 62 106 62 62 106 62 76 124 62 76 124 38 76 124 38 76 124 38 76 124 38 76 124 38 76 142 50 90 142 50 90 142 50 90 142 50 90 142 50 90 142 62 90 88 62 90 88 62 34 88 62 34 88 62 34 88 38 34 88 38 34 106 38 34 106 38 34 106 38 48 106 50 48 106 50 48 106 50 48 124 50 48 124 50 48 124 62 48 124 62 62 124 62 62 124 62 62 142 62 62 142 38 62 142 38 62 142 38 62 142 38 76 142 38 76 88 50 76 88 50 76 88 50 76 88 50 76 88 50 76 88 62 90 106 62 90 106 62 90 106 62 90 106 62 90 106 38 90 106 38 90 124 38 34 124 38 34 124 38 34 124 50 34 124 50 34 124 50 34 142 50 34 142 50 48 142 62 48 142 62 48 142 62 48 142 62 48 88 62 48 88 38 48 88 38 62 88 38 62 88 38 62 88 38 62 106 50 62 106 50 62 106 50 62 106 50 76 106 50 76 106 62 76 124 62 76 124 62 76 124 62 76 124 62 76 124 38 90 124 38 90 142 38 90 142 38 90 142 38 90 142 50 90 142 50 90 142 50 34 88 50 34 88 50 34 88 62 34 88 62 34 88 62 34 88 62 34 106 62 48 106 38 48 106 38 48 106 38 48 106 38 48 106 38 48 124 50 48 124 50 62 124 50 62 124 50 62 124 50 62 124 62 62 142 62 62 142 62 62 142 62 76 142 62 76 142 38 76 142 38 76 88 38 76 88 38 76 88 38 76 88 50 90 88 50 90 88 50 90 106 50 90 106 50 90 106 62 90 106 62 90 106 62 34 106 62 34 124 62 34 124 38 34 124 38 34 124 38 34 124 38 34 124 38 48 142 50 48 142 50 48 142 50 48 142 50 48 142 50 48 142 62 48 88 62 62 88 62 62 88 62 62 88 62 62 88 38 62 88 38 62 106 38 62 106 38 76 106 38 76 106 50 76 106 50 76 106 50 76 124 50 76 124 50 76 124 62 90 124 62 90 124 62 90 124 62 90 142 62 90 142 38 90 142 38 90 142 38 34 142 38 34 142 38 34 88 50 34 88 50 34 88 50 34 88 50 34 88 50 48 88 62 48 106 62 48 106 62 48 106 62 48 106 62 48 106 38 48 106 38 62 124 38 62 124 38 62 124 38 62 124 50 62 124 50 62 124 50 62 142 50 76 142 50 76 142 62 76 142 62 76 142 62 76 142 62 76 88 62 76 88 38 90 88 38 90 88 38 90 88 38 90 88 38 90 106 50 90 106 50 90 106 50 34 106 50 34 106 50 34 106 62 34 124 62 34 124 62 34 124 62 34 124 62 48 124 38 48 124 38 48 142 38 48 142 38 48 142 38 48 142 50 48 142 50 62 142 50 62 88 50 62 88 50 62 88 62 62 88 62 62 88 62 62 88 62 76 106 62 76 106 38 76 106 38 76 106 38 76 106 38 76 106 38 76 124 50 90 124 50 90 124 50 90 124 50 90 124 50 90 124 62 90 142 62 90 142 62 34 142 62 34 142 62 34 142 38 34 142 38 34 88 38 34 88 38 34 88 38 48 88 50 48 88 50 48 88 50 48 106 50 48 106 50
48 106 50 48 106 50 48 106 50 48 106 50 48 106 50 48 106 62 48 124 62 62 124 62 62 124 62 62 124 62 62 124 38 62 124 38 62 142 38 62 142 38 76 142 38 76 142 50 76 142 50 76 142 50 76 88 50 76 88 50 76 88 62 90 88 62 90 88 62 90 88 62 90 106 62 90 106 38 90 106 38 90 106 38 34 106 38 34 106 38 34 124 50 34 124 50 34 124 50 34 124 50 34 124 50 48 124 62 48 142 62 48 142 62 48 142 62 48 142 62 48 142 38 48 142 38 62 88 38 62 88 38 62 88 38 62 88 50 62 88 50 62 88 50 62 106 50 76 106 50 76 106 62 76 106 62 76 106 62 76 106 62 76 124 62 76 124 38 90 124 38 90 124 38 90 124 38 90 124 38 90 142 50 90 142 50 90 142 50 34 142 50 34 142 50 34 142 62 34 88 62 34 88 62 34 88 62 34 88 62 48 88 38 48 88 38 48 106 38 48 106 38 48 106 38 48 106 50 48 106 50 62 106 50 62 124 50 62 124 50 62 124 62 62 124 62 62 124 62 62 124 62 76 142 62 76 142 38 76 142 38 76 142 38 76 142 38 76 142 38 76 88 50 90 88 50 90 88 50 90 88 50 90 88 50 90 88 62 90 106 62 90 106 62 34 106 62 34 106 62 34 106 38 34 106 38 34 124 38 34 124 38 34 124 38 48 124 50 48 124 50 48 124 50 48 142 50 48 142 50 48 142 62 48 142 62 62 142 62 62 142 62 62 88 62 62 88 38 62 88 38 62 88 38 62 88 38 76 88 38 76 106 50 76 106 50 76 106 50 76 106 50 76 106 50 76 106 62 90 124 62 90 124 62 90 124 62 90 124 62 90 124 38 90 124 38 90 142 38 34 142 38 34 142 38 34 142 50 34 142 50 34 142 50 34 88 50 34 88 50 48 88 62 48 88 62 48 88 62 48 88 62 48 106 62 48 106 38 48 106 38 62 106 38 62 106 38 62 106 38 62 124 50 62 124 50 62 124 50 62 124 50 76 124 50 76 124 62 76 142 62 76 142 62 76 142 62 76 142 62 76 142 38 90 142 38 90 88 38 90 88 38 90 88 38 90 88 50 90 88 50 90 88 50 34 106 50 34 106 50 34 106 62 34 106 62 34 106 62 34 106 62 34 124 62 48 124 38 48 124 38 48 124 38 48 124 38 48 124 38 48 142 50 48 142 50 62 142 50 62 142 50 62 142 50 62 142 62 62 88 62 62 88 62 62 88 62 76 88 62 76 88 38 76 88 38 76 106 38 76 106 38 76 106 38 76 106 50 90 106 50 90 106 50 90 124 50 90 124 50 90 124 62 90 124 62 90 124 62 34 124 62 34 142 62 34 142 38 34 142 38 34 142 38 34 142 38 34 142 38 48 88 50 48 88 50 48 88 50 48 88 50 48 88 50 48 88 62 48 106 62 62 106 62 62 106 62 62 106 62 62 106 38 62 106 38 62 124 38 62 124 38 76 124 38 76 124 50 76 124 50 76 124 50 76 142 50 76 142 50 76 142 62 90 142 62 90 142 62 90 142 62 90 88 62 90 88 38 90 88 38 90 88 38 34 88 38 34 88 38 34 106 50 34 106 50 34 106 50 34 106 50 34 106 50 48 106 62 48 124 62 48 124 62 48 124 62 48 124 62 48 124 38 48 124 38 62 142 38 62 142 38 62 142 38 62 142 50 62 142 50 62 142 50 62 88 50 76 88 50 76 88 62 76 88 62 76 88 62 76 88 62 76 106 62 76 106 38 90 106 38 90 106 38 90 106 38 90 106 38 90 124 50 90 124 50 90 124 50 34 124 50 34 124 50 34 124 62 34 142 62 34 142 62 34 142 62 34 142 62 48 142 38 48 142 38 48 88 38 48 88 38 48 88 38 48 88 50 48 88 50 62 88 50 62 106 50 62 106 50 62 106 62 62 106 62 62 106 62 62 106 62 76 124 62 76 124 38 76 124 38 76 124 38 76 124 38 76 124 38 76 142 50 90 142 50 90 142 50 90 142 50 90 142 50 90 142 62 90 88 62 90 88 62 34 88 62 34 88 62 34 88 38 34 88 38 34 106 38 34 106 38 34 106 38 48 106 50 48 106 50 48 106 50 48 124 50 48 124 50
48 106 62 48 106 62 48 106 62 48 106 62 48 106 62 48 106 38 48 124 38 62 124 38 62 124 38 62 124 38 62 124 50 62 124 50 62 142 50 62 142 50 76 142 50 76 142 62 76 142 62 76 142 62 76 88 62 76 88 62 76 88 38 90 88 38 90 88 38 90 88 38 90 106 38 90 106 50 90 106 50 90 106 50 34 106 50 34 106 50 34 124 62 34 124 62 34 124 62 34 124 62 34 124 62 48 124 38 48 142 38 48 142 38 48 142 38 48 142 38 48 142 50 48 142 50 62 88 50 62 88 50 62 88 50 62 88 62 62 88 62 62 88 62 62 106 62 76 106 62 76 106 38 76 106 38 76 106 38 76 106 38 76 124 38 76 124 50 90 124 50 90 124 50 90 124 50 90 124 50 90 142 62 90 142 62 90 142 62 34 142 62 34 142 62 34 142 38 34 88 38 34 88 38 34 88 38 34 88 38 48 88 50 48 88 50 48 106 50 48 106 50 48 106 50 48 106 62 48 106 62 62 106 62 62 124 62 62 124 62 62 124 38 62 124 38 62 124 38 62 124 38 76 142 38 76 142 50 76 142 50 76 142 50 76 142 50 76 142 50 76 88 62 90 88 62 90 88 62 90 88 62 90 88 62 90 88 38 90 106 38 90 106 38 34 106 38 34 106 38 34 106 50 34 106 50 34 124 50 34 124 50 34 124 50 48 124 62 48 124 62 48 124 62 48 142 62 48 142 62 48 142 38 48 142 38 62 142 38 62 142 38 62 88 38 62 88 50 62 88 50 62 88 50 62 88 50 76 88 50 76 106 62 76 106 62 76 106 62 76 106 62 76 106 62 76 106 38 90 124 38 90 124 38 90 124 38 90 124 38 90 124 50 90 124 50 90 142 50 34 142 50 34 142 50 34 142 62 34 142 62 34 142 62 34 88 62 34 88 62 48 88 38 48 88 38 48 88 38 48 88 38 48 106 38 48 106 50 48 106 50 62 106 50 62 106 50 62 106 50 62 124 62 62 124 62 62 124 62 62 124 62 76 124 62 76 124 38 76 142 38 76 142 38 76 142 38 76 142 38 76 142 50 90 142 50 90 88 50 90 88 50 90 88 50 90 88 62 90 88 62 90 88 62 34 106 62 34 106 62 34 106 38 34 106 38 34 106 38 34 106 38 34 124 38 48 124 50 48 124 50 48 124 50 48 124 50 48 124 50 48 142 62 48 142 62 62 142 62 62 142 62 62 142 62 62 142 38 62 88 38 62 88 38 62 88 38 76 88 38 76 88 50 76 88 50 76 106 50 76 106 50 76 106 50 76 106 62 90 106 62 90 106 62 90 124 62 90 124 62 90 124 38 90 124 38 90 124 38 34 124 38 34 142 38 34 142 50 34 142 50 34 142 50 34 142 50 34 142 50 48 88 62 48 88 62 48 88 62 48 88 62 48 88 62 48 88 38 48 106 38 62 106 38 62 106 38 62 106 38 62 106 50 62 106 50 62 124 50 62 124 50 76 124 50 76 124 62 76 124 62 76 124 62 76 142 62 76 142 62 76 142 38 90 142 38 90 142 38 90 142 38 90 88 38 90 88 50 90 88 50 90 88 50 34 88 50 34 88 50 34 106 62 34 106 62 34 106 62 34 106 62 34 106 62 48 106 38 48 124 38 48 124 38 48 124 38 48 124 38 48 124 50 48 124 50 62 142 50 62 142 50 62 142 50 62 142 62 62 142 62 62 142 62 62 88 62 76 88 62 76 88 38 76 88 38 76 88 38 76 88 38 76 106 38 76 106 50 90 106 50 90 106 50 90 106 50 90 106 50 90 124 62 90 124 62 90 124 62 34 124 62 34 124 62 34 124 38 34 142 38 34 142 38 34 142 38 34 142 38 48 142 50 48 142 50 48 88 50 48 88 50 48 88 50 48 88 62 48 88 62 62 88 62 62 106 62 62 106 62 62 106 38 62 106 38 62 106 38 62 106 38 76 124 38 76 124 50 76 124 50 76 124 50 76 124 50 76 124 50 76 142 62 90 142 62 90 142 62 90 142 62 90 142 62 90 142 38 90 88 38 90 88 38 34 88 38 34 88 38 34 88 50 34 88 50 34 106 50 34 106 50 34 106 50 48 106 62 48 106 62 48 106 62 48 124 62 48 124 62
48 106 62 48 106 62 48 106 62 48 106 62 48 106 62 48 106 38 48 124 38 62 124 38 62 124 38 62 124 38 62 124 50 62 124 50 62 142 50 62 142 50 76 142 50 76 142 62 76 142 62 76 142 62 76 88 62 76 88 62 76 88 38 90 88 38 90 88 38 90 88 38 90 106 38 90 106 50 90 106 50 90 106 50 34 106 50 34 106 50 34 124 62 34 124 62 34 124 62 34 124 62 34 124 62 48 124 38 48 142 38 48 142 38 48 142 38 48 142 38 48 142 50 48 142 50 62 88 50 62 88 50 62 88 50 62 88 62 62 88 62 62 88 62 62 106 62 76 106 62 76 106 38 76 106 38 76 106 38 76 106 38 76 124 38 76 124 50 90 124 50 90 124 50 90 124 50 90 124 50 90 142 62 90 142 62 90 142 62 34 142 62 34 142 62 34 142 38 34 88 38 34 88 38 34 88 38 34 88 38 48 88 50 48 88 50 48 106 50 48 106 50 48 106 50 48 106 62 48 106 62 62 106 62 62 124 62 62 124 62 62 124 38 62 124 38 62 124 38 62 124 38 76 142 38 76 142 50 76 142 50 76 142 50 76 142 50 76 142 50 76 88 62 90 88 62 90 88 62 90 88 62 90 88 62 90 88 38 90 106 38 90 106 38 34 106 38 34 106 38 34 106 50 34 106 50 34 124 50 34 124 50 34 124 50 48 124 62 48 124 62 48 124 62 48 142 62 48 142 62 48 142 38 48 142 38 62 142 38 62 142 38 62 88 38 62 88 50 62 88 50 62 88 50 62 88 50 76 88 50 76 106 62 76 106 62 76 106 62 76 106 62 76 106 62 76 106 38 90 124 38 90 124 38 90 124 38 90 124 38 90 124 50 90 124 50 90 142 50 34 142 50 34 142 50 34 142 62 34 142 62 34 142 62 34 88 62 34 88 62 48 88 38 48 88 38 48 88 38 48 88 38 48 106 38 48 106 50 48 106 50 62 106 50 62 106 50 62 106 50 62 124 62 62 124 62 62 124 62 62 124 62 76 124 62 76 124 38 76 142 38 76 142 38 76 142 38 76 142 38 76 142 50 90 142 50 90 88 50 90 88 50 90 88 50 90 88 62 90 88 62 90 88 62 34 106 62 34 106 62 34 106 38 34 106 38 34 106 38 34 106 38 34 124 38 48 124 50 48 124 50 48 124 50 48 124 50 48 124 50 48 142 62 48 142 62 62 142 62 62 142 62 62 142 62 62 142 38 62 88 38 62 88 38 62 88 38 76 88 38 76 88 50 76 88 50 76 106 50 76 106 50 76 106 50 76 106 62 90 106 62 90 106 62 90 124 62 90 124 62 90 124 38 90 124 38 90 124 38 34 124 38 34 142 38 34 142 50 34 142 50 34 142 50 34 142 50 34 142 50 48 88 62 48 88 62 48 88 62 48 88 62 48 88 62 48 88 38 48 106 38 62 106 38 62 106 38 62 106 38 62 106 50 62 106 50 62 124 50 62 124 50 76 124 50 76 124 62 76 124 62 76 124 62 76 142 62 76 142 62 76 142 38 90 142 38 90 142 38 90 142 38 90 88 38 90 88 50 90 88 50 90 88 50 34 88 50 34 88 50 34 106 62 34 106 62 34 106 62 34 106 62 34 106 62 48 106 38 48 124 38 48 124 38 48 124 38 48 124 38 48 124 50 48 124 50 62 142 50 62 142 50 62 142 50 62 142 62 62 142 62 62 142 62 62 88 62 76 88 62 76 88 38 76 88 38 76 88 38 76 88 38 76 106 38 76 106 50 90 106 50 90 106 50 90 106 50 90 106 50 90 124 62 90 124 62 90 124 62 34 124 62 34 124 62 34 124 38 34 142 38 34 142 38 34 142 38 34 142 38 48 142 50 48 142 50 48 88 50 48 88 50 48 88 50 48 88 62 48 88 62 62 88 62 62 106 62 62 106 62 62 106 38 62 106 38 62 106 38 62 106 38 76 124 38 76 124 50 76 124 50 76 124 50 76 124 50 76 124 50 76 142 62 90 142 62 90 142 62 90 142 62 90 142 62 90 142 38 90 88 38 90 88 38 34 88 38 34 88 38 34 88 50 34 88 50 34 106 50 34 106 50 34 106 50 48 106 62 48 106 62 48 106 62 48 124 62 48 124 62
48 106 62 48 106 62 48 106 62 48 106 62 48 106 62 48 106 38 48 124 38 62 124 38 62 124 38 62 124 38 62 124 50 62 124 50 62 142 50 62 142 50 76 142 50 76 142 62 76 142 62 76 142 62 76 88 62 76 88 62 76 88 38 90 88 38 90 88 38 90 88 38 90 106 38 90 106 50 90 106 50 90 106 50 34 106 50 34 106 50 34 124 62 34 124 62 34 124 62 34 124 62 34 124 62 48 124 38 48 142 38 48 142 38 48 142 38 48 142 38 48 142 50 48 142 50 62 88 50 62 88 50 62 88 50 62 88 62 62 88 62 62 88 62 62 106 62 76 106 62 76 106 38 76 106 38 76 106 38 76 106 38 76 124 38 76 124 50 90 124 50 90 124 50 90 124 50 90 124 50 90 142 62 90 142 62 90 142 62 34 142 62 34 142 62 34 142 38 34 88 38 34 88 38 34 88 38 34 88 38 48 88 50 48 88 50 48 106 50 48 106 50 48 106 50 48 106 62 48 106 62 62 106 62 62 124 62 62 124 62 62 124 38 62 124 38 62 124 38 62 124 38 76 142 38 76 142 50 76 142 50 76 142 50 76 142 50 76 142 50 76 88 62 90 88 62 90 88 62 90 88 62 90 88 62 90 88 38 90 106 38 90 106 38 34 106 38 34 106 38 34 106 50 34 106 50 34 124 50 34 124 50 34 124 50 48 124 62 48 124 62 48 124 62 48 142 62 48 142 62 48 142 38 48 142 38 62 142 38 62 142 38 62 88 38 62 88 50 62 88 50 62 88 50 62 88 50 76 88 50 76 106 62 76 106 62 76 106 62 76 106 62 76 106 62 76 106 38 90 124 38 90 124 38 90 124 38 90 124 38 90 124 50 90 124 50 90 142 50 34 142 50 34 142 50 34 142 62 34 142 62 34 142 62 34 88 62 34 88 62 48 88 38 48 88 38 48 88 38 48 88 38 48 106 38 48 106 50 48 106 50 62 106 50 62 106 50 62 106 50 62 124 62 62 124 62 62 124 62 62 124 62 76 124 62 76 124 38 76 142 38 76 142 38 76 142 38 76 142 38 76 142 50 90 142 50 90 88 50 90 88 50 90 88 50 90 88 62 90 88 62 90 88 62 34 106 62 34 106 62 34 106 38 34 106 38 34 106 38 34 106 38 34 124 38 48 124 50 48 124 50 48 124 50 48 124 50 48 124 50 48 142 62 48 142 62 62 142 62 62 142 62 62 142 62 62 142 38 62 88 38 62 88 38 62 88 38 76 88 38 76 88 50 76 88 50 76 106 50 76 106 50 76 106 50 76 106 62 90 106 62 90 106 62 90 124 62 90 124 62 90 124 38 90 124 38 90 124 38 34 124 38 34 142 38 34 142 50 34 142 50 34 142 50 34 142 50 34 142 50 48 88 62 48 88 62 48 88 62 48 88 62 48 88 62 48 88 38 48 106 38 62 106 38 62 106 38 62 106 38 62 106 50 62 106 50 62 124 50 62 124 50 76 124 50 76 124 62 76 124 62 76 124 62 76 142 62 76 142 62 76 142 38 90 142 38 90 142 38 90 142 38 90 88 38 90 88 50 90 88 50 90 88 50 34 88 50 34 88 50 34 106 62 34 106 62 34 106 62 34 106 62 34 106 62 48 106 38 48 124 38 48 124 38 48 124 38 48 124 38 48 124 50 48 124 50 62 142 50 62 142 50 62 142 50 62 142 62 62 142 62 62 142 62 62 88 62 76 88 62 76 88 38 76 88 38 76 88 38 76 88 38 76 106 38 76 106 50 90 106 50 90 106 50 90 106 50 90 106 50 90 124 62 90 124 62 90 124 62 34 124 62 34 124 62 34 124 38 34 142 38 34 142 38 34 142 38 34 142 38 48 142 50 48 142 50 48 88 50 48 88 50 48 88 50 48 88 62 48 88 62 62 88 62 62 106 62 62 106 62 62 106 38 62 106 38 62 106 38 62 106 38 76 124 38 76 124 50 76 124 50 76 124 50 76 124 50 76 124 50 76 142 62 90 142 62 90 142 62 90 142 62 90 142 62 90 142 38 90 88 38 90 88 38 34 88 38 34 88 38 34 88 50 34 88 50 34 106 50 34 106 50 34 106 50 48 106 62 48 106 62 48 106 62 48 124 62 48 124 62
62 106 62 62 106 62 62 106 62 62 106 62 62 106 62 62 106 38 62 124 38 76 124 38 76 124 38 76 124 38 76 124 50 76 124 50 76 142 50 76 142 50 90 142 50 90 142 62 90 142 62 90 142 62 90 88 62 90 88 62 90 88 38 34 88 38 34 88 38 34 88 38 34 106 38 34 106 50 34 106 50 34 106 50 48 106 50 48 106 50 48 124 62 48 124 62 48 124 62 48 124 62 48 124 62 62 124 38 62 142 38 62 142 38 62 142 38 62 142 38 62 142 50 62 142 50 76 88 50 76 88 50 76 88 50 76 88 62 76 88 62 76 88 62 76 106 62 90 106 62 90 106 38 90 106 38 90 106 38 90 106 38 90 124 38 90 124 50 34 124 50 34 124 50 34 124 50 34 124 50 34 142 62 34 142 62 34 142 62 48 142 62 48 142 62 48 142 38 48 88 38 48 88 38 48 88 38 48 88 38 62 88 50 62 88 50 62 106 50 62 106 50 62 106 50 62 106 62 62 106 62 76 106 62 76 124 62 76 124 62 76 124 38 76 124 38 76 124 38 76 124 38 90 142 38 90 142 50 90 142 50 90 142 50 90 142 50 90 142 50 90 88 62 34 88 62 34 88 62 34 88 62 34 88 62 34 88 38 34 106 38 34 106 38 48 106 38 48 106 38 48 106 50 48 106 50 48 124 50 48 124 50 48 124 50 62 124 62 62 124 62 62 124 62 62 142 62 62 142 62 62 142 38 62 142 38 76 142 38 76 142 38 76 88 38 76 88 50 76 88 50 76 88 50 76 88 50 90 88 50 90 106 62 90 106 62 90 106 62 90 106 62 90 106 62 90 106 38 34 124 38 34 124 38 34 124 38 34 124 38 34 124 50 34 124 50 34 142 50 48 142 50 48 142 50 48 142 62 48 142 62 48 142 62 48 88 62 48 88 62 62 88 38 62 88 38 62 88 38 62 88 38 62 106 38 62 106 50 62 106 50 76 106 50 76 106 50 76 106 50 76 124 62 76 124 62 76 124 62 76 124 62 90 124 62 90 124 38 90 142 38 90 142 38 90 142 38 90 142 38 90 142 50 34 142 50 34 88 50 34 88 50 34 88 50 34 88 62 34 88 62 34 88 62 48 106 62 48 106 62 48 106 38 48 106 38 48 106 38 48 106 38 48 124 38 62 124 50 62 124 50 62 124 50 62 124 50 62 124 50 62 142 62 62 142 62 76 142 62 76 142 62 76 142 62 76 142 38 76 88 38 76 88 38 76 88 38 90 88 38 90 88 50 90 88 50 90 106 50 90 106 50 90 106 50 90 106 62 34 106 62 34 106 62 34 124 62 34 124 62 34 124 38 34 124 38 34 124 38 48 124 38 48 142 38 48 142 50 48 142 50 48 142 50 48 142 50 48 142 50 62 88 62 62 88 62 62 88 62 62 88 62 62 88 62 62 88 38 62 106 38 76 106 38 76 106 38 76 106 38 76 106 50 76 106 50 76 124 50 76 124 50 90 124 50 90 124 62 90 124 62 90 124 62 90 142 62 90 142 62 90 142 38 34 142 38 34 142 38 34 142 38 34 88 38 34 88 50 34 88 50 34 88 50 48 88 50 48 88 50 48 106 62 48 106 62 48 106 62 48 106 62 48 106 62 62 106 38 62 124 38 62 124 38 62 124 38 62 124 38 62 124 50 62 124 50 76 142 50 76 142 50 76 142 50 76 142 62 76 142 62 76 142 62 76 88 62 90 88 62 90 88 38 90 88 38 90 88 38 90 88 38 90 106 38 90 106 50 34 106 50 34 106 50 34 106 50 34 106 50 34 124 62 34 124 62 34 124 62 48 124 62 48 124 62 48 124 38 48 142 38 48 142 38 48 142 38 48 142 38 62 142 50 62 142 50 62 88 50 62 88 50 62 88 50 62 88 62 62 88 62 76 88 62 76 106 62 76 106 62 76 106 38 76 106 38 76 106 38 76 106 38 90 124 38 90 124 50 90 124 50 90 124 50 90 124 50 90 124 50 90 142 62 34 142 62 34 142 62 34 142 62 34 142 62 34 142 38 34 88 38 34 88 38 48 88 38 48 88 38 48 88 50 48 88 50 48 106 50 48 106 50 48 106 50 62 106 62 62 106 62 62 106 62 62 124 62 62 124 62
62 106 62 62 106 62 62 106 62 62 106 62 62 106 62 62 106 38 62 124 38 76 124 38 76 124 38 76 124 38 76 124 50 76 124 50 76 142 50 76 142 50 90 142 50 90 142 62 90 142 62 90 142 62 90 88 62 90 88 62 90 88 38 34 88 38 34 88 38 34 88 38 34 106 38 34 106 50 34 106 50 34 106 50 48 106 50 48 106 50 48 124 62 48 124 62 48 124 62 48 124 62 48 124 62 62 124 38 62 142 38 62 142 38 62 142 38 62 142 38 62 142 50 62 142 50 76 88 50 76 88 50 76 88 50 76 88 62 76 88 62 76 88 62 76 106 62 90 106 62 90 106 38 90 106 38 90 106 38 90 106 38 90 124 38 90 124 50 34 124 50 34 124 50 34 124 50 34 124 50 34 142 62 34 142 62 34 142 62 48 142 62 48 142 62 48 142 38 48 88 38 48 88 38 48 88 38 48 88 38 62 88 50 62 88 50 62 106 50 62 106 50 62 106 50 62 106 62 62 106 62 76 106 62 76 124 62 76 124 62 76 124 38 76 124 38 76 124 38 76 124 38 90 142 38 90 142 50 90 142 50 90 142 50 90 142 50 90 142 50 90 88 62 34 88 62 34 88 62 34 88 62 34 88 62 34 88 38 34 106 38 34 106 38 48 106 38 48 106 38 48 106 50 48 106 50 48 124 50 48 124 50 48 124 50 62 124 62 62 124 62 62 124 62 62 142 62 62 142 62 62 142 38 62 142 38 76 142 38 76 142 38 76 88 38 76 88 50 76 88 50 76 88 50 76 88 50 90 88 50 90 106 62 90 106 62 90 106 62 90 106 62 90 106 62 90 106 38 34 124 38 34 124 38 34 124 38 34 124 38 34 124 50 34 124 50 34 142 50 48 142 50 48 142 50 48 142 62 48 142 62 48 142 62 48 88 62 48 88 62 62 88 38 62 88 38 62 88 38 62 88 38 62 106 38 62 106 50 62 106 50 76 106 50 76 106 50 76 106 50 76 124 62 76 124 62 76 124 62 76 124 62 90 124 62 90 124 38 90 142 38 90 142 38 90 142 38 90 142 38 90 142 50 34 142 50 34 88 50 34 88 50 34 88 50 34 88 62 34 88 62 34 88 62 48 106 62 48 106 62 48 106 38 48 106 38 48 106 38 48 106 38 48 124 38 62 124 50 62 124 50 62 124 50 62 124 50 62 124 50 62 142 62 62 142 62 76 142 62 76 142 62 76 142 62 76 142 38 76 88 38 76 88 38 76 88 38 90 88 38 90 88 50 90 88 50 90 106 50 90 106 50 90 106 50 90 106 62 34 106 62 34 106 62 34 124 62 34 124 62 34 124 38 34 124 38 34 124 38 48 124 38 48 142 38 48 142 50 48 142 50 48 142 50 48 142 50 48 142 50 62 88 62 62 88 62 62 88 62 62 88 62 62 88 62 62 88 38 62 106 38 76 106 38 76 106 38 76 106 38 76 106 50 76 106 50 76 124 50 76 124 50 90 124 50 90 124 62 90 124 62 90 124 62 90 142 62 90 142 62 90 142 38 34 142 38 34 142 38 34 142 38 34 88 38 34 88 50 34 88 50 34 88 50 48 88 50 48 88 50 48 106 62 48 106 62 48 106 62 48 106 62 48 106 62 62 106 38 62 124 38 62 124 38 62 124 38 62 124 38 62 124 50 62 124 50 76 142 50 76 142 50 76 142 50 76 142 62 76 142 62 76 142 62 76 88 62 90 88 62 90 88 38 90 88 38 90 88 38 90 88 38 90 106 38 90 106 50 34 106 50 34 106 50 34 106 50 34 106 50 34 124 62 34 124 62 34 124 62 48 124 62 48 124 62 48 124 38 48 142 38 48 142 38 48 142 38 48 142 38 62 142 50 62 142 50 62 88 50 62 88 50 62 88 50 62 88 62 62 88 62 76 88 62 76 106 62 76 106 62 76 106 38 76 106 38 76 106 38 76 106 38 90 124 38 90 124 50 90 124 50 90 124 50 90 124 50 90 124 50 90 142 62 34 142 62 34 142 62 34 142 62 34 142 62 34 142 38 34 88 38 34 88 38 48 88 38 48 88 38 48 88 50 48 88 50 48 106 50 48 106 50 48 106 50 62 106 62 62 106 62 62 106 62 62 124 62 62 124 62
62 106 62 62 106 62 62 106 62 62 106 62 62 106 62 62 106 38 62 124 38 76 124 38 76 124 38 76 124 38 76 124 50 76 124 50 76 142 50 76 142 50 90 142 50 90 142 62 90 142 62 90 142 62 90 88 62 90 88 62 90 88 38 34 88 38 34 88 38 34 88 38 34 106 38 34 106 50 34 106 50 34 106 50 48 106 50 48 106 50 48 124 62 48 124 62 48 124 62 48 124 62 48 124 62 62 124 38 62 142 38 62 142 38 62 142 38 62 142 38 62 142 50 62 142 50 76 88 50 76 88 50 76 88 50 76 88 62 76 88 62 76 88 62 76 106 62 90 106 62 90 106 38 90 106 38 90 106 38 90 106 38 90 124 38 90 124 50 34 124 50 34 124 50 34 124 50 34 124 50 34 142 62 34 142 62 34 142 62 48 142 62 48 142 62 48 142 38 48 88 38 48 88 38 48 88 38 48 88 38 62 88 50 62 88 50 62 106 50 62 106 50 62 106 50 62 106 62 62 106 62 76 106 62 76 124 62 76 124 62 76 124 38 76 124 38 76 124 38 76 124 38 90 142 38 90 142 50 90 142 50 90 142 50 90 142 50 90 142 50 90 88 62 34 88 62 34 88 62 34 88 62 34 88 62 34 88 38 34 106 38 34 106 38 48 106 38 48 106 38 48 106 50 48 106 50 48 124 50 48 124 50 48 124 50 62 124 62 62 124 62 62 124 62 62 142 62 62 142 62 62 142 38 62 142 38 76 142 38 76 142 38 76 88 38 76 88 50 76 88 50 76 88 50 76 88 50 90 88 50 90 106 62 90 106 62 90 106 62 90 106 62 90 106 62 90 106 38 34 124 38 34 124 38 34 124 38 34 124 38 34 124 50 34 124 50 34 142 50 48 142 50 48 142 50 48 142 62 48 142 62 48 142 62 48 88 62 48 88 62 62 88 38 62 88 38 62 88 38 62 88 38 62 106 38 62 106 50 62 106 50 76 106 50 76 106 50 76 106 50 76 124 62 76 124 62 76 124 62 76 124 62 90 124 62 90 124 38 90 142 38 90 142 38 90 142 38 90 142 38 90 142 50 34 142 50 34 88 50 34 88 50 34 88 50 34 88 62 34 88 62 34 88 62 48 106 62 48 106 62 48 106 38 48 106 38 48 106 38 48 106 38 48 124 38 62 124 50 62 124 50 62 124 50 62 124 50 62 124 50 62 142 62 62 142 62 76 142 62 76 142 62 76 142 62 76 142 38 76 88 38 76 88 38 76 88 38 90 88 38 90 88 50 90 88 50 90 106 50 90 106 50 90 106 50 90 106 62 34 106 62 34 106 62 34 124 62 34 124 62 34 124 38 34 124 38 34 124 38 48 124 38 48 142 38 48 142 50 48 142 50 48 142 50 48 142 50 48 142 50 62 88 62 62 88 62 62 88 62 62 88 62 62 88 62 62 88 38 62 106 38 76 106 38 76 106 38 76 106 38 76 106 50 76 106 50 76 124 50 76 124 50 90 124 50 90 124 62 90 124 62 90 124 62 90 142 62 90 142 62 90 142 38 34 142 38 34 142 38 34 142 38 34 88 38 34 88 50 34 88 50 34 88 50 48 88 50 48 88 50 48 106 62 48 106 62 48 106 62 48 106 62 48 106 62 62 106 38 62 124 38 62 124 38 62 124 38 62 124 38 62 124 50 62 124 50 76 142 50 76 142 50 76 142 50 76 142 62 76 142 62 76 142 62 76 88 62 90 88 62 90 88 38 90 88 38 90 88 38 90 88 38 90 106 38 90 106 50 34 106 50 34 106 50 34 106 50 34 106 50 34 124 62 34 124 62 34 124 62 48 124 62 48 124 62 48 124 38 48 142 38 48 142 38 48 142 38 48 142 38 62 142 50 62 142 50 62 88 50 62 88 50 62 88 50 62 88 62 62 88 62 76 88 62 76 106 62 76 106 62 76 106 38 76 106 38 76 106 38 76 106 38 90 124 38 90 124 50 90 124 50 90 124 50 90 124 50 90 124 50 90 142 62 34 142 62 34 142 62 34 142 62 34 142 62 34 142 38 34 88 38 34 88 38 48 88 38 48 88 38 48 88 50 48 88 50 48 106 50 48 106 50 48 106 50 62 106 62 62 106 62 62 106 62 62 124 62 62 124 62
62 124 62 62 124 62 62 124 62 62 124 62 62 124 62 62 124 38 62 142 38 76 142 38 76 142 38 76 142 38 76 142 50 76 142 50 76 88 50 76 88 50 90 88 50 90 88 62 90 88 62 90 88 62 90 106 62 90 106 62 90 106 38 34 106 38 34 106 38 34 106 38 34 124 38 34 124 50 34 124 50 34 124 50 48 124 50 48 124 50 48 142 62 48 142 62 48 142 62 48 142 62 48 142 62 62 142 38 62 88 38 62 88 38 62 88 38 62 88 38 62 88 50 62 88 50 76 106 50 76 106 50 76 106 50 76 106 62 76 106 62 76 106 62 76 124 62 90 124 62 90 124 38 90 124 38 90 124 38 90 124 38 90 142 38 90 142 50 34 142 50 34 142 50 34 142 50 34 142 50 34 88 62 34 88 62 34 88 62 48 88 62 48 88 62 48 88 38 48 106 38 48 106 38 48 106 38 48 106 38 62 106 50 62 106 50 62 124 50 62 124 50 62 124 50 62 124 62 62 124 62 76 124 62 76 142 62 76 142 62 76 142 38 76 142 38 76 142 38 76 142 38 90 88 38 90 88 50 90 88 50 90 88 50 90 88 50 90 88 50 90 106 62 34 106 62 34 106 62 34 106 62 34 106 62 34 106 38 34 124 38 34 124 38 48 124 38 48 124 38 48 124 50 48 124 50 48 142 50 48 142 50 48 142 50 62 142 62 62 142 62 62 142 62 62 88 62 62 88 62 62 88 38 62 88 38 76 88 38 76 88 38 76 106 38 76 106 50 76 106 50 76 106 50 76 106 50 90 106 50 90 124 62 90 124 62 90 124 62 90 124 62 90 124 62 90 124 38 34 142 38 34 142 38 34 142 38 34 142 38 34 142 50 34 142 50 34 88 50 48 88 50 48 88 50 48 88 62 48 88 62 48 88 62 48 106 62 48 106 62 62 106 38 62 106 38 62 106 38 62 106 38 62 124 38 62 124 50 62 124 50 76 124 50 76 124 50 76 124 50 76 142 62 76 142 62 76 142 62 76 142 62 90 142 62 90 142 38 90 88 38 90 88 38 90 88 38 90 88 38 90 88 50 34 88 50 34 106 50 34 106 50 34 106 50 34 106 62 34 106 62 34 106 62 48 124 62 48 124 62 48 124 38 48 124 38 48 124 38 48 124 38 48 142 38 62 142 50 62 142 50 62 142 50 62 142 50 62 142 50 62 88 62 62 88 62 76 88 62 76 88 62 76 88 62 76 88 38 76 106 38 76 106 38 76 106 38 90 106 38 90 106 50 90 106 50 90 124 50 90 124 50 90 124 50 90 124 62 34 124 62 34 124 62 34 142 62 34 142 62 34 142 38 34 142 38 34 142 38 48 142 38 48 88 38 48 88 50 48 88 50 48 88 50 48 88 50 48 88 50 62 106 62 62 106 62 62 106 62 62 106 62 62 106 62 62 106 38 62 124 38 76 124 38 76 124 38 76 124 38 76 124 50 76 124 50 76 142 50 76 142 50 90 142 50 90 142 62 90 142 62 90 142 62 90 88 62 90 88 62 90 88 38 34 88 38 34 88 38 34 88 38 34 106 38 34 106 50 34 106 50 34 106 50 48 106 50 48 106 50 48 124 62 48 124 62 48 124 62 48 124 62 48 124 62 62 124 38 62 142 38 62 142 38 62 142 38 62 142 38 62 142 50 62 142 50 76 88 50 76 88 50 76 88 50 76 88 62 76 88 62 76 88 62 76 106 62 90 106 62 90 106 38 90 106 38 90 106 38 90 106 38 90 124 38 90 124 50 34 124 50 34 124 50 34 124 50 34 124 50 34 142 62 34 142 62 34 142 62 48 142 62 48 142 62 48 142 38 48 88 38 48 88 38 48 88 38 48 88 38 62 88 50 62 88 50 62 106 50 62 106 50 62 106 50 62 106 62 62 106 62 76 106 62 76 124 62 76 124 62 76 124 38 76 124 38 76 124 38 76 124 38 90 142 38 90 142 50 90 142 50 90 142 50 90 142 50 90 142 50 90 88 62 34 88 62 34 88 62 34 88 62 34 88 62 34 88 38 34 106 38 34 106 38 48 106 38 48 106 38 48 106 50 48 106 50 48 124 50 48 124 50 48 124 50 62 124 62 62 124 62 62 124 62 62 142 62 62 142 62
62 124 62 62 124 62 62 124 62 62 124 62 62 124 62 62 124 38 62 142 38 76 142 38 76 142 38 76 142 38 76 142 50 76 142 50 76 88 50 76 88 50 90 88 50 90 88 62 90 88 62 90 88 62 90 106 62 90 106 62 90 106 38 34 106 38 34 106 38 34 106 38 34 124 38 34 124 50 34 124 50 34 124 50 48 124 50 48 124 50 48 142 62 48 142 62 48 142 62 48 142 62 48 142 62 62 142 38 62 88 38 62 88 38 62 88 38 62 88 38 62 88 50 62 88 50 76 106 50 76 106 50 76 106 50 76 106 62 76 106 62 76 106 62 76 124 62 90 124 62 90 124 38 90 124 38 90 124 38 90 124 38 90 142 38 90 142 50 34 142 50 34 142 50 34 142 50 34 142 50 34 88 62 34 88 62 34 88 62 48 88 62 48 88 62 48 88 38 48 106 38 48 106 38 48 106 38 48 106 38 62 106 50 62 106 50 62 124 50 62 124 50 62 124 50 62 124 62 62 124 62 76 124 62 76 142 62 76 142 62 76 142 38 76 142 38 76 142 38 76 142 38 90 88 38 90 88 50 90 88 50 90 88 50 90 88 50 90 88 50 90 106 62 34 106 62 34 106 62 34 106 62 34 106 62 34 106 38 34 124 38 34 124 38 48 124 38 48 124 38 48 124 50 48 124 50 48 142 50 48 142 50 48 142 50 62 142 62 62 142 62 62 142 62 62 88 62 62 88 62 62 88 38 62 88 38 76 88 38 76 88 38 76 106 38 76 106 50 76 106 50 76 106 50 76 106 50 90 106 50 90 124 62 90 124 62 90 124 62 90 124 62 90 124 62 90 124 38 34 142 38 34 142 38 34 142 38 34 142 38 34 142 50 34 142 50 34 88 50 48 88 50 48 88 50 48 88 62 48 88 62 48 88 62 48 106 62 48 106 62 62 106 38 62 106 38 62 106 38 62 106 38 62 124 38 62 124 50 62 124 50 76 124 50 76 124 50 76 124 50 76 142 62 76 142 62 76 142 62 76 142 62 90 142 62 90 142 38 90 88 38 90 88 38 90 88 38 90 88 38 90 88 50 34 88 50 34 106 50 34 106 50 34 106 50 34 106 62 34 106 62 34 106 62 48 124 62 48 124 62 48 124 38 48 124 38 48 124 38 48 124 38 48 142 38 62 142 50 62 142 50 62 142 50 62 142 50 62 142 50 62 88 62 62 88 62 76 88 62 76 88 62 76 88 62 76 88 38 76 106 38 76 106 38 76 106 38 90 106 38 90 106 50 90 106 50 90 124 50 90 124 50 90 124 50 90 124 62 34 124 62 34 124 62 34 142 62 34 142 62 34 142 38 34 142 38 34 142 38 48 142 38 48 88 38 48 88 50 48 88 50 48 88 50 48 88 50 48 88 50 62 106 62 62 106 62 62 106 62 62 106 62 62 106 62 62 106 38 62 124 38 76 124 38 76 124 38 76 124 38 76 124 50 76 124 50 76 142 50 76 142 50 90 142 50 90 142 62 90 142 62 90 142 62 90 88 62 90 88 62 90 88 38 34 88 38 34 88 38 34 88 38 34 106 38 34 106 50 34 106 50 34 106 50 48 106 50 48 106 50 48 124 62 48 124 62 48 124 62 48 124 62 48 124 62 62 124 38 62 142 38 62 142 38 62 142 38 62 142 38 62 142 50 62 142 50 76 88 50 76 88 50 76 88 50 76 88 62 76 88 62 76 88 62 76 106 62 90 106 62 90 106 38 90 106 38 90 106 38 90 106 38 90 124 38 90 124 50 34 124 50 34 124 50 34 124 50 34 124 50 34 142 62 34 142 62 34 142 62 48 142 62 48 142 62 48 142 38 48 88 38 48 88 38 48 88 38 48 88 38 62 88 50 62 88 50 62 106 50 62 106 50 62 106 50 62 106 62 62 106 62 76 106 62 76 124 62 76 124 62 76 124 38 76 124 38 76 124 38 76 124 38 90 142 38 90 142 50 90 142 50 90 142 50 90 142 50 90 142 50 90 88 62 34 88 62 34 88 62 34 88 62 34 88 62 34 88 38 34 106 38 34 106 38 48 106 38 48 106 38 48 106 50 48 106 50 48 124 50 48 124 50 48 124 50 62 124 62 62 124 62 62 124 62 62 142 62 62 142 62
76 124 38 76 124 38 76 124 38 76 124 38 76 124 38 76 124 50 76 142 50 90 142 50 90 142 50 90 142 50 90 142 62 90 142 62 90 88 62 90 88 62 34 88 62 34 88 38 34 88 38 34 88 38 34 106 38 34 106 38 34 106 50 48 106 50 48 106 50 48 106 50 48 124 50 48 124 62 48 124 62 48 124 62 62 124 62 62 124 62 62 142 38 62 142 38 62 142 38 62 142 38 62 142 38 76 142 50 76 88 50 76 88 50 76 88 50 76 88 50 76 88 62 76 88 62 90 106 62 90 106 62 90 106 62 90 106 38 90 106 38 90 106 38 90 124 38 34 124 38 34 124 50 34 124 50 34 124 50 34 124 50 34 142 50 34 142 62 48 142 62 48 142 62 48 142 62 48 142 62 48 88 38 48 88 38 48 88 38 62 88 38 62 88 38 62 88 50 62 106 50 62 106 50 62 106 50 62 106 50 76 106 62 76 106 62 76 124 62 76 124 62 76 124 62 76 124 38 76 124 38 90 124 38 90 142 38 90 142 38 90 142 50 90 142 50 90 142 50 90 142 50 34 88 50 34 88 62 34 88 62 34 88 62 34 88 62 34 88 62 34 106 38 48 106 38 48 106 38 48 106 38 48 106 38 48 106 50 48 124 50 48 124 50 62 124 50 62 124 50 62 124 62 62 124 62 62 142 62 62 142 62 62 142 62 76 142 38 76 142 38 76 142 38 76 88 38 76 88 38 76 88 50 76 88 50 90 88 50 90 88 50 90 106 50 90 106 62 90 106 62 90 106 62 90 106 62 34 106 62 34 124 38 34 124 38 34 124 38 34 124 38 34 124 38 34 124 50 48 142 50 48 142 50 48 142 50 48 142 50 48 142 62 48 142 62 48 88 62 62 88 62 62 88 62 62 88 38 62 88 38 62 88 38 62 106 38 62 106 38 76 106 50 76 106 50 76 106 50 76 106 50 76 124 50 76 124 62 76 124 62 90 124 62 90 124 62 90 124 62 90 142 38 90 142 38 90 142 38 90 142 38 34 142 38 34 142 50 34 88 50 34 88 50 34 88 50 34 88 50 34 88 62 48 88 62 48 106 62 48 106 62 48 106 62 48 106 38 48 106 38 48 106 38 62 124 38 62 124 38 62 124 50 62 124 50 62 124 50 62 124 50 62 142 50 76 142 62 76 142 62 76 142 62 76 142 62 76 142 62 76 88 38 76 88 38 90 88 38 90 88 38 90 88 38 90 88 50 90 106 50 90 106 50 90 106 50 34 106 50 34 106 62 34 106 62 34 124 62 34 124 62 34 124 62 34 124 38 48 124 38 48 124 38 48 142 38 48 142 38 48 142 50 48 142 50 48 142 50 62 142 50 62 88 50 62 88 62 62 88 62 62 88 62 62 88 62 62 88 62 76 106 38 76 106 38 76 106 38 76 106 38 76 106 38 76 106 50 76 124 50 90 124 50 90 124 50 90 124 50 90 124 62 90 124 62 90 142 62 90 142 62 34 142 62 34 142 38 34 142 38 34 142 38 34 88 38 34 88 38 34 88 50 48 88 50 48 88 50 48 88 50 48 106 50 48 106 62 48 106 62 48 106 62 62 106 62 62 106 62 62 124 38 62 124 38 62 124 38 62 124 38 62 124 38 76 124 50 76 142 50 76 142 50 76 142 50 76 142 50 76 142 62 76 142 62 90 88 62 90 88 62 90 88 62 90 88 38 90 88 38 90 88 38 90 106 38 34 106 38 34 106 50 34 106 50 34 106 50 34 106 50 34 124 50 34 124 62 48 124 62 48 124 62 48 124 62 48 124 62 48 142 38 48 142 38 48 142 38 62 142 38 62 142 38 62 142 50 62 88 50 62 88 50 62 88 50 62 88 50 76 88 62 76 88 62 76 106 62 76 106 62 76 106 62 76 106 38 76 106 38 90 106 38 90 124 38 90 124 38 90 124 50 90 124 50 90 124 50 90 124 50 34 142 50 34 142 62 34 142 62 34 142 62 34 142 62 34 142 62 34 88 38 48 88 38 48 88 38 48 88 38 48 88 38 48 88 50 48 106 50 48 106 50 62 106 50 62 106 50 62 106 62 62 106 62 62 124 62 62 124 62 62 124 62 76 124 38 76 124 38 76 124 38 76 142 38 76 142 38
76 124 38 76 124 38 76 124 38 76 124 38 76 124 38 76 124 50 76 142 50 90 142 50 90 142 50 90 142 50 90 142 62 90 142 62 90 88 62 90 88 62 34 88 62 34 88 38 34 88 38 34 88 38 34 106 38 34 106 38 34 106 50 48 106 50 48 106 50 48 106 50 48 124 50 48 124 62 48 124 62 48 124 62 62 124 62 62 124 62 62 142 38 62 142 38 62 142 38 62 142 38 62 142 38 76 142 50 76 88 50 76 88 50 76 88 50 76 88 50 76 88 62 76 88 62 90 106 62 90 106 62 90 106 62 90 106 38 90 106 38 90 106 38 90 124 38 34 124 38 34 124 50 34 124 50 34 124 50 34 124 50 34 142 50 34 142 62 48 142 62 48 142 62 48 142 62 48 142 62 48 88 38 48 88 38 48 88 38 62 88 38 62 88 38 62 88 50 62 106 50 62 106 50 62 106 50 62 106 50 76 106 62 76 106 62 76 124 62 76 124 62 76 124 62 76 124 38 76 124 38 90 124 38 90 142 38 90 142 38 90 142 50 90 142 50 90 142 50 90 142 50 34 88 50 34 88 62 34 88 62 34 88 62 34 88 62 34 88 62 34 106 38 48 106 38 48 106 38 48 106 38 48 106 38 48 106 50 48 124 50 48 124 50 62 124 50 62 124 50 62 124 62 62 124 62 62 142 62 62 142 62 62 142 62 76 142 38 76 142 38 76 142 38 76 88 38 76 88 38 76 88 50 76 88 50 90 88 50 90 88 50 90 106 50 90 106 62 90 106 62 90 106 62 90 106 62 34 106 62 34 124 38 34 124 38 34 124 38 34 124 38 34 124 38 34 124 50 48 142 50 48 142 50 48 142 50 48 142 50 48 142 62 48 142 62 48 88 62 62 88 62 62 88 62 62 88 38 62 88 38 62 88 38 62 106 38 62 106 38 76 106 50 76 106 50 76 106 50 76 106 50 76 124 50 76 124 62 76 124 62 90 124 62 90 124 62 90 124 62 90 142 38 90 142 38 90 142 38 90 142 38 34 142 38 34 142 50 34 88 50 34 88 50 34 88 50 34 88 50 34 88 62 48 88 62 48 106 62 48 106 62 48 106 62 48 106 38 48 106 38 48 106 38 62 124 38 62 124 38 62 124 50 62 124 50 62 124 50 62 124 50 62 142 50 76 142 62 76 142 62 76 142 62 76 142 62 76 142 62 76 88 38 76 88 38 90 88 38 90 88 38 90 88 38 90 88 50 90 106 50 90 106 50 90 106 50 34 106 50 34 106 62 34 106 62 34 124 62 34 124 62 34 124 62 34 124 38 48 124 38 48 124 38 48 142 38 48 142 38 48 142 50 48 142 50 48 142 50 62 142 50 62 88 50 62 88 62 62 88 62 62 88 62 62 88 62 62 88 62 76 106 38 76 106 38 76 106 38 76 106 38 76 106 38 76 106 50 76 124 50 90 124 50 90 124 50 90 124 50 90 124 62 90 124 62 90 142 62 90 142 62 34 142 62 34 142 38 34 142 38 34 142 38 34 88 38 34 88 38 34 88 50 48 88 50 48 88 50 48 88 50 48 106 50 48 106 62 48 106 62 48 106 62 62 106 62 62 106 62 62 124 38 62 124 38 62 124 38 62 124 38 62 124 38 76 124 50 76 142 50 76 142 50 76 142 50 76 142 50 76 142 62 76 142 62 90 88 62 90 88 62 90 88 62 90 88 38 90 88 38 90 88 38 90 106 38 34 106 38 34 106 50 34 106 50 34 106 50 34 106 50 34 124 50 34 124 62 48 124 62 48 124 62 48 124 62 48 124 62 48 142 38 48 142 38 48 142 38 62 142 38 62 142 38 62 142 50 62 88 50 62 88 50 62 88 50 62 88 50 76 88 62 76 88 62 76 106 62 76 106 62 76 106 62 76 106 38 76 106 38 90 106 38 90 124 38 90 124 38 90 124 50 90 124 50 90 124 50 90 124 50 34 142 50 34 142 62 34 142 62 34 142 62 34 142 62 34 142 62 34 88 38 48 88 38 48 88 38 48 88 38 48 88 38 48 88 50 48 106 50 48 106 50 62 106 50 62 106 50 62 106 62 62 106 62 62 124 62 62 124 62 62 124 62 76 124 38 76 124 38 76 124 38 76 142 38 76 142 38
76 124 38 76 124 38 76 124 38 76 124 38 76 124 38 76 124 50 76 142 50 90 142 50 90 142 50 90 142 50 90 142 62 90 142 62 90 88 62 90 88 62 34 88 62 34 88 38 34 88 38 34 88 38 34 106 38 34 106 38 34 106 50 48 106 50 48 106 50 48 106 50 48 124 50 48 124 62 48 124 62 48 124 62 62 124 62 62 124 62 62 142 38 62 142 38 62 142 38 62 142 38 62 142 38 76 142 50 76 88 50 76 88 50 76 88 50 76 88 50 76 88 62 76 88 62 90 106 62 90 106 62 90 106 62 90 106 38 90 106 38 90 106 38 90 124 38 34 124 38 34 124 50 34 124 50 34 124 50 34 124 50 34 142 50 34 142 62 48 142 62 48 142 62 48 142 62 48 142 62 48 88 38 48 88 38 48 88 38 62 88 38 62 88 38 62 88 50 62 106 50 62 106 50 62 106 50 62 106 50 76 106 62 76 106 62 76 124 62 76 124 62 76 124 62 76 124 38 76 124 38 90 124 38 90 142 38 90 142 38 90 142 50 90 142 50 90 142 50 90 142 50 34 88 50 34 88 62 34 88 62 34 88 62 34 88 62 34 88 62 34 106 38 48 106 38 48 106 38 48 106 38 48 106 38 48 106 50 48 124 50 48 124 50 62 124 50 62 124 50 62 124 62 62 124 62 62 142 62 62 142 62 62 142 62 76 142 38 76 142 38 76 142 38 76 88 38 76 88 38 76 88 50 76 88 50 90 88 50 90 88 50 90 106 50 90 106 62 90 106 62 90 106 62 90 106 62 34 106 62 34 124 38 34 124 38 34 124 38 34 124 38 34 124 38 34 124 50 48 142 50 48 142 50 48 142 50 48 142 50 48 142 62 48 142 62 48 88 62 62 88 62 62 88 62 62 88 38 62 88 38 62 88 38 62 106 38 62 106 38 76 106 50 76 106 50 76 106 50 76 106 50 76 124 50 76 124 62 76 124 62 90 124 62 90 124 62 90 124 62 90 142 38 90 142 38 90 142 38 90 142 38 34 142 38 34 142 50 34 88 50 34 88 50 34 88 50 34 88 50 34 88 62 48 88 62 48 106 62 48 106 62 48 106 62 48 106 38 48 106 38 48 106 38 62 124 38 62 124 38 62 124 50 62 124 50 62 124 50 62 124 50 62 142 50 76 142 62 76 142 62 76 142 62 76 142 62 76 142 62 76 88 38 76 88 38 90 88 38 90 88 38 90 88 38 90 88 50 90 106 50 90 106 50 90 106 50 34 106 50 34 106 62 34 106 62 34 124 62 34 124 62 34 124 62 34 124 38 48 124 38 48 124 38 48 142 38 48 142 38 48 142 50 48 142 50 48 142 50 62 142 50 62 88 50 62 88 62 62 88 62 62 88 62 62 88 62 62 88 62 76 106 38 76 106 38 76 106 38 76 106 38 76 106 38 76 106 50 76 124 50 90 124 50 90 124 50 90 124 50 90 124 62 90 124 62 90 142 62 90 142 62 34 142 62 34 142 38 34 142 38 34 142 38 34 88 38 34 88 38 34 88 50 48 88 50 48 88 50 48 88 50 48 106 50 48 106 62 48 106 62 48 106 62 62 106 62 62 106 62 62 124 38 62 124 38 62 124 38 62 124 38 62 124 38 76 124 50 76 142 50 76 142 50 76 142 50 76 142 50 76 142 62 76 142 62 90 88 62 90 88 62 90 88 62 90 88 38 90 88 38 90 88 38 90 106 38 34 106 38 34 106 50 34 106 50 34 106 50 34 106 50 34 124 50 34 124 62 48 124 62 48 124 62 48 124 62 48 124 62 48 142 38 48 142 38 48 142 38 62 142 38 62 142 38 62 142 50 62 88 50 62 88 50 62 88 50 62 88 50 76 88 62 76 88 62 76 106 62 76 106 62 76 106 62 76 106 38 76 106 38 90 106 38 90 124 38 90 124 38 90 124 50 90 124 50 90 124 50 90 124 50 34 142 50 34 142 62 34 142 62 34 142 62 34 142 62 34 142 62 34 88 38 48 88 38 48 88 38 48 88 38 48 88 38 48 88 50 48 106 50 48 106 50 62 106 50 62 106 50 62 106 62 62 106 62 62 124 62 62 124 62 62 124 62 76 124 38 76 124 38 76 124 38 76 142 38 76 142 38
76 124 38 76 124 38 76 124 38 76 124 38 76 124 38 76 124 50 76 142 50 90 142 50 90 142 50 90 142 50 90 142 62 90 142 62 90 88 62 90 88 62 34 88 62 34 88 38 34 88 38 34 88 38 34 106 38 34 106 38 34 106 50 48 106 50 48 106 50 48 106 50 48 124 50 48 124 62 48 124 62 48 124 62 62 124 62 62 124 62 62 142 38 62 142 38 62 142 38 62 142 38 62 142 38 76 142 50 76 88 50 76 88 50 76 88 50 76 88 50 76 88 62 76 88 62 90 106 62 90 106 62 90 106 62 90 106 38 90 106 38 90 106 38 90 124 38 34 124 38 34 124 50 34 124 50 34 124 50 34 124 50 34 142 50 34 142 62 48 142 62 48 142 62 48 142 62 48 142 62 48 88 38 48 88 38 48 88 38 62 88 38 62 88 38 62 88 50 62 106 50 62 106 50 62 106 50 62 106 50 76 106 62 76 106 62 76 124 62 76 124 62 76 124 62 76 124 38 76 124 38 90 124 38 90 142 38 90 142 38 90 142 50 90 142 50 90 142 50 90 142 50 34 88 50 34 88 62 34 88 62 34 88 62 34 88 62 34 88 62 34 106 38 48 106 38 48 106 38 48 106 38 48 106 38 48 106 50 48 124 50 48 124 50 62 124 50 62 124 50 62 124 62 62 124 62 62 142 62 62 142 62 62 142 62 76 142 38 76 142 38 76 142 38 76 88 38 76 88 38 76 88 50 76 88 50 90 88 50 90 88 50 90 106 50 90 106 62 90 106 62 90 106 62 90 106 62 34 106 62 34 124 38 34 124 38 34 124 38 34 124 38 34 124 38 34 124 50 48 142 50 48 142 50 48 142 50 48 142 50 48 142 62 48 142 62 48 88 62 62 88 62 62 88 62 62 88 38 62 88 38 62 88 38 62 106 38 62 106 38 76 106 50 76 106 50 76 106 50 76 106 50 76 124 50 76 124 62 76 124 62 90 124 62 90 124 62 90 124 62 90 142 38 90 142 38 90 142 38 90 142 38 34 142 38 34 142 50 34 88 50 34 88 50 34 88 50 34 88 50 34 88 62 48 88 62 48 106 62 48 106 62 48 106 62 48 106 38 48 106 38 48 106 38 62 124 38 62 124 38 62 124 50 62 124 50 62 124 50 62 124 50 62 142 50 76 142 62 76 142 62 76 142 62 76 142 62 76 142 62 76 88 38 76 88 38 90 88 38 90 88 38 90 88 38 90 88 50 90 106 50 90 106 50 90 106 50 34 106 50 34 106 62 34 106 62 34 124 62 34 124 62 34 124 62 34 124 38 48 124 38 48 124 38 48 142 38 48 142 38 48 142 50 48 142 50 48 142 50 62 142 50 62 88 50 62 88 62 62 88 62 62 88 62 62 88 62 62 88 62 76 106 38 76 106 38 76 106 38 76 106 38 76 106 38 76 106 50 76 124 50 90 124 50 90 124 50 90 124 50 90 124 62 90 124 62 90 142 62 90 142 62 34 142 62 34 142 38 34 142 38 34 142 38 34 88 38 34 88 38 34 88 50 48 88 50 48 88 50 48 88 50 48 106 50 48 106 62 48 106 62 48 106 62 62 106 62 62 106 62 62 124 38 62 124 38 62 124 38 62 124 38 62 124 38 76 124 50 76 142 50 76 142 50 76 142 50 76 142 50 76 142 62 76 142 62 90 88 62 90 88 62 90 88 62 90 88 38 90 88 38 90 88 38 90 106 38 34 106 38 34 106 50 34 106 50 34 106 50 34 106 50 34 124 50 34 124 62 48 124 62 48 124 62 48 124 62 48 124 62 48 142 38 48 142 38 48 142 38 62 142 38 62 142 38 62 142 50 62 88 50 62 88 50 62 88 50 62 88 50 76 88 62 76 88 62 76 106 62 76 106 62 76 106 62 76 106 38 76 106 38 90 106 38 90 124 38 90 124 38 90 124 50 90 124 50 90 124 50 90 124 50 34 142 50 34 142 62 34 142 62 34 142 62 34 142 62 34 142 62 34 88 38 48 88 38 48 88 38 48 88 38 48 88 38 48 88 50 48 106 50 48 106 50 62 106 50 62 106 50 62 106 62 62 106 62 62 124 62 62 124 62 62 124 62 76 124 38 76 124 38 76 124 38 76 142 38 76 142 38
76 124 38 76 124 38 76 124 38 76 124 38 76 124 38 76 124 50 76 142 50 90 142 50 90 142 50 90 142 50 90 142 62 90 142 62 90 88 62 90 88 62 34 88 62 34 88 38 34 88 38 34 88 38 34 106 38 34 106 38 34 106 50 48 106 50 48 106 50 48 106 50 48 124 50 48 124 62 48 124 62 48 124 62 62 124 62 62 124 62 62 142 38 62 142 38 62 142 38 62 142 38 62 142 38 76 142 50 76 88 50 76 88 50 76 88 50 76 88 50 76 88 62 76 88 62 90 106 62 90 106 62 90 106 62 90 106 38 90 106 38 90 106 38 90 124 38 34 124 38 34 124 50 34 124 50 34 124 50 34 124 50 34 142 50 34 142 62 48 142 62 48 142 62 48 142 62 48 142 62 48 88 38 48 88 38 48 88 38 62 88 38 62 88 38 62 88 50 62 106 50 62 106 50 62 106 50 62 106 50 76 106 62 76 106 62 76 124 62 76 124 62 76 124 62 76 124 38 76 124 38 90 124 38 90 142 38 90 142 38 90 142 50 90 142 50 90 142 50 90 142 50 34 88 50 34 88 62 34 88 62 34 88 62 34 88 62 34 88 62 34 106 38 48 106 38 48 106 38 48 106 38 48 106 38 48 106 50 48 124 50 48 124 50 62 124 50 62 124 50 62 124 62 62 124 62 62 142 62 62 142 62 62 142 62 76 142 38 76 142 38 76 142 38 76 88 38 76 88 38 76 88 50 76 88 50 90 88 50 90 88 50 90 106 50 90 106 62 90 106 62 90 106 62 90 106 62 34 106 62 34 124 38 34 124 38 34 124 38 34 124 38 34 124 38 34 124 50 48 142 50 48 142 50 48 142 50 48 142 50 48 142 62 48 142 62 48 88 62 62 88 62 62 88 62 62 88 38 62 88 38 62 88 38 62 106 38 62 106 38 76 106 50 76 106 50 76 106 50 76 106 50 76 124 50 76 124 62 76 124 62 90 124 62 90 124 62 90 124 62 90 142 38 90 142 38 90 142 38 90 142 38 34 142 38 34 142 50 34 88 50 34 88 50 34 88 50 34 88 50 34 88 62 48 88 62 48 106 62 48 106 62 48 106 62 48 106 38 48 106 38 48 106 38 62 124 38 62 124 38 62 124 50 62 124 50 62 124 50 62 124 50 62 142 50 76 142 62 76 142 62 76 142 62 76 142 62 76 142 62 76 88 38 76 88 38 90 88 38 90 88 38 90 88 38 90 88 50 90 106 50 90 106 50 90 106 50 34 106 50 34 106 62 34 106 62 34 124 62 34 124 62 34 124 62 34 124 38 48 124 38 48 124 38 48 142 38 48 142 38 48 142 50 48 142 50 48 142 50 62 142 50 62 88 50 62 88 62 62 88 62 62 88 62 62 88 62 62 88 62 76 106 38 76 106 38 76 106 38 76 106 38 76 106 38 76 106 50 76 124 50 90 124 50 90 124 50 90 124 50 90 124 62 90 124 62 90 142 62 90 142 62 34 142 62 34 142 38 34 142 38 34 142 38 34 88 38 34 88 38 34 88 50 48 88 50 48 88 50 48 88 50 48 106 50 48 106 62 48 106 62 48 106 62 62 106 62 62 106 62 62 124 38 62 124 38 62 124 38 62 124 38 62 124 38 76 124 50 76 142 50 76 142 50 76 142 50 76 142 50 76 142 62 76 142 62 90 88 62 90 88 62 90 88 62 90 88 38 90 88 38 90 88 38 90 106 38 34 106 38 34 106 50 34 106 50 34 106 50 34 106 50 34 124 50 34 124 62 48 124 62 48 124 62 48 124 62 48 124 62 48 142 38 48 142 38 48 142 38 62 142 38 62 142 38 62 142 50 62 88 50 62 88 50 62 88 50 62 88 50 76 88 62 76 88 62 76 106 62 76 106 62 76 106 62 76 106 38 76 106 38 90 106 38 90 124 38 90 124 38 90 124 50 90 124 50 90 124 50 90 124 50 34 142 50 34 142 62 34 142 62 34 142 62 34 142 62 34 142 62 34 88 38 48 88 38 48 88 38 48 88 38 48 88 38 48 88 50 48 106 50 48 106 50 62 106 50 62 106 50 62 106 62 62 106 62 62 124 62 62 124 62 62 124 62 76 124 38 76 124 38 76 124 38 76 142 38 76 142 38
90 142 38 90 142 38 90 142 38 90 142 38 90 142 38 90 142 50 90 88 50 34 88 50 34 88 50 34 88 50 34 88 62 34 88 62 34 106 62 34 106 62 48 106 62 48 106 38 48 106 38 48 106 38 48 124 38 48 124 38 48 124 50 62 124 50 62 124 50 62 124 50 62 142 50 62 142 62 62 142 62 62 142 62 76 142 62 76 142 62 76 88 38 76 88 38 76 88 38 76 88 38 76 88 38 90 88 50 90 106 50 90 106 50 90 106 50 90 106 50 90 106 62 90 106 62 34 124 62 34 124 62 34 124 62 34 124 38 34 124 38 34 124 38 34 142 38 48 142 38 48 142 50 48 142 50 48 142 50 48 142 50 48 88 50 48 88 62 62 88 62 62 88 62 62 88 62 62 88 62 62 106 38 62 106 38 62 106 38 76 106 38 76 106 38 76 106 50 76 124 50 76 124 50 76 124 50 76 124 50 90 124 62 90 124 62 90 142 62 90 142 62 90 142 62 90 142 38 90 142 38 34 142 38 34 88 38 34 88 38 34 88 50 34 88 50 34 88 50 34 88 50 48 106 50 48 106 62 48 106 62 48 106 62 48 106 62 48 106 62 48 124 38 62 124 38 62 124 38 62 124 38 62 124 38 62 124 50 62 142 50 62 142 50 76 142 50 76 142 50 76 142 62 76 142 62 76 88 62 76 88 62 76 88 62 90 88 38 90 88 38 90 88 38 90 106 38 90 106 38 90 106 50 90 106 50 34 106 50 34 106 50 34 124 50 34 124 62 34 124 62 34 124 62 34 124 62 48 124 62 48 142 38 48 142 38 48 142 38 48 142 38 48 142 38 48 142 50 62 88 50 62 88 50 62 88 50 62 88 50 62 88 62 62 88 62 62 106 62 76 106 62 76 106 62 76 106 38 76 106 38 76 106 38 76 124 38 76 124 38 90 124 50 90 124 50 90 124 50 90 124 50 90 142 50 90 142 62 90 142 62 34 142 62 34 142 62 34 142 62 34 88 38 34 88 38 34 88 38 34 88 38 48 88 38 48 88 50 48 106 50 48 106 50 48 106 50 48 106 50 48 106 62 62 106 62 62 124 62 62 124 62 62 124 62 62 124 38 62 124 38 62 124 38 76 142 38 76 142 38 76 142 50 76 142 50 76 142 50 76 142 50 76 88 50 90 88 62 90 88 62 90 88 62 90 88 62 90 88 62 90 106 38 90 106 38 34 106 38 34 106 38 34 106 38 34 106 50 34 124 50 34 124 50 34 124 50 48 124 50 48 124 62 48 124 62 48 142 62 48 142 62 48 142 62 48 142 38 62 142 38 62 142 38 62 88 38 62 88 38 62 88 50 62 88 50 62 88 50 76 88 50 76 106 50 76 106 62 76 106 62 76 106 62 76 106 62 76 106 62 90 124 38 90 124 38 90 124 38 90 124 38 90 124 38 90 124 50 90 142 50 34 142 50 34 142 50 34 142 50 34 142 62 34 142 62 34 88 62 34 88 62 48 88 62 48 88 38 48 88 38 48 88 38 48 106 38 48 106 38 48 106 50 62 106 50 62 106 50 62 106 50 62 124 50 62 124 62 62 124 62 62 124 62 76 124 62 76 124 62 76 142 38 76 142 38 76 142 38 76 142 38 76 142 38 90 142 50 90 88 50 90 88 50 90 88 50 90 88 50 90 88 62 90 88 62 34 106 62 34 106 62 34 106 62 34 106 38 34 106 38 34 106 38 34 124 38 48 124 38 48 124 50 48 124 50 48 124 50 48 124 50 48 142 50 48 142 62 62 142 62 62 142 62 62 142 62 62 142 62 62 88 38 62 88 38 62 88 38 76 88 38 76 88 38 76 88 50 76 106 50 76 106 50 76 106 50 76 106 50 90 106 62 90 106 62 90 124 62 90 124 62 90 124 62 90 124 38 90 124 38 34 124 38 34 142 38 34 142 38 34 142 50 34 142 50 34 142 50 34 142 50 48 88 50 48 88 62 48 88 62 48 88 62 48 88 62 48 88 62 48 106 38 62 106 38 62 106 38 62 106 38 62 106 38 62 106 50 62 124 50 62 124 50 76 124 50 76 124 50 76 124 62 76 124 62 76 142 62 76 142 62 76 142 62 90 142 38 90 142 38 90 142 38 90 88 38 90 88 38
90 142 38 90 142 38 90 142 38 90 142 38 90 142 38 90 142 50 90 88 50 34 88 50 34 88 50 34 88 50 34 88 62 34 88 62 34 106 62 34 106 62 48 106 62 48 106 38 48 106 38 48 106 38 48 124 38 48 124 38 48 124 50 62 124 50 62 124 50 62 124 50 62 142 50 62 142 62 62 142 62 62 142 62 76 142 62 76 142 62 76 88 38 76 88 38 76 88 38 76 88 38 76 88 38 90 88 50 90 106 50 90 106 50 90 106 50 90 106 50 90 106 62 90 106 62 34 124 62 34 124 62 34 124 62 34 124 38 34 124 38 34 124 38 34 142 38 48 142 38 48 142 50 48 142 50 48 142 50 48 142 50 48 88 50 48 88 62 62 88 62 62 88 62 62 88 62 62 88 62 62 106 38 62 106 38 62 106 38 76 106 38 76 106 38 76 106 50 76 124 50 76 124 50 76 124 50 76 124 50 90 124 62 90 124 62 90 142 62 90 142 62 90 142 62 90 142 38 90 142 38 34 142 38 34 88 38 34 88 38 34 88 50 34 88 50 34 88 50 34 88 50 48 106 50 48 106 62 48 106 62 48 106 62 48 106 62 48 106 62 48 124 38 62 124 38 62 124 38 62 124 38 62 124 38 62 124 50 62 142 50 62 142 50 76 142 50 76 142 50 76 142 62 76 142 62 76 88 62 76 88 62 76 88 62 90 88 38 90 88 38 90 88 38 90 106 38 90 106 38 90 106 50 90 106 50 34 106 50 34 106 50 34 124 50 34 124 62 34 124 62 34 124 62 34 124 62 48 124 62 48 142 38 48 142 38 48 142 38 48 142 38 48 142 38 48 142 50 62 88 50 62 88 50 62 88 50 62 88 50 62 88 62 62 88 62 62 106 62 76 106 62 76 106 62 76 106 38 76 106 38 76 106 38 76 124 38 76 124 38 90 124 50 90 124 50 90 124 50 90 124 50 90 142 50 90 142 62 90 142 62 34 142 62 34 142 62 34 142 62 34 88 38 34 88 38 34 88 38 34 88 38 48 88 38 48 88 50 48 106 50 48 106 50 48 106 50 48 106 50 48 106 62 62 106 62 62 124 62 62 124 62 62 124 62 62 124 38 62 124 38 62 124 38 76 142 38 76 142 38 76 142 50 76 142 50 76 142 50 76 142 50 76 88 50 90 88 62 90 88 62 90 88 62 90 88 62 90 88 62 90 106 38 90 106 38 34 106 38 34 106 38 34 106 38 34 106 50 34 124 50 34 124 50 34 124 50 48 124 50 48 124 62 48 124 62 48 142 62 48 142 62 48 142 62 48 142 38 62 142 38 62 142 38 62 88 38 62 88 38 62 88 50 62 88 50 62 88 50 76 88 50 76 106 50 76 106 62 76 106 62 76 106 62 76 106 62 76 106 62 90 124 38 90 124 38 90 124 38 90 124 38 90 124 38 90 124 50 90 142 50 34 142 50 34 142 50 34 142 50 34 142 62 34 142 62 34 88 62 34 88 62 48 88 62 48 88 38 48 88 38 48 88 38 48 106 38 48 106 38 48 106 50 62 106 50 62 106 50 62 106 50 62 124 50 62 124 62 62 124 62 62 124 62 76 124 62 76 124 62 76 142 38 76 142 38 76 142 38 76 142 38 76 142 38 90 142 50 90 88 50 90 88 50 90 88 50 90 88 50 90 88 62 90 88 62 34 106 62 34 106 62 34 106 62 34 106 38 34 106 38 34 106 38 34 124 38 48 124 38 48 124 50 48 124 50 48 124 50 48 124 50 48 142 50 48 142 62 62 142 62 62 142 62 62 142 62 62 142 62 62 88 38 62 88 38 62 88 38 76 88 38 76 88 38 76 88 50 76 106 50 76 106 50 76 106 50 76 106 50 90 106 62 90 106 62 90 124 62 90 124 62 90 124 62 90 124 38 90 124 38 34 124 38 34 142 38 34 142 38 34 142 50 34 142 50 34 142 50 34 142 50 48 88 50 48 88 62 48 88 62 48 88 62 48 88 62 48 88 62 48 106 38 62 106 38 62 106 38 62 106 38 62 106 38 62 106 50 62 124 50 62 124 50 76 124 50 76 124 50 76 124 62 76 124 62 76 142 62 76 142 62 76 142 62 90 142 38 90 142 38 90 142 38 90 88 38 90 88 38
90 142 38 90 142 38 90 142 38 90 142 38 90 142 38 90 142 50 90 88 50 34 88 50 34 88 50 34 88 50 34 88 62 34 88 62 34 106 62 34 106 62 48 106 62 48 106 38 48 106 38 48 106 38 48 124 38 48 124 38 48 124 50 62 124 50 62 124 50 62 124 50 62 142 50 62 142 62 62 142 62 62 142 62 76 142 62 76 142 62 76 88 38 76 88 38 76 88 38 76 88 38 76 88 38 90 88 50 90 106 50 90 106 50 90 106 50 90 106 50 90 106 62 90 106 62 34 124 62 34 124 62 34 124 62 34 124 38 34 124 38 34 124 38 34 142 38 48 142 38 48 142 50 48 142 50 48 142 50 48 142 50 48 88 50 48 88 62 62 88 62 62 88 62 62 88 62 62 88 62 62 106 38 62 106 38 62 106 38 76 106 38 76 106 38 76 106 50 76 124 50 76 124 50 76 124 50 76 124 50 90 124 62 90 124 62 90 142 62 90 142 62 90 142 62 90 142 38 90 142 38 34 142 38 34 88 38 34 88 38 34 88 50 34 88 50 34 88 50 34 88 50 48 106 50 48 106 62 48 106 62 48 106 62 48 106 62 48 106 62 48 124 38 62 124 38 62 124 38 62 124 38 62 124 38 62 124 50 62 142 50 62 142 50 76 142 50 76 142 50 76 142 62 76 142 62 76 88 62 76 88 62 76 88 62 90 88 38 90 88 38 90 88 38 90 106 38 90 106 38 90 106 50 90 106 50 34 106 50 34 106 50 34 124 50 34 124 62 34 124 62 34 124 62 34 124 62 48 124 62 48 142 38 48 142 38 48 142 38 48 142 38 48 142 38 48 142 50 62 88 50 62 88 50 62 88 50 62 88 50 62 88 62 62 88 62 62 106 62 76 106 62 76 106 62 76 106 38 76 106 38 76 106 38 76 124 38 76 124 38 90 124 50 90 124 50 90 124 50 90 124 50 90 142 50 90 142 62 90 142 62 34 142 62 34 142 62 34 142 62 34 88 38 34 88 38 34 88 38 34 88 38 48 88 38 48 88 50 48 106 50 48 106 50 48 106 50 48 106 50 48 106 62 62 106 62 62 124 62 62 124 62 62 124 62 62 124 38 62 124 38 62 124 38 76 142 38 76 142 38 76 142 50 76 142 50 76 142 50 76 142 50 76 88 50 90 88 62 90 88 62 90 88 62 90 88 62 90 88 62 90 106 38 90 106 38 34 106 38 34 106 38 34 106 38 34 106 50 34 124 50 34 124 50 34 124 50 48 124 50 48 124 62 48 124 62 48 142 62 48 142 62 48 142 62 48 142 38 62 142 38 62 142 38 62 88 38 62 88 38 62 88 50 62 88 50 62 88 50 76 88 50 76 106 50 76 106 62 76 106 62 76 106 62 76 106 62 76 106 62 90 124 38 90 124 38 90 124 38 90 124 38 90 124 38 90 124 50 90 142 50 34 142 50 34 142 50 34 142 50 34 142 62 34 142 62 34 88 62 34 88 62 48 88 62 48 88 38 48 88 38 48 88 38 48 106 38 48 106 38 48 106 50 62 106 50 62 106 50 62 106 50 62 124 50 62 124 62 62 124 62 62 124 62 76 124 62 76 124 62 76 142 38 76 142 38 76 142 38 76 142 38 76 142 38 90 142 50 90 88 50 90 88 50 90 88 50 90 88 50 90 88 62 90 88 62 34 106 62 34 106 62 34 106 62 34 106 38 34 106 38 34 106 38 34 124 38 48 124 38 48 124 50 48 124 50 48 124 50 48 124 50 48 142 50 48 142 62 62 142 62 62 142 62 62 142 62 62 142 62 62 88 38 62 88 38 62 88 38 76 88 38 76 88 38 76 88 50 76 106 50 76 106 50 76 106 50 76 106 50 90 106 62 90 106 62 90 124 62 90 124 62 90 124 62 90 124 38 90 124 38 34 124 38 34 142 38 34 142 38 34 142 50 34 142 50 34 142 50 34 142 50 48 88 50 48 88 62 48 88 62 48 88 62 48 88 62 48 88 62 48 106 38 62 106 38 62 106 38 62 106 38 62 106 38 62 106 50 62 124 50 62 124 50 76 124 50 76 124 50 76 124 62 76 124 62 76 142 62 76 142 62 76 142 62 90 142 38 90 142 38 90 142 38 90 88 38 90 88 38
90 142 50 90 142 50 90 142 50 90 142 50 90 142 50 90 142 62 90 88 62 34 88 62 34 88 62 34 88 62 34 88 38 34 88 38 34 106 38 34 106 38 48 106 38 48 106 50 48 106 50 48 106 50 48 124 50 48 124 50 48 124 62 62 124 62 62 124 62 62 124 62 62 142 62 62 142 38 62 142 38 62 142 38 76 142 38 76 142 38 76 88 50 76 88 50 76 88 50 76 88 50 76 88 50 90 88 62 90 106 62 90 106 62 90 106 62 90 106 62 90 106 38 90 106 38 34 124 38 34 124 38 34 124 38 34 124 50 34 124 50 34 124 50 34 142 50 48 142 50 48 142 62 48 142 62 48 142 62 48 142 62 48 88 62 48 88 38 62 88 38 62 88 38 62 88 38 62 88 38 62 106 50 62 106 50 62 106 50 76 106 50 76 106 50 76 106 62 76 124 62 76 124 62 76 124 62 76 124 62 90 124 38 90 124 38 90 142 38 90 142 38 90 142 38 90 142 50 90 142 50 34 142 50 34 88 50 34 88 50 34 88 62 34 88 62 34 88 62 34 88 62 48 106 62 48 106 38 48 106 38 48 106 38 48 106 38 48 106 38 48 124 50 62 124 50 62 124 50 62 124 50 62 124 50 62 124 62 62 142 62 62 142 62 76 142 62 76 142 62 76 142 38 76 142 38 76 88 38 76 88 38 76 88 38 90 88 50 90 88 50 90 88 50 90 106 50 90 106 50 90 106 62 90 106 62 34 106 62 34 106 62 34 124 62 34 124 38 34 124 38 34 124 38 34 124 38 48 124 38 48 142 50 48 142 50 48 142 50 48 142 50 48 142 50 48 142 62 62 88 62 62 88 62 62 88 62 62 88 62 62 88 38 62 88 38 62 106 38 76 106 38 76 106 38 76 106 50 76 106 50 76 106 50 76 124 50 76 124 50 90 124 62 90 124 62 90 124 62 90 124 62 90 142 62 90 142 38 90 142 38 34 142 38 34 142 38 34 142 38 34 88 50 34 88 50 34 88 50 34 88 50 48 88 50 48 88 62 48 106 62 48 106 62 48 106 62 48 106 62 48 106 38 62 106 38 62 124 38 62 124 38 62 124 38 62 124 50 62 124 50 62 124 50 76 142 50 76 142 50 76 142 62 76 142 62 76 142 62 76 142 62 76 88 62 90 88 38 90 88 38 90 88 38 90 88 38 90 88 38 90 106 50 90 106 50 34 106 50 34 106 50 34 106 50 34 106 62 34 124 62 34 124 62 34 124 62 48 124 62 48 124 38 48 124 38 48 142 38 48 142 38 48 142 38 48 142 50 62 142 50 62 142 50 62 88 50 62 88 50 62 88 62 62 88 62 62 88 62 76 88 62 76 106 62 76 106 38 76 106 38 76 106 38 76 106 38 76 106 38 90 124 50 90 124 50 90 124 50 90 124 50 90 124 50 90 124 62 90 142 62 34 142 62 34 142 62 34 142 62 34 142 38 34 142 38 34 88 38 34 88 38 48 88 38 48 88 50 48 88 50 48 88 50 48 106 50 48 106 50 48 106 62 62 106 62 62 106 62 62 106 62 62 124 62 62 124 38 62 124 38 62 124 38 76 124 38 76 124 38 76 142 50 76 142 50 76 142 50 76 142 50 76 142 50 90 142 62 90 88 62 90 88 62 90 88 62 90 88 62 90 88 38 90 88 38 34 106 38 34 106 38 34 106 38 34 106 50 34 106 50 34 106 50 34 124 50 48 124 50 48 124 62 48 124 62 48 124 62 48 124 62 48 142 62 48 142 38 62 142 38 62 142 38 62 142 38 62 142 38 62 88 50 62 88 50 62 88 50 76 88 50 76 88 50 76 88 62 76 106 62 76 106 62 76 106 62 76 106 62 90 106 38 90 106 38 90 124 38 90 124 38 90 124 38 90 124 50 90 124 50 34 124 50 34 142 50 34 142 50 34 142 62 34 142 62 34 142 62 34 142 62 48 88 62 48 88 38 48 88 38 48 88 38 48 88 38 48 88 38 48 106 50 62 106 50 62 106 50 62 106 50 62 106 50 62 106 62 62 124 62 62 124 62 76 124 62 76 124 62 76 124 38 76 124 38 76 142 38 76 142 38 76 142 38 90 142 50 90 142 50 90 142 50 90 88 50 90 88 50
90 142 50 90 142 50 90 142 50 90 142 50 90 142 50 90 142 62 90 88 62 34 88 62 34 88 62 34 88 62 34 88 38 34 88 38 34 106 38 34 106 38 48 106 38 48 106 50 48 106 50 48 106 50 48 124 50 48 124 50 48 124 62 62 124 62 62 124 62 62 124 62 62 142 62 62 142 38 62 142 38 62 142 38 76 142 38 76 142 38 76 88 50 76 88 50 76 88 50 76 88 50 76 88 50 90 88 62 90 106 62 90 106 62 90 106 62 90 106 62 90 106 38 90 106 38 34 124 38 34 124 38 34 124 38 34 124 50 34 124 50 34 124 50 34 142 50 48 142 50 48 142 62 48 142 62 48 142 62 48 142 62 48 88 62 48 88 38 62 88 38 62 88 38 62 88 38 62 88 38 62 106 50 62 106 50 62 106 50 76 106 50 76 106 50 76 106 62 76 124 62 76 124 62 76 124 62 76 124 62 90 124 38 90 124 38 90 142 38 90 142 38 90 142 38 90 142 50 90 142 50 34 142 50 34 88 50 34 88 50 34 88 62 34 88 62 34 88 62 34 88 62 48 106 62 48 106 38 48 106 38 48 106 38 48 106 38 48 106 38 48 124 50 62 124 50 62 124 50 62 124 50 62 124 50 62 124 62 62 142 62 62 142 62 76 142 62 76 142 62 76 142 38 76 142 38 76 88 38 76 88 38 76 88 38 90 88 50 90 88 50 90 88 50 90 106 50 90 106 50 90 106 62 90 106 62 34 106 62 34 106 62 34 124 62 34 124 38 34 124 38 34 124 38 34 124 38 48 124 38 48 142 50 48 142 50 48 142 50 48 142 50 48 142 50 48 142 62 62 88 62 62 88 62 62 88 62 62 88 62 62 88 38 62 88 38 62 106 38 76 106 38 76 106 38 76 106 50 76 106 50 76 106 50 76 124 50 76 124 50 90 124 62 90 124 62 90 124 62 90 124 62 90 142 62 90 142 38 90 142 38 34 142 38 34 142 38 34 142 38 34 88 50 34 88 50 34 88 50 34 88 50 48 88 50 48 88 62 48 106 62 48 106 62 48 106 62 48 106 62 48 106 38 62 106 38 62 124 38 62 124 38 62 124 38 62 124 50 62 124 50 62 124 50 76 142 50 76 142 50 76 142 62 76 142 62 76 142 62 76 142 62 76 88 62 90 88 38 90 88 38 90 88 38 90 88 38 90 88 38 90 106 50 90 106 50 34 106 50 34 106 50 34 106 50 34 106 62 34 124 62 34 124 62 34 124 62 48 124 62 48 124 38 48 124 38 48 142 38 48 142 38 48 142 38 48 142 50 62 142 50 62 142 50 62 88 50 62 88 50 62 88 62 62 88 62 62 88 62 76 88 62 76 106 62 76 106 38 76 106 38 76 106 38 76 106 38 76 106 38 90 124 50 90 124 50 90 124 50 90 124 50 90 124 50 90 124 62 90 142 62 34 142 62 34 142 62 34 142 62 34 142 38 34 142 38 34 88 38 34 88 38 48 88 38 48 88 50 48 88 50 48 88 50 48 106 50 48 106 50 48 106 62 62 106 62 62 106 62 62 106 62 62 124 62 62 124 38 62 124 38 62 124 38 76 124 38 76 124 38 76 142 50 76 142 50 76 142 50 76 142 50 76 142 50 90 142 62 90 88 62 90 88 62 90 88 62 90 88 62 90 88 38 90 88 38 34 106 38 34 106 38 34 106 38 34 106 50 34 106 50 34 106 50 34 124 50 48 124 50 48 124 62 48 124 62 48 124 62 48 124 62 48 142 62 48 142 38 62 142 38 62 142 38 62 142 38 62 142 38 62 88 50 62 88 50 62 88 50 76 88 50 76 88 50 76 88 62 76 106 62 76 106 62 76 106 62 76 106 62 90 106 38 90 106 38 90 124 38 90 124 38 90 124 38 90 124 50 90 124 50 34 124 50 34 142 50 34 142 50 34 142 62 34 142 62 34 142 62 34 142 62 48 88 62 48 88 38 48 88 38 48 88 38 48 88 38 48 88 38 48 106 50 62 106 50 62 106 50 62 106 50 62 106 50 62 106 62 62 124 62 62 124 62 76 124 62 76 124 62 76 124 38 76 124 38 76 142 38 76 142 38 76 142 38 90 142 50 90 142 50 90 142 50 90 88 50 90 88 50
34 142 50 34 142 50 34 142 50 34 142 50 34 142 50 34 142 62 34 88 62 48 88 62 48 88 62 48 88 62 48 88 38 48 88 38 48 106 38 48 106 38 62 106 38 62 106 50 62 106 50 62 106 50 62 124 50 62 124 50 62 124 62 76 124 62 76 124 62 76 124 62 76 142 62 76 142 38 76 142 38 76 142 38 90 142 38 90 142 38 90 88 50 90 88 50 90 88 50 90 88 50 90 88 50 34 88 62 34 106 62 34 106 62 34 106 62 34 106 62 34 106 38 34 106 38 48 124 38 48 124 38 48 124 38 48 124 50 48 124 50 48 124 50 48 142 50 62 142 50 62 142 62 62 142 62 62 142 62 62 142 62 62 88 62 62 88 38 76 88 38 76 88 38 76 88 38 76 88 38 76 106 50 76 106 50 76 106 50 90 106 50 90 106 50 90 106 62 90 124 62 90 124 62 90 124 62 90 124 62 34 124 38 34 124 38 34 142 38 34 142 38 34 142 38 34 142 50 34 142 50 48 142 50 48 88 50 48 88 50 48 88 62 48 88 62 48 88 62 48 88 62 62 106 62 62 106 38 62 106 38 62 106 38 62 106 38 62 106 38 62 124 50 76 124 50 76 124 50 76 124 50 76 124 50 76 124 62 76 142 62 76 142 62 90 142 62 90 142 62 90 142 38 90 142 38 90 88 38 90 88 38 90 88 38 34 88 50 34 88 50 34 88 50 34 106 50 34 106 50 34 106 62 34 106 62 48 106 62 48 106 62 48 124 62 48 124 38 48 124 38 48 124 38 48 124 38 62 124 38 62 142 50 62 142 50 62 142 50 62 142 50 62 142 50 62 142 62 76 88 62 76 88 62 76 88 62 76 88 62 76 88 38 76 88 38 76 106 38 90 106 38 90 106 38 90 106 50 90 106 50 90 106 50 90 124 50 90 124 50 34 124 62 34 124 62 34 124 62 34 124 62 34 142 62 34 142 38 34 142 38 48 142 38 48 142 38 48 142 38 48 88 50 48 88 50 48 88 50 48 88 50 62 88 50 62 88 62 62 106 62 62 106 62 62 106 62 62 106 62 62 106 38 76 106 38 76 124 38 76 124 38 76 124 38 76 124 50 76 124 50 76 124 50 90 142 50 90 142 50 90 142 62 90 142 62 90 142 62 90 142 62 90 88 62 34 88 38 34 88 38 34 88 38 34 88 38 34 88 38 34 106 50 34 106 50 48 106 50 48 106 50 48 106 50 48 106 62 48 124 62 48 124 62 48 124 62 62 124 62 62 124 38 62 124 38 62 142 38 62 142 38 62 142 38 62 142 50 76 142 50 76 142 50 76 88 50 76 88 50 76 88 62 76 88 62 76 88 62 90 88 62 90 106 62 90 106 38 90 106 38 90 106 38 90 106 38 90 106 38 34 124 50 34 124 50 34 124 50 34 124 50 34 124 50 34 124 62 34 142 62 48 142 62 48 142 62 48 142 62 48 142 38 48 142 38 48 88 38 48 88 38 62 88 38 62 88 50 62 88 50 62 88 50 62 106 50 62 106 50 62 106 62 76 106 62 76 106 62 76 106 62 76 124 62 76 124 38 76 124 38 76 124 38 90 124 38 90 124 38 90 142 50 90 142 50 90 142 50 90 142 50 90 142 50 34 142 62 34 88 62 34 88 62 34 88 62 34 88 62 34 88 38 34 88 38 48 106 38 48 106 38 48 106 38 48 106 50 48 106 50 48 106 50 48 124 50 62 124 50 62 124 62 62 124 62 62 124 62 62 124 62 62 142 62 62 142 38 76 142 38 76 142 38 76 142 38 76 142 38 76 88 50 76 88 50 76 88 50 90 88 50 90 88 50 90 88 62 90 106 62 90 106 62 90 106 62 90 106 62 34 106 38 34 106 38 34 124 38 34 124 38 34 124 38 34 124 50 34 124 50 48 124 50 48 142 50 48 142 50 48 142 62 48 142 62 48 142 62 48 142 62 62 88 62 62 88 38 62 88 38 62 88 38 62 88 38 62 88 38 62 106 50 76 106 50 76 106 50 76 106 50 76 106 50 76 106 62 76 124 62 76 124 62 90 124 62 90 124 62 90 124 38 90 124 38 90 142 38 90 142 38 90 142 38 34 142 50 34 142 50 34 142 50 34 88 50 34 88 50
34 142 50 34 142 50 34 142 50 34 142 50 34 142 50 34 142 62 34 88 62 48 88 62 48 88 62 48 88 62 48 88 38 48 88 38 48 106 38 48 106 38 62 106 38 62 106 50 62 106 50 62 106 50 62 124 50 62 124 50 62 124 62 76 124 62 76 124 62 76 124 62 76 142 62 76 142 38 76 142 38 76 142 38 90 142 38 90 142 38 90 88 50 90 88 50 90 88 50 90 88 50 90 88 50 34 88 62 34 106 62 34 106 62 34 106 62 34 106 62 34 106 38 34 106 38 48 124 38 48 124 38 48 124 38 48 124 50 48 124 50 48 124 50 48 142 50 62 142 50 62 142 62 62 142 62 62 142 62 62 142 62 62 88 62 62 88 38 76 88 38 76 88 38 76 88 38 76 88 38 76 106 50 76 106 50 76 106 50 90 106 50 90 106 50 90 106 62 90 124 62 90 124 62 90 124 62 90 124 62 34 124 38 34 124 38 34 142 38 34 142 38 34 142 38 34 142 50 34 142 50 48 142 50 48 88 50 48 88 50 48 88 62 48 88 62 48 88 62 48 88 62 62 106 62 62 106 38 62 106 38 62 106 38 62 106 38 62 106 38 62 124 50 76 124 50 76 124 50 76 124 50 76 124 50 76 124 62 76 142 62 76 142 62 90 142 62 90 142 62 90 142 38 90 142 38 90 88 38 90 88 38 90 88 38 34 88 50 34 88 50 34 88 50 34 106 50 34 106 50 34 106 62 34 106 62 48 106 62 48 106 62 48 124 62 48 124 38 48 124 38 48 124 38 48 124 38 62 124 38 62 142 50 62 142 50 62 142 50 62 142 50 62 142 50 62 142 62 76 88 62 76 88 62 76 88 62 76 88 62 76 88 38 76 88 38 76 106 38 90 106 38 90 106 38 90 106 50 90 106 50 90 106 50 90 124 50 90 124 50 34 124 62 34 124 62 34 124 62 34 124 62 34 142 62 34 142 38 34 142 38 48 142 38 48 142 38 48 142 38 48 88 50 48 88 50 48 88 50 48 88 50 62 88 50 62 88 62 62 106 62 62 106 62 62 106 62 62 106 62 62 106 38 76 106 38 76 124 38 76 124 38 76 124 38 76 124 50 76 124 50 76 124 50 90 142 50 90 142 50 90 142 62 90 142 62 90 142 62 90 142 62 90 88 62 34 88 38 34 88 38 34 88 38 34 88 38 34 88 38 34 106 50 34 106 50 48 106 50 48 106 50 48 106 50 48 106 62 48 124 62 48 124 62 48 124 62 62 124 62 62 124 38 62 124 38 62 142 38 62 142 38 62 142 38 62 142 50 76 142 50 76 142 50 76 88 50 76 88 50 76 88 62 76 88 62 76 88 62 90 88 62 90 106 62 90 106 38 90 106 38 90 106 38 90 106 38 90 106 38 34 124 50 34 124 50 34 124 50 34 124 50 34 124 50 34 124 62 34 142 62 48 142 62 48 142 62 48 142 62 48 142 38 48 142 38 48 88 38 48 88 38 62 88 38 62 88 50 62 88 50 62 88 50 62 106 50 62 106 50 62 106 62 76 106 62 76 106 62 76 106 62 76 124 62 76 124 38 76 124 38 76 124 38 90 124 38 90 124 38 90 142 50 90 142 50 90 142 50 90 142 50 90 142 50 34 142 62 34 88 62 34 88 62 34 88 62 34 88 62 34 88 38 34 88 38 48 106 38 48 106 38 48 106 38 48 106 50 48 106 50 48 106 50 48 124 50 62 124 50 62 124 62 62 124 62 62 124 62 62 124 62 62 142 62 62 142 38 76 142 38 76 142 38 76 142 38 76 142 38 76 88 50 76 88 50 76 88 50 90 88 50 90 88 50 90 88 62 90 106 62 90 106 62 90 106 62 90 106 62 34 106 38 34 106 38 34 124 38 34 124 38 34 124 38 34 124 50 34 124 50 48 124 50 48 142 50 48 142 50 48 142 62 48 142 62 48 142 62 48 142 62 62 88 62 62 88 38 62 88 38 62 88 38 62 88 38 62 88 38 62 106 50 76 106 50 76 106 50 76 106 50 76 106 50 76 106 62 76 124 62 76 124 62 90 124 62 90 124 62 90 124 38 90 124 38 90 142 38 90 142 38 90 142 38 34 142 50 34 142 50 34 142 50 34 88 50 34 88 50
34 88 50 34 88 50 34 88 50 34 88 50 34 88 50 34 88 62 34 106 62 48 106 62 48 106 62 48 106 62 48 106 38 48 106 38 48 124 38 48 124 38 62 124 38 62 124 50 62 124 50 62 124 50 62 142 50 62 142 50 62 142 62 76 142 62 76 142 62 76 142 62 76 88 62 76 88 38 76 88 38 76 88 38 90 88 38 90 88 38 90 106 50 90 106 50 90 106 50 90 106 50 90 106 50 34 106 62 34 124 62 34 124 62 34 124 62 34 124 62 34 124 38 34 124 38 48 142 38 48 142 38 48 142 38 48 142 50 48 142 50 48 142 50 48 88 50 62 88 50 62 88 62 62 88 62 62 88 62 62 88 62 62 106 62 62 106 38 76 106 38 76 106 38 76 106 38 76 106 38 76 124 50 76 124 50 76 124 50 90 124 50 90 124 50 90 124 62 90 142 62 90 142 62 90 142 62 90 142 62 34 142 38 34 142 38 34 88 38 34 88 38 34 88 38 34 88 50 34 88 50 48 88 50 48 106 50 48 106 50 48 106 62 48 106 62 48 106 62 48 106 62 62 124 62 62 124 38 62 124 38 62 124 38 62 124 38 62 124 38 62 142 50 76 142 50 76 142 50 76 142 50 76 142 50 76 142 62 76 88 62 76 88 62 90 88 62 90 88 62 90 88 38 90 88 38 90 106 38 90 106 38 90 106 38 34 106 50 34 106 50 34 106 50 34 124 50 34 124 50 34 124 62 34 124 62 48 124 62 48 124 62 48 142 62 48 142 38 48 142 38 48 142 38 48 142 38 62 142 38 62 88 50 62 88 50 62 88 50 62 88 50 62 88 50 62 88 62 76 106 62 76 106 62 76 106 62 76 106 62 76 106 38 76 106 38 76 124 38 90 124 38 90 124 38 90 124 50 90 124 50 90 124 50 90 142 50 90 142 50 34 142 62 34 142 62 34 142 62 34 142 62 34 88 62 34 88 38 34 88 38 48 88 38 48 88 38 48 88 38 48 106 50 48 106 50 48 106 50 48 106 50 62 106 50 62 106 62 62 124 62 62 124 62 62 124 62 62 124 62 62 124 38 76 124 38 76 142 38 76 142 38 76 142 38 76 142 50 76 142 50 76 142 50 90 88 50 90 88 50 90 88 62 90 88 62 90 88 62 90 88 62 90 106 62 34 106 38 34 106 38 34 106 38 34 106 38 34 106 38 34 124 50 34 124 50 48 124 50 48 124 50 48 124 50 48 124 62 48 142 62 48 142 62 48 142 62 62 142 62 62 142 38 62 142 38 62 88 38 62 88 38 62 88 38 62 88 50 76 88 50 76 88 50 76 106 50 76 106 50 76 106 62 76 106 62 76 106 62 90 106 62 90 124 62 90 124 38 90 124 38 90 124 38 90 124 38 90 124 38 34 142 50 34 142 50 34 142 50 34 142 50 34 142 50 34 142 62 34 88 62 48 88 62 48 88 62 48 88 62 48 88 38 48 88 38 48 106 38 48 106 38 62 106 38 62 106 50 62 106 50 62 106 50 62 124 50 62 124 50 62 124 62 76 124 62 76 124 62 76 124 62 76 142 62 76 142 38 76 142 38 76 142 38 90 142 38 90 142 38 90 88 50 90 88 50 90 88 50 90 88 50 90 88 50 34 88 62 34 106 62 34 106 62 34 106 62 34 106 62 34 106 38 34 106 38 48 124 38 48 124 38 48 124 38 48 124 50 48 124 50 48 124 50 48 142 50 62 142 50 62 142 62 62 142 62 62 142 62 62 142 62 62 88 62 62 88 38 76 88 38 76 88 38 76 88 38 76 88 38 76 106 50 76 106 50 76 106 50 90 106 50 90 106 50 90 106 62 90 124 62 90 124 62 90 124 62 90 124 62 34 124 38 34 124 38 34 142 38 34 142 38 34 142 38 34 142 50 34 142 50 48 142 50 48 88 50 48 88 50 48 88 62 48 88 62 48 88 62 48 88 62 62 106 62 62 106 38 62 106 38 62 106 38 62 106 38 62 106 38 62 124 50 76 124 50 76 124 50 76 124 50 76 124 50 76 124 62 76 142 62 76 142 62 90 142 62 90 142 62 90 142 38 90 142 38 90 88 38 90 88 38 90 88 38 34 88 50 34 88 50 34 88 50 34 106 50 34 106 50
34 88 50 34 88 50 34 88 50 34 88 50 34 88 50 34 88 62 34 106 62 48 106 62 48 106 62 48 106 62 48 106 38 48 106 38 48 124 38 48 124 38 62 124 38 62 124 50 62 124 50 62 124 50 62 142 50 62 142 50 62 142 62 76 142 62 76 142 62 76 142 62 76 88 62 76 88 38 76 88 38 76 88 38 90 88 38 90 88 38 90 106 50 90 106 50 90 106 50 90 106 50 90 106 50 34 106 62 34 124 62 34 124 62 34 124 62 34 124 62 34 124 38 34 124 38 48 142 38 48 142 38 48 142 38 48 142 50 48 142 50 48 142 50 48 88 50 62 88 50 62 88 62 62 88 62 62 88 62 62 88 62 62 106 62 62 106 38 76 106 38 76 106 38 76 106 38 76 106 38 76 124 50 76 124 50 76 124 50 90 124 50 90 124 50 90 124 62 90 142 62 90 142 62 90 142 62 90 142 62 34 142 38 34 142 38 34 88 38 34 88 38 34 88 38 34 88 50 34 88 50 48 88 50 48 106 50 48 106 50 48 106 62 48 106 62 48 106 62 48 106 62 62 124 62 62 124 38 62 124 38 62 124 38 62 124 38 62 124 38 62 142 50 76 142 50 76 142 50 76 142 50 76 142 50 76 142 62 76 88 62 76 88 62 90 88 62 90 88 62 90 88 38 90 88 38 90 106 38 90 106 38 90 106 38 34 106 50 34 106 50 34 106 50 34 124 50 34 124 50 34 124 62 34 124 62 48 124 62 48 124 62 48 142 62 48 142 38 48 142 38 48 142 38 48 142 38 62 142 38 62 88 50 62 88 50 62 88 50 62 88 50 62 88 50 62 88 62 76 106 62 76 106 62 76 106 62 76 106 62 76 106 38 76 106 38 76 124 38 90 124 38 90 124 38 90 124 50 90 124 50 90 124 50 90 142 50 90 142 50 34 142 62 34 142 62 34 142 62 34 142 62 34 88 62 34 88 38 34 88 38 48 88 38 48 88 38 48 88 38 48 106 50 48 106 50 48 106 50 48 106 50 62 106 50 62 106 62 62 124 62 62 124 62 62 124 62 62 124 62 62 124 38 76 124 38 76 142 38 76 142 38 76 142 38 76 142 50 76 142 50 76 142 50 90 88 50 90 88 50 90 88 62 90 88 62 90 88 62 90 88 62 90 106 62 34 106 38 34 106 38 34 106 38 34 106 38 34 106 38 34 124 50 34 124 50 48 124 50 48 124 50 48 124 50 48 124 62 48 142 62 48 142 62 48 142 62 62 142 62 62 142 38 62 142 38 62 88 38 62 88 38 62 88 38 62 88 50 76 88 50 76 88 50 76 106 50 76 106 50 76 106 62 76 106 62 76 106 62 90 106 62 90 124 62 90 124 38 90 124 38 90 124 38 90 124 38 90 124 38 34 142 50 34 142 50 34 142 50 34 142 50 34 142 50 34 142 62 34 88 62 48 88 62 48 88 62 48 88 62 48 88 38 48 88 38 48 106 38 48 106 38 62 106 38 62 106 50 62 106 50 62 106 50 62 124 50 62 124 50 62 124 62 76 124 62 76 124 62 76 124 62 76 142 62 76 142 38 76 142 38 76 142 38 90 142 38 90 142 38 90 88 50 90 88 50 90 88 50 90 88 50 90 88 50 34 88 62 34 106 62 34 106 62 34 106 62 34 106 62 34 106 38 34 106 38 48 124 38 48 124 38 48 124 38 48 124 50 48 124 50 48 124 50 48 142 50 62 142 50 62 142 62 62 142 62 62 142 62 62 142 62 62 88 62 62 88 38 76 88 38 76 88 38 76 88 38 76 88 38 76 106 50 76 106 50 76 106 50 90 106 50 90 106 50 90 106 62 90 124 62 90 124 62 90 124 62 90 124 62 34 124 38 34 124 38 34 142 38 34 142 38 34 142 38 34 142 50 34 142 50 48 142 50 48 88 50 48 88 50 48 88 62 48 88 62 48 88 62 48 88 62 62 106 62 62 106 38 62 106 38 62 106 38 62 106 38 62 106 38 62 124 50 76 124 50 76 124 50 76 124 50 76 124 50 76 124 62 76 142 62 76 142 62 90 142 62 90 142 62 90 142 38 90 142 38 90 88 38 90 88 38 90 88 38 34 88 50 34 88 50 34 88 50 34 106 50 34 106 50
34 88 50 34 88 50 34 88 50 34 88 50 34 88 50 34 88 62 34 106 62 48 106 62 48 106 62 48 106 62 48 106 38 48 106 38 48 124 38 48 124 38 62 124 38 62 124 50 62 124 50 62 124 50 62 142 50 62 142 50 62 142 62 76 142 62 76 142 62 76 142 62 76 88 62 76 88 38 76 88 38 76 88 38 90 88 38 90 88 38 90 106 50 90 106 50 90 106 50 90 106 50 90 106 50 34 106 62 34 124 62 34 124 62 34 124 62 34 124 62 34 124 38 34 124 38 48 142 38 48 142 38 48 142 38 48 142 50 48 142 50 48 142 50 48 88 50 62 88 50 62 88 62 62 88 62 62 88 62 62 88 62 62 106 62 62 106 38 76 106 38 76 106 38 76 106 38 76 106 38 76 124 50 76 124 50 76 124 50 90 124 50 90 124 50 90 124 62 90 142 62 90 142 62 90 142 62 90 142 62 34 142 38 34 142 38 34 88 38 34 88 38 34 88 38 34 88 50 34 88 50 48 88 50 48 106 50 48 106 50 48 106 62 48 106 62 48 106 62 48 106 62 62 124 62 62 124 38 62 124 38 62 124 38 62 124 38 62 124 38 62 142 50 76 142 50 76 142 50 76 142 50 76 142 50 76 142 62 76 88 62 76 88 62 90 88 62 90 88 62 90 88 38 90 88 38 90 106 38 90 106 38 90 106 38 34 106 50 34 106 50 34 106 50 34 124 50 34 124 50 34 124 62 34 124 62 48 124 62 48 124 62 48 142 62 48 142 38 48 142 38 48 142 38 48 142 38 62 142 38 62 88 50 62 88 50 62 88 50 62 88 50 62 88 50 62 88 62 76 106 62 76 106 62 76 106 62 76 106 62 76 106 38 76 106 38 76 124 38 90 124 38 90 124 38 90 124 50 90 124 50 90 124 50 90 142 50 90 142 50 34 142 62 34 142 62 34 142 62 34 142 62 34 88 62 34 88 38 34 88 38 48 88 38 48 88 38 48 88 38 48 106 50 48 106 50 48 106 50 48 106 50 62 106 50 62 106 62 62 124 62 62 124 62 62 124 62 62 124 62 62 124 38 76 124 38 76 142 38 76 142 38 76 142 38 76 142 50 76 142 50 76 142 50 90 88 50 90 88 50 90 88 62 90 88 62 90 88 62 90 88 62 90 106 62 34 106 38 34 106 38 34 106 38 34 106 38 34 106 38 34 124 50 34 124 50 48 124 50 48 124 50 48 124 50 48 124 62 48 142 62 48 142 62 48 142 62 62 142 62 62 142 38 62 142 38 62 88 38 62 88 38 62 88 38 62 88 50 76 88 50 76 88 50 76 106 50 76 106 50 76 106 62 76 106 62 76 106 62 90 106 62 90 124 62 90 124 38 90 124 38 90 124 38 90 124 38 90 124 38 34 142 50 34 142 50 34 142 50 34 142 50 34 142 50 34 142 62 34 88 62 48 88 62 48 88 62 48 88 62 48 88 38 48 88 38 48 106 38 48 106 38 62 106 38 62 106 50 62 106 50 62 106 50 62 124 50 62 124 50 62 124 62 76 124 62 76 124 62 76 124 62 76 142 62 76 142 38 76 142 38 76 142 38 90 142 38 90 142 38 90 88 50 90 88 50 90 88 50 90 88 50 90 88 50 34 88 62 34 106 62 34 106 62 34 106 62 34 106 62 34 106 38 34 106 38 48 124 38 48 124 38 48 124 38 48 124 50 48 124 50 48 124 50 48 142 50 62 142 50 62 142 62 62 142 62 62 142 62 62 142 62 62 88 62 62 88 38 76 88 38 76 88 38 76 88 38 76 88 38 76 106 50 76 106 50 76 106 50 90 106 50 90 106 50 90 106 62 90 124 62 90 124 62 90 124 62 90 124 62 34 124 38 34 124 38 34 142 38 34 142 38 34 142 38 34 142 50 34 142 50 48 142 50 48 88 50 48 88 50 48 88 62 48 88 62 48 88 62 48 88 62 62 106 62 62 106 38 62 106 38 62 106 38 62 106 38 62 106 38 62 124 50 76 124 50 76 124 50 76 124 50 76 124 50 76 124 62 76 142 62 76 142 62 90 142 62 90 142 62 90 142 38 90 142 38 90 88 38 90 88 38 90 88 38 34 88 50 34 88 50 34 88 50 34 106 50 34 106 50
48 88 50 48 88 50 48 88 50 48 88 50 48 88 50 48 88 62 48 106 62 62 106 62 62 106 62 62 106 62 62 106 38 62 106 38 62 124 38 62 124 38 76 124 38 76 124 50 76 124 50 76 124 50 76 142 50 76 142 50 76 142 62 90 142 62 90 142 62 90 142 62 90 88 62 90 88 38 90 88 38 90 88 38 34 88 38 34 88 38 34 106 50 34 106 50 34 106 50 34 106 50 34 106 50 48 106 62 48 124 62 48 124 62 48 124 62 48 124 62 48 124 38 48 124 38 62 142 38 62 142 38 62 142 38 62 142 50 62 142 50 62 142 50 62 88 50 76 88 50 76 88 62 76 88 62 76 88 62 76 88 62 76 106 62 76 106 38 90 106 38 90 106 38 90 106 38 90 106 38 90 124 50 90 124 50 90 124 50 34 124 50 34 124 50 34 124 62 34 142 62 34 142 62 34 142 62 34 142 62 48 142 38 48 142 38 48 88 38 48 88 38 48 88 38 48 88 50 48 88 50 62 88 50 62 106 50 62 106 50 62 106 62 62 106 62 62 106 62 62 106 62 76 124 62 76 124 38 76 124 38 76 124 38 76 124 38 76 124 38 76 142 50 90 142 50 90 142 50 90 142 50 90 142 50 90 142 62 90 88 62 90 88 62 34 88 62 34 88 62 34 88 38 34 88 38 34 106 38 34 106 38 34 106 38 48 106 50 48 106 50 48 106 50 48 124 50 48 124 50 48 124 62 48 124 62 62 124 62 62 124 62 62 142 62 62 142 38 62 142 38 62 142 38 62 142 38 76 142 38 76 88 50 76 88 50 76 88 50 76 88 50 76 88 50 76 88 62 90 106 62 90 106 62 90 106 62 90 106 62 90 106 38 90 106 38 90 124 38 34 124 38 34 124 38 34 124 50 34 124 50 34 124 50 34 142 50 34 142 50 48 142 62 48 142 62 48 142 62 48 142 62 48 88 62 48 88 38 48 88 38 62 88 38 62 88 38 62 88 38 62 106 50 62 106 50 62 106 50 62 106 50 76 106 50 76 106 62 76 124 62 76 124 62 76 124 62 76 124 62 76 124 38 90 124 38 90 142 38 90 142 38 90 142 38 90 142 50 90 142 50 90 142 50 34 88 50 34 88 50 34 88 62 34 88 62 34 88 62 34 88 62 34 106 62 48 106 38 48 106 38 48 106 38 48 106 38 48 106 38 48 124 50 48 124 50 62 124 50 62 124 50 62 124 50 62 124 62 62 142 62 62 142 62 62 142 62 76 142 62 76 142 38 76 142 38 76 88 38 76 88 38 76 88 38 76 88 50 90 88 50 90 88 50 90 106 50 90 106 50 90 106 62 90 106 62 90 106 62 34 106 62 34 124 62 34 124 38 34 124 38 34 124 38 34 124 38 34 124 38 48 142 50 48 142 50 48 142 50 48 142 50 48 142 50 48 142 62 48 88 62 62 88 62 62 88 62 62 88 62 62 88 38 62 88 38 62 106 38 62 106 38 76 106 38 76 106 50 76 106 50 76 106 50 76 124 50 76 124 50 76 124 62 90 124 62 90 124 62 90 124 62 90 142 62 90 142 38 90 142 38 90 142 38 34 142 38 34 142 38 34 88 50 34 88 50 34 88 50 34 88 50 34 88 50 48 88 62 48 106 62 48 106 62 48 106 62 48 106 62 48 106 38 48 106 38 62 124 38 62 124 38 62 124 38 62 124 50 62 124 50 62 124 50 62 142 50 76 142 50 76 142 62 76 142 62 76 142 62 76 142 62 76 88 62 76 88 38 90 88 38 90 88 38 90 88 38 90 88 38 90 106 50 90 106 50 90 106 50 34 106 50 34 106 50 34 106 62 34 124 62 34 124 62 34 124 62 34 124 62 48 124 38 48 124 38 48 142 38 48 142 38 48 142 38 48 142 50 48 142 50 62 142 50 62 88 50 62 88 50 62 88 62 62 88 62 62 88 62 62 88 62 76 106 62 76 106 38 76 106 38 76 106 38 76 106 38 76 106 38 76 124 50 90 124 50 90 124 50 90 124 50 90 124 50 90 124 62 90 142 62 90 142 62 34 142 62 34 142 62 34 142 38 34 142 38 34 88 38 34 88 38 34 88 38 48 88 50 48 88 50 48 88 50 48 106 50 48 106 50
48 88 62 48 88 62 48 88 62 48 88 62 48 88 62 48 88 38 48 106 38 62 106 38 62 106 38 62 106 38 62 106 50 62 106 50 62 124 50 62 124 50 76 124 50 76 124 62 76 124 62 76 124 62 76 142 62 76 142 62 76 142 38 90 142 38 90 142 38 90 142 38 90 88 38 90 88 50 90 88 50 90 88 50 34 88 50 34 88 50 34 106 62 34 106 62 34 106 62 34 106 62 34 106 62 48 106 38 48 124 38 48 124 38 48 124 38 48 124 38 48 124 50 48 124 50 62 142 50 62 142 50 62 142 50 62 142 62 62 142 62 62 142 62 62 88 62 76 88 62 76 88 38 76 88 38 76 88 38 76 88 38 76 106 38 76 106 50 90 106 50 90 106 50 90 106 50 90 106 50 90 124 62 90 124 62 90 124 62 34 124 62 34 124 62 34 124 38 34 142 38 34 142 38 34 142 38 34 142 38 48 142 50 48 142 50 48 88 50 48 88 50 48 88 50 48 88 62 48 88 62 62 88 62 62 106 62 62 106 62 62 106 38 62 106 38 62 106 38 62 106 38 76 124 38 76 124 50 76 124 50 76 124 50 76 124 50 76 124 50 76 142 62 90 142 62 90 142 62 90 142 62 90 142 62 90 142 38 90 88 38 90 88 38 34 88 38 34 88 38 34 88 50 34 88 50 34 106 50 34 106 50 34 106 50 48 106 62 48 106 62 48 106 62 48 124 62 48 124 62 48 124 38 48 124 38 62 124 38 62 124 38 62 142 38 62 142 50 62 142 50 62 142 50 62 142 50 76 142 50 76 88 62 76 88 62 76 88 62 76 88 62 76 88 62 76 88 38 90 106 38 90 106 38 90 106 38 90 106 38 90 106 50 90 106 50 90 124 50 34 124 50 34 124 50 34 124 62 34 124 62 34 124 62 34 142 62 34 142 62 48 142 38 48 142 38 48 142 38 48 142 38 48 88 38 48 88 50 48 88 50 62 88 50 62 88 50 62 88 50 62 106 62 62 106 62 62 106 62 62 106 62 76 106 62 76 106 38 76 124 38 76 124 38 76 124 38 76 124 38 76 124 50 90 124 50 90 142 50 90 142 50 90 142 50 90 142 62 90 142 62 90 142 62 34 88 62 34 88 62 34 88 38 34 88 38 34 88 38 34 88 38 34 106 38 48 106 50 48 106 50 48 106 50 48 106 50 48 106 50 48 124 62 48 124 62 62 124 62 62 124 62 62 124 62 62 124 38 62 142 38 62 142 38 62 142 38 76 142 38 76 142 50 76 142 50 76 88 50 76 88 50 76 88 50 76 88 62 90 88 62 90 88 62 90 106 62 90 106 62 90 106 38 90 106 38 90 106 38 34 106 38 34 124 38 34 124 50 34 124 50 34 124 50 34 124 50 34 124 50 48 142 62 48 142 62 48 142 62 48 142 62 48 142 62 48 142 38 48 88 38 62 88 38 62 88 38 62 88 38 62 88 50 62 88 50 62 106 50 62 106 50 76 106 50 76 106 62 76 106 62 76 106 62 76 124 62 76 124 62 76 124 38 90 124 38 90 124 38 90 124 38 90 142 38 90 142 50 90 142 50 90 142 50 34 142 50 34 142 50 34 88 62 34 88 62 34 88 62 34 88 62 34 88 62 48 88 38 48 106 38 48 106 38 48 106 38 48 106 38 48 106 50 48 106 50 62 124 50 62 124 50 62 124 50 62 124 62 62 124 62 62 124 62 62 142 62 76 142 62 76 142 38 76 142 38 76 142 38 76 142 38 76 88 38 76 88 50 90 88 50 90 88 50 90 88 50 90 88 50 90 106 62 90 106 62 90 106 62 34 106 62 34 106 62 34 106 38 34 124 38 34 124 38 34 124 38 34 124 38 48 124 50 48 124 50 48 142 50 48 142 50 48 142 50 48 142 62 48 142 62 62 142 62 62 88 62 62 88 62 62 88 38 62 88 38 62 88 38 62 88 38 76 106 38 76 106 50 76 106 50 76 106 50 76 106 50 76 106 50 76 124 62 90 124 62 90 124 62 90 124 62 90 124 62 90 124 38 90 142 38 90 142 38 34 142 38 34 142 38 34 142 50 34 142 50 34 88 50 34 88 50 34 88 50 48 88 62 48 88 62 48 88 62 48 106 62 48 106 62
48 88 62 48 88 62 48 88 62 48 88 62 48 88 62 48 88 38 48 106 38 62 106 38 62 106 38 62 106 38 62 106 50 62 106 50 62 124 50 62 124 50 76 124 50 76 124 62 76 124 62 76 124 62 76 142 62 76 142 62 76 142 38 90 142 38 90 142 38 90 142 38 90 88 38 90 88 50 90 88 50 90 88 50 34 88 50 34 88 50 34 106 62 34 106 62 34 106 62 34 106 62 34 106 62 48 106 38 48 124 38 48 124 38 48 124 38 48 124 38 48 124 50 48 124 50 62 142 50 62 142 50 62 142 50 62 142 62 62 142 62 62 142 62 62 88 62 76 88 62 76 88 38 76 88 38 76 88 38 76 88 38 76 106 38 76 106 50 90 106 50 90 106 50 90 106 50 90 106 50 90 124 62 90 124 62 90 124 62 34 124 62 34 124 62 34 124 38 34 142 38 34 142 38 34 142 38 34 142 38 48 142 50 48 142 50 48 88 50 48 88 50 48 88 50 48 88 62 48 88 62 62 88 62 62 106 62 62 106 62 62 106 38 62 106 38 62 106 38 62 106 38 76 124 38 76 124 50 76 124 50 76 124 50 76 124 50 76 124 50 76 142 62 90 142 62 90 142 62 90 142 62 90 142 62 90 142 38 90 88 38 90 88 38 34 88 38 34 88 38 34 88 50 34 88 50 34 106 50 34 106 50 34 106 50 48 106 62 48 106 62 48 106 62 48 124 62 48 124 62 48 124 38 48 124 38 62 124 38 62 124 38 62 142 38 62 142 50 62 142 50 62 142 50 62 142 50 76 142 50 76 88 62 76 88 62 76 88 62 76 88 62 76 88 62 76 88 38 90 106 38 90 106 38 90 106 38 90 106 38 90 106 50 90 106 50 90 124 50 34 124 50 34 124 50 34 124 62 34 124 62 34 124 62 34 142 62 34 142 62 48 142 38 48 142 38 48 142 38 48 142 38 48 88 38 48 88 50 48 88 50 62 88 50 62 88 50 62 88 50 62 106 62 62 106 62 62 106 62 62 106 62 76 106 62 76 106 38 76 124 38 76 124 38 76 124 38 76 124 38 76 124 50 90 124 50 90 142 50 90 142 50 90 142 50 90 142 62 90 142 62 90 142 62 34 88 62 34 88 62 34 88 38 34 88 38 34 88 38 34 88 38 34 106 38 48 106 50 48 106 50 48 106 50 48 106 50 48 106 50 48 124 62 48 124 62 62 124 62 62 124 62 62 124 62 62 124 38 62 142 38 62 142 38 62 142 38 76 142 38 76 142 50 76 142 50 76 88 50 76 88 50 76 88 50 76 88 62 90 88 62 90 88 62 90 106 62 90 106 62 90 106 38 90 106 38 90 106 38 34 106 38 34 124 38 34 124 50 34 124 50 34 124 50 34 124 50 34 124 50 48 142 62 48 142 62 48 142 62 48 142 62 48 142 62 48 142 38 48 88 38 62 88 38 62 88 38 62 88 38 62 88 50 62 88 50 62 106 50 62 106 50 76 106 50 76 106 62 76 106 62 76 106 62 76 124 62 76 124 62 76 124 38 90 124 38 90 124 38 90 124 38 90 142 38 90 142 50 90 142 50 90 142 50 34 142 50 34 142 50 34 88 62 34 88 62 34 88 62 34 88 62 34 88 62 48 88 38 48 106 38 48 106 38 48 106 38 48 106 38 48 106 50 48 106 50 62 124 50 62 124 50 62 124 50 62 124 62 62 124 62 62 124 62 62 142 62 76 142 62 76 142 38 76 142 38 76 142 38 76 142 38 76 88 38 76 88 50 90 88 50 90 88 50 90 88 50 90 88 50 90 106 62 90 106 62 90 106 62 34 106 62 34 106 62 34 106 38 34 124 38 34 124 38 34 124 38 34 124 38 48 124 50 48 124 50 48 142 50 48 142 50 48 142 50 48 142 62 48 142 62 62 142 62 62 88 62 62 88 62 62 88 38 62 88 38 62 88 38 62 88 38 76 106 38 76 106 50 76 106 50 76 106 50 76 106 50 76 106 50 76 124 62 90 124 62 90 124 62 90 124 62 90 124 62 90 124 38 90 142 38 90 142 38 34 142 38 34 142 38 34 142 50 34 142 50 34 88 50 34 88 50 34 88 50 48 88 62 48 88 62 48 88 62 48 106 62 48 106 62
48 88 62 48 88 62 48 88 62 48 88 62 48 88 62 48 88 38 48 106 38 62 106 38 62 106 38 62 106 38 62 106 50 62 106 50 62 124 50 62 124 50 76 124 50 76 124 62 76 124 62 76 124 62 76 142 62 76 142 62 76 142 38 90 142 38 90 142 38 90 142 38 90 88 38 90 88 50 90 88 50 90 88 50 34 88 50 34 88 50 34 106 62 34 106 62 34 106 62 34 106 62 34 106 62 48 106 38 48 124 38 48 124 38 48 124 38 48 124 38 48 124 50 48 124 50 62 142 50 62 142 50 62 142 50 62 142 62 62 142 62 62 142 62 62 88 62 76 88 62 76 88 38 76 88 38 76 88 38 76 88 38 76 106 38 76 106 50 90 106 50 90 106 50 90 106 50 90 106 50 90 124 62 90 124 62 90 124 62 34 124 62 34 124 62 34 124 38 34 142 38 34 142 38 34 142 38 34 142 38 48 142 50 48 142 50 48 88 50 48 88 50 48 88 50 48 88 62 48 88 62 62 88 62 62 106 62 62 106 62 62 106 38 62 106 38 62 106 38 62 106 38 76 124 38 76 124 50 76 124 50 76 124 50 76 124 50 76 124 50 76 142 62 90 142 62 90 142 62 90 142 62 90 142 62 90 142 38 90 88 38 90 88 38 34 88 38 34 88 38 34 88 50 34 88 50 34 106 50 34 106 50 34 106 50 48 106 62 48 106 62 48 106 62 48 124 62 48 124 62 48 124 38 48 124 38 62 124 38 62 124 38 62 142 38 62 142 50 62 142 50 62 142 50 62 142 50 76 142 50 76 88 62 76 88 62 76 88 62 76 88 62 76 88 62 76 88 38 90 106 38 90 106 38 90 106 38 90 106 38 90 106 50 90 106 50 90 124 50 34 124 50 34 124 50 34 124 62 34 124 62 34 124 62 34 142 62 34 142 62 48 142 38 48 142 38 48 142 38 48 142 38 48 88 38 48 88 50 48 88 50 62 88 50 62 88 50 62 88 50 62 106 62 62 106 62 62 106 62 62 106 62 76 106 62 76 106 38 76 124 38 76 124 38 76 124 38 76 124 38 76 124 50 90 124 50 90 142 50 90 142 50 90 142 50 90 142 62 90 142 62 90 142 62 34 88 62 34 88 62 34 88 38 34 88 38 34 88 38 34 88 38 34 106 38 48 106 50 48 106 50 48 106 50 48 106 50 48 106 50 48 124 62 48 124 62 62 124 62 62 124 62 62 124 62 62 124 38 62 142 38 62 142 38 62 142 38 76 142 38 76 142 50 76 142 50 76 88 50 76 88 50 76 88 50 76 88 62 90 88 62 90 88 62 90 106 62 90 106 62 90 106 38 90 106 38 90 106 38 34 106 38 34 124 38 34 124 50 34 124 50 34 124 50 34 124 50 34 124 50 48 142 62 48 142 62 48 142 62 48 142 62 48 142 62 48 142 38 48 88 38 62 88 38 62 88 38 62 88 38 62 88 50 62 88 50 62 106 50 62 106 50 76 106 50 76 106 62 76 106 62 76 106 62 76 124 62 76 124 62 76 124 38 90 124 38 90 124 38 90 124 38 90 142 38 90 142 50 90 142 50 90 142 50 34 142 50 34 142 50 34 88 62 34 88 62 34 88 62 34 88 62 34 88 62 48 88 38 48 106 38 48 106 38 48 106 38 48 106 38 48 106 50 48 106 50 62 124 50 62 124 50 62 124 50 62 124 62 62 124 62 62 124 62 62 142 62 76 142 62 76 142 38 76 142 38 76 142 38 76 142 38 76 88 38 76 88 50 90 88 50 90 88 50 90 88 50 90 88 50 90 106 62 90 106 62 90 106 62 34 106 62 34 106 62 34 106 38 34 124 38 34 124 38 34 124 38 34 124 38 48 124 50 48 124 50 48 142 50 48 142 50 48 142 50 48 142 62 48 142 62 62 142 62 62 88 62 62 88 62 62 88 38 62 88 38 62 88 38 62 88 38 76 106 38 76 106 50 76 106 50 76 106 50 76 106 50 76 106 50 76 124 62 90 124 62 90 124 62 90 124 62 90 124 62 90 124 38 90 142 38 90 142 38 34 142 38 34 142 38 34 142 50 34 142 50 34 88 50 34 88 50 34 88 50 48 88 62 48 88 62 48 88 62 48 106 62 48 106 62
48 106 62 48 106 62 48 106 62 48 106 62 48 106 62 48 106 38 48 124 38 62 124 38 62 124 38 62 124 38 62 124 50 62 124 50 62 142 50 62 142 50 76 142 50 76 142 62 76 142 62 76 142 62 76 88 62 76 88 62 76 88 38 90 88 38 90 88 38 90 88 38 90 106 38 90 106 50 90 106 50 90 106 50 34 106 50 34 106 50 34 124 62 34 124 62 34 124 62 34 124 62 34 124 62 48 124 38 48 142 38 48 142 38 48 142 38 48 142 38 48 142 50 48 142 50 62 88 50 62 88 50 62 88 50 62 88 62 62 88 62 62 88 62 62 106 62 76 106 62 76 106 38 76 106 38 76 106 38 76 106 38 76 124 38 76 124 50 90 124 50 90 124 50 90 124 50 90 124 50 90 142 62 90 142 62 90 142 62 34 142 62 34 142 62 34 142 38 34 88 38 34 88 38 34 88 38 34 88 38 48 88 50 48 88 50 48 106 50 48 106 50 48 106 50 48 106 62 48 106 62 62 106 62 62 124 62 62 124 62 62 124 38 62 124 38 62 124 38 62 124 38 76 142 38 76 142 50 76 142 50 76 142 50 76 142 50 76 142 50 76 88 62 90 88 62 90 88 62 90 88 62 90 88 62 90 88 38 90 106 38 90 106 38 34 106 38 34 106 38 34 106 50 34 106 50 34 124 50 34 124 50 34 124 50 48 124 62 48 124 62 48 124 62 48 142 62 48 142 62 48 142 38 48 142 38 62 142 38 62 142 38 62 88 38 62 88 50 62 88 50 62 88 50 62 88 50 76 88 50 76 106 62 76 106 62 76 106 62 76 106 62 76 106 62 76 106 38 90 124 38 90 124 38 90 124 38 90 124 38 90 124 50 90 124 50 90 142 50 34 142 50 34 142 50 34 142 62 34 142 62 34 142 62 34 88 62 34 88 62 48 88 38 48 88 38 48 88 38 48 88 38 48 106 38 48 106 50 48 106 50 62 106 50 62 106 50 62 106 50 62 124 62 62 124 62 62 124 62 62 124 62 76 124 62 76 124 38 76 142 38 76 142 38 76 142 38 76 142 38 76 142 50 90 142 50 90 88 50 90 88 50 90 88 50 90 88 62 90 88 62 90 88 62 34 106 62 34 106 62 34 106 38 34 106 38 34 106 38 34 106 38 34 124 38 48 124 50 48 124 50 48 124 50 48 124 50 48 124 50 48 142 62 48 142 62 62 142 62 62 142 62 62 142 62 62 142 38 62 88 38 62 88 38 62 88 38 76 88 38 76 88 50 76 88 50 76 106 50 76 106 50 76 106 50 76 106 62 90 106 62 90 106 62 90 124 62 90 124 62 90 124 38 90 124 38 90 124 38 34 124 38 34 142 38 34 142 50 34 142 50 34 142 50 34 142 50 34 142 50 48 88 62 48 88 62 48 88 62 48 88 62 48 88 62 48 88 38 48 106 38 62 106 38 62 106 38 62 106 38 62 106 50 62 106 50 62 124 50 62 124 50 76 124 50 76 124 62 76 124 62 76 124 62 76 142 62 76 142 62 76 142 38 90 142 38 90 142 38 90 142 38 90 88 38 90 88 50 90 88 50 90 88 50 34 88 50 34 88 50 34 106 62 34 106 62 34 106 62 34 106 62 34 106 62 48 106 38 48 124 38 48 124 38 48 124 38 48 124 38 48 124 50 48 124 50 62 142 50 62 142 50 62 142 50 62 142 62 62 142 62 62 142 62 62 88 62 76 88 62 76 88 38 76 88 38 76 88 38 76 88 38 76 106 38 76 106 50 90 106 50 90 106 50 90 106 50 90 106 50 90 124 62 90 124 62 90 124 62 34 124 62 34 124 62 34 124 38 34 142 38 34 142 38 34 142 38 34 142 38 48 142 50 48 142 50 48 88 50 48 88 50 48 88 50 48 88 62 48 88 62 62 88 62 62 106 62 62 106 62 62 106 38 62 106 38 62 106 38 62 106 38 76 124 38 76 124 50 76 124 50 76 124 50 76 124 50 76 124 50 76 142 62 90 142 62 90 142 62 90 142 62 90 142 62 90 142 38 90 88 38 90 88 38 34 88 38 34 88 38 34 88 50 34 88 50 34 106 50 34 106 50 34 106 50 48 106 62 48 106 62 48 106 62 48 124 62 48 124 62
62 106 62 62 106 62 62 106 62 62 106 62 62 106 62 62 106 38 62 124 38 76 124 38 76 124 38 76 124 38 76 124 50 76 124 50 76 142 50 76 142 50 90 142 50 90 142 62 90 142 62 90 142 62 90 88 62 90 88 62 90 88 38 34 88 38 34 88 38 34 88 38 34 106 38 34 106 50 34 106 50 34 106 50 48 106 50 48 106 50 48 124 62 48 124 62 48 124 62 48 124 62 48 124 62 62 124 38 62 142 38 62 142 38 62 142 38 62 142 38 62 142 50 62 142 50 76 88 50 76 88 50 76 88 50 76 88 62 76 88 62 76 88 62 76 106 62 90 106 62 90 106 38 90 106 38 90 106 38 90 106 38 90 124 38 90 124 50 34 124 50 34 124 50 34 124 50 34 124 50 34 142 62 34 142 62 34 142 62 48 142 62 48 142 62 48 142 38 48 88 38 48 88 38 48 88 38 48 88 38 62 88 50 62 88 50 62 106 50 62 106 50 62 106 50 62 106 62 62 106 62 76 106 62 76 124 62 76 124 62 76 124 38 76 124 38 76 124 38 76 124 38 90 142 38 90 142 50 90 142 50 90 142 50 90 142 50 90 142 50 90 88 62 34 88 62 34 88 62 34 88 62 34 88 62 34 88 38 34 106 38 34 106 38 48 106 38 48 106 38 48 106 50 48 106 50 48 124 50 48 124 50 48 124 50 62 124 62 62 124 62 62 124 62 62 142 62 62 142 62 62 142 38 62 142 38 76 142 38 76 142 38 76 88 38 76 88 50 76 88 50 76 88 50 76 88 50 90 88 50 90 106 62 90 106 62 90 106 62 90 106 62 90 106 62 90 106 38 34 124 38 34 124 38 34 124 38 34 124 38 34 124 50 34 124 50 34 142 50 48 142 50 48 142 50 48 142 62 48 142 62 48 142 62 48 88 62 48 88 62 62 88 38 62 88 38 62 88 38 62 88 38 62 106 38 62 106 50 62 106 50 76 106 50 76 106 50 76 106 50 76 124 62 76 124 62 76 124 62 76 124 62 90 124 62 90 124 38 90 142 38 90 142 38 90 142 38 90 142 38 90 142 50 34 142 50 34 88 50 34 88 50 34 88 50 34 88 62 34 88 62 34 88 62 48 106 62 48 106 62 48 106 38 48 106 38 48 106 38 48 106 38 48 124 38 62 124 50 62 124 50 62 124 50 62 124 50 62 124 50 62 142 62 62 142 62 76 142 62 76 142 62 76 142 62 76 142 38 76 88 38 76 88 38 76 88 38 90 88 38 90 88 50 90 88 50 90 106 50 90 106 50 90 106 50 90 106 62 34 106 62 34 106 62 34 124 62 34 124 62 34 124 38 34 124 38 34 124 38 48 124 38 48 142 38 48 142 50 48 142 50 48 142 50 48 142 50 48 142 50 62 88 62 62 88 62 62 88 62 62 88 62 62 88 62 62 88 38 62 106 38 76 106 38 76 106 38 76 106 38 76 106 50 76 106 50 76 124 50 76 124 50 90 124 50 90 124 62 90 124 62 90 124 62 90 142 62 90 142 62 90 142 38 34 142 38 34 142 38 34 142 38 34 88 38 34 88 50 34 88 50 34 88 50 48 88 50 48 88 50 48 106 62 48 106 62 48 106 62 48 106 62 48 106 62 62 106 38 62 124 38 62 124 38 62 124 38 62 124 38 62 124 50 62 124 50 76 142 50 76 142 50 76 142 50 76 142 62 76 142 62 76 142 62 76 88 62 90 88 62 90 88 38 90 88 38 90 88 38 90 88 38 90 106 38 90 106 50 34 106 50 34 106 50 34 106 50 34 106 50 34 124 62 34 124 62 34 124 62 48 124 62 48 124 62 48 124 38 48 142 38 48 142 38 48 142 38 48 142 38 62 142 50 62 142 50 62 88 50 62 88 50 62 88 50 62 88 62 62 88 62 76 88 62 76 106 62 76 106 62 76 106 38 76 106 38 76 106 38 76 106 38 90 124 38 90 124 50 90 124 50 90 124 50 90 124 50 90 124 50 90 142 62 34 142 62 34 142 62 34 142 62 34 142 62 34 142 38 34 88 38 34 88 38 48 88 38 48 88 38 48 88 50 48 88 50 48 106 50 48 106 50 48 106 50 62 106 62 62 106 62 62 106 62 62 124 62 62 124 62
62 106 62 62 106 62 62 106 62 62 106 62 62 106 62 62 106 38 62 124 38 76 124 38 76 124 38 76 124 38 76 124 50 76 124 50 76 142 50 76 142 50 90 142 50 90 142 62 90 142 62 90 142 62 90 88 62 90 88 62 90 88 38 34 88 38 34 88 38 34 88 38 34 106 38 34 106 50 34 106 50 34 106 50 48 106 50 48 106 50 48 124 62 48 124 62 48 124 62 48 124 62 48 124 62 62 124 38 62 142 38 62 142 38 62 142 38 62 142 38 62 142 50 62 142 50 76 88 50 76 88 50 76 88 50 76 88 62 76 88 62 76 88 62 76 106 62 90 106 62 90 106 38 90 106 38 90 106 38 90 106 38 90 124 38 90 124 50 34 124 50 34 124 50 34 124 50 34 124 50 34 142 62 34 142 62 34 142 62 48 142 62 48 142 62 48 142 38 48 88 38 48 88 38 48 88 38 48 88 38 62 88 50 62 88 50 62 106 50 62 106 50 62 106 50 62 106 62 62 106 62 76 106 62 76 124 62 76 124 62 76 124 38 76 124 38 76 124 38 76 124 38 90 142 38 90 142 50 90 142 50 90 142 50 90 142 50 90 142 50 90 88 62 34 88 62 34 88 62 34 88 62 34 88 62 34 88 38 34 106 38 34 106 38 48 106 38 48 106 38 48 106 50 48 106 50 48 124 50 48 124 50 48 124 50 62 124 62 62 124 62 62 124 62 62 142 62 62 142 62 62 142 38 62 142 38 76 142 38 76 142 38 76 88 38 76 88 50 76 88 50 76 88 50 76 88 50 90 88 50 90 106 62 90 106 62 90 106 62 90 106 62 90 106 62 90 106 38 34 124 38 34 124 38 34 124 38 34 124 38 34 124 50 34 124 50 34 142 50 48 142 50 48 142 50 48 142 62 48 142 62 48 142 62 48 88 62 48 88 62 62 88 38 62 88 38 62 88 38 62 88 38 62 106 38 62 106 50 62 106 50 76 106 50 76 106 50 76 106 50 76 124 62 76 124 62 76 124 62 76 124 62 90 124 62 90 124 38 90 142 38 90 142 38 90 142 38 90 142 38 90 142 50 34 142 50 34 88 50 34 88 50 34 88 50 34 88 62 34 88 62 34 88 62 48 106 62 48 106 62 48 106 38 48 106 38 48 106 38 48 106 38 48 124 38 62 124 50 62 124 50 62 124 50 62 124 50 62 124 50 62 142 62 62 142 62 76 142 62 76 142 62 76 142 62 76 142 38 76 88 38 76 88 38 76 88 38 90 88 38 90 88 50 90 88 50 90 106 50 90 106 50 90 106 50 90 106 62 34 106 62 34 106 62 34 124 62 34 124 62 34 124 38 34 124 38 34 124 38 48 124 38 48 142 38 48 142 50 48 142 50 48 142 50 48 142 50 48 142 50 62 88 62 62 88 62 62 88 62 62 88 62 62 88 62 62 88 38 62 106 38 76 106 38 76 106 38 76 106 38 76 106 50 76 106 50 76 124 50 76 124 50 90 124 50 90 124 62 90 124 62 90 124 62 90 142 62 90 142 62 90 142 38 34 142 38 34 142 38 34 142 38 34 88 38 34 88 50 34 88 50 34 88 50 48 88 50 48 88 50 48 106 62 48 106 62 48 106 62 48 106 62 48 106 62 62 106 38 62 124 38 62 124 38 62 124 38 62 124 38 62 124 50 62 124 50 76 142 50 76 142 50 76 142 50 76 142 62 76 142 62 76 142 62 76 88 62 90 88 62 90 88 38 90 88 38 90 88 38 90 88 38 90 106 38 90 106 50 34 106 50 34 106 50 34 106 50 34 106 50 34 124 62 34 124 62 34 124 62 48 124 62 48 124 62 48 124 38 48 142 38 48 142 38 48 142 38 48 142 38 62 142 50 62 142 50 62 88 50 62 88 50 62 88 50 62 88 62 62 88 62 76 88 62 76 106 62 76 106 62 76 106 38 76 106 38 76 106 38 76 106 38 90 124 38 90 124 50 90 124 50 90 124 50 90 124 50 90 124 50 90 142 62 34 142 62 34 142 62 34 142 62 34 142 62 34 142 38 34 88 38 34 88 38 48 88 38 48 88 38 48 88 50 48 88 50 48 106 50 48 106 50 48 106 50 62 106 62 62 106 62 62 106 62 62 124 62 62 124 62
62 106 62 62 106 62 62 106 62 62 106 62 62 106 62 62 106 38 62 124 38 76 124 38 76 124 38 76 124 38 76 124 50 76 124 50 76 142 50 76 142 50 90 142 50 90 142 62 90 142 62 90 142 62 90 88 62 90 88 62 90 88 38 34 88 38 34 88 38 34 88 38 34 106 38 34 106 50 34 106 50 34 106 50 48 106 50 48 106 50 48 124 62 48 124 62 48 124 62 48 124 62 48 124 62 62 124 38 62 142 38 62 142 38 62 142 38 62 142 38 62 142 50 62 142 50 76 88 50 76 88 50 76 88 50 76 88 62 76 88 62 76 88 62 76 106 62 90 106 62 90 106 38 90 106 38 90 106 38 90 106 38 90 124 38 90 124 50 34 124 50 34 124 50 34 124 50 34 124 50 34 142 62 34 142 62 34 142 62 48 142 62 48 142 62 48 142 38 48 88 38 48 88 38 48 88 38 48 88 38 62 88 50 62 88 50 62 106 50 62 106 50 62 106 50 62 106 62 62 106 62 76 106 62 76 124 62 76 124 62 76 124 38 76 124 38 76 124 38 76 124 38 90 142 38 90 142 50 90 142 50 90 142 50 90 142 50 90 142 50 90 88 62 34 88 62 34 88 62 34 88 62 34 88 62 34 88 38 34 106 38 34 106 38 48 106 38 48 106 38 48 106 50 48 106 50 48 124 50 48 124 50 48 124 50 62 124 62 62 124 62 62 124 62 62 142 62 62 142 62 62 142 38 62 142 38 76 142 38 76 142 38 76 88 38 76 88 50 76 88 50 76 88 50 76 88 50 90 88 50 90 106 62 90 106 62 90 106 62 90 106 62 90 106 62 90 106 38 34 124 38 34 124 38 34 124 38 34 124 38 34 124 50 34 124 50 34 142 50 48 142 50 48 142 50 48 142 62 48 142 62 48 142 62 48 88 62 48 88 62 62 88 38 62 88 38 62 88 38 62 88 38 62 106 38 62 106 50 62 106 50 76 106 50 76 106 50 76 106 50 76 124 62 76 124 62 76 124 62 76 124 62 90 124 62 90 124 38 90 142 38 90 142 38 90 142 38 90 142 38 90 142 50 34 142 50 34 88 50 34 88 50 34 88 50 34 88 62 34 88 62 34 88 62 48 106 62 48 106 62 48 106 38 48 106 38 48 106 38 48 106 38 48 124 38 62 124 50 62 124 50 62 124 50 62 124 50 62 124 50 62 142 62 62 142 62 76 142 62 76 142 62 76 142 62 76 142 38 76 88 38 76 88 38 76 88 38 90 88 38 90 88 50 90 88 50 90 106 50 90 106 50 90 106 50 90 106 62 34 106 62 34 106 62 34 124 62 34 124 62 34 124 38 34 124 38 34 124 38 48 124 38 48 142 38 48 142 50 48 142 50 48 142 50 48 142 50 48 142 50 62 88 62 62 88 62 62 88 62 62 88 62 62 88 62 62 88 38 62 106 38 76 106 38 76 106 38 76 106 38 76 106 50 76 106 50 76 124 50 76 124 50 90 124 50 90 124 62 90 124 62 90 124 62 90 142 62 90 142 62 90 142 38 34 142 38 34 142 38 34 142 38 34 88 38 34 88 50 34 88 50 34 88 50 48 88 50 48 88 50 48 106 62 48 106 62 48 106 62 48 106 62 48 106 62 62 106 38 62 124 38 62 124 38 62 124 38 62 124 38 62 124 50 62 124 50 76 142 50 76 142 50 76 142 50 76 142 62 76 142 62 76 142 62 76 88 62 90 88 62 90 88 38 90 88 38 90 88 38 90 88 38 90 106 38 90 106 50 34 106 50 34 106 50 34 106 50 34 106 50 34 124 62 34 124 62 34 124 62 48 124 62 48 124 62 48 124 38 48 142 38 48 142 38 48 142 38 48 142 38 62 142 50 62 142 50 62 88 50 62 88 50 62 88 50 62 88 62 62 88 62 76 88 62 76 106 62 76 106 62 76 106 38 76 106 38 76 106 38 76 106 38 90 124 38 90 124 50 90 124 50 90 124 50 90 124 50 90 124 50 90 142 62 34 142 62 34 142 62 34 142 62 34 142 62 34 142 38 34 88 38 34 88 38 48 88 38 48 88 38 48 88 50 48 88 50 48 106 50 48 106 50 48 106 50 62 106 62 62 106 62 62 106 62 62 124 62 62 124 62
62 106 62 62 106 62 62 106 62 62 106 62 62 106 62 62 106 38 62 124 38 76 124 38 76 124 38 76 124 38 76 124 50 76 124 50 76 142 50 76 142 50 90 142 50 90 142 62 90 142 62 90 142 62 90 88 62 90 88 62 90 88 38 34 88 38 34 88 38 34 88 38 34 106 38 34 106 50 34 106 50 34 106 50 48 106 50 48 106 50 48 124 62 48 124 62 48 124 62 48 124 62 48 124 62 62 124 38 62 142 38 62 142 38 62 142 38 62 142 38 62 142 50 62 142 50 76 88 50 76 88 50 76 88 50 76 88 62 76 88 62 76 88 62 76 106 62 90 106 62 90 106 38 90 106 38 90 106 38 90 106 38 90 124 38 90 124 50 34 124 50 34 124 50 34 124 50 34 124 50 34 142 62 34 142 62 34 142 62 48 142 62 48 142 62 48 142 38 48 88 38 48 88 38 48 88 38 48 88 38 62 88 50 62 88 50 62 106 50 62 106 50 62 106 50 62 106 62 62 106 62 76 106 62 76 124 62 76 124 62 76 124 38 76 124 38 76 124 38 76 124 38 90 142 38 90 142 50 90 142 50 90 142 50 90 142 50 90 142 50 90 88 62 34 88 62 34 88 62 34 88 62 34 88 62 34 88 38 34 106 38 34 106 38 48 106 38 48 106 38 48 106 50 48 106 50 48 124 50 48 124 50 48 124 50 62 124 62 62 124 62 62 124 62 62 142 62 62 142 62 62 142 38 62 142 38 76 142 38 76 142 38 76 88 38 76 88 50 76 88 50 76 88 50 76 88 50 90 88 50 90 106 62 90 106 62 90 106 62 90 106 62 90 106 62 90 106 38 34 124 38 34 124 38 34 124 38 34 124 38 34 124 50 34 124 50 34 142 50 48 142 50 48 142 50 48 142 62 48 142 62 48 142 62 48 88 62 48 88 62 62 88 38 62 88 38 62 88 38 62 88 38 62 106 38 62 106 50 62 106 50 76 106 50 76 106 50 76 106 50 76 124 62 76 124 62 76 124 62 76 124 62 90 124 62 90 124 38 90 142 38 90 142 38 90 142 38 90 142 38 90 142 50 34 142 50 34 88 50 34 88 50 34 88 50 34 88 62 34 88 62 34 88 62 48 106 62 48 106 62 48 106 38 48 106 38 48 106 38 48 106 38 48 124 38 62 124 50 62 124 50 62 124 50 62 124 50 62 124 50 62 142 62 62 142 62 76 142 62 76 142 62 76 142 62 76 142 38 76 88 38 76 88 38 76 88 38 90 88 38 90 88 50 90 88 50 90 106 50 90 106 50 90 106 50 90 106 62 34 106 62 34 106 62 34 124 62 34 124 62 34 124 38 34 124 38 34 124 38 48 124 38 48 142 38 48 142 50 48 142 50 48 142 50 48 142 50 48 142 50 62 88 62 62 88 62 62 88 62 62 88 62 62 88 62 62 88 38 62 106 38 76 106 38 76 106 38 76 106 38 76 106 50 76 106 50 76 124 50 76 124 50 90 124 50 90 124 62 90 124 62 90 124 62 90 142 62 90 142 62 90 142 38 34 142 38 34 142 38 34 142 38 34 88 38 34 88 50 34 88 50 34 88 50 48 88 50 48 88 50 48 106 62 48 106 62 48 106 62 48 106 62 48 106 62 62 106 38 62 124 38 62 124 38 62 124 38 62 124 38 62 124 50 62 124 50 76 142 50 76 142 50 76 142 50 76 142 62 76 142 62 76 142 62 76 88 62 90 88 62 90 88 38 90 88 38 90 88 38 90 88 38 90 106 38 90 106 50 34 106 50 34 106 50 34 106 50 34 106 50 34 124 62 34 124 62 34 124 62 48 124 62 48 124 62 48 124 38 48 142 38 48 142 38 48 142 38 48 142 38 62 142 50 62 142 50 62 88 50 62 88 50 62 88 50 62 88 62 62 88 62 76 88 62 76 106 62 76 106 62 76 106 38 76 106 38 76 106 38 76 106 38 90 124 38 90 124 50 90 124 50 90 124 50 90 124 50 90 124 50 90 142 62 34 142 62 34 142 62 34 142 62 34 142 62 34 142 38 34 88 38 34 88 38 48 88 38 48 88 38 48 88 50 48 88 50 48 106 50 48 106 50 48 106 50 62 106 62 62 106 62 62 106 62 62 124 62 62 124 62
62 106 38 62 106 38 62 106 38 62 106 38 62 106 38 62 106 50 62 124 50 76 124 50 76 124 50 76 124 50 76 124 62 76 124 62 76 142 62 76 142 62 90 142 62 90 142 38 90 142 38 90 142 38 90 88 38 90 88 38 90 88 50 34 88 50 34 88 50 34 88 50 34 106 50 34 106 62 34 106 62 34 106 62 48 106 62 48 106 62 48 124 38 48 124 38 48 124 38 48 124 38 48 124 38 62 124 50 62 142 50 62 142 50 62 142 50 62 142 50 62 142 62 62 142 62 76 88 62 76 88 62 76 88 62 76 88 38 76 88 38 76 88 38 76 106 38 90 106 38 90 106 50 90 106 50 90 106 50 90 106 50 90 124 50 90 124 62 34 124 62 34 124 62 34 124 62 34 124 62 34 142 38 34 142 38 34 142 38 48 142 38 48 142 38 48 142 50 48 88 50 48 88 50 48 88 50 48 88 50 62 88 62 62 88 62 62 106 62 62 106 62 62 106 62 62 106 38 62 106 38 76 106 38 76 124 38 76 124 38 76 124 50 76 124 50 76 124 50 76 124 50 90 142 50 90 142 62 90 142 62 90 142 62 90 142 62 90 142 62 90 88 38 34 88 38 34 88 38 34 88 38 34 88 38 34 88 50 34 106 50 34 106 50 48 106 50 48 106 50 48 106 62 48 106 62 48 124 62 48 124 62 48 124 62 62 124 38 62 124 38 62 124 38 62 142 38 62 142 38 62 142 50 62 142 50 76 142 50 76 142 50 76 88 50 76 88 62 76 88 62 76 88 62 76 88 62 90 88 62 90 106 38 90 106 38 90 106 38 90 106 38 90 106 38 90 106 50 34 124 50 34 124 50 34 124 50 34 124 50 34 124 62 34 124 62 34 142 62 48 142 62 48 142 62 48 142 38 48 142 38 48 142 38 48 88 38 48 88 38 62 88 50 62 88 50 62 88 50 62 88 50 62 106 50 62 106 62 62 106 62 76 106 62 76 106 62 76 106 62 76 124 38 76 124 38 76 124 38 76 124 38 90 124 38 90 124 50 90 142 50 90 142 50 90 142 50 90 142 50 90 142 62 34 142 62 34 88 62 34 88 62 34 88 62 34 88 38 34 88 38 34 88 38 48 106 38 48 106 38 48 106 50 48 106 50 48 106 50 48 106 50 48 124 50 62 124 62 62 124 62 62 124 62 62 124 62 62 124 62 62 142 38 62 142 38 76 142 38 76 142 38 76 142 38 76 142 50 76 88 50 76 88 50 76 88 50 90 88 50 90 88 62 90 88 62 90 106 62 90 106 62 90 106 62 90 106 38 34 106 38 34 106 38 34 124 38 34 124 38 34 124 50 34 124 50 34 124 50 48 124 50 48 142 50 48 142 62 48 142 62 48 142 62 48 142 62 48 142 62 62 88 38 62 88 38 62 88 38 62 88 38 62 88 38 62 88 50 62 106 50 76 106 50 76 106 50 76 106 50 76 106 62 76 106 62 76 124 62 76 124 62 90 124 62 90 124 38 90 124 38 90 124 38 90 142 38 90 142 38 90 142 50 34 142 50 34 142 50 34 142 50 34 88 50 34 88 62 34 88 62 34 88 62 48 88 62 48 88 62 48 106 38 48 106 38 48 106 38 48 106 38 48 106 38 62 106 50 62 124 50 62 124 50 62 124 50 62 124 50 62 124 62 62 124 62 76 142 62 76 142 62 76 142 62 76 142 38 76 142 38 76 142 38 76 88 38 90 88 38 90 88 50 90 88 50 90 88 50 90 88 50 90 106 50 90 106 62 34 106 62 34 106 62 34 106 62 34 106 62 34 124 38 34 124 38 34 124 38 48 124 38 48 124 38 48 124 50 48 142 50 48 142 50 48 142 50 48 142 50 62 142 62 62 142 62 62 88 62 62 88 62 62 88 62 62 88 38 62 88 38 76 88 38 76 106 38 76 106 38 76 106 50 76 106 50 76 106 50 76 106 50 90 124 50 90 124 62 90 124 62 90 124 62 90 124 62 90 124 62 90 142 38 34 142 38 34 142 38 34 142 38 34 142 38 34 142 50 34 88 50 34 88 50 48 88 50 48 88 50 48 88 62 48 88 62 48 106 62 48 106 62 48 106 62 62 106 38 62 106 38 62 106 38 62 124 38 62 124 38
76 106 38 76 106 38 76 106 38 76 106 38 76 106 38 76 106 50 76 124 50 90 124 50 90 124 50 90 124 50 90 124 62 90 124 62 90 142 62 90 142 62 34 142 62 34 142 38 34 142 38 34 142 38 34 88 38 34 88 38 34 88 50 48 88 50 48 88 50 48 88 50 48 106 50 48 106 62 48 106 62 48 106 62 62 106 62 62 106 62 62 124 38 62 124 38 62 124 38 62 124 38 62 124 38 76 124 50 76 142 50 76 142 50 76 142 50 76 142 50 76 142 62 76 142 62 90 88 62 90 88 62 90 88 62 90 88 38 90 88 38 90 88 38 90 106 38 34 106 38 34 106 50 34 106 50 34 106 50 34 106 50 34 124 50 34 124 62 48 124 62 48 124 62 48 124 62 48 124 62 48 142 38 48 142 38 48 142 38 62 142 38 62 142 38 62 142 50 62 88 50 62 88 50 62 88 50 62 88 50 76 88 62 76 88 62 76 106 62 76 106 62 76 106 62 76 106 38 76 106 38 90 106 38 90 124 38 90 124 38 90 124 50 90 124 50 90 124 50 90 124 50 34 142 50 34 142 62 34 142 62 34 142 62 34 142 62 34 142 62 34 88 38 48 88 38 48 88 38 48 88 38 48 88 38 48 88 50 48 106 50 48 106 50 62 106 50 62 106 50 62 106 62 62 106 62 62 124 62 62 124 62 62 124 62 76 124 38 76 124 38 76 124 38 76 142 38 76 142 38 76 142 50 76 142 50 90 142 50 90 142 50 90 88 50 90 88 62 90 88 62 90 88 62 90 88 62 34 88 62 34 106 38 34 106 38 34 106 38 34 106 38 34 106 38 34 106 50 48 124 50 48 124 50 48 124 50 48 124 50 48 124 62 48 124 62 48 142 62 62 142 62 62 142 62 62 142 38 62 142 38 62 142 38 62 88 38 62 88 38 76 88 50 76 88 50 76 88 50 76 88 50 76 106 50 76 106 62 76 106 62 90 106 62 90 106 62 90 106 62 90 124 38 90 124 38 90 124 38 90 124 38 34 124 38 34 124 50 34 142 50 34 142 50 34 142 50 34 142 50 34 142 62 48 142 62 48 88 62 48 88 62 48 88 62 48 88 38 48 88 38 48 88 38 62 106 38 62 106 38 62 106 50 62 106 50 62 106 50 62 106 50 62 124 50 76 124 62 76 124 62 76 124 62 76 124 62 76 124 62 76 142 38 76 142 38 90 142 38 90 142 38 90 142 38 90 142 50 90 88 50 90 88 50 90 88 50 34 88 50 34 88 62 34 88 62 34 106 62 34 106 62 34 106 62 34 106 38 48 106 38 48 106 38 48 124 38 48 124 38 48 124 50 48 124 50 48 124 50 62 124 50 62 142 50 62 142 62 62 142 62 62 142 62 62 142 62 62 142 62 76 88 38 76 88 38 76 88 38 76 88 38 76 88 38 76 88 50 76 106 50 90 106 50 90 106 50 90 106 50 90 106 62 90 106 62 90 124 62 90 124 62 34 124 62 34 124 38 34 124 38 34 124 38 34 142 38 34 142 38 34 142 50 48 142 50 48 142 50 48 142 50 48 88 50 48 88 62 48 88 62 48 88 62 62 88 62 62 88 62 62 106 38 62 106 38 62 106 38 62 106 38 62 106 38 76 106 50 76 124 50 76 124 50 76 124 50 76 124 50 76 124 62 76 124 62 90 142 62 90 142 62 90 142 62 90 142 38 90 142 38 90 142 38 90 88 38 34 88 38 34 88 50 34 88 50 34 88 50 34 88 50 34 106 50 34 106 62 48 106 62 48 106 62 48 106 62 48 106 62 48 124 38 48 124 38 48 124 38 62 124 38 62 124 38 62 124 50 62 142 50 62 142 50 62 142 50 62 142 50 76 142 62 76 142 62 76 88 62 76 88 62 76 88 62 76 88 38 76 88 38 90 88 38 90 106 38 90 106 38 90 106 50 90 106 50 90 106 50 90 106 50 34 124 50 34 124 62 34 124 62 34 124 62 34 124 62 34 124 62 34 142 38 48 142 38 48 142 38 48 142 38 48 142 38 48 142 50 48 88 50 48 88 50 62 88 50 62 88 50 62 88 62 62 88 62 62 106 62 62 106 62 62 106 62 76 106 38 76 106 38 76 106 38 76 124 38 76 124 38
76 124 38 76 124 38 76 124 38 76 124 38 76 124 38 76 124 50 76 142 50 90 142 50 90 142 50 90 142 50 90 142 62 90 142 62 90 88 62 90 88 62 34 88 62 34 88 38 34 88 38 34 88 38 34 106 38 34 106 38 34 106 50 48 106 50 48 106 50 48 106 50 48 124 50 48 124 62 48 124 62 48 124 62 62 124 62 62 124 62 62 142 38 62 142 38 62 142 38 62 142 38 62 142 38 76 142 50 76 88 50 76 88 50 76 88 50 76 88 50 76 88 62 76 88 62 90 106 62 90 106 62 90 106 62 90 106 38 90 106 38 90 106 38 90 124 38 34 124 38 34 124 50 34 124 50 34 124 50 34 124 50 34 142 50 34 142 62 48 142 62 48 142 62 48 142 62 48 142 62 48 88 38 48 88 38 48 88 38 62 88 38 62 88 38 62 88 50 62 106 50 62 106 50 62 106 50 62 106 50 76 106 62 76 106 62 76 124 62 76 124 62 76 124 62 76 124 38 76 124 38 90 124 38 90 142 38 90 142 38 90 142 50 90 142 50 90 142 50 90 142 50 34 88 50 34 88 62 34 88 62 34 88 62 34 88 62 34 88 62 34 106 38 48 106 38 48 106 38 48 106 38 48 106 38 48 106 50 48 124 50 48 124 50 62 124 50 62 124 50 62 124 62 62 124 62 62 142 62 62 142 62 62 142 62 76 142 38 76 142 38 76 142 38 76 88 38 76 88 38 76 88 50 76 88 50 90 88 50 90 88 50 90 106 50 90 106 62 90 106 62 90 106 62 90 106 62 34 106 62 34 124 38 34 124 38 34 124 38 34 124 38 34 124 38 34 124 50 48 142 50 48 142 50 48 142 50 48 142 50 48 142 62 48 142 62 48 88 62 62 88 62 62 88 62 62 88 38 62 88 38 62 88 38 62 106 38 62 106 38 76 106 50 76 106 50 76 106 50 76 106 50 76 124 50 76 124 62 76 124 62 90 124 62 90 124 62 90 124 62 90 142 38 90 142 38 90 142 38 90 142 38 34 142 38 34 142 50 34 88 50 34 88 50 34 88 50 34 88 50 34 88 62 48 88 62 48 106 62 48 106 62 48 106 62 48 106 38 48 106 38 48 106 38 62 124 38 62 124 38 62 124 50 62 124 50 62 124 50 62 124 50 62 142 50 76 142 62 76 142 62 76 142 62 76 142 62 76 142 62 76 88 38 76 88 38 90 88 38 90 88 38 90 88 38 90 88 50 90 106 50 90 106 50 90 106 50 34 106 50 34 106 62 34 106 62 34 124 62 34 124 62 34 124 62 34 124 38 48 124 38 48 124 38 48 142 38 48 142 38 48 142 50 48 142 50 48 142 50 62 142 50 62 88 50 62 88 62 62 88 62 62 88 62 62 88 62 62 88 62 76 106 38 76 106 38 76 106 38 76 106 38 76 106 38 76 106 50 76 124 50 90 124 50 90 124 50 90 124 50 90 124 62 90 124 62 90 142 62 90 142 62 34 142 62 34 142 38 34 142 38 34 142 38 34 88 38 34 88 38 34 88 50 48 88 50 48 88 50 48 88 50 48 106 50 48 106 62 48 106 62 48 106 62 62 106 62 62 106 62 62 124 38 62 124 38 62 124 38 62 124 38 62 124 38 76 124 50 76 142 50 76 142 50 76 142 50 76 142 50 76 142 62 76 142 62 90 88 62 90 88 62 90 88 62 90 88 38 90 88 38 90 88 38 90 106 38 34 106 38 34 106 50 34 106 50 34 106 50 34 106 50 34 124 50 34 124 62 48 124 62 48 124 62 48 124 62 48 124 62 48 142 38 48 142 38 48 142 38 62 142 38 62 142 38 62 142 50 62 88 50 62 88 50 62 88 50 62 88 50 76 88 62 76 88 62 76 106 62 76 106 62 76 106 62 76 106 38 76 106 38 90 106 38 90 124 38 90 124 38 90 124 50 90 124 50 90 124 50 90 124 50 34 142 50 34 142 62 34 142 62 34 142 62 34 142 62 34 142 62 34 88 38 48 88 38 48 88 38 48 88 38 48 88 38 48 88 50 48 106 50 48 106 50 62 106 50 62 106 50 62 106 62 62 106 62 62 124 62 62 124 62 62 124 62 76 124 38 76 124 38 76 124 38 76 142 38 76 142 38
76 124 38 76 124 38 76 124 38 76 124 38 76 124 38 76 124 50 76 142 50 90 142 50 90 142 50 90 142 50 90 142 62 90 142 62 90 88 62 90 88 62 34 88 62 34 88 38 34 88 38 34 88 38 34 106 38 34 106 38 34 106 50 48 106 50 48 106 50 48 106 50 48 124 50 48 124 62 48 124 62 48 124 62 62 124 62 62 124 62 62 142 38 62 142 38 62 142 38 62 142 38 62 142 38 76 142 50 76 88 50 76 88 50 76 88 50 76 88 50 76 88 62 76 88 62 90 106 62 90 106 62 90 106 62 90 106 38 90 106 38 90 106 38 90 124 38 34 124 38 34 124 50 34 124 50 34 124 50 34 124 50 34 142 50 34 142 62 48 142 62 48 142 62 48 142 62 48 142 62 48 88 38 48 88 38 48 88 38 62 88 38 62 88 38 62 88 50 62 106 50 62 106 50 62 106 50 62 106 50 76 106 62 76 106 62 76 124 62 76 124 62 76 124 62 76 124 38 76 124 38 90 124 38 90 142 38 90 142 38 90 142 50 90 142 50 90 142 50 90 142 50 34 88 50 34 88 62 34 88 62 34 88 62 34 88 62 34 88 62 34 106 38 48 106 38 48 106 38 48 106 38 48 106 38 48 106 50 48 124 50 48 124 50 62 124 50 62 124 50 62 124 62 62 124 62 62 142 62 62 142 62 62 142 62 76 142 38 76 142 38 76 142 38 76 88 38 76 88 38 76 88 50 76 88 50 90 88 50 90 88 50 90 106 50 90 106 62 90 106 62 90 106 62 90 106 62 34 106 62 34 124 38 34 124 38 34 124 38 34 124 38 34 124 38 34 124 50 48 142 50 48 142 50 48 142 50 48 142 50 48 142 62 48 142 62 48 88 62 62 88 62 62 88 62 62 88 38 62 88 38 62 88 38 62 106 38 62 106 38 76 106 50 76 106 50 76 106 50 76 106 50 76 124 50 76 124 62 76 124 62 90 124 62 90 124 62 90 124 62 90 142 38 90 142 38 90 142 38 90 142 38 34 142 38 34 142 50 34 88 50 34 88 50 34 88 50 34 88 50 34 88 62 48 88 62 48 106 62 48 106 62 48 106 62 48 106 38 48 106 38 48 106 38 62 124 38 62 124 38 62 124 50 62 124 50 62 124 50 62 124 50 62 142 50 76 142 62 76 142 62 76 142 62 76 142 62 76 142 62 76 88 38 76 88 38 90 88 38 90 88 38 90 88 38 90 88 50 90 106 50 90 106 50 90 106 50 34 106 50 34 106 62 34 106 62 34 124 62 34 124 62 34 124 62 34 124 38 48 124 38 48 124 38 48 142 38 48 142 38 48 142 50 48 142 50 48 142 50 62 142 50 62 88 50 62 88 62 62 88 62 62 88 62 62 88 62 62 88 62 76 106 38 76 106 38 76 106 38 76 106 38 76 106 38 76 106 50 76 124 50 90 124 50 90 124 50 90 124 50 90 124 62 90 124 62 90 142 62 90 142 62 34 142 62 34 142 38 34 142 38 34 142 38 34 88 38 34 88 38 34 88 50 48 88 50 48 88 50 48 88 50 48 106 50 48 106 62 48 106 62 48 106 62 62 106 62 62 106 62 62 124 38 62 124 38 62 124 38 62 124 38 62 124 38 76 124 50 76 142 50 76 142 50 76 142 50 76 142 50 76 142 62 76 142 62 90 88 62 90 88 62 90 88 62 90 88 38 90 88 38 90 88 38 90 106 38 34 106 38 34 106 50 34 106 50 34 106 50 34 106 50 34 124 50 34 124 62 48 124 62 48 124 62 48 124 62 48 124 62 48 142 38 48 142 38 48 142 38 62 142 38 62 142 38 62 142 50 62 88 50 62 88 50 62 88 50 62 88 50 76 88 62 76 88 62 76 106 62 76 106 62 76 106 62 76 106 38 76 106 38 90 106 38 90 124 38 90 124 38 90 124 50 90 124 50 90 124 50 90 124 50 34 142 50 34 142 62 34 142 62 34 142 62 34 142 62 34 142 62 34 88 38 48 88 38 48 88 38 48 88 38 48 88 38 48 88 50 48 106 50 48 106 50 62 106 50 62 106 50 62 106 62 62 106 62 62 124 62 62 124 62 62 124 62 76 124 38 76 124 38 76 124 38 76 142 38 76 142 38
76 124 38 76 124 38 76 124 38 76 124 38 76 124 38 76 124 50 76 142 50 90 142 50 90 142 50 90 142 50 90 142 62 90 142 62 90 88 62 90 88 62 34 88 62 34 88 38 34 88 38 34 88 38 34 106 38 34 106 38 34 106 50 48 106 50 48 106 50 48 106 50 48 124 50 48 124 62 48 124 62 48 124 62 62 124 62 62 124 62 62 142 38 62 142 38 62 142 38 62 142 38 62 142 38 76 142 50 76 88 50 76 88 50 76 88 50 76 88 50 76 88 62 76 88 62 90 106 62 90 106 62 90 106 62 90 106 38 90 106 38 90 106 38 90 124 38 34 124 38 34 124 50 34 124 50 34 124 50 34 124 50 34 142 50 34 142 62 48 142 62 48 142 62 48 142 62 48 142 62 48 88 38 48 88 38 48 88 38 62 88 38 62 88 38 62 88 50 62 106 50 62 106 50 62 106 50 62 106 50 76 106 62 76 106 62 76 124 62 76 124 62 76 124 62 76 124 38 76 124 38 90 124 38 90 142 38 90 142 38 90 142 50 90 142 50 90 142 50 90 142 50 34 88 50 34 88 62 34 88 62 34 88 62 34 88 62 34 88 62 34 106 38 48 106 38 48 106 38 48 106 38 48 106 38 48 106 50 48 124 50 48 124 50 62 124 50 62 124 50 62 124 62 62 124 62 62 142 62 62 142 62 62 142 62 76 142 38 76 142 38 76 142 38 76 88 38 76 88 38 76 88 50 76 88 50 90 88 50 90 88 50 90 106 50 90 106 62 90 106 62 90 106 62 90 106 62 34 106 62 34 124 38 34 124 38 34 124 38 34 124 38 34 124 38 34 124 50 48 142 50 48 142 50 48 142 50 48 142 50 48 142 62 48 142 62 48 88 62 62 88 62 62 88 62 62 88 38 62 88 38 62 88 38 62 106 38 62 106 38 76 106 50 76 106 50 76 106 50 76 106 50 76 124 50 76 124 62 76 124 62 90 124 62 90 124 62 90 124 62 90 142 38 90 142 38 90 142 38 90 142 38 34 142 38 34 142 50 34 88 50 34 88 50 34 88 50 34 88 50 34 88 62 48 88 62 48 106 62 48 106 62 48 106 62 48 106 38 48 106 38 48 106 38 62 124 38 62 124 38 62 124 50 62 124 50 62 124 50 62 124 50 62 142 50 76 142 62 76 142 62 76 142 62 76 142 62 76 142 62 76 88 38 76 88 38 90 88 38 90 88 38 90 88 38 90 88 50 90 106 50 90 106 50 90 106 50 34 106 50 34 106 62 34 106 62 34 124 62 34 124 62 34 124 62 34 124 38 48 124 38 48 124 38 48 142 38 48 142 38 48 142 50 48 142 50 48 142 50 62 142 50 62 88 50 62 88 62 62 88 62 62 88 62 62 88 62 62 88 62 76 106 38 76 106 38 76 106 38 76 106 38 76 106 38 76 106 50 76 124 50 90 124 50 90 124 50 90 124 50 90 124 62 90 124 62 90 142 62 90 142 62 34 142 62 34 142 38 34 142 38 34 142 38 34 88 38 34 88 38 34 88 50 48 88 50 48 88 50 48 88 50 48 106 50 48 106 62 48 106 62 48 106 62 62 106 62 62 106 62 62 124 38 62 124 38 62 124 38 62 124 38 62 124 38 76 124 50 76 142 50 76 142 50 76 142 50 76 142 50 76 142 62 76 142 62 90 88 62 90 88 62 90 88 62 90 88 38 90 88 38 90 88 38 90 106 38 34 106 38 34 106 50 34 106 50 34 106 50 34 106 50 34 124 50 34 124 62 48 124 62 48 124 62 48 124 62 48 124 62 48 142 38 48 142 38 48 142 38 62 142 38 62 142 38 62 142 50 62 88 50 62 88 50 62 88 50 62 88 50 76 88 62 76 88 62 76 106 62 76 106 62 76 106 62 76 106 38 76 106 38 90 106 38 90 124 38 90 124 38 90 124 50 90 124 50 90 124 50 90 124 50 34 142 50 34 142 62 34 142 62 34 142 62 34 142 62 34 142 62 34 88 38 48 88 38 48 88 38 48 88 38 48 88 38 48 88 50 48 106 50 48 106 50 62 106 50 62 106 50 62 106 62 62 106 62 62 124 62 62 124 62 62 124 62 76 124 38 76 124 38 76 124 38 76 142 38 76 142 38
76 124 38 76 124 38 76 124 38 76 124 38 76 124 38 76 124 50 76 142 50 90 142 50 90 142 50 90 142 50 90 142 62 90 142 62 90 88 62 90 88 62 34 88 62 34 88 38 34 88 38 34 88 38 34 106 38 34 106 38 34 106 50 48 106 50 48 106 50 48 106 50 48 124 50 48 124 62 48 124 62 48 124 62 62 124 62 62 124 62 62 142 38 62 142 38 62 142 38 62 142 38 62 142 38 76 142 50 76 88 50 76 88 50 76 88 50 76 88 50 76 88 62 76 88 62 90 106 62 90 106 62 90 106 62 90 106 38 90 106 38 90 106 38 90 124 38 34 124 38 34 124 50 34 124 50 34 124 50 34 124 50 34 142 50 34 142 62 48 142 62 48 142 62 48 142 62 48 142 62 48 88 38 48 88 38 48 88 38 62 88 38 62 88 38 62 88 50 62 106 50 62 106 50 62 106 50 62 106 50 76 106 62 76 106 62 76 124 62 76 124 62 76 124 62 76 124 38 76 124 38 90 124 38 90 142 38 90 142 38 90 142 50 90 142 50 90 142 50 90 142 50 34 88 50 34 88 62 34 88 62 34 88 62 34 88 62 34 88 62 34 106 38 48 106 38 48 106 38 48 106 38 48 106 38 48 106 50 48 124 50 48 124 50 62 124 50 62 124 50 62 124 62 62 124 62 62 142 62 62 142 62 62 142 62 76 142 38 76 142 38 76 142 38 76 88 38 76 88 38 76 88 50 76 88 50 90 88 50 90 88 50 90 106 50 90 106 62 90 106 62 90 106 62 90 106 62 34 106 62 34 124 38 34 124 38 34 124 38 34 124 38 34 124 38 34 124 50 48 142 50 48 142 50 48 142 50 48 142 50 48 142 62 48 142 62 48 88 62 62 88 62 62 88 62 62 88 38 62 88 38 62 88 38 62 106 38 62 106 38 76 106 50 76 106 50 76 106 50 76 106 50 76 124 50 76 124 62 76 124 62 90 124 62 90 124 62 90 124 62 90 142 38 90 142 38 90 142 38 90 142 38 34 142 38 34 142 50 34 88 50 34 88 50 34 88 50 34 88 50 34 88 62 48 88 62 48 106 62 48 106 62 48 106 62 48 106 38 48 106 38 48 106 38 62 124 38 62 124 38 62 124 50 62 124 50 62 124 50 62 124 50 62 142 50 76 142 62 76 142 62 76 142 62 76 142 62 76 142 62 76 88 38 76 88 38 90 88 38 90 88 38 90 88 38 90 88 50 90 106 50 90 106 50 90 106 50 34 106 50 34 106 62 34 106 62 34 124 62 34 124 62 34 124 62 34 124 38 48 124 38 48 124 38 48 142 38 48 142 38 48 142 50 48 142 50 48 142 50 62 142 50 62 88 50 62 88 62 62 88 62 62 88 62 62 88 62 62 88 62 76 106 38 76 106 38 76 106 38 76 106 38 76 106 38 76 106 50 76 124 50 90 124 50 90 124 50 90 124 50 90 124 62 90 124 62 90 142 62 90 142 62 34 142 62 34 142 38 34 142 38 34 142 38 34 88 38 34 88 38 34 88 50 48 88 50 48 88 50 48 88 50 48 106 50 48 106 62 48 106 62 48 106 62 62 106 62 62 106 62 62 124 38 62 124 38 62 124 38 62 124 38 62 124 38 76 124 50 76 142 50 76 142 50 76 142 50 76 142 50 76 142 62 76 142 62 90 88 62 90 88 62 90 88 62 90 88 38 90 88 38 90 88 38 90 106 38 34 106 38 34 106 50 34 106 50 34 106 50 34 106 50 34 124 50 34 124 62 48 124 62 48 124 62 48 124 62 48 124 62 48 142 38 48 142 38 48 142 38 62 142 38 62 142 38 62 142 50 62 88 50 62 88 50 62 88 50 62 88 50 76 88 62 76 88 62 76 106 62 76 106 62 76 106 62 76 106 38 76 106 38 90 106 38 90 124 38 90 124 38 90 124 50 90 124 50 90 124 50 90 124 50 34 142 50 34 142 62 34 142 62 34 142 62 34 142 62 34 142 62 34 88 38 48 88 38 48 88 38 48 88 38 48 88 38 48 88 50 48 106 50 48 106 50 62 106 50 62 106 50 62 106 62 62 106 62 62 124 62 62 124 62 62 124 62 76 124 38 76 124 38 76 124 38 76 142 38 76 142 38
90 124 38 90 124 38 90 124 38 90 124 38 90 124 38 90 124 50 90 142 50 34 142 50 34 142 50 34 142 50 34 142 62 34 142 62 34 88 62 34 88 62 48 88 62 48 88 38 48 88 38 48 88 38 48 106 38 48 106 38 48 106 50 62 106 50 62 106 50 62 106 50 62 124 50 62 124 62 62 124 62 62 124 62 76 124 62 76 124 62 76 142 38 76 142 38 76 142 38 76 142 38 76 142 38 90 142 50 90 88 50 90 88 50 90 88 50 90 88 50 90 88 62 90 88 62 34 106 62 34 106 62 34 106 62 34 106 38 34 106 38 34 106 38 34 124 38 48 124 38 48 124 50 48 124 50 48 124 50 48 124 50 48 142 50 48 142 62 62 142 62 62 142 62 62 142 62 62 142 62 62 88 38 62 88 38 62 88 38 76 88 38 76 88 38 76 88 50 76 106 50 76 106 50 76 106 50 76 106 50 90 106 62 90 106 62 90 124 62 90 124 62 90 124 62 90 124 38 90 124 38 34 124 38 34 142 38 34 142 38 34 142 50 34 142 50 34 142 50 34 142 50 48 88 50 48 88 62 48 88 62 48 88 62 48 88 62 48 88 62 48 106 38 62 106 38 62 106 38 62 106 38 62 106 38 62 106 50 62 124 50 62 124 50 76 124 50 76 124 50 76 124 62 76 124 62 76 142 62 76 142 62 76 142 62 90 142 38 90 142 38 90 142 38 90 88 38 90 88 38 90 88 50 90 88 50 34 88 50 34 88 50 34 106 50 34 106 62 34 106 62 34 106 62 34 106 62 48 106 62 48 124 38 48 124 38 48 124 38 48 124 38 48 124 38 48 124 50 62 142 50 62 142 50 62 142 50 62 142 50 62 142 62 62 142 62 62 88 62 76 88 62 76 88 62 76 88 38 76 88 38 76 88 38 76 106 38 76 106 38 90 106 50 90 106 50 90 106 50 90 106 50 90 124 50 90 124 62 90 124 62 34 124 62 34 124 62 34 124 62 34 142 38 34 142 38 34 142 38 34 142 38 48 142 38 48 142 50 48 88 50 48 88 50 48 88 50 48 88 50 48 88 62 62 88 62 62 106 62 62 106 62 62 106 62 62 106 38 62 106 38 62 106 38 76 124 38 76 124 38 76 124 50 76 124 50 76 124 50 76 124 50 76 142 50 90 142 62 90 142 62 90 142 62 90 142 62 90 142 62 90 88 38 90 88 38 34 88 38 34 88 38 34 88 38 34 88 50 34 106 50 34 106 50 34 106 50 48 106 50 48 106 62 48 106 62 48 124 62 48 124 62 48 124 62 48 124 38 62 124 38 62 124 38 62 142 38 62 142 38 62 142 50 62 142 50 62 142 50 76 142 50 76 88 50 76 88 62 76 88 62 76 88 62 76 88 62 76 88 62 90 106 38 90 106 38 90 106 38 90 106 38 90 106 38 90 106 50 90 124 50 34 124 50 34 124 50 34 124 50 34 124 62 34 124 62 34 142 62 34 142 62 48 142 62 48 142 38 48 142 38 48 142 38 48 88 38 48 88 38 48 88 50 62 88 50 62 88 50 62 88 50 62 106 50 62 106 62 62 106 62 62 106 62 76 106 62 76 106 62 76 124 38 76 124 38 76 124 38 76 124 38 76 124 38 90 124 50 90 142 50 90 142 50 90 142 50 90 142 50 90 142 62 90 142 62 34 88 62 34 88 62 34 88 62 34 88 38 34 88 38 34 88 38 34 106 38 48 106 38 48 106 50 48 106 50 48 106 50 48 106 50 48 124 50 48 124 62 62 124 62 62 124 62 62 124 62 62 124 62 62 142 38 62 142 38 62 142 38 76 142 38 76 142 38 76 142 50 76 88 50 76 88 50 76 88 50 76 88 50 90 88 62 90 88 62 90 106 62 90 106 62 90 106 62 90 106 38 90 106 38 34 106 38 34 124 38 34 124 38 34 124 50 34 124 50 34 124 50 34 124 50 48 142 50 48 142 62 48 142 62 48 142 62 48 142 62 48 142 62 48 88 38 62 88 38 62 88 38 62 88 38 62 88 38 62 88 50 62 106 50 62 106 50 76 106 50 76 106 50 76 106 62 76 106 62 76 124 62 76 124 62 76 124 62 90 124 38 90 124 38 90 124 38 90 142 38 90 142 38
90 124 38 90 124 38 90 124 38 90 124 38 90 124 38 90 124 50 90 142 50 34 142 50 34 142 50 34 142 50 34 142 62 34 142 62 34 88 62 34 88 62 48 88 62 48 88 38 48 88 38 48 88 38 48 106 38 48 106 38 48 106 50 62 106 50 62 106 50 62 106 50 62 124 50 62 124 62 62 124 62 62 124 62 76 124 62 76 124 62 76 142 38 76 142 38 76 142 38 76 142 38 76 142 38 90 142 50 90 88 50 90 88 50 90 88 50 90 88 50 90 88 62 90 88 62 34 106 62 34 106 62 34 106 62 34 106 38 34 106 38 34 106 38 34 124 38 48 124 38 48 124 50 48 124 50 48 124 50 48 124 50 48 142 50 48 142 62 62 142 62 62 142 62 62 142 62 62 142 62 62 88 38 62 88 38 62 88 38 76 88 38 76 88 38 76 88 50 76 106 50 76 106 50 76 106 50 76 106 50 90 106 62 90 106 62 90 124 62 90 124 62 90 124 62 90 124 38 90 124 38 34 124 38 34 142 38 34 142 38 34 142 50 34 142 50 34 142 50 34 142 50 48 88 50 48 88 62 48 88 62 48 88 62 48 88 62 48 88 62 48 106 38 62 106 38 62 106 38 62 106 38 62 106 38 62 106 50 62 124 50 62 124 50 76 124 50 76 124 50 76 124 62 76 124 62 76 142 62 76 142 62 76 142 62 90 142 38 90 142 38 90 142 38 90 88 38 90 88 38 90 88 50 90 88 50 34 88 50 34 88 50 34 106 50 34 106 62 34 106 62 34 106 62 34 106 62 48 106 62 48 124 38 48 124 38 48 124 38 48 124 38 48 124 38 48 124 50 62 142 50 62 142 50 62 142 50 62 142 50 62 142 62 62 142 62 62 88 62 76 88 62 76 88 62 76 88 38 76 88 38 76 88 38 76 106 38 76 106 38 90 106 50 90 106 50 90 106 50 90 106 50 90 124 50 90 124 62 90 124 62 34 124 62 34 124 62 34 124 62 34 142 38 34 142 38 34 142 38 34 142 38 48 142 38 48 142 50 48 88 50 48 88 50 48 88 50 48 88 50 48 88 62 62 88 62 62 106 62 62 106 62 62 106 62 62 106 38 62 106 38 62 106 38 76 124 38 76 124 38 76 124 50 76 124 50 76 124 50 76 124 50 76 142 50 90 142 62 90 142 62 90 142 62 90 142 62 90 142 62 90 88 38 90 88 38 34 88 38 34 88 38 34 88 38 34 88 50 34 106 50 34 106 50 34 106 50 48 106 50 48 106 62 48 106 62 48 124 62 48 124 62 48 124 62 48 124 38 62 124 38 62 124 38 62 142 38 62 142 38 62 142 50 62 142 50 62 142 50 76 142 50 76 88 50 76 88 62 76 88 62 76 88 62 76 88 62 76 88 62 90 106 38 90 106 38 90 106 38 90 106 38 90 106 38 90 106 50 90 124 50 34 124 50 34 124 50 34 124 50 34 124 62 34 124 62 34 142 62 34 142 62 48 142 62 48 142 38 48 142 38 48 142 38 48 88 38 48 88 38 48 88 50 62 88 50 62 88 50 62 88 50 62 106 50 62 106 62 62 106 62 62 106 62 76 106 62 76 106 62 76 124 38 76 124 38 76 124 38 76 124 38 76 124 38 90 124 50 90 142 50 90 142 50 90 142 50 90 142 50 90 142 62 90 142 62 34 88 62 34 88 62 34 88 62 34 88 38 34 88 38 34 88 38 34 106 38 48 106 38 48 106 50 48 106 50 48 106 50 48 106 50 48 124 50 48 124 62 62 124 62 62 124 62 62 124 62 62 124 62 62 142 38 62 142 38 62 142 38 76 142 38 76 142 38 76 142 50 76 88 50 76 88 50 76 88 50 76 88 50 90 88 62 90 88 62 90 106 62 90 106 62 90 106 62 90 106 38 90 106 38 34 106 38 34 124 38 34 124 38 34 124 50 34 124 50 34 124 50 34 124 50 48 142 50 48 142 62 48 142 62 48 142 62 48 142 62 48 142 62 48 88 38 62 88 38 62 88 38 62 88 38 62 88 38 62 88 50 62 106 50 62 106 50 76 106 50 76 106 50 76 106 62 76 106 62 76 124 62 76 124 62 76 124 62 90 124 38 90 124 38 90 124 38 90 142 38 90 142 38
90 124 50 90 124 50 90 124 50 90 124 50 90 124 50 90 124 62 90 142 62 34 142 62 34 142 62 34 142 62 34 142 38 34 142 38 34 88 38 34 88 38 48 88 38 48 88 50 48 88 50 48 88 50 48 106 50 48 106 50 48 106 62 62 106 62 62 106 62 62 106 62 62 124 62 62 124 38 62 124 38 62 124 38 76 124 38 76 124 38 76 142 50 76 142 50 76 142 50 76 142 50 76 142 50 90 142 62 90 88 62 90 88 62 90 88 62 90 88 62 90 88 38 90 88 38 34 106 38 34 106 38 34 106 38 34 106 50 34 106 50 34 106 50 34 124 50 48 124 50 48 124 62 48 124 62 48 124 62 48 124 62 48 142 62 48 142 38 62 142 38 62 142 38 62 142 38 62 142 38 62 88 50 62 88 50 62 88 50 76 88 50 76 88 50 76 88 62 76 106 62 76 106 62 76 106 62 76 106 62 90 106 38 90 106 38 90 124 38 90 124 38 90 124 38 90 124 50 90 124 50 34 124 50 34 142 50 34 142 50 34 142 62 34 142 62 34 142 62 34 142 62 48 88 62 48 88 38 48 88 38 48 88 38 48 88 38 48 88 38 48 106 50 62 106 50 62 106 50 62 106 50 62 106 50 62 106 62 62 124 62 62 124 62 76 124 62 76 124 62 76 124 38 76 124 38 76 142 38 76 142 38 76 142 38 90 142 50 90 142 50 90 142 50 90 88 50 90 88 50 90 88 62 90 88 62 34 88 62 34 88 62 34 106 62 34 106 38 34 106 38 34 106 38 34 106 38 48 106 38 48 124 50 48 124 50 48 124 50 48 124 50 48 124 50 48 124 62 62 142 62 62 142 62 62 142 62 62 142 62 62 142 38 62 142 38 62 88 38 76 88 38 76 88 38 76 88 50 76 88 50 76 88 50 76 106 50 76 106 50 90 106 62 90 106 62 90 106 62 90 106 62 90 124 62 90 124 38 90 124 38 34 124 38 34 124 38 34 124 38 34 142 50 34 142 50 34 142 50 34 142 50 48 142 50 48 142 62 48 88 62 48 88 62 48 88 62 48 88 62 48 88 38 62 88 38 62 106 38 62 106 38 62 106 38 62 106 50 62 106 50 62 106 50 76 124 50 76 124 50 76 124 62 76 124 62 76 124 62 76 124 62 76 142 62 90 142 38 90 142 38 90 142 38 90 142 38 90 142 38 90 88 50 90 88 50 34 88 50 34 88 50 34 88 50 34 88 62 34 106 62 34 106 62 34 106 62 48 106 62 48 106 38 48 106 38 48 124 38 48 124 38 48 124 38 48 124 50 62 124 50 62 124 50 62 142 50 62 142 50 62 142 62 62 142 62 62 142 62 76 142 62 76 88 62 76 88 38 76 88 38 76 88 38 76 88 38 76 88 38 90 106 50 90 106 50 90 106 50 90 106 50 90 106 50 90 106 62 90 124 62 34 124 62 34 124 62 34 124 62 34 124 38 34 124 38 34 142 38 34 142 38 48 142 38 48 142 50 48 142 50 48 142 50 48 88 50 48 88 50 48 88 62 62 88 62 62 88 62 62 88 62 62 106 62 62 106 38 62 106 38 62 106 38 76 106 38 76 106 38 76 124 50 76 124 50 76 124 50 76 124 50 76 124 50 90 124 62 90 142 62 90 142 62 90 142 62 90 142 62 90 142 38 90 142 38 34 88 38 34 88 38 34 88 38 34 88 50 34 88 50 34 88 50 34 106 50 48 106 50 48 106 62 48 106 62 48 106 62 48 106 62 48 124 62 48 124 38 62 124 38 62 124 38 62 124 38 62 124 38 62 142 50 62 142 50 62 142 50 76 142 50 76 142 50 76 142 62 76 88 62 76 88 62 76 88 62 76 88 62 90 88 38 90 88 38 90 106 38 90 106 38 90 106 38 90 106 50 90 106 50 34 106 50 34 124 50 34 124 50 34 124 62 34 124 62 34 124 62 34 124 62 48 142 62 48 142 38 48 142 38 48 142 38 48 142 38 48 142 38 48 88 50 62 88 50 62 88 50 62 88 50 62 88 50 62 88 62 62 106 62 62 106 62 76 106 62 76 106 62 76 106 38 76 106 38 76 124 38 76 124 38 76 124 38 90 124 50 90 124 50 90 124 50 90 142 50 90 142 50
90 142 50 90 142 50 90 142 50 90 142 50 90 142 50 90 142 62 90 88 62 34 88 62 34 88 62 34 88 62 34 88 38 34 88 38 34 106 38 34 106 38 48 106 38 48 106 50 48 106 50 48 106 50 48 124 50 48 124 50 48 124 62 62 124 62 62 124 62 62 124 62 62 142 62 62 142 38 62 142 38 62 142 38 76 142 38 76 142 38 76 88 50 76 88 50 76 88 50 76 88 50 76 88 50 90 88 62 90 106 62 90 106 62 90 106 62 90 106 62 90 106 38 90 106 38 34 124 38 34 124 38 34 124 38 34 124 50 34 124 50 34 124 50 34 142 50 48 142 50 48 142 62 48 142 62 48 142 62 48 142 62 48 88 62 48 88 38 62 88 38 62 88 38 62 88 38 62 88 38 62 106 50 62 106 50 62 106 50 76 106 50 76 106 50 76 106 62 76 124 62 76 124 62 76 124 62 76 124 62 90 124 38 90 124 38 90 142 38 90 142 38 90 142 38 90 142 50 90 142 50 34 142 50 34 88 50 34 88 50 34 88 62 34 88 62 34 88 62 34 88 62 48 106 62 48 106 38 48 106 38 48 106 38 48 106 38 48 106 38 48 124 50 62 124 50 62 124 50 62 124 50 62 124 50 62 124 62 62 142 62 62 142 62 76 142 62 76 142 62 76 142 38 76 142 38 76 88 38 76 88 38 76 88 38 90 88 50 90 88 50 90 88 50 90 106 50 90 106 50 90 106 62 90 106 62 34 106 62 34 106 62 34 124 62 34 124 38 34 124 38 34 124 38 34 124 38 48 124 38 48 142 50 48 142 50 48 142 50 48 142 50 48 142 50 48 142 62 62 88 62 62 88 62 62 88 62 62 88 62 62 88 38 62 88 38 62 106 38 76 106 38 76 106 38 76 106 50 76 106 50 76 106 50 76 124 50 76 124 50 90 124 62 90 124 62 90 124 62 90 124 62 90 142 62 90 142 38 90 142 38 34 142 38 34 142 38 34 142 38 34 88 50 34 88 50 34 88 50 34 88 50 48 88 50 48 88 62 48 106 62 48 106 62 48 106 62 48 106 62 48 106 38 62 106 38 62 124 38 62 124 38 62 124 38 62 124 50 62 124 50 62 124 50 76 142 50 76 142 50 76 142 62 76 142 62 76 142 62 76 142 62 76 88 62 90 88 38 90 88 38 90 88 38 90 88 38 90 88 38 90 106 50 90 106 50 34 106 50 34 106 50 34 106 50 34 106 62 34 124 62 34 124 62 34 124 62 48 124 62 48 124 38 48 124 38 48 142 38 48 142 38 48 142 38 48 142 50 62 142 50 62 142 50 62 88 50 62 88 50 62 88 62 62 88 62 62 88 62 76 88 62 76 106 62 76 106 38 76 106 38 76 106 38 76 106 38 76 106 38 90 124 50 90 124 50 90 124 50 90 124 50 90 124 50 90 124 62 90 142 62 34 142 62 34 142 62 34 142 62 34 142 38 34 142 38 34 88 38 34 88 38 48 88 38 48 88 50 48 88 50 48 88 50 48 106 50 48 106 50 48 106 62 62 106 62 62 106 62 62 106 62 62 124 62 62 124 38 62 124 38 62 124 38 76 124 38 76 124 38 76 142 50 76 142 50 76 142 50 76 142 50 76 142 50 90 142 62 90 88 62 90 88 62 90 88 62 90 88 62 90 88 38 90 88 38 34 106 38 34 106 38 34 106 38 34 106 50 34 106 50 34 106 50 34 124 50 48 124 50 48 124 62 48 124 62 48 124 62 48 124 62 48 142 62 48 142 38 62 142 38 62 142 38 62 142 38 62 142 38 62 88 50 62 88 50 62 88 50 76 88 50 76 88 50 76 88 62 76 106 62 76 106 62 76 106 62 76 106 62 90 106 38 90 106 38 90 124 38 90 124 38 90 124 38 90 124 50 90 124 50 34 124 50 34 142 50 34 142 50 34 142 62 34 142 62 34 142 62 34 142 62 48 88 62 48 88 38 48 88 38 48 88 38 48 88 38 48 88 38 48 106 50 62 106 50 62 106 50 62 106 50 62 106 50 62 106 62 62 124 62 62 124 62 76 124 62 76 124 62 76 124 38 76 124 38 76 142 38 76 142 38 76 142 38 90 142 50 90 142 50 90 142 50 90 88 50 90 88 50
90 142 50 90 142 50 90 142 50 90 142 50 90 142 50 90 142 62 90 88 62 34 88 62 34 88 62 34 88 62 34 88 38 34 88 38 34 106 38 34 106 38 48 106 38 48 106 50 48 106 50 48 106 50 48 124 50 48 124 50 48 124 62 62 124 62 62 124 62 62 124 62 62 142 62 62 142 38 62 142 38 62 142 38 76 142 38 76 142 38 76 88 50 76 88 50 76 88 50 76 88 50 76 88 50 90 88 62 90 106 62 90 106 62 90 106 62 90 106 62 90 106 38 90 106 38 34 124 38 34 124 38 34 124 38 34 124 50 34 124 50 34 124 50 34 142 50 48 142 50 48 142 62 48 142 62 48 142 62 48 142 62 48 88 62 48 88 38 62 88 38 62 88 38 62 88 38 62 88 38 62 106 50 62 106 50 62 106 50 76 106 50 76 106 50 76 106 62 76 124 62 76 124 62 76 124 62 76 124 62 90 124 38 90 124 38 90 142 38 90 142 38 90 142 38 90 142 50 90 142 50 34 142 50 34 88 50 34 88 50 34 88 62 34 88 62 34 88 62 34 88 62 48 106 62 48 106 38 48 106 38 48 106 38 48 106 38 48 106 38 48 124 50 62 124 50 62 124 50 62 124 50 62 124 50 62 124 62 62 142 62 62 142 62 76 142 62 76 142 62 76 142 38 76 142 38 76 88 38 76 88 38 76 88 38 90 88 50 90 88 50 90 88 50 90 106 50 90 106 50 90 106 62 90 106 62 34 106 62 34 106 62 34 124 62 34 124 38 34 124 38 34 124 38 34 124 38 48 124 38 48 142 50 48 142 50 48 142 50 48 142 50 48 142 50 48 142 62 62 88 62 62 88 62 62 88 62 62 88 62 62 88 38 62 88 38 62 106 38 76 106 38 76 106 38 76 106 50 76 106 50 76 106 50 76 124 50 76 124 50 90 124 62 90 124 62 90 124 62 90 124 62 90 142 62 90 142 38 90 142 38 34 142 38 34 142 38 34 142 38 34 88 50 34 88 50 34 88 50 34 88 50 48 88 50 48 88 62 48 106 62 48 106 62 48 106 62 48 106 62 48 106 38 62 106 38 62 124 38 62 124 38 62 124 38 62 124 50 62 124 50 62 124 50 76 142 50 76 142 50 76 142 62 76 142 62 76 142 62 76 142 62 76 88 62 90 88 38 90 88 38 90 88 38 90 88 38 90 88 38 90 106 50 90 106 50 34 106 50 34 106 50 34 106 50 34 106 62 34 124 62 34 124 62 34 124 62 48 124 62 48 124 38 48 124 38 48 142 38 48 142 38 48 142 38 48 142 50 62 142 50 62 142 50 62 88 50 62 88 50 62 88 62 62 88 62 62 88 62 76 88 62 76 106 62 76 106 38 76 106 38 76 106 38 76 106 38 76 106 38 90 124 50 90 124 50 90 124 50 90 124 50 90 124 50 90 124 62 90 142 62 34 142 62 34 142 62 34 142 62 34 142 38 34 142 38 34 88 38 34 88 38 48 88 38 48 88 50 48 88 50 48 88 50 48 106 50 48 106 50 48 106 62 62 106 62 62 106 62 62 106 62 62 124 62 62 124 38 62 124 38 62 124 38 76 124 38 76 124 38 76 142 50 76 142 50 76 142 50 76 142 50 76 142 50 90 142 62 90 88 62 90 88 62 90 88 62 90 88 62 90 88 38 90 88 38 34 106 38 34 106 38 34 106 38 34 106 50 34 106 50 34 106 50 34 124 50 48 124 50 48 124 62 48 124 62 48 124 62 48 124 62 48 142 62 48 142 38 62 142 38 62 142 38 62 142 38 62 142 38 62 88 50 62 88 50 62 88 50 76 88 50 76 88 50 76 88 62 76 106 62 76 106 62 76 106 62 76 106 62 90 106 38 90 106 38 90 124 38 90 124 38 90 124 38 90 124 50 90 124 50 34 124 50 34 142 50 34 142 50 34 142 62 34 142 62 34 142 62 34 142 62 48 88 62 48 88 38 48 88 38 48 88 38 48 88 38 48 88 38 48 106 50 62 106 50 62 106 50 62 106 50 62 106 50 62 106 62 62 124 62 62 124 62 76 124 62 76 124 62 76 124 38 76 124 38 76 142 38 76 142 38 76 142 38 90 142 50 90 142 50 90 142 50 90 88 50 90 88 50
34 142 50 34 142 50 34 142 50 34 142 50 34 142 50 34 142 62 34 88 62 48 88 62 48 88 62 48 88 62 48 88 38 48 88 38 48 106 38 48 106 38 62 106 38 62 106 50 62 106 50 62 106 50 62 124 50 62 124 50 62 124 62 76 124 62 76 124 62 76 124 62 76 142 62 76 142 38 76 142 38 76 142 38 90 142 38 90 142 38 90 88 50 90 88 50 90 88 50 90 88 50 90 88 50 34 88 62 34 106 62 34 106 62 34 106 62 34 106 62 34 106 38 34 106 38 48 124 38 48 124 38 48 124 38 48 124 50 48 124 50 48 124 50 48 142 50 62 142 50 62 142 62 62 142 62 62 142 62 62 142 62 62 88 62 62 88 38 76 88 38 76 88 38 76 88 38 76 88 38 76 106 50 76 106 50 76 106 50 90 106 50 90 106 50 90 106 62 90 124 62 90 124 62 90 124 62 90 124 62 34 124 38 34 124 38 34 142 38 34 142 38 34 142 38 34 142 50 34 142 50 48 142 50 48 88 50 48 88 50 48 88 62 48 88 62 48 88 62 48 88 62 62 106 62 62 106 38 62 106 38 62 106 38 62 106 38 62 106 38 62 124 50 76 124 50 76 124 50 76 124 50 76 124 50 76 124 62 76 142 62 76 142 62 90 142 62 90 142 62 90 142 38 90 142 38 90 88 38 90 88 38 90 88 38 34 88 50 34 88 50 34 88 50 34 106 50 34 106 50 34 106 62 34 106 62 48 106 62 48 106 62 48 124 62 48 124 38 48 124 38 48 124 38 48 124 38 62 124 38 62 142 50 62 142 50 62 142 50 62 142 50 62 142 50 62 142 62 76 88 62 76 88 62 76 88 62 76 88 62 76 88 38 76 88 38 76 106 38 90 106 38 90 106 38 90 106 50 90 106 50 90 106 50 90 124 50 90 124 50 34 124 62 34 124 62 34 124 62 34 124 62 34 142 62 34 142 38 34 142 38 48 142 38 48 142 38 48 142 38 48 88 50 48 88 50 48 88 50 48 88 50 62 88 50 62 88 62 62 106 62 62 106 62 62 106 62 62 106 62 62 106 38 76 106 38 76 124 38 76 124 38 76 124 38 76 124 50 76 124 50 76 124 50 90 142 50 90 142 50 90 142 62 90 142 62 90 142 62 90 142 62 90 88 62 34 88 38 34 88 38 34 88 38 34 88 38 34 88 38 34 106 50 34 106 50 48 106 50 48 106 50 48 106 50 48 106 62 48 124 62 48 124 62 48 124 62 62 124 62 62 124 38 62 124 38 62 142 38 62 142 38 62 142 38 62 142 50 76 142 50 76 142 50 76 88 50 76 88 50 76 88 62 76 88 62 76 88 62 90 88 62 90 106 62 90 106 38 90 106 38 90 106 38 90 106 38 90 106 38 34 124 50 34 124 50 34 124 50 34 124 50 34 124 50 34 124 62 34 142 62 48 142 62 48 142 62 48 142 62 48 142 38 48 142 38 48 88 38 48 88 38 62 88 38 62 88 50 62 88 50 62 88 50 62 106 50 62 106 50 62 106 62 76 106 62 76 106 62 76 106 62 76 124 62 76 124 38 76 124 38 76 124 38 90 124 38 90 124 38 90 142 50 90 142 50 90 142 50 90 142 50 90 142 50 34 142 62 34 88 62 34 88 62 34 88 62 34 88 62 34 88 38 34 88 38 48 106 38 48 106 38 48 106 38 48 106 50 48 106 50 48 106 50 48 124 50 62 124 50 62 124 62 62 124 62 62 124 62 62 124 62 62 142 62 62 142 38 76 142 38 76 142 38 76 142 38 76 142 38 76 88 50 76 88 50 76 88 50 90 88 50 90 88 50 90 88 62 90 106 62 90 106 62 90 106 62 90 106 62 34 106 38 34 106 38 34 124 38 34 124 38 34 124 38 34 124 50 34 124 50 48 124 50 48 142 50 48 142 50 48 142 62 48 142 62 48 142 62 48 142 62 62 88 62 62 88 38 62 88 38 62 88 38 62 88 38 62 88 38 62 106 50 76 106 50 76 106 50 76 106 50 76 106 50 76 106 62 76 124 62 76 124 62 90 124 62 90 124 62 90 124 38 90 124 38 90 142 38 90 142 38 90 142 38 34 142 50 34 142 50 34 142 50 34 88 50 34 88 50
34 142 50 34 142 50 34 142 50 34 142 50 34 142 50 34 142 62 34 88 62 48 88 62 48 88 62 48 88 62 48 88 38 48 88 38 48 106 38 48 106 38 62 106 38 62 106 50 62 106 50 62 106 50 62 124 50 62 124 50 62 124 62 76 124 62 76 124 62 76 124 62 76 142 62 76 142 38 76 142 38 76 142 38 90 142 38 90 142 38 90 88 50 90 88 50 90 88 50 90 88 50 90 88 50 34 88 62 34 106 62 34 106 62 34 106 62 34 106 62 34 106 38 34 106 38 48 124 38 48 124 38 48 124 38 48 124 50 48 124 50 48 124 50 48 142 50 62 142 50 62 142 62 62 142 62 62 142 62 62 142 62 62 88 62 62 88 38 76 88 38 76 88 38 76 88 38 76 88 38 76 106 50 76 106 50 76 106 50 90 106 50 90 106 50 90 106 62 90 124 62 90 124 62 90 124 62 90 124 62 34 124 38 34 124 38 34 142 38 34 142 38 34 142 38 34 142 50 34 142 50 48 142 50 48 88 50 48 88 50 48 88 62 48 88 62 48 88 62 48 88 62 62 106 62 62 106 38 62 106 38 62 106 38 62 106 38 62 106 38 62 124 50 76 124 50 76 124 50 76 124 50 76 124 50 76 124 62 76 142 62 76 142 62 90 142 62 90 142 62 90 142 38 90 142 38 90 88 38 90 88 38 90 88 38 34 88 50 34 88 50 34 88 50 34 106 50 34 106 50 34 106 62 34 106 62 48 106 62 48 106 62 48 124 62 48 124 38 48 124 38 48 124 38 48 124 38 62 124 38 62 142 50 62 142 50 62 142 50 62 142 50 62 142 50 62 142 62 76 88 62 76 88 62 76 88 62 76 88 62 76 88 38 76 88 38 76 106 38 90 106 38 90 106 38 90 106 50 90 106 50 90 106 50 90 124 50 90 124 50 34 124 62 34 124 62 34 124 62 34 124 62 34 142 62 34 142 38 34 142 38 48 142 38 48 142 38 48 142 38 48 88 50 48 88 50 48 88 50 48 88 50 62 88 50 62 88 62 62 106 62 62 106 62 62 106 62 62 106 62 62 106 38 76 106 38 76 124 38 76 124 38 76 124 38 76 124 50 76 124 50 76 124 50 90 142 50 90 142 50 90 142 62 90 142 62 90 142 62 90 142 62 90 88 62 34 88 38 34 88 38 34 88 38 34 88 38 34 88 38 34 106 50 34 106 50 48 106 50 48 106 50 48 106 50 48 106 62 48 124 62 48 124 62 48 124 62 62 124 62 62 124 38 62 124 38 62 142 38 62 142 38 62 142 38 62 142 50 76 142 50 76 142 50 76 88 50 76 88 50 76 88 62 76 88 62 76 88 62 90 88 62 90 106 62 90 106 38 90 106 38 90 106 38 90 106 38 90 106 38 34 124 50 34 124 50 34 124 50 34 124 50 34 124 50 34 124 62 34 142 62 48 142 62 48 142 62 48 142 62 48 142 38 48 142 38 48 88 38 48 88 38 62 88 38 62 88 50 62 88 50 62 88 50 62 106 50 62 106 50 62 106 62 76 106 62 76 106 62 76 106 62 76 124 62 76 124 38 76 124 38 76 124 38 90 124 38 90 124 38 90 142 50 90 142 50 90 142 50 90 142 50 90 142 50 34 142 62 34 88 62 34 88 62 34 88 62 34 88 62 34 88 38 34 88 38 48 106 38 48 106 38 48 106 38 48 106 50 48 106 50 48 106 50 48 124 50 62 124 50 62 124 62 62 124 62 62 124 62 62 124 62 62 142 62 62 142 38 76 142 38 76 142 38 76 142 38 76 142 38 76 88 50 76 88 50 76 88 50 90 88 50 90 88 50 90 88 62 90 106 62 90 106 62 90 106 62 90 106 62 34 106 38 34 106 38 34 124 38 34 124 38 34 124 38 34 124 50 34 124 50 48 124 50 48 142 50 48 142 50 48 142 62 48 142 62 48 142 62 48 142 62 62 88 62 62 88 38 62 88 38 62 88 38 62 88 38 62 88 38 62 106 50 76 106 50 76 106 50 76 106 50 76 106 50 76 106 62 76 124 62 76 124 62 90 124 62 90 124 62 90 124 38 90 124 38 90 142 38 90 142 38 90 142 38 34 142 50 34 142 50 34 142 50 34 88 50 34 88 50
34 142 50 34 142 50 34 142 50 34 142 50 34 142 50 34 142 62 34 88 62 48 88 62 48 88 62 48 88 62 48 88 38 48 88 38 48 106 38 48 106 38 62 106 38 62 106 50 62 106 50 62 106 50 62 124 50 62 124 50 62 124 62 76 124 62 76 124 62 76 124 62 76 142 62 76 142 38 76 142 38 76 142 38 90 142 38 90 142 38 90 88 50 90 88 50 90 88 50 90 88 50 90 88 50 34 88 62 34 106 62 34 106 62 34 106 62 34 106 62 34 106 38 34 106 38 48 124 38 48 124 38 48 124 38 48 124 50 48 124 50 48 124 50 48 142 50 62 142 50 62 142 62 62 142 62 62 142 62 62 142 62 62 88 62 62 88 38 76 88 38 76 88 38 76 88 38 76 88 38 76 106 50 76 106 50 76 106 50 90 106 50 90 106 50 90 106 62 90 124 62 90 124 62 90 124 62 90 124 62 34 124 38 34 124 38 34 142 38 34 142 38 34 142 38 34 142 50 34 142 50 48 142 50 48 88 50 48 88 50 48 88 62 48 88 62 48 88 62 48 88 62 62 106 62 62 106 38 62 106 38 62 106 38 62 106 38 62 106 38 62 124 50 76 124 50 76 124 50 76 124 50 76 124 50 76 124 62 76 142 62 76 142 62 90 142 62 90 142 62 90 142 38 90 142 38 90 88 38 90 88 38 90 88 38 34 88 50 34 88 50 34 88 50 34 106 50 34 106 50 34 106 62 34 106 62 48 106 62 48 106 62 48 124 62 48 124 38 48 124 38 48 124 38 48 124 38 62 124 38 62 142 50 62 142 50 62 142 50 62 142 50 62 142 50 62 142 62 76 88 62 76 88 62 76 88 62 76 88 62 76 88 38 76 88 38 76 106 38 90 106 38 90 106 38 90 106 50 90 106 50 90 106 50 90 124 50 90 124 50 34 124 62 34 124 62 34 124 62 34 124 62 34 142 62 34 142 38 34 142 38 48 142 38 48 142 38 48 142 38 48 88 50 48 88 50 48 88 50 48 88 50 62 88 50 62 88 62 62 106 62 62 106 62 62 106 62 62 106 62 62 106 38 76 106 38 76 124 38 76 124 38 76 124 38 76 124 50 76 124 50 76 124 50 90 142 50 90 142 50 90 142 62 90 142 62 90 142 62 90 142 62 90 88 62 34 88 38 34 88 38 34 88 38 34 88 38 34 88 38 34 106 50 34 106 50 48 106 50 48 106 50 48 106 50 48 106 62 48 124 62 48 124 62 48 124 62 62 124 62 62 124 38 62 124 38 62 142 38 62 142 38 62 142 38 62 142 50 76 142 50 76 142 50 76 88 50 76 88 50 76 88 62 76 88 62 76 88 62 90 88 62 90 106 62 90 106 38 90 106 38 90 106 38 90 106 38 90 106 38 34 124 50 34 124 50 34 124 50 34 124 50 34 124 50 34 124 62 34 142 62 48 142 62 48 142 62 48 142 62 48 142 38 48 142 38 48 88 38 48 88 38 62 88 38 62 88 50 62 88 50 62 88 50 62 106 50 62 106 50 62 106 62 76 106 62 76 106 62 76 106 62 76 124 62 76 124 38 76 124 38 76 124 38 90 124 38 90 124 38 90 142 50 90 142 50 90 142 50 90 142 50 90 142 50 34 142 62 34 88 62 34 88 62 34 88 62 34 88 62 34 88 38 34 88 38 48 106 38 48 106 38 48 106 38 48 106 50 48 106 50 48 106 50 48 124 50 62 124 50 62 124 62 62 124 62 62 124 62 62 124 62 62 142 62 62 142 38 76 142 38 76 142 38 76 142 38 76 142 38 76 88 50 76 88 50 76 88 50 90 88 50 90 88 50 90 88 62 90 106 62 90 106 62 90 106 62 90 106 62 34 106 38 34 106 38 34 124 38 34 124 38 34 124 38 34 124 50 34 124 50 48 124 50 48 142 50 48 142 50 48 142 62 48 142 62 48 142 62 48 142 62 62 88 62 62 88 38 62 88 38 62 88 38 62 88 38 62 88 38 62 106 50 76 106 50 76 106 50 76 106 50 76 106 50 76 106 62 76 124 62 76 124 62 90 124 62 90 124 62 90 124 38 90 124 38 90 142 38 90 142 38 90 142 38 34 142 50 34 142 50 34 142 50 34 88 50 34 88 50
34 142 50 34 142 50 34 142 50 34 142 50 34 142 50 34 142 62 34 88 62 48 88 62 48 88 62 48 88 62 48 88 38 48 88 38 48 106 38 48 106 38 62 106 38 62 106 50 62 106 50 62 106 50 62 124 50 62 124 50 62 124 62 76 124 62 76 124 62 76 124 62 76 142 62 76 142 38 76 142 38 76 142 38 90 142 38 90 142 38 90 88 50 90 88 50 90 88 50 90 88 50 90 88 50 34 88 62 34 106 62 34 106 62 34 106 62 34 106 62 34 106 38 34 106 38 48 124 38 48 124 38 48 124 38 48 124 50 48 124 50 48 124 50 48 142 50 62 142 50 62 142 62 62 142 62 62 142 62 62 142 62 62 88 62 62 88 38 76 88 38 76 88 38 76 88 38 76 88 38 76 106 50 76 106 50 76 106 50 90 106 50 90 106 50 90 106 62 90 124 62 90 124 62 90 124 62 90 124 62 34 124 38 34 124 38 34 142 38 34 142 38 34 142 38 34 142 50 34 142 50 48 142 50 48 88 50 48 88 50 48 88 62 48 88 62 48 88 62 48 88 62 62 106 62 62 106 38 62 106 38 62 106 38 62 106 38 62 106 38 62 124 50 76 124 50 76 124 50 76 124 50 76 124 50 76 124 62 76 142 62 76 142 62 90 142 62 90 142 62 90 142 38 90 142 38 90 88 38 90 88 38 90 88 38 34 88 50 34 88 50 34 88 50 34 106 50 34 106 50 34 106 62 34 106 62 48 106 62 48 106 62 48 124 62 48 124 38 48 124 38 48 124 38 48 124 38 62 124 38 62 142 50 62 142 50 62 142 50 62 142 50 62 142 50 62 142 62 76 88 62 76 88 62 76 88 62 76 88 62 76 88 38 76 88 38 76 106 38 90 106 38 90 106 38 90 106 50 90 106 50 90 106 50 90 124 50 90 124 50 34 124 62 34 124 62 34 124 62 34 124 62 34 142 62 34 142 38 34 142 38 48 142 38 48 142 38 48 142 38 48 88 50 48 88 50 48 88 50 48 88 50 62 88 50 62 88 62 62 106 62 62 106 62 62 106 62 62 106 62 62 106 38 76 106 38 76 124 38 76 124 38 76 124 38 76 124 50 76 124 50 76 124 50 90 142 50 90 142 50 90 142 62 90 142 62 90 142 62 90 142 62 90 88 62 34 88 38 34 88 38 34 88 38 34 88 38 34 88 38 34 106 50 34 106 50 48 106 50 48 106 50 48 106 50 48 106 62 48 124 62 48 124 62 48 124 62 62 124 62 62 124 38 62 124 38 62 142 38 62 142 38 62 142 38 62 142 50 76 142 50 76 142 50 76 88 50 76 88 50 76 88 62 76 88 62 76 88 62 90 88 62 90 106 62 90 106 38 90 106 38 90 106 38 90 106 38 90 106 38 34 124 50 34 124 50 34 124 50 34 124 50 34 124 50 34 124 62 34 142 62 48 142 62 48 142 62 48 142 62 48 142 38 48 142 38 48 88 38 48 88 38 62 88 38 62 88 50 62 88 50 62 88 50 62 106 50 62 106 50 62 106 62 76 106 62 76 106 62 76 106 62 76 124 62 76 124 38 76 124 38 76 124 38 90 124 38 90 124 38 90 142 50 90 142 50 90 142 50 90 142 50 90 142 50 34 142 62 34 88 62 34 88 62 34 88 62 34 88 62 34 88 38 34 88 38 48 106 38 48 106 38 48 106 38 48 106 50 48 106 50 48 106 50 48 124 50 62 124 50 62 124 62 62 124 62 62 124 62 62 124 62 62 142 62 62 142 38 76 142 38 76 142 38 76 142 38 76 142 38 76 88 50 76 88 50 76 88 50 90 88 50 90 88 50 90 88 62 90 106 62 90 106 62 90 106 62 90 106 62 34 106 38 34 106 38 34 124 38 34 124 38 34 124 38 34 124 50 34 124 50 48 124 50 48 142 50 48 142 50 48 142 62 48 142 62 48 142 62 48 142 62 62 88 62 62 88 38 62 88 38 62 88 38 62 88 38 62 88 38 62 106 50 76 106 50 76 106 50 76 106 50 76 106 50 76 106 62 76 124 62 76 124 62 90 124 62 90 124 62 90 124 38 90 124 38 90 142 38 90 142 38 90 142 38 34 142 50 34 142 50 34 142 50 34 88 50 34 88 50
34 142 50 34 142 50 34 142 50 34 142 50 34 142 50 34 142 62 34 88 62 48 88 62 48 88 62 48 88 62 48 88 38 48 88 38 48 106 38 48 106 38 62 106 38 62 106 50 62 106 50 62 106 50 62 124 50 62 124 50 62 124 62 76 124 62 76 124 62 76 124 62 76 142 62 76 142 38 76 142 38 76 142 38 90 142 38 90 142 38 90 88 50 90 88 50 90 88 50 90 88 50 90 88 50 34 88 62 34 106 62 34 106 62 34 106 62 34 106 62 34 106 38 34 106 38 48 124 38 48 124 38 48 124 38 48 124 50 48 124 50 48 124 50 48 142 50 62 142 50 62 142 62 62 142 62 62 142 62 62 142 62 62 88 62 62 88 38 76 88 38 76 88 38 76 88 38 76 88 38 76 106 50 76 106 50 76 106 50 90 106 50 90 106 50 90 106 62 90 124 62 90 124 62 90 124 62 90 124 62 34 124 38 34 124 38 34 142 38 34 142 38 34 142 38 34 142 50 34 142 50 48 142 50 48 88 50 48 88 50 48 88 62 48 88 62 48 88 62 48 88 62 62 106 62 62 106 38 62 106 38 62 106 38 62 106 38 62 106 38 62 124 50 76 124 50 76 124 50 76 124 50 76 124 50 76 124 62 76 142 62 76 142 62 90 142 62 90 142 62 90 142 38 90 142 38 90 88 38 90 88 38 90 88 38 34 88 50 34 88 50 34 88 50 34 106 50 34 106 50 34 106 62 34 106 62 48 106 62 48 106 62 48 124 62 48 124 38 48 124 38 48 124 38 48 124 38 62 124 38 62 142 50 62 142 50 62 142 50 62 142 50 62 142 50 62 142 62 76 88 62 76 88 62 76 88 62 76 88 62 76 88 38 76 88 38 76 106 38 90 106 38 90 106 38 90 106 50 90 106 50 90 106 50 90 124 50 90 124 50 34 124 62 34 124 62 34 124 62 34 124 62 34 142 62 34 142 38 34 142 38 48 142 38 48 142 38 48 142 38 48 88 50 48 88 50 48 88 50 48 88 50 62 88 50 62 88 62 62 106 62 62 106 62 62 106 62 62 106 62 62 106 38 76 106 38 76 124 38 76 124 38 76 124 38 76 124 50 76 124 50 76 124 50 90 142 50 90 142 50 90 142 62 90 142 62 90 142 62 90 142 62 90 88 62 34 88 38 34 88 38 34 88 38 34 88 38 34 88 38 34 106 50 34 106 50 48 106 50 48 106 50 48 106 50 48 106 62 48 124 62 48 124 62 48 124 62 62 124 62 62 124 38 62 124 38 62 142 38 62 142 38 62 142 38 62 142 50 76 142 50 76 142 50 76 88 50 76 88 50 76 88 62 76 88 62 76 88 62 90 88 62 90 106 62 90 106 38 90 106 38 90 106 38 90 106 38 90 106 38 34 124 50 34 124 50 34 124 50 34 124 50 34 124 50 34 124 62 34 142 62 48 142 62 48 142 62 48 142 62 48 142 38 48 142 38 48 88 38 48 88 38 62 88 38 62 88 50 62 88 50 62 88 50 62 106 50 62 106 50 62 106 62 76 106 62 76 106 62 76 106 62 76 124 62 76 124 38 76 124 38 76 124 38 90 124 38 90 124 38 90 142 50 90 142 50 90 142 50 90 142 50 90 142 50 34 142 62 34 88 62 34 88 62 34 88 62 34 88 62 34 88 38 34 88 38 48 106 38 48 106 38 48 106 38 48 106 50 48 106 50 48 106 50 48 124 50 62 124 50 62 124 62 62 124 62 62 124 62 62 124 62 62 142 62 62 142 38 76 142 38 76 142 38 76 142 38 76 142 38 76 88 50 76 88 50 76 88 50 90 88 50 90 88 50 90 88 62 90 106 62 90 106 62 90 106 62 90 106 62 34 106 38 34 106 38 34 124 38 34 124 38 34 124 38 34 124 50 34 124 50 48 124 50 48 142 50 48 142 50 48 142 62 48 142 62 48 142 62 48 142 62 62 88 62 62 88 38 62 88 38 62 88 38 62 88 38 62 88 38 62 106 50 76 106 50 76 106 50 76 106 50 76 106 50 76 106 62 76 124 62 76 124 62 90 124 62 90 124 62 90 124 38 90 124 38 90 142 38 90 142 38 90 142 38 34 142 50 34 142 50 34 142 50 34 88 50 34 88 50
48 88 62 48 88 62 48 88 62 48 88 62 48 88 62 48 88 38 48 106 38 62 106 38 62 106 38 62 106 38 62 106 50 62 106 50 62 124 50 62 124 50 76 124 50 76 124 62 76 124 62 76 124 62 76 142 62 76 142 62 76 142 38 90 142 38 90 142 38 90 142 38 90 88 38 90 88 50 90 88 50 90 88 50 34 88 50 34 88 50 34 106 62 34 106 62 34 106 62 34 106 62 34 106 62 48 106 38 48 124 38 48 124 38 48 124 38 48 124 38 48 124 50 48 124 50 62 142 50 62 142 50 62 142 50 62 142 62 62 142 62 62 142 62 62 88 62 76 88 62 76 88 38 76 88 38 76 88 38 76 88 38 76 106 38 76 106 50 90 106 50 90 106 50 90 106 50 90 106 50 90 124 62 90 124 62 90 124 62 34 124 62 34 124 62 34 124 38 34 142 38 34 142 38 34 142 38 34 142 38 48 142 50 48 142 50 48 88 50 48 88 50 48 88 50 48 88 62 48 88 62 62 88 62 62 106 62 62 106 62 62 106 38 62 106 38 62 106 38 62 106 38 76 124 38 76 124 50 76 124 50 76 124 50 76 124 50 76 124 50 76 142 62 90 142 62 90 142 62 90 142 62 90 142 62 90 142 38 90 88 38 90 88 38 34 88 38 34 88 38 34 88 50 34 88 50 34 106 50 34 106 50 34 106 50 48 106 62 48 106 62 48 106 62 48 124 62 48 124 62 48 124 38 48 124 38 62 124 38 62 124 38 62 142 38 62 142 50 62 142 50 62 142 50 62 142 50 76 142 50 76 88 62 76 88 62 76 88 62 76 88 62 76 88 62 76 88 38 90 106 38 90 106 38 90 106 38 90 106 38 90 106 50 90 106 50 90 124 50 34 124 50 34 124 50 34 124 62 34 124 62 34 124 62 34 142 62 34 142 62 48 142 38 48 142 38 48 142 38 48 142 38 48 88 38 48 88 50 48 88 50 62 88 50 62 88 50 62 88 50 62 106 62 62 106 62 62 106 62 62 106 62 76 106 62 76 106 38 76 124 38 76 124 38 76 124 38 76 124 38 76 124 50 90 124 50 90 142 50 90 142 50 90 142 50 90 142 62 90 142 62 90 142 62 34 88 62 34 88 62 34 88 38 34 88 38 34 88 38 34 88 38 34 106 38 48 106 50 48 106 50 48 106 50 48 106 50 48 106 50 48 124 62 48 124 62 62 124 62 62 124 62 62 124 62 62 124 38 62 142 38 62 142 38 62 142 38 76 142 38 76 142 50 76 142 50 76 88 50 76 88 50 76 88 50 76 88 62 90 88 62 90 88 62 90 106 62 90 106 62 90 106 38 90 106 38 90 106 38 34 106 38 34 124 38 34 124 50 34 124 50 34 124 50 34 124 50 34 124 50 48 142 62 48 142 62 48 142 62 48 142 62 48 142 62 48 142 38 48 88 38 62 88 38 62 88 38 62 88 38 62 88 50 62 88 50 62 106 50 62 106 50 76 106 50 76 106 62 76 106 62 76 106 62 76 124 62 76 124 62 76 124 38 90 124 38 90 124 38 90 124 38 90 142 38 90 142 50 90 142 50 90 142 50 34 142 50 34 142 50 34 88 62 34 88 62 34 88 62 34 88 62 34 88 62 48 88 38 48 106 38 48 106 38 48 106 38 48 106 38 48 106 50 48 106 50 62 124 50 62 124 50 62 124 50 62 124 62 62 124 62 62 124 62 62 142 62 76 142 62 76 142 38 76 142 38 76 142 38 76 142 38 76 88 38 76 88 50 90 88 50 90 88 50 90 88 50 90 88 50 90 106 62 90 106 62 90 106 62 34 106 62 34 106 62 34 106 38 34 124 38 34 124 38 34 124 38 34 124 38 48 124 50 48 124 50 48 142 50 48 142 50 48 142 50 48 142 62 48 142 62 62 142 62 62 88 62 62 88 62 62 88 38 62 88 38 62 88 38 62 88 38 76 106 38 76 106 50 76 106 50 76 106 50 76 106 50 76 106 50 76 124 62 90 124 62 90 124 62 90 124 62 90 124 62 90 124 38 90 142 38 90 142 38 34 142 38 34 142 38 34 142 50 34 142 50 34 88 50 34 88 50 34 88 50 48 88 62 48 88 62 48 88 62 48 106 62 48 106 62
48 88 62 48 88 62 48 88 62 48 88 62 48 88 62 48 88 38 48 106 38 62 106 38 62 106 38 62 106 38 62 106 50 62 106 50 62 124 50 62 124 50 76 124 50 76 124 62 76 124 62 76 124 62 76 142 62 76 142 62 76 142 38 90 142 38 90 142 38 90 142 38 90 88 38 90 88 50 90 88 50 90 88 50 34 88 50 34 88 50 34 106 62 34 106 62 34 106 62 34 106 62 34 106 62 48 106 38 48 124 38 48 124 38 48 124 38 48 124 38 48 124 50 48 124 50 62 142 50 62 142 50 62 142 50 62 142 62 62 142 62 62 142 62 62 88 62 76 88 62 76 88 38 76 88 38 76 88 38 76 88 38 76 106 38 76 106 50 90 106 50 90 106 50 90 106 50 90 106 50 90 124 62 90 124 62 90 124 62 34 124 62 34 124 62 34 124 38 34 142 38 34 142 38 34 142 38 34 142 38 48 142 50 48 142 50 48 88 50 48 88 50 48 88 50 48 88 62 48 88 62 62 88 62 62 106 62 62 106 62 62 106 38 62 106 38 62 106 38 62 106 38 76 124 38 76 124 50 76 124 50 76 124 50 76 124 50 76 124 50 76 142 62 90 142 62 90 142 62 90 142 62 90 142 62 90 142 38 90 88 38 90 88 38 34 88 38 34 88 38 34 88 50 34 88 50 34 106 50 34 106 50 34 106 50 48 106 62 48 106 62 48 106 62 48 124 62 48 124 62 48 124 38 48 124 38 62 124 38 62 124 38 62 142 38 62 142 50 62 142 50 62 142 50 62 142 50 76 142 50 76 88 62 76 88 62 76 88 62 76 88 62 76 88 62 76 88 38 90 106 38 90 106 38 90 106 38 90 106 38 90 106 50 90 106 50 90 124 50 34 124 50 34 124 50 34 124 62 34 124 62 34 124 62 34 142 62 34 142 62 48 142 38 48 142 38 48 142 38 48 142 38 48 88 38 48 88 50 48 88 50 62 88 50 62 88 50 62 88 50 62 106 62 62 106 62 62 106 62 62 106 62 76 106 62 76 106 38 76 124 38 76 124 38 76 124 38 76 124 38 76 124 50 90 124 50 90 142 50 90 142 50 90 142 50 90 142 62 90 142 62 90 142 62 34 88 62 34 88 62 34 88 38 34 88 38 34 88 38 34 88 38 34 106 38 48 106 50 48 106 50 48 106 50 48 106 50 48 106 50 48 124 62 48 124 62 62 124 62 62 124 62 62 124 62 62 124 38 62 142 38 62 142 38 62 142 38 76 142 38 76 142 50 76 142 50 76 88 50 76 88 50 76 88 50 76 88 62 90 88 62 90 88 62 90 106 62 90 106 62 90 106 38 90 106 38 90 106 38 34 106 38 34 124 38 34 124 50 34 124 50 34 124 50 34 124 50 34 124 50 48 142 62 48 142 62 48 142 62 48 142 62 48 142 62 48 142 38 48 88 38 62 88 38 62 88 38 62 88 38 62 88 50 62 88 50 62 106 50 62 106 50 76 106 50 76 106 62 76 106 62 76 106 62 76 124 62 76 124 62 76 124 38 90 124 38 90 124 38 90 124 38 90 142 38 90 142 50 90 142 50 90 142 50 34 142 50 34 142 50 34 88 62 34 88 62 34 88 62 34 88 62 34 88 62 48 88 38 48 106 38 48 106 38 48 106 38 48 106 38 48 106 50 48 106 50 62 124 50 62 124 50 62 124 50 62 124 62 62 124 62 62 124 62 62 142 62 76 142 62 76 142 38 76 142 38 76 142 38 76 142 38 76 88 38 76 88 50 90 88 50 90 88 50 90 88 50 90 88 50 90 106 62 90 106 62 90 106 62 34 106 62 34 106 62 34 106 38 34 124 38 34 124 38 34 124 38 34 124 38 48 124 50 48 124 50 48 142 50 48 142 50 48 142 50 48 142 62 48 142 62 62 142 62 62 88 62 62 88 62 62 88 38 62 88 38 62 88 38 62 88 38 76 106 38 76 106 50 76 106 50 76 106 50 76 106 50 76 106 50 76 124 62 90 124 62 90 124 62 90 124 62 90 124 62 90 124 38 90 142 38 90 142 38 34 142 38 34 142 38 34 142 50 34 142 50 34 88 50 34 88 50 34 88 50 48 88 62 48 88 62 48 88 62 48 106 62 48 106 62
48 88 62 48 88 62 48 88 62 48 88 62 48 88 62 48 88 38 48 106 38 62 106 38 62 106 38 62 106 38 62 106 50 62 106 50 62 124 50 62 124 50 76 124 50 76 124 62 76 124 62 76 124 62 76 142 62 76 142 62 76 142 38 90 142 38 90 142 38 90 142 38 90 88 38 90 88 50 90 88 50 90 88 50 34 88 50 34 88 50 34 106 62 34 106 62 34 106 62 34 106 62 34 106 62 48 106 38 48 124 38 48 124 38 48 124 38 48 124 38 48 124 50 48 124 50 62 142 50 62 142 50 62 142 50 62 142 62 62 142 62 62 142 62 62 88 62 76 88 62 76 88 38 76 88 38 76 88 38 76 88 38 76 106 38 76 106 50 90 106 50 90 106 50 90 106 50 90 106 50 90 124 62 90 124 62 90 124 62 34 124 62 34 124 62 34 124 38 34 142 38 34 142 38 34 142 38 34 142 38 48 142 50 48 142 50 48 88 50 48 88 50 48 88 50 48 88 62 48 88 62 62 88 62 62 106 62 62 106 62 62 106 38 62 106 38 62 106 38 62 106 38 76 124 38 76 124 50 76 124 50 76 124 50 76 124 50 76 124 50 76 142 62 90 142 62 90 142 62 90 142 62 90 142 62 90 142 38 90 88 38 90 88 38 34 88 38 34 88 38 34 88 50 34 88 50 34 106 50 34 106 50 34 106 50 48 106 62 48 106 62 48 106 62 48 124 62 48 124 62 48 124 38 48 124 38 62 124 38 62 124 38 62 142 38 62 142 50 62 142 50 62 142 50 62 142 50 76 142 50 76 88 62 76 88 62 76 88 62 76 88 62 76 88 62 76 88 38 90 106 38 90 106 38 90 106 38 90 106 38 90 106 50 90 106 50 90 124 50 34 124 50 34 124 50 34 124 62 34 124 62 34 124 62 34 142 62 34 142 62 48 142 38 48 142 38 48 142 38 48 142 38 48 88 38 48 88 50 48 88 50 62 88 50 62 88 50 62 88 50 62 106 62 62 106 62 62 106 62 62 106 62 76 106 62 76 106 38 76 124 38 76 124 38 76 124 38 76 124 38 76 124 50 90 124 50 90 142 50 90 142 50 90 142 50 90 142 62 90 142 62 90 142 62 34 88 62 34 88 62 34 88 38 34 88 38 34 88 38 34 88 38 34 106 38 48 106 50 48 106 50 48 106 50 48 106 50 48 106 50 48 124 62 48 124 62 62 124 62 62 124 62 62 124 62 62 124 38 62 142 38 62 142 38 62 142 38 76 142 38 76 142 50 76 142 50 76 88 50 76 88 50 76 88 50 76 88 62 90 88 62 90 88 62 90 106 62 90 106 62 90 106 38 90 106 38 90 106 38 34 106 38 34 124 38 34 124 50 34 124 50 34 124 50 34 124 50 34 124 50 48 142 62 48 142 62 48 142 62 48 142 62 48 142 62 48 142 38 48 88 38 62 88 38 62 88 38 62 88 38 62 88 50 62 88 50 62 106 50 62 106 50 76 106 50 76 106 62 76 106 62 76 106 62 76 124 62 76 124 62 76 124 38 90 124 38 90 124 38 90 124 38 90 142 38 90 142 50 90 142 50 90 142 50 34 142 50 34 142 50 34 88 62 34 88 62 34 88 62 34 88 62 34 88 62 48 88 38 48 106 38 48 106 38 48 106 38 48 106 38 48 106 50 48 106 50 62 124 50 62 124 50 62 124 50 62 124 62 62 124 62 62 124 62 62 142 62 76 142 62 76 142 38 76 142 38 76 142 38 76 142 38 76 88 38 76 88 50 90 88 50 90 88 50 90 88 50 90 88 50 90 106 62 90 106 62 90 106 62 34 106 62 34 106 62 34 106 38 34 124 38 34 124 38 34 124 38 34 124 38 48 124 50 48 124 50 48 142 50 48 142 50 48 142 50 48 142 62 48 142 62 62 142 62 62 88 62 62 88 62 62 88 38 62 88 38 62 88 38 62 88 38 76 106 38 76 106 50 76 106 50 76 106 50 76 106 50 76 106 50 76 124 62 90 124 62 90 124 62 90 124 62 90 124 62 90 124 38 90 142 38 90 142 38 34 142 38 34 142 38 34 142 50 34 142 50 34 88 50 34 88 50 34 88 50 48 88 62 48 88 62 48 88 62 48 106 62 48 106 62
48 88 62 48 88 62 48 88 62 48 88 62 48 88 62 48 88 38 48 106 38 62 106 38 62 106 38 62 106 38 62 106 50 62 106 50 62 124 50 62 124 50 76 124 50 76 124 62 76 124 62 76 124 62 76 142 62 76 142 62 76 142 38 90 142 38 90 142 38 90 142 38 90 88 38 90 88 50 90 88 50 90 88 50 34 88 50 34 88 50 34 106 62 34 106 62 34 106 62 34 106 62 34 106 62 48 106 38 48 124 38 48 124 38 48 124 38 48 124 38 48 124 50 48 124 50 62 142 50 62 142 50 62 142 50 62 142 62 62 142 62 62 142 62 62 88 62 76 88 62 76 88 38 76 88 38 76 88 38 76 88 38 76 106 38 76 106 50 90 106 50 90 106 50 90 106 50 90 106 50 90 124 62 90 124 62 90 124 62 34 124 62 34 124 62 34 124 38 34 142 38 34 142 38 34 142 38 34 142 38 48 142 50 48 142 50 48 88 50 48 88 50 48 88 50 48 88 62 48 88 62 62 88 62 62 106 62 62 106 62 62 106 38 62 106 38 62 106 38 62 106 38 76 124 38 76 124 50 76 124 50 76 124 50 76 124 50 76 124 50 76 142 62 90 142 62 90 142 62 90 142 62 90 142 62 90 142 38 90 88 38 90 88 38 34 88 38 34 88 38 34 88 50 34 88 50 34 106 50 34 106 50 34 106 50 48 106 62 48 106 62 48 106 62 48 124 62 48 124 62 48 124 38 48 124 38 62 124 38 62 124 38 62 142 38 62 142 50 62 142 50 62 142 50 62 142 50 76 142 50 76 88 62 76 88 62 76 88 62 76 88 62 76 88 62 76 88 38 90 106 38 90 106 38 90 106 38 90 106 38 90 106 50 90 106 50 90 124 50 34 124 50 34 124 50 34 124 62 34 124 62 34 124 62 34 142 62 34 142 62 48 142 38 48 142 38 48 142 38 48 142 38 48 88 38 48 88 50 48 88 50 62 88 50 62 88 50 62 88 50 62 106 62 62 106 62 62 106 62 62 106 62 76 106 62 76 106 38 76 124 38 76 124 38 76 124 38 76 124 38 76 124 50 90 124 50 90 142 50 90 142 50 90 142 50 90 142 62 90 142 62 90 142 62 34 88 62 34 88 62 34 88 38 34 88 38 34 88 38 34 88 38 34 106 38 48 106 50 48 106 50 48 106 50 48 106 50 48 106 50 48 124 62 48 124 62 62 124 62 62 124 62 62 124 62 62 124 38 62 142 38 62 142 38 62 142 38 76 142 38 76 142 50 76 142 50 76 88 50 76 88 50 76 88 50 76 88 62 90 88 62 90 88 62 90 106 62 90 106 62 90 106 38 90 106 38 90 106 38 34 106 38 34 124 38 34 124 50 34 124 50 34 124 50 34 124 50 34 124 50 48 142 62 48 142 62 48 142 62 48 142 62 48 142 62 48 142 38 48 88 38 62 88 38 62 88 38 62 88 38 62 88 50 62 88 50 62 106 50 62 106 50 76 106 50 76 106 62 76 106 62 76 106 62 76 124 62 76 124 62 76 124 38 90 124 38 90 124 38 90 124 38 90 142 38 90 142 50 90 142 50 90 142 50 34 142 50 34 142 50 34 88 62 34 88 62 34 88 62 34 88 62 34 88 62 48 88 38 48 106 38 48 106 38 48 106 38 48 106 38 48 106 50 48 106 50 62 124 50 62 124 50 62 124 50 62 124 62 62 124 62 62 124 62 62 142 62 76 142 62 76 142 38 76 142 38 76 142 38 76 142 38 76 88 38 76 88 50 90 88 50 90 88 50 90 88 50 90 88 50 90 106 62 90 106 62 90 106 62 34 106 62 34 106 62 34 106 38 34 124 38 34 124 38 34 124 38 34 124 38 48 124 50 48 124 50 48 142 50 48 142 50 48 142 50 48 142 62 48 142 62 62 142 62 62 88 62 62 88 62 62 88 38 62 88 38 62 88 38 62 88 38 76 106 38 76 106 50 76 106 50 76 106 50 76 106 50 76 106 50 76 124 62 90 124 62 90 124 62 90 124 62 90 124 62 90 124 38 90 142 38 90 142 38 34 142 38 34 142 38 34 142 50 34 142 50 34 88 50 34 88 50 34 88 50 48 88 62 48 88 62 48 88 62 48 106 62 48 106 62
48 88 62 48 88 62 48 88 62 48 88 62 48 88 62 48 88 38 48 106 38 62 106 38 62 106 38 62 106 38 62 106 50 62 106 50 62 124 50 62 124 50 76 124 50 76 124 62 76 124 62 76 124 62 76 142 62 76 142 62 76 142 38 90 142 38 90 142 38 90 142 38 90 88 38 90 88 50 90 88 50 90 88 50 34 88 50 34 88 50 34 106 62 34 106 62 34 106 62 34 106 62 34 106 62 48 106 38 48 124 38 48 124 38 48 124 38 48 124 38 48 124 50 48 124 50 62 142 50 62 142 50 62 142 50 62 142 62 62 142 62 62 142 62 62 88 62 76 88 62 76 88 38 76 88 38 76 88 38 76 88 38 76 106 38 76 106 50 90 106 50 90 106 50 90 106 50 90 106 50 90 124 62 90 124 62 90 124 62 34 124 62 34 124 62 34 124 38 34 142 38 34 142 38 34 142 38 34 142 38 48 142 50 48 142 50 48 88 50 48 88 50 48 88 50 48 88 62 48 88 62 62 88 62 62 106 62 62 106 62 62 106 38 62 106 38 62 106 38 62 106 38 76 124 38 76 124 50 76 124 50 76 124 50 76 124 50 76 124 50 76 142 62 90 142 62 90 142 62 90 142 62 90 142 62 90 142 38 90 88 38 90 88 38 34 88 38 34 88 38 34 88 50 34 88 50 34 106 50 34 106 50 34 106 50 48 106 62 48 106 62 48 106 62 48 124 62 48 124 62 48 124 38 48 124 38 62 124 38 62 124 38 62 142 38 62 142 50 62 142 50 62 142 50 62 142 50 76 142 50 76 88 62 76 88 62 76 88 62 76 88 62 76 88 62 76 88 38 90 106 38 90 106 38 90 106 38 90 106 38 90 106 50 90 106 50 90 124 50 34 124 50 34 124 50 34 124 62 34 124 62 34 124 62 34 142 62 34 142 62 48 142 38 48 142 38 48 142 38 48 142 38 48 88 38 48 88 50 48 88 50 62 88 50 62 88 50 62 88 50 62 106 62 62 106 62 62 106 62 62 106 62 76 106 62 76 106 38 76 124 38 76 124 38 76 124 38 76 124 38 76 124 50 90 124 50 90 142 50 90 142 50 90 142 50 90 142 62 90 142 62 90 142 62 34 88 62 34 88 62 34 88 38 34 88 38 34 88 38 34 88 38 34 106 38 48 106 50 48 106 50 48 106 50 48 106 50 48 106 50 48 124 62 48 124 62 62 124 62 62 124 62 62 124 62 62 124 38 62 142 38 62 142 38 62 142 38 76 142 38 76 142 50 76 142 50 76 88 50 76 88 50 76 88 50 76 88 62 90 88 62 90 88 62 90 106 62 90 106 62 90 106 38 90 106 38 90 106 38 34 106 38 34 124 38 34 124 50 34 124 50 34 124 50 34 124 50 34 124 50 48 142 62 48 142 62 48 142 62 48 142 62 48 142 62 48 142 38 48 88 38 62 88 38 62 88 38 62 88 38 62 88 50 62 88 50 62 106 50 62 106 50 76 106 50 76 106 62 76 106 62 76 106 62 76 124 62 76 124 62 76 124 38 90 124 38 90 124 38 90 124 38 90 142 38 90 142 50 90 142 50 90 142 50 34 142 50 34 142 50 34 88 62 34 88 62 34 88 62 34 88 62 34 88 62 48 88 38 48 106 38 48 106 38 48 106 38 48 106 38 48 106 50 48 106 50 62 124 50 62 124 50 62 124 50 62 124 62 62 124 62 62 124 62 62 142 62 76 142 62 76 142 38 76 142 38 76 142 38 76 142 38 76 88 38 76 88 50 90 88 50 90 88 50 90 88 50 90 88 50 90 106 62 90 106 62 90 106 62 34 106 62 34 106 62 34 106 38 34 124 38 34 124 38 34 124 38 34 124 38 48 124 50 48 124 50 48 142 50 48 142 50 48 142 50 48 142 62 48 142 62 62 142 62 62 88 62 62 88 62 62 88 38 62 88 38 62 88 38 62 88 38 76 106 38 76 106 50 76 106 50 76 106 50 76 106 50 76 106 50 76 124 62 90 124 62 90 124 62 90 124 62 90 124 62 90 124 38 90 142 38 90 142 38 34 142 38 34 142 38 34 142 50 34 142 50 34 88 50 34 88 50 34 88 50 48 88 62 48 88 62 48 88 62 48 106 62 48 106 62
62 88 62 62 88 62 62 88 62 62 88 62 62 88 62 62 88 38 62 106 38 76 106 38 76 106 38 76 106 38 76 106 50 76 106 50 76 124 50 76 124 50 90 124 50 90 124 62 90 124 62 90 124 62 90 142 62 90 142 62 90 142 38 34 142 38 34 142 38 34 142 38 34 88 38 34 88 50 34 88 50 34 88 50 48 88 50 48 88 50 48 106 62 48 106 62 48 106 62 48 106 62 48 106 62 62 106 38 62 124 38 62 124 38 62 124 38 62 124 38 62 124 50 62 124 50 76 142 50 76 142 50 76 142 50 76 142 62 76 142 62 76 142 62 76 88 62 90 88 62 90 88 38 90 88 38 90 88 38 90 88 38 90 106 38 90 106 50 34 106 50 34 106 50 34 106 50 34 106 50 34 124 62 34 124 62 34 124 62 48 124 62 48 124 62 48 124 38 48 142 38 48 142 38 48 142 38 48 142 38 62 142 50 62 142 50 62 88 50 62 88 50 62 88 50 62 88 62 62 88 62 76 88 62 76 106 62 76 106 62 76 106 38 76 106 38 76 106 38 76 106 38 90 124 38 90 124 50 90 124 50 90 124 50 90 124 50 90 124 50 90 142 62 34 142 62 34 142 62 34 142 62 34 142 62 34 142 38 34 88 38 34 88 38 48 88 38 48 88 38 48 88 50 48 88 50 48 106 50 48 106 50 48 106 50 62 106 62 62 106 62 62 106 62 62 124 62 62 124 62 62 124 38 62 124 38 76 124 38 76 124 38 76 142 38 76 142 50 76 142 50 76 142 50 76 142 50 90 142 50 90 88 62 90 88 62 90 88 62 90 88 62 90 88 62 90 88 38 34 106 38 34 106 38 34 106 38 34 106 38 34 106 50 34 106 50 34 124 50 48 124 50 48 124 50 48 124 62 48 124 62 48 124 62 48 142 62 48 142 62 62 142 38 62 142 38 62 142 38 62 142 38 62 88 38 62 88 50 62 88 50 76 88 50 76 88 50 76 88 50 76 106 62 76 106 62 76 106 62 76 106 62 90 106 62 90 106 38 90 124 38 90 124 38 90 124 38 90 124 38 90 124 50 34 124 50 34 142 50 34 142 50 34 142 50 34 142 62 34 142 62 34 142 62 48 88 62 48 88 62 48 88 38 48 88 38 48 88 38 48 88 38 48 106 38 62 106 50 62 106 50 62 106 50 62 106 50 62 106 50 62 124 62 62 124 62 76 124 62 76 124 62 76 124 62 76 124 38 76 142 38 76 142 38 76 142 38 90 142 38 90 142 50 90 142 50 90 88 50 90 88 50 90 88 50 90 88 62 34 88 62 34 88 62 34 106 62 34 106 62 34 106 38 34 106 38 34 106 38 48 106 38 48 124 38 48 124 50 48 124 50 48 124 50 48 124 50 48 124 50 62 142 62 62 142 62 62 142 62 62 142 62 62 142 62 62 142 38 62 88 38 76 88 38 76 88 38 76 88 38 76 88 50 76 88 50 76 106 50 76 106 50 90 106 50 90 106 62 90 106 62 90 106 62 90 124 62 90 124 62 90 124 38 34 124 38 34 124 38 34 124 38 34 142 38 34 142 50 34 142 50 34 142 50 48 142 50 48 142 50 48 88 62 48 88 62 48 88 62 48 88 62 48 88 62 62 88 38 62 106 38 62 106 38 62 106 38 62 106 38 62 106 50 62 106 50 76 124 50 76 124 50 76 124 50 76 124 62 76 124 62 76 124 62 76 142 62 90 142 62 90 142 38 90 142 38 90 142 38 90 142 38 90 88 38 90 88 50 34 88 50 34 88 50 34 88 50 34 88 50 34 106 62 34 106 62 34 106 62 48 106 62 48 106 62 48 106 38 48 124 38 48 124 38 48 124 38 48 124 38 62 124 50 62 124 50 62 142 50 62 142 50 62 142 50 62 142 62 62 142 62 76 142 62 76 88 62 76 88 62 76 88 38 76 88 38 76 88 38 76 88 38 90 106 38 90 106 50 90 106 50 90 106 50 90 106 50 90 106 50 90 124 62 34 124 62 34 124 62 34 124 62 34 124 62 34 124 38 34 142 38 34 142 38 48 142 38 48 142 38 48 142 50 48 142 50 48 88 50 48 88 50 48 88 50 62 88 62 62 88 62 62 88 62 62 106 62 62 106 62
62 88 62 62 88 62 62 88 62 62 88 62 62 88 62 62 88 38 62 106 38 76 106 38 76 106 38 76 106 38 76 106 50 76 106 50 76 124 50 76 124 50 90 124 50 90 124 62 90 124 62 90 124 62 90 142 62 90 142 62 90 142 38 34 142 38 34 142 38 34 142 38 34 88 38 34 88 50 34 88 50 34 88 50 48 88 50 48 88 50 48 106 62 48 106 62 48 106 62 48 106 62 48 106 62 62 106 38 62 124 38 62 124 38 62 124 38 62 124 38 62 124 50 62 124 50 76 142 50 76 142 50 76 142 50 76 142 62 76 142 62 76 142 62 76 88 62 90 88 62 90 88 38 90 88 38 90 88 38 90 88 38 90 106 38 90 106 50 34 106 50 34 106 50 34 106 50 34 106 50 34 124 62 34 124 62 34 124 62 48 124 62 48 124 62 48 124 38 48 142 38 48 142 38 48 142 38 48 142 38 62 142 50 62 142 50 62 88 50 62 88 50 62 88 50 62 88 62 62 88 62 76 88 62 76 106 62 76 106 62 76 106 38 76 106 38 76 106 38 76 106 38 90 124 38 90 124 50 90 124 50 90 124 50 90 124 50 90 124 50 90 142 62 34 142 62 34 142 62 34 142 62 34 142 62 34 142 38 34 88 38 34 88 38 48 88 38 48 88 38 48 88 50 48 88 50 48 106 50 48 106 50 48 106 50 62 106 62 62 106 62 62 106 62 62 124 62 62 124 62 62 124 38 62 124 38 76 124 38 76 124 38 76 142 38 76 142 50 76 142 50 76 142 50 76 142 50 90 142 50 90 88 62 90 88 62 90 88 62 90 88 62 90 88 62 90 88 38 34 106 38 34 106 38 34 106 38 34 106 38 34 106 50 34 106 50 34 124 50 48 124 50 48 124 50 48 124 62 48 124 62 48 124 62 48 142 62 48 142 62 62 142 38 62 142 38 62 142 38 62 142 38 62 88 38 62 88 50 62 88 50 76 88 50 76 88 50 76 88 50 76 106 62 76 106 62 76 106 62 76 106 62 90 106 62 90 106 38 90 124 38 90 124 38 90 124 38 90 124 38 90 124 50 34 124 50 34 142 50 34 142 50 34 142 50 34 142 62 34 142 62 34 142 62 48 88 62 48 88 62 48 88 38 48 88 38 48 88 38 48 88 38 48 106 38 62 106 50 62 106 50 62 106 50 62 106 50 62 106 50 62 124 62 62 124 62 76 124 62 76 124 62 76 124 62 76 124 38 76 142 38 76 142 38 76 142 38 90 142 38 90 142 50 90 142 50 90 88 50 90 88 50 90 88 50 90 88 62 34 88 62 34 88 62 34 106 62 34 106 62 34 106 38 34 106 38 34 106 38 48 106 38 48 124 38 48 124 50 48 124 50 48 124 50 48 124 50 48 124 50 62 142 62 62 142 62 62 142 62 62 142 62 62 142 62 62 142 38 62 88 38 76 88 38 76 88 38 76 88 38 76 88 50 76 88 50 76 106 50 76 106 50 90 106 50 90 106 62 90 106 62 90 106 62 90 124 62 90 124 62 90 124 38 34 124 38 34 124 38 34 124 38 34 142 38 34 142 50 34 142 50 34 142 50 48 142 50 48 142 50 48 88 62 48 88 62 48 88 62 48 88 62 48 88 62 62 88 38 62 106 38 62 106 38 62 106 38 62 106 38 62 106 50 62 106 50 76 124 50 76 124 50 76 124 50 76 124 62 76 124 62 76 124 62 76 142 62 90 142 62 90 142 38 90 142 38 90 142 38 90 142 38 90 88 38 90 88 50 34 88 50 34 88 50 34 88 50 34 88 50 34 106 62 34 106 62 34 106 62 48 106 62 48 106 62 48 106 38 48 124 38 48 124 38 48 124 38 48 124 38 62 124 50 62 124 50 62 142 50 62 142 50 62 142 50 62 142 62 62 142 62 76 142 62 76 88 62 76 88 62 76 88 38 76 88 38 76 88 38 76 88 38 90 106 38 90 106 50 90 106 50 90 106 50 90 106 50 90 106 50 90 124 62 34 124 62 34 124 62 34 124 62 34 124 62 34 124 38 34 142 38 34 142 38 48 142 38 48 142 38 48 142 50 48 142 50 48 88 50 48 88 50 48 88 50 62 88 62 62 88 62 62 88 62 62 106 62 62 106 62
62 106 62 62 106 62 62 106 62 62 106 62 62 106 62 62 106 38 62 124 38 76 124 38 76 124 38 76 124 38 76 124 50 76 124 50 76 142 50 76 142 50 90 142 50 90 142 62 90 142 62 90 142 62 90 88 62 90 88 62 90 88 38 34 88 38 34 88 38 34 88 38 34 106 38 34 106 50 34 106 50 34 106 50 48 106 50 48 106 50 48 124 62 48 124 62 48 124 62 48 124 62 48 124 62 62 124 38 62 142 38 62 142 38 62 142 38 62 142 38 62 142 50 62 142 50 76 88 50 76 88 50 76 88 50 76 88 62 76 88 62 76 88 62 76 106 62 90 106 62 90 106 38 90 106 38 90 106 38 90 106 38 90 124 38 90 124 50 34 124 50 34 124 50 34 124 50 34 124 50 34 142 62 34 142 62 34 142 62 48 142 62 48 142 62 48 142 38 48 88 38 48 88 38 48 88 38 48 88 38 62 88 50 62 88 50 62 106 50 62 106 50 62 106 50 62 106 62 62 106 62 76 106 62 76 124 62 76 124 62 76 124 38 76 124 38 76 124 38 76 124 38 90 142 38 90 142 50 90 142 50 90 142 50 90 142 50 90 142 50 90 88 62 34 88 62 34 88 62 34 88 62 34 88 62 34 88 38 34 106 38 34 106 38 48 106 38 48 106 38 48 106 50 48 106 50 48 124 50 48 124 50 48 124 50 62 124 62 62 124 62 62 124 62 62 142 62 62 142 62 62 142 38 62 142 38 76 142 38 76 142 38 76 88 38 76 88 50 76 88 50 76 88 50 76 88 50 90 88 50 90 106 62 90 106 62 90 106 62 90 106 62 90 106 62 90 106 38 34 124 38 34 124 38 34 124 38 34 124 38 34 124 50 34 124 50 34 142 50 48 142 50 48 142 50 48 142 62 48 142 62 48 142 62 48 88 62 48 88 62 62 88 38 62 88 38 62 88 38 62 88 38 62 106 38 62 106 50 62 106 50 76 106 50 76 106 50 76 106 50 76 124 62 76 124 62 76 124 62 76 124 62 90 124 62 90 124 38 90 142 38 90 142 38 90 142 38 90 142 38 90 142 50 34 142 50 34 88 50 34 88 50 34 88 50 34 88 62 34 88 62 34 88 62 48 106 62 48 106 62 48 106 38 48 106 38 48 106 38 48 106 38 48 124 38 62 124 50 62 124 50 62 124 50 62 124 50 62 124 50 62 142 62 62 142 62 76 142 62 76 142 62 76 142 62 76 142 38 76 88 38 76 88 38 76 88 38 90 88 38 90 88 50 90 88 50 90 106 50 90 106 50 90 106 50 90 106 62 34 106 62 34 106 62 34 124 62 34 124 62 34 124 38 34 124 38 34 124 38 48 124 38 48 142 38 48 142 50 48 142 50 48 142 50 48 142 50 48 142 50 62 88 62 62 88 62 62 88 62 62 88 62 62 88 62 62 88 38 62 106 38 76 106 38 76 106 38 76 106 38 76 106 50 76 106 50 76 124 50 76 124 50 90 124 50 90 124 62 90 124 62 90 124 62 90 142 62 90 142 62 90 142 38 34 142 38 34 142 38 34 142 38 34 88 38 34 88 50 34 88 50 34 88 50 48 88 50 48 88 50 48 106 62 48 106 62 48 106 62 48 106 62 48 106 62 62 106 38 62 124 38 62 124 38 62 124 38 62 124 38 62 124 50 62 124 50 76 142 50 76 142 50 76 142 50 76 142 62 76 142 62 76 142 62 76 88 62 90 88 62 90 88 38 90 88 38 90 88 38 90 88 38 90 106 38 90 106 50 34 106 50 34 106 50 34 106 50 34 106 50 34 124 62 34 124 62 34 124 62 48 124 62 48 124 62 48 124 38 48 142 38 48 142 38 48 142 38 48 142 38 62 142 50 62 142 50 62 88 50 62 88 50 62 88 50 62 88 62 62 88 62 76 88 62 76 106 62 76 106 62 76 106 38 76 106 38 76 106 38 76 106 38 90 124 38 90 124 50 90 124 50 90 124 50 90 124 50 90 124 50 90 142 62 34 142 62 34 142 62 34 142 62 34 142 62 34 142 38 34 88 38 34 88 38 48 88 38 48 88 38 48 88 50 48 88 50 48 106 50 48 106 50 48 106 50 62 106 62 62 106 62 62 106 62 62 124 62 62 124 62
62 106 38 62 106 38 62 106 38 62 106 38 62 106 38 62 106 50 62 124 50 76 124 50 76 124 50 76 124 50 76 124 62 76 124 62 76 142 62 76 142 62 90 142 62 90 142 38 90 142 38 90 142 38 90 88 38 90 88 38 90 88 50 34 88 50 34 88 50 34 88 50 34 106 50 34 106 62 34 106 62 34 106 62 48 106 62 48 106 62 48 124 38 48 124 38 48 124 38 48 124 38 48 124 38 62 124 50 62 142 50 62 142 50 62 142 50 62 142 50 62 142 62 62 142 62 76 88 62 76 88 62 76 88 62 76 88 38 76 88 38 76 88 38 76 106 38 90 106 38 90 106 50 90 106 50 90 106 50 90 106 50 90 124 50 90 124 62 34 124 62 34 124 62 34 124 62 34 124 62 34 142 38 34 142 38 34 142 38 48 142 38 48 142 38 48 142 50 48 88 50 48 88 50 48 88 50 48 88 50 62 88 62 62 88 62 62 106 62 62 106 62 62 106 62 62 106 38 62 106 38 76 106 38 76 124 38 76 124 38 76 124 50 76 124 50 76 124 50 76 124 50 90 142 50 90 142 62 90 142 62 90 142 62 90 142 62 90 142 62 90 88 38 34 88 38 34 88 38 34 88 38 34 88 38 34 88 50 34 106 50 34 106 50 48 106 50 48 106 50 48 106 62 48 106 62 48 124 62 48 124 62 48 124 62 62 124 38 62 124 38 62 124 38 62 142 38 62 142 38 62 142 50 62 142 50 76 142 50 76 142 50 76 88 50 76 88 62 76 88 62 76 88 62 76 88 62 90 88 62 90 106 38 90 106 38 90 106 38 90 106 38 90 106 38 90 106 50 34 124 50 34 124 50 34 124 50 34 124 50 34 124 62 34 124 62 34 142 62 48 142 62 48 142 62 48 142 38 48 142 38 48 142 38 48 88 38 48 88 38 62 88 50 62 88 50 62 88 50 62 88 50 62 106 50 62 106 62 62 106 62 76 106 62 76 106 62 76 106 62 76 124 38 76 124 38 76 124 38 76 124 38 90 124 38 90 124 50 90 142 50 90 142 50 90 142 50 90 142 50 90 142 62 34 142 62 34 88 62 34 88 62 34 88 62 34 88 38 34 88 38 34 88 38 48 106 38 48 106 38 48 106 50 48 106 50 48 106 50 48 106 50 48 124 50 62 124 62 62 124 62 62 124 62 62 124 62 62 124 62 62 142 38 62 142 38 76 142 38 76 142 38 76 142 38 76 142 50 76 88 50 76 88 50 76 88 50 90 88 50 90 88 62 90 88 62 90 106 62 90 106 62 90 106 62 90 106 38 34 106 38 34 106 38 34 124 38 34 124 38 34 124 50 34 124 50 34 124 50 48 124 50 48 142 50 48 142 62 48 142 62 48 142 62 48 142 62 48 142 62 62 88 38 62 88 38 62 88 38 62 88 38 62 88 38 62 88 50 62 106 50 76 106 50 76 106 50 76 106 50 76 106 62 76 106 62 76 124 62 76 124 62 90 124 62 90 124 38 90 124 38 90 124 38 90 142 38 90 142 38 90 142 50 34 142 50 34 142 50 34 142 50 34 88 50 34 88 62 34 88 62 34 88 62 48 88 62 48 88 62 48 106 38 48 106 38 48 106 38 48 106 38 48 106 38 62 106 50 62 124 50 62 124 50 62 124 50 62 124 50 62 124 62 62 124 62 76 142 62 76 142 62 76 142 62 76 142 38 76 142 38 76 142 38 76 88 38 90 88 38 90 88 50 90 88 50 90 88 50 90 88 50 90 106 50 90 106 62 34 106 62 34 106 62 34 106 62 34 106 62 34 124 38 34 124 38 34 124 38 48 124 38 48 124 38 48 124 50 48 142 50 48 142 50 48 142 50 48 142 50 62 142 62 62 142 62 62 88 62 62 88 62 62 88 62 62 88 38 62 88 38 76 88 38 76 106 38 76 106 38 76 106 50 76 106 50 76 106 50 76 106 50 90 124 50 90 124 62 90 124 62 90 124 62 90 124 62 90 124 62 90 142 38 34 142 38 34 142 38 34 142 38 34 142 38 34 142 50 34 88 50 34 88 50 48 88 50 48 88 50 48 88 62 48 88 62 48 106 62 48 106 62 48 106 62 62 106 38 62 106 38 62 106 38 62 124 38 62 124 38
62 106 38 62 106 38 62 106 38 62 106 38 62 106 38 62 106 50 62 124 50 76 124 50 76 124 50 76 124 50 76 124 62 76 124 62 76 142 62 76 142 62 90 142 62 90 142 38 90 142 38 90 142 38 90 88 38 90 88 38 90 88 50 34 88 50 34 88 50 34 88 50 34 106 50 34 106 62 34 106 62 34 106 62 48 106 62 48 106 62 48 124 38 48 124 38 48 124 38 48 124 38 48 124 38 62 124 50 62 142 50 62 142 50 62 142 50 62 142 50 62 142 62 62 142 62 76 88 62 76 88 62 76 88 62 76 88 38 76 88 38 76 88 38 76 106 38 90 106 38 90 106 50 90 106 50 90 106 50 90 106 50 90 124 50 90 124 62 34 124 62 34 124 62 34 124 62 34 124 62 34 142 38 34 142 38 34 142 38 48 142 38 48 142 38 48 142 50 48 88 50 48 88 50 48 88 50 48 88 50 62 88 62 62 88 62 62 106 62 62 106 62 62 106 62 62 106 38 62 106 38 76 106 38 76 124 38 76 124 38 76 124 50 76 124 50 76 124 50 76 124 50 90 142 50 90 142 62 90 142 62 90 142 62 90 142 62 90 142 62 90 88 38 34 88 38 34 88 38 34 88 38 34 88 38 34 88 50 34 106 50 34 106 50 48 106 50 48 106 50 48 106 62 48 106 62 48 124 62 48 124 62 48 124 62 62 124 38 62 124 38 62 124 38 62 142 38 62 142 38 62 142 50 62 142 50 76 142 50 76 142 50 76 88 50 76 88 62 76 88 62 76 88 62 76 88 62 90 88 62 90 106 38 90 106 38 90 106 38 90 106 38 90 106 38 90 106 50 34 124 50 34 124 50 34 124 50 34 124 50 34 124 62 34 124 62 34 142 62 48 142 62 48 142 62 48 142 38 48 142 38 48 142 38 48 88 38 48 88 38 62 88 50 62 88 50 62 88 50 62 88 50 62 106 50 62 106 62 62 106 62 76 106 62 76 106 62 76 106 62 76 124 38 76 124 38 76 124 38 76 124 38 90 124 38 90 124 50 90 142 50 90 142 50 90 142 50 90 142 50 90 142 62 34 142 62 34 88 62 34 88 62 34 88 62 34 88 38 34 88 38 34 88 38 48 106 38 48 106 38 48 106 50 48 106 50 48 106 50 48 106 50 48 124 50 62 124 62 62 124 62 62 124 62 62 124 62 62 124 62 62 142 38 62 142 38 76 142 38 76 142 38 76 142 38 76 142 50 76 88 50 76 88 50 76 88 50 90 88 50 90 88 62 90 88 62 90 106 62 90 106 62 90 106 62 90 106 38 34 106 38 34 106 38 34 124 38 34 124 38 34 124 50 34 124 50 34 124 50 48 124 50 48 142 50 48 142 62 48 142 62 48 142 62 48 142 62 48 142 62 62 88 38 62 88 38 62 88 38 62 88 38 62 88 38 62 88 50 62 106 50 76 106 50 76 106 50 76 106 50 76 106 62 76 106 62 76 124 62 76 124 62 90 124 62 90 124 38 90 124 38 90 124 38 90 142 38 90 142 38 90 142 50 34 142 50 34 142 50 34 142 50 34 88 50 34 88 62 34 88 62 34 88 62 48 88 62 48 88 62 48 106 38 48 106 38 48 106 38 48 106 38 48 106 38 62 106 50 62 124 50 62 124 50 62 124 50 62 124 50 62 124 62 62 124 62 76 142 62 76 142 62 76 142 62 76 142 38 76 142 38 76 142 38 76 88 38 90 88 38 90 88 50 90 88 50 90 88 50 90 88 50 90 106 50 90 106 62 34 106 62 34 106 62 34 106 62 34 106 62 34 124 38 34 124 38 34 124 38 48 124 38 48 124 38 48 124 50 48 142 50 48 142 50 48 142 50 48 142 50 62 142 62 62 142 62 62 88 62 62 88 62 62 88 62 62 88 38 62 88 38 76 88 38 76 106 38 76 106 38 76 106 50 76 106 50 76 106 50 76 106 50 90 124 50 90 124 62 90 124 62 90 124 62 90 124 62 90 124 62 90 142 38 34 142 38 34 142 38 34 142 38 34 142 38 34 142 50 34 88 50 34 88 50 48 88 50 48 88 50 48 88 62 48 88 62 48 106 62 48 106 62 48 106 62 62 106 38 62 106 38 62 106 38 62 124 38 62 124 38
76 106 38 76 106 38 76 106 38 76 106 38 76 106 38 76 106 50 76 124 50 90 124 50 90 124 50 90 124 50 90 124 62 90 124 62 90 142 62 90 142 62 34 142 62 34 142 38 34 142 38 34 142 38 34 88 38 34 88 38 34 88 50 48 88 50 48 88 50 48 88 50 48 106 50 48 106 62 48 106 62 48 106 62 62 106 62 62 106 62 62 124 38 62 124 38 62 124 38 62 124 38 62 124 38 76 124 50 76 142 50 76 142 50 76 142 50 76 142 50 76 142 62 76 142 62 90 88 62 90 88 62 90 88 62 90 88 38 90 88 38 90 88 38 90 106 38 34 106 38 34 106 50 34 106 50 34 106 50 34 106 50 34 124 50 34 124 62 48 124 62 48 124 62 48 124 62 48 124 62 48 142 38 48 142 38 48 142 38 62 142 38 62 142 38 62 142 50 62 88 50 62 88 50 62 88 50 62 88 50 76 88 62 76 88 62 76 106 62 76 106 62 76 106 62 76 106 38 76 106 38 90 106 38 90 124 38 90 124 38 90 124 50 90 124 50 90 124 50 90 124 50 34 142 50 34 142 62 34 142 62 34 142 62 34 142 62 34 142 62 34 88 38 48 88 38 48 88 38 48 88 38 48 88 38 48 88 50 48 106 50 48 106 50 62 106 50 62 106 50 62 106 62 62 106 62 62 124 62 62 124 62 62 124 62 76 124 38 76 124 38 76 124 38 76 142 38 76 142 38 76 142 50 76 142 50 90 142 50 90 142 50 90 88 50 90 88 62 90 88 62 90 88 62 90 88 62 34 88 62 34 106 38 34 106 38 34 106 38 34 106 38 34 106 38 34 106 50 48 124 50 48 124 50 48 124 50 48 124 50 48 124 62 48 124 62 48 142 62 62 142 62 62 142 62 62 142 38 62 142 38 62 142 38 62 88 38 62 88 38 76 88 50 76 88 50 76 88 50 76 88 50 76 106 50 76 106 62 76 106 62 90 106 62 90 106 62 90 106 62 90 124 38 90 124 38 90 124 38 90 124 38 34 124 38 34 124 50 34 142 50 34 142 50 34 142 50 34 142 50 34 142 62 48 142 62 48 88 62 48 88 62 48 88 62 48 88 38 48 88 38 48 88 38 62 106 38 62 106 38 62 106 50 62 106 50 62 106 50 62 106 50 62 124 50 76 124 62 76 124 62 76 124 62 76 124 62 76 124 62 76 142 38 76 142 38 90 142 38 90 142 38 90 142 38 90 142 50 90 88 50 90 88 50 90 88 50 34 88 50 34 88 62 34 88 62 34 106 62 34 106 62 34 106 62 34 106 38 48 106 38 48 106 38 48 124 38 48 124 38 48 124 50 48 124 50 48 124 50 62 124 50 62 142 50 62 142 62 62 142 62 62 142 62 62 142 62 62 142 62 76 88 38 76 88 38 76 88 38 76 88 38 76 88 38 76 88 50 76 106 50 90 106 50 90 106 50 90 106 50 90 106 62 90 106 62 90 124 62 90 124 62 34 124 62 34 124 38 34 124 38 34 124 38 34 142 38 34 142 38 34 142 50 48 142 50 48 142 50 48 142 50 48 88 50 48 88 62 48 88 62 48 88 62 62 88 62 62 88 62 62 106 38 62 106 38 62 106 38 62 106 38 62 106 38 76 106 50 76 124 50 76 124 50 76 124 50 76 124 50 76 124 62 76 124 62 90 142 62 90 142 62 90 142 62 90 142 38 90 142 38 90 142 38 90 88 38 34 88 38 34 88 50 34 88 50 34 88 50 34 88 50 34 106 50 34 106 62 48 106 62 48 106 62 48 106 62 48 106 62 48 124 38 48 124 38 48 124 38 62 124 38 62 124 38 62 124 50 62 142 50 62 142 50 62 142 50 62 142 50 76 142 62 76 142 62 76 88 62 76 88 62 76 88 62 76 88 38 76 88 38 90 88 38 90 106 38 90 106 38 90 106 50 90 106 50 90 106 50 90 106 50 34 124 50 34 124 62 34 124 62 34 124 62 34 124 62 34 124 62 34 142 38 48 142 38 48 142 38 48 142 38 48 142 38 48 142 50 48 88 50 48 88 50 62 88 50 62 88 50 62 88 62 62 88 62 62 106 62 62 106 62 62 106 62 76 106 38 76 106 38 76 106 38 76 124 38 76 124 38
76 106 38 76 106 38 76 106 38 76 106 38 76 106 38 76 106 50 76 124 50 90 124 50 90 124 50 90 124 50 90 124 62 90 124 62 90 142 62 90 142 62 34 142 62 34 142 38 34 142 38 34 142 38 34 88 38 34 88 38 34 88 50 48 88 50 48 88 50 48 88 50 48 106 50 48 106 62 48 106 62 48 106 62 62 106 62 62 106 62 62 124 38 62 124 38 62 124 38 62 124 38 62 124 38 76 124 50 76 142 50 76 142 50 76 142 50 76 142 50 76 142 62 76 142 62 90 88 62 90 88 62 90 88 62 90 88 38 90 88 38 90 88 38 90 106 38 34 106 38 34 106 50 34 106 50 34 106 50 34 106 50 34 124 50 34 124 62 48 124 62 48 124 62 48 124 62 48 124 62 48 142 38 48 142 38 48 142 38 62 142 38 62 142 38 62 142 50 62 88 50 62 88 50 62 88 50 62 88 50 76 88 62 76 88 62 76 106 62 76 106 62 76 106 62 76 106 38 76 106 38 90 106 38 90 124 38 90 124 38 90 124 50 90 124 50 90 124 50 90 124 50 34 142 50 34 142 62 34 142 62 34 142 62 34 142 62 34 142 62 34 88 38 48 88 38 48 88 38 48 88 38 48 88 38 48 88 50 48 106 50 48 106 50 62 106 50 62 106 50 62 106 62 62 106 62 62 124 62 62 124 62 62 124 62 76 124 38 76 124 38 76 124 38 76 142 38 76 142 38 76 142 50 76 142 50 90 142 50 90 142 50 90 88 50 90 88 62 90 88 62 90 88 62 90 88 62 34 88 62 34 106 38 34 106 38 34 106 38 34 106 38 34 106 38 34 106 50 48 124 50 48 124 50 48 124 50 48 124 50 48 124 62 48 124 62 48 142 62 62 142 62 62 142 62 62 142 38 62 142 38 62 142 38 62 88 38 62 88 38 76 88 50 76 88 50 76 88 50 76 88 50 76 106 50 76 106 62 76 106 62 90 106 62 90 106 62 90 106 62 90 124 38 90 124 38 90 124 38 90 124 38 34 124 38 34 124 50 34 142 50 34 142 50 34 142 50 34 142 50 34 142 62 48 142 62 48 88 62 48 88 62 48 88 62 48 88 38 48 88 38 48 88 38 62 106 38 62 106 38 62 106 50 62 106 50 62 106 50 62 106 50 62 124 50 76 124 62 76 124 62 76 124 62 76 124 62 76 124 62 76 142 38 76 142 38 90 142 38 90 142 38 90 142 38 90 142 50 90 88 50 90 88 50 90 88 50 34 88 50 34 88 62 34 88 62 34 106 62 34 106 62 34 106 62 34 106 38 48 106 38 48 106 38 48 124 38 48 124 38 48 124 50 48 124 50 48 124 50 62 124 50 62 142 50 62 142 62 62 142 62 62 142 62 62 142 62 62 142 62 76 88 38 76 88 38 76 88 38 76 88 38 76 88 38 76 88 50 76 106 50 90 106 50 90 106 50 90 106 50 90 106 62 90 106 62 90 124 62 90 124 62 34 124 62 34 124 38 34 124 38 34 124 38 34 142 38 34 142 38 34 142 50 48 142 50 48 142 50 48 142 50 48 88 50 48 88 62 48 88 62 48 88 62 62 88 62 62 88 62 62 106 38 62 106 38 62 106 38 62 106 38 62 106 38 76 106 50 76 124 50 76 124 50 76 124 50 76 124 50 76 124 62 76 124 62 90 142 62 90 142 62 90 142 62 90 142 38 90 142 38 90 142 38 90 88 38 34 88 38 34 88 50 34 88 50 34 88 50 34 88 50 34 106 50 34 106 62 48 106 62 48 106 62 48 106 62 48 106 62 48 124 38 48 124 38 48 124 38 62 124 38 62 124 38 62 124 50 62 142 50 62 142 50 62 142 50 62 142 50 76 142 62 76 142 62 76 88 62 76 88 62 76 88 62 76 88 38 76 88 38 90 88 38 90 106 38 90 106 38 90 106 50 90 106 50 90 106 50 90 106 50 34 124 50 34 124 62 34 124 62 34 124 62 34 124 62 34 124 62 34 142 38 48 142 38 48 142 38 48 142 38 48 142 38 48 142 50 48 88 50 48 88 50 62 88 50 62 88 50 62 88 62 62 88 62 62 106 62 62 106 62 62 106 62 76 106 38 76 106 38 76 106 38 76 124 38 76 124 38
76 106 38 76 106 38 76 106 38 76 106 38 76 106 38 76 106 50 76 124 50 90 124 50 90 124 50 90 124 50 90 124 62 90 124 62 90 142 62 90 142 62 34 142 62 34 142 38 34 142 38 34 142 38 34 88 38 34 88 38 34 88 50 48 88 50 48 88 50 48 88 50 48 106 50 48 106 62 48 106 62 48 106 62 62 106 62 62 106 62 62 124 38 62 124 38 62 124 38 62 124 38 62 124 38 76 124 50 76 142 50 76 142 50 76 142 50 76 142 50 76 142 62 76 142 62 90 88 62 90 88 62 90 88 62 90 88 38 90 88 38 90 88 38 90 106 38 34 106 38 34 106 50 34 106 50 34 106 50 34 106 50 34 124 50 34 124 62 48 124 62 48 124 62 48 124 62 48 124 62 48 142 38 48 142 38 48 142 38 62 142 38 62 142 38 62 142 50 62 88 50 62 88 50 62 88 50 62 88 50 76 88 62 76 88 62 76 106 62 76 106 62 76 106 62 76 106 38 76 106 38 90 106 38 90 124 38 90 124 38 90 124 50 90 124 50 90 124 50 90 124 50 34 142 50 34 142 62 34 142 62 34 142 62 34 142 62 34 142 62 34 88 38 48 88 38 48 88 38 48 88 38 48 88 38 48 88 50 48 106 50 48 106 50 62 106 50 62 106 50 62 106 62 62 106 62 62 124 62 62 124 62 62 124 62 76 124 38 76 124 38 76 124 38 76 142 38 76 142 38 76 142 50 76 142 50 90 142 50 90 142 50 90 88 50 90 88 62 90 88 62 90 88 62 90 88 62 34 88 62 34 106 38 34 106 38 34 106 38 34 106 38 34 106 38 34 106 50 48 124 50 48 124 50 48 124 50 48 124 50 48 124 62 48 124 62 48 142 62 62 142 62 62 142 62 62 142 38 62 142 38 62 142 38 62 88 38 62 88 38 76 88 50 76 88 50 76 88 50 76 88 50 76 106 50 76 106 62 76 106 62 90 106 62 90 106 62 90 106 62 90 124 38 90 124 38 90 124 38 90 124 38 34 124 38 34 124 50 34 142 50 34 142 50 34 142 50 34 142 50 34 142 62 48 142 62 48 88 62 48 88 62 48 88 62 48 88 38 48 88 38 48 88 38 62 106 38 62 106 38 62 106 50 62 106 50 62 106 50 62 106 50 62 124 50 76 124 62 76 124 62 76 124 62 76 124 62 76 124 62 76 142 38 76 142 38 90 142 38 90 142 38 90 142 38 90 142 50 90 88 50 90 88 50 90 88 50 34 88 50 34 88 62 34 88 62 34 106 62 34 106 62 34 106 62 34 106 38 48 106 38 48 106 38 48 124 38 48 124 38 48 124 50 48 124 50 48 124 50 62 124 50 62 142 50 62 142 62 62 142 62 62 142 62 62 142 62 62 142 62 76 88 38 76 88 38 76 88 38 76 88 38 76 88 38 76 88 50 76 106 50 90 106 50 90 106 50 90 106 50 90 106 62 90 106 62 90 124 62 90 124 62 34 124 62 34 124 38 34 124 38 34 124 38 34 142 38 34 142 38 34 142 50 48 142 50 48 142 50 48 142 50 48 88 50 48 88 62 48 88 62 48 88 62 62 88 62 62 88 62 62 106 38 62 106 38 62 106 38 62 106 38 62 106 38 76 106 50 76 124 50 76 124 50 76 124 50 76 124 50 76 124 62 76 124 62 90 142 62 90 142 62 90 142 62 90 142 38 90 142 38 90 142 38 90 88 38 34 88 38 34 88 50 34 88 50 34 88 50 34 88 50 34 106 50 34 106 62 48 106 62 48 106 62 48 106 62 48 106 62 48 124 38 48 124 38 48 124 38 62 124 38 62 124 38 62 124 50 62 142 50 62 142 50 62 142 50 62 142 50 76 142 62 76 142 62 76 88 62 76 88 62 76 88 62 76 88 38 76 88 38 90 88 38 90 106 38 90 106 38 90 106 50 90 106 50 90 106 50 90 106 50 34 124 50 34 124 62 34 124 62 34 124 62 34 124 62 34 124 62 34 142 38 48 142 38 48 142 38 48 142 38 48 142 38 48 142 50 48 88 50 48 88 50 62 88 50 62 88 50 62 88 62 62 88 62 62 106 62 62 106 62 62 106 62 76 106 38 76 106 38 76 106 38 76 124 38 76 124 38
76 106 38 76 106 38 76 106 38 76 106 38 76 106 38 76 106 50 76 124 50 90 124 50 90 124 50 90 124 50 90 124 62 90 124 62 90 142 62 90 142 62 34 142 62 34 142 38 34 142 38 34 142 38 34 88 38 34 88 38 34 88 50 48 88 50 48 88 50 48 88 50 48 106 50 48 106 62 48 106 62 48 106 62 62 106 62 62 106 62 62 124 38 62 124 38 62 124 38 62 124 38 62 124 38 76 124 50 76 142 50 76 142 50 76 142 50 76 142 50 76 142 62 76 142 62 90 88 62 90 88 62 90 88 62 90 88 38 90 88 38 90 88 38 90 106 38 34 106 38 34 106 50 34 106 50 34 106 50 34 106 50 34 124 50 34 124 62 48 124 62 48 124 62 48 124 62 48 124 62 48 142 38 48 142 38 48 142 38 62 142 38 62 142 38 62 142 50 62 88 50 62 88 50 62 88 50 62 88 50 76 88 62 76 88 62 76 106 62 76 106 62 76 106 62 76 106 38 76 106 38 90 106 38 90 124 38 90 124 38 90 124 50 90 124 50 90 124 50 90 124 50 34 142 50 34 142 62 34 142 62 34 142 62 34 142 62 34 142 62 34 88 38 48 88 38 48 88 38 48 88 38 48 88 38 48 88 50 48 106 50 48 106 50 62 106 50 62 106 50 62 106 62 62 106 62 62 124 62 62 124 62 62 124 62 76 124 38 76 124 38 76 124 38 76 142 38 76 142 38 76 142 50 76 142 50 90 142 50 90 142 50 90 88 50 90 88 62 90 88 62 90 88 62 90 88 62 34 88 62 34 106 38 34 106 38 34 106 38 34 106 38 34 106 38 34 106 50 48 124 50 48 124 50 48 124 50 48 124 50 48 124 62 48 124 62 48 142 62 62 142 62 62 142 62 62 142 38 62 142 38 62 142 38 62 88 38 62 88 38 76 88 50 76 88 50 76 88 50 76 88 50 76 106 50 76 106 62 76 106 62 90 106 62 90 106 62 90 106 62 90 124 38 90 124 38 90 124 38 90 124 38 34 124 38 34 124 50 34 142 50 34 142 50 34 142 50 34 142 50 34 142 62 48 142 62 48 88 62 48 88 62 48 88 62 48 88 38 48 88 38 48 88 38 62 106 38 62 106 38 62 106 50 62 106 50 62 106 50 62 106 50 62 124 50 76 124 62 76 124 62 76 124 62 76 124 62 76 124 62 76 142 38 76 142 38 90 142 38 90 142 38 90 142 38 90 142 50 90 88 50 90 88 50 90 88 50 34 88 50 34 88 62 34 88 62 34 106 62 34 106 62 34 106 62 34 106 38 48 106 38 48 106 38 48 124 38 48 124 38 48 124 50 48 124 50 48 124 50 62 124 50 62 142 50 62 142 62 62 142 62 62 142 62 62 142 62 62 142 62 76 88 38 76 88 38 76 88 38 76 88 38 76 88 38 76 88 50 76 106 50 90 106 50 90 106 50 90 106 50 90 106 62 90 106 62 90 124 62 90 124 62 34 124 62 34 124 38 34 124 38 34 124 38 34 142 38 34 142 38 34 142 50 48 142 50 48 142 50 48 142 50 48 88 50 48 88 62 48 88 62 48 88 62 62 88 62 62 88 62 62 106 38 62 106 38 62 106 38 62 106 38 62 106 38 76 106 50 76 124 50 76 124 50 76 124 50 76 124 50 76 124 62 76 124 62 90 142 62 90 142 62 90 142 62 90 142 38 90 142 38 90 142 38 90 88 38 34 88 38 34 88 50 34 88 50 34 88 50 34 88 50 34 106 50 34 106 62 48 106 62 48 106 62 48 106 62 48 106 62 48 124 38 48 124 38 48 124 38 62 124 38 62 124 38 62 124 50 62 142 50 62 142 50 62 142 50 62 142 50 76 142 62 76 142 62 76 88 62 76 88 62 76 88 62 76 88 38 76 88 38 90 88 38 90 106 38 90 106 38 90 106 50 90 106 50 90 106 50 90 106 50 34 124 50 34 124 62 34 124 62 34 124 62 34 124 62 34 124 62 34 142 38 48 142 38 48 142 38 48 142 38 48 142 38 48 142 50 48 88 50 48 88 50 62 88 50 62 88 50 62 88 62 62 88 62 62 106 62 62 106 62 62 106 62 76 106 38 76 106 38 76 106 38 76 124 38 76 124 38
76 124 38 76 124 38 76 124 38 76 124 38 76 124 38 76 124 50 76 142 50 90 142 50 90 142 50 90 142 50 90 142 62 90 142 62 90 88 62 90 88 62 34 88 62 34 88 38 34 88 38 34 88 38 34 106 38 34 106 38 34 106 50 48 106 50 48 106 50 48 106 50 48 124 50 48 124 62 48 124 62 48 124 62 62 124 62 62 124 62 62 142 38 62 142 38 62 142 38 62 142 38 62 142 38 76 142 50 76 88 50 76 88 50 76 88 50 76 88 50 76 88 62 76 88 62 90 106 62 90 106 62 90 106 62 90 106 38 90 106 38 90 106 38 90 124 38 34 124 38 34 124 50 34 124 50 34 124 50 34 124 50 34 142 50 34 142 62 48 142 62 48 142 62 48 142 62 48 142 62 48 88 38 48 88 38 48 88 38 62 88 38 62 88 38 62 88 50 62 106 50 62 106 50 62 106 50 62 106 50 76 106 62 76 106 62 76 124 62 76 124 62 76 124 62 76 124 38 76 124 38 90 124 38 90 142 38 90 142 38 90 142 50 90 142 50 90 142 50 90 142 50 34 88 50 34 88 62 34 88 62 34 88 62 34 88 62 34 88 62 34 106 38 48 106 38 48 106 38 48 106 38 48 106 38 48 106 50 48 124 50 48 124 50 62 124 50 62 124 50 62 124 62 62 124 62 62 142 62 62 142 62 62 142 62 76 142 38 76 142 38 76 142 38 76 88 38 76 88 38 76 88 50 76 88 50 90 88 50 90 88 50 90 106 50 90 106 62 90 106 62 90 106 62 90 106 62 34 106 62 34 124 38 34 124 38 34 124 38 34 124 38 34 124 38 34 124 50 48 142 50 48 142 50 48 142 50 48 142 50 48 142 62 48 142 62 48 88 62 62 88 62 62 88 62 62 88 38 62 88 38 62 88 38 62 106 38 62 106 38 76 106 50 76 106 50 76 106 50 76 106 50 76 124 50 76 124 62 76 124 62 90 124 62 90 124 62 90 124 62 90 142 38 90 142 38 90 142 38 90 142 38 34 142 38 34 142 50 34 88 50 34 88 50 34 88 50 34 88 50 34 88 62 48 88 62 48 106 62 48 106 62 48 106 62 48 106 38 48 106 38 48 106 38 62 124 38 62 124 38 62 124 50 62 124 50 62 124 50 62 124 50 62 142 50 76 142 62 76 142 62 76 142 62 76 142 62 76 142 62 76 88 38 76 88 38 90 88 38 90 88 38 90 88 38 90 88 50 90 106 50 90 106 50 90 106 50 34 106 50 34 106 62 34 106 62 34 124 62 34 124 62 34 124 62 34 124 38 48 124 38 48 124 38 48 142 38 48 142 38 48 142 50 48 142 50 48 142 50 62 142 50 62 88 50 62 88 62 62 88 62 62 88 62 62 88 62 62 88 62 76 106 38 76 106 38 76 106 38 76 106 38 76 106 38 76 106 50 76 124 50 90 124 50 90 124 50 90 124 50 90 124 62 90 124 62 90 142 62 90 142 62 34 142 62 34 142 38 34 142 38 34 142 38 34 88 38 34 88 38 34 88 50 48 88 50 48 88 50 48 88 50 48 106 50 48 106 62 48 106 62 48 106 62 62 106 62 62 106 62 62 124 38 62 124 38 62 124 38 62 124 38 62 124 38 76 124 50 76 142 50 76 142 50 76 142 50 76 142 50 76 142 62 76 142 62 90 88 62 90 88 62 90 88 62 90 88 38 90 88 38 90 88 38 90 106 38 34 106 38 34 106 50 34 106 50 34 106 50 34 106 50 34 124 50 34 124 62 48 124 62 48 124 62 48 124 62 48 124 62 48 142 38 48 142 38 48 142 38 62 142 38 62 142 38 62 142 50 62 88 50 62 88 50 62 88 50 62 88 50 76 88 62 76 88 62 76 106 62 76 106 62 76 106 62 76 106 38 76 106 38 90 106 38 90 124 38 90 124 38 90 124 50 90 124 50 90 124 50 90 124 50 34 142 50 34 142 62 34 142 62 34 142 62 34 142 62 34 142 62 34 88 38 48 88 38 48 88 38 48 88 38 48 88 38 48 88 50 48 106 50 48 106 50 62 106 50 62 106 50 62 106 62 62 106 62 62 124 62 62 124 62 62 124 62 76 124 38 76 124 38 76 124 38 76 142 38 76 142 38
90 124 38 90 124 38 90 124 38 90 124 38 90 124 38 90 124 50 90 142 50 34 142 50 34 142 50 34 142 50 34 142 62 34 142 62 34 88 62 34 88 62 48 88 62 48 88 38 48 88 38 48 88 38 48 106 38 48 106 38 48 106 50 62 106 50 62 106 50 62 106 50 62 124 50 62 124 62 62 124 62 62 124 62 76 124 62 76 124 62 76 142 38 76 142 38 76 142 38 76 142 38 76 142 38 90 142 50 90 88 50 90 88 50 90 88 50 90 88 50 90 88 62 90 88 62 34 106 62 34 106 62 34 106 62 34 106 38 34 106 38 34 106 38 34 124 38 48 124 38 48 124 50 48 124 50 48 124 50 48 124 50 48 142 50 48 142 62 62 142 62 62 142 62 62 142 62 62 142 62 62 88 38 62 88 38 62 88 38 76 88 38 76 88 38 76 88 50 76 106 50 76 106 50 76 106 50 76 106 50 90 106 62 90 106 62 90 124 62 90 124 62 90 124 62 90 124 38 90 124 38 34 124 38 34 142 38 34 142 38 34 142 50 34 142 50 34 142 50 34 142 50 48 88 50 48 88 62 48 88 62 48 88 62 48 88 62 48 88 62 48 106 38 62 106 38 62 106 38 62 106 38 62 106 38 62 106 50 62 124 50 62 124 50 76 124 50 76 124 50 76 124 62 76 124 62 76 142 62 76 142 62 76 142 62 90 142 38 90 142 38 90 142 38 90 88 38 90 88 38 90 88 50 90 88 50 34 88 50 34 88 50 34 106 50 34 106 62 34 106 62 34 106 62 34 106 62 48 106 62 48 124 38 48 124 38 48 124 38 48 124 38 48 124 38 48 124 50 62 142 50 62 142 50 62 142 50 62 142 50 62 142 62 62 142 62 62 88 62 76 88 62 76 88 62 76 88 38 76 88 38 76 88 38 76 106 38 76 106 38 90 106 50 90 106 50 90 106 50 90 106 50 90 124 50 90 124 62 90 124 62 34 124 62 34 124 62 34 124 62 34 142 38 34 142 38 34 142 38 34 142 38 48 142 38 48 142 50 48 88 50 48 88 50 48 88 50 48 88 50 48 88 62 62 88 62 62 106 62 62 106 62 62 106 62 62 106 38 62 106 38 62 106 38 76 124 38 76 124 38 76 124 50 76 124 50 76 124 50 76 124 50 76 142 50 90 142 62 90 142 62 90 142 62 90 142 62 90 142 62 90 88 38 90 88 38 34 88 38 34 88 38 34 88 38 34 88 50 34 106 50 34 106 50 34 106 50 48 106 50 48 106 62 48 106 62 48 124 62 48 124 62 48 124 62 48 124 38 62 124 38 62 124 38 62 142 38 62 142 38 62 142 50 62 142 50 62 142 50 76 142 50 76 88 50 76 88 62 76 88 62 76 88 62 76 88 62 76 88 62 90 106 38 90 106 38 90 106 38 90 106 38 90 106 38 90 106 50 90 124 50 34 124 50 34 124 50 34 124 50 34 124 62 34 124 62 34 142 62 34 142 62 48 142 62 48 142 38 48 142 38 48 142 38 48 88 38 48 88 38 48 88 50 62 88 50 62 88 50 62 88 50 62 106 50 62 106 62 62 106 62 62 106 62 76 106 62 76 106 62 76 124 38 76 124 38 76 124 38 76 124 38 76 124 38 90 124 50 90 142 50 90 142 50 90 142 50 90 142 50 90 142 62 90 142 62 34 88 62 34 88 62 34 88 62 34 88 38 34 88 38 34 88 38 34 106 38 48 106 38 48 106 50 48 106 50 48 106 50 48 106 50 48 124 50 48 124 62 62 124 62 62 124 62 62 124 62 62 124 62 62 142 38 62 142 38 62 142 38 76 142 38 76 142 38 76 142 50 76 88 50 76 88 50 76 88 50 76 88 50 90 88 62 90 88 62 90 106 62 90 106 62 90 106 62 90 106 38 90 106 38 34 106 38 34 124 38 34 124 38 34 124 50 34 124 50 34 124 50 34 124 50 48 142 50 48 142 62 48 142 62 48 142 62 48 142 62 48 142 62 48 88 38 62 88 38 62 88 38 62 88 38 62 88 38 62 88 50 62 106 50 62 106 50 76 106 50 76 106 50 76 106 62 76 106 62 76 124 62 76 124 62 76 124 62 90 124 38 90 124 38 90 124 38 90 142 38 90 142 38
90 124 50 90 124 50 90 124 50 90 124 50 90 124 50 90 124 62 90 142 62 34 142 62 34 142 62 34 142 62 34 142 38 34 142 38 34 88 38 34 88 38 48 88 38 48 88 50 48 88 50 48 88 50 48 106 50 48 106 50 48 106 62 62 106 62 62 106 62 62 106 62 62 124 62 62 124 38 62 124 38 62 124 38 76 124 38 76 124 38 76 142 50 76 142 50 76 142 50 76 142 50 76 142 50 90 142 62 90 88 62 90 88 62 90 88 62 90 88 62 90 88 38 90 88 38 34 106 38 34 106 38 34 106 38 34 106 50 34 106 50 34 106 50 34 124 50 48 124 50 48 124 62 48 124 62 48 124 62 48 124 62 48 142 62 48 142 38 62 142 38 62 142 38 62 142 38 62 142 38 62 88 50 62 88 50 62 88 50 76 88 50 76 88 50 76 88 62 76 106 62 76 106 62 76 106 62 76 106 62 90 106 38 90 106 38 90 124 38 90 124 38 90 124 38 90 124 50 90 124 50 34 124 50 34 142 50 34 142 50 34 142 62 34 142 62 34 142 62 34 142 62 48 88 62 48 88 38 48 88 38 48 88 38 48 88 38 48 88 38 48 106 50 62 106 50 62 106 50 62 106 50 62 106 50 62 106 62 62 124 62 62 124 62 76 124 62 76 124 62 76 124 38 76 124 38 76 142 38 76 142 38 76 142 38 90 142 50 90 142 50 90 142 50 90 88 50 90 88 50 90 88 62 90 88 62 34 88 62 34 88 62 34 106 62 34 106 38 34 106 38 34 106 38 34 106 38 48 106 38 48 124 50 48 124 50 48 124 50 48 124 50 48 124 50 48 124 62 62 142 62 62 142 62 62 142 62 62 142 62 62 142 38 62 142 38 62 88 38 76 88 38 76 88 38 76 88 50 76 88 50 76 88 50 76 106 50 76 106 50 90 106 62 90 106 62 90 106 62 90 106 62 90 124 62 90 124 38 90 124 38 34 124 38 34 124 38 34 124 38 34 142 50 34 142 50 34 142 50 34 142 50 48 142 50 48 142 62 48 88 62 48 88 62 48 88 62 48 88 62 48 88 38 62 88 38 62 106 38 62 106 38 62 106 38 62 106 50 62 106 50 62 106 50 76 124 50 76 124 50 76 124 62 76 124 62 76 124 62 76 124 62 76 142 62 90 142 38 90 142 38 90 142 38 90 142 38 90 142 38 90 88 50 90 88 50 34 88 50 34 88 50 34 88 50 34 88 62 34 106 62 34 106 62 34 106 62 48 106 62 48 106 38 48 106 38 48 124 38 48 124 38 48 124 38 48 124 50 62 124 50 62 124 50 62 142 50 62 142 50 62 142 62 62 142 62 62 142 62 76 142 62 76 88 62 76 88 38 76 88 38 76 88 38 76 88 38 76 88 38 90 106 50 90 106 50 90 106 50 90 106 50 90 106 50 90 106 62 90 124 62 34 124 62 34 124 62 34 124 62 34 124 38 34 124 38 34 142 38 34 142 38 48 142 38 48 142 50 48 142 50 48 142 50 48 88 50 48 88 50 48 88 62 62 88 62 62 88 62 62 88 62 62 106 62 62 106 38 62 106 38 62 106 38 76 106 38 76 106 38 76 124 50 76 124 50 76 124 50 76 124 50 76 124 50 90 124 62 90 142 62 90 142 62 90 142 62 90 142 62 90 142 38 90 142 38 34 88 38 34 88 38 34 88 38 34 88 50 34 88 50 34 88 50 34 106 50 48 106 50 48 106 62 48 106 62 48 106 62 48 106 62 48 124 62 48 124 38 62 124 38 62 124 38 62 124 38 62 124 38 62 142 50 62 142 50 62 142 50 76 142 50 76 142 50 76 142 62 76 88 62 76 88 62 76 88 62 76 88 62 90 88 38 90 88 38 90 106 38 90 106 38 90 106 38 90 106 50 90 106 50 34 106 50 34 124 50 34 124 50 34 124 62 34 124 62 34 124 62 34 124 62 48 142 62 48 142 38 48 142 38 48 142 38 48 142 38 48 142 38 48 88 50 62 88 50 62 88 50 62 88 50 62 88 50 62 88 62 62 106 62 62 106 62 76 106 62 76 106 62 76 106 38 76 106 38 76 124 38 76 124 38 76 124 38 90 124 50 90 124 50 90 124 50 90 142 50 90 142 50
90 124 50 90 124 50 90 124 50 90 124 50 90 124 50 90 124 62 90 142 62 34 142 62 34 142 62 34 142 62 34 142 38 34 142 38 34 88 38 34 88 38 48 88 38 48 88 50 48 88 50 48 88 50 48 106 50 48 106 50 48 106 62 62 106 62 62 106 62 62 106 62 62 124 62 62 124 38 62 124 38 62 124 38 76 124 38 76 124 38 76 142 50 76 142 50 76 142 50 76 142 50 76 142 50 90 142 62 90 88 62 90 88 62 90 88 62 90 88 62 90 88 38 90 88 38 34 106 38 34 106 38 34 106 38 34 106 50 34 106 50 34 106 50 34 124 50 48 124 50 48 124 62 48 124 62 48 124 62 48 124 62 48 142 62 48 142 38 62 142 38 62 142 38 62 142 38 62 142 38 62 88 50 62 88 50 62 88 50 76 88 50 76 88 50 76 88 62 76 106 62 76 106 62 76 106 62 76 106 62 90 106 38 90 106 38 90 124 38 90 124 38 90 124 38 90 124 50 90 124 50 34 124 50 34 142 50 34 142 50 34 142 62 34 142 62 34 142 62 34 142 62 48 88 62 48 88 38 48 88 38 48 88 38 48 88 38 48 88 38 48 106 50 62 106 50 62 106 50 62 106 50 62 106 50 62 106 62 62 124 62 62 124 62 76 124 62 76 124 62 76 124 38 76 124 38 76 142 38 76 142 38 76 142 38 90 142 50 90 142 50 90 142 50 90 88 50 90 88 50 90 88 62 90 88 62 34 88 62 34 88 62 34 106 62 34 106 38 34 106 38 34 106 38 34 106 38 48 106 38 48 124 50 48 124 50 48 124 50 48 124 50 48 124 50 48 124 62 62 142 62 62 142 62 62 142 62 62 142 62 62 142 38 62 142 38 62 88 38 76 88 38 76 88 38 76 88 50 76 88 50 76 88 50 76 106 50 76 106 50 90 106 62 90 106 62 90 106 62 90 106 62 90 124 62 90 124 38 90 124 38 34 124 38 34 124 38 34 124 38 34 142 50 34 142 50 34 142 50 34 142 50 48 142 50 48 142 62 48 88 62 48 88 62 48 88 62 48 88 62 48 88 38 62 88 38 62 106 38 62 106 38 62 106 38 62 106 50 62 106 50 62 106 50 76 124 50 76 124 50 76 124 62 76 124 62 76 124 62 76 124 62 76 142 62 90 142 38 90 142 38 90 142 38 90 142 38 90 142 38 90 88 50 90 88 50 34 88 50 34 88 50 34 88 50 34 88 62 34 106 62 34 106 62 34 106 62 48 106 62 48 106 38 48 106 38 48 124 38 48 124 38 48 124 38 48 124 50 62 124 50 62 124 50 62 142 50 62 142 50 62 142 62 62 142 62 62 142 62 76 142 62 76 88 62 76 88 38 76 88 38 76 88 38 76 88 38 76 88 38 90 106 50 90 106 50 90 106 50 90 106 50 90 106 50 90 106 62 90 124 62 34 124 62 34 124 62 34 124 62 34 124 38 34 124 38 34 142 38 34 142 38 48 142 38 48 142 50 48 142 50 48 142 50 48 88 50 48 88 50 48 88 62 62 88 62 62 88 62 62 88 62 62 106 62 62 106 38 62 106 38 62 106 38 76 106 38 76 106 38 76 124 50 76 124 50 76 124 50 76 124 50 76 124 50 90 124 62 90 142 62 90 142 62 90 142 62 90 142 62 90 142 38 90 142 38 34 88 38 34 88 38 34 88 38 34 88 50 34 88 50 34 88 50 34 106 50 48 106 50 48 106 62 48 106 62 48 106 62 48 106 62 48 124 62 48 124 38 62 124 38 62 124 38 62 124 38 62 124 38 62 142 50 62 142 50 62 142 50 76 142 50 76 142 50 76 142 62 76 88 62 76 88 62 76 88 62 76 88 62 90 88 38 90 88 38 90 106 38 90 106 38 90 106 38 90 106 50 90 106 50 34 106 50 34 124 50 34 124 50 34 124 62 34 124 62 34 124 62 34 124 62 48 142 62 48 142 38 48 142 38 48 142 38 48 142 38 48 142 38 48 88 50 62 88 50 62 88 50 62 88 50 62 88 50 62 88 62 62 106 62 62 106 62 76 106 62 76 106 62 76 106 38 76 106 38 76 124 38 76 124 38 76 124 38 90 124 50 90 124 50 90 124 50 90 142 50 90 142 50
90 124 50 90 124 50 90 124 50 90 124 50 90 124 50 90 124 62 90 142 62 34 142 62 34 142 62 34 142 62 34 142 38 34 142 38 34 88 38 34 88 38 48 88 38 48 88 50 48 88 50 48 88 50 48 106 50 48 106 50 48 106 62 62 106 62 62 106 62 62 106 62 62 124 62 62 124 38 62 124 38 62 124 38 76 124 38 76 124 38 76 142 50 76 142 50 76 142 50 76 142 50 76 142 50 90 142 62 90 88 62 90 88 62 90 88 62 90 88 62 90 88 38 90 88 38 34 106 38 34 106 38 34 106 38 34 106 50 34 106 50 34 106 50 34 124 50 48 124 50 48 124 62 48 124 62 48 124 62 48 124 62 48 142 62 48 142 38 62 142 38 62 142 38 62 142 38 62 142 38 62 88 50 62 88 50 62 88 50 76 88 50 76 88 50 76 88 62 76 106 62 76 106 62 76 106 62 76 106 62 90 106 38 90 106 38 90 124 38 90 124 38 90 124 38 90 124 50 90 124 50 34 124 50 34 142 50 34 142 50 34 142 62 34 142 62 34 142 62 34 142 62 48 88 62 48 88 38 48 88 38 48 88 38 48 88 38 48 88 38 48 106 50 62 106 50 62 106 50 62 106 50 62 106 50 62 106 62 62 124 62 62 124 62 76 124 62 76 124 62 76 124 38 76 124 38 76 142 38 76 142 38 76 142 38 90 142 50 90 142 50 90 142 50 90 88 50 90 88 50 90 88 62 90 88 62 34 88 62 34 88 62 34 106 62 34 106 38 34 106 38 34 106 38 34 106 38 48 106 38 48 124 50 48 124 50 48 124 50 48 124 50 48 124 50 48 124 62 62 142 62 62 142 62 62 142 62 62 142 62 62 142 38 62 142 38 62 88 38 76 88 38 76 88 38 76 88 50 76 88 50 76 88 50 76 106 50 76 106 50 90 106 62 90 106 62 90 106 62 90 106 62 90 124 62 90 124 38 90 124 38 34 124 38 34 124 38 34 124 38 34 142 50 34 142 50 34 142 50 34 142 50 48 142 50 48 142 62 48 88 62 48 88 62 48 88 62 48 88 62 48 88 38 62 88 38 62 106 38 62 106 38 62 106 38 62 106 50 62 106 50 62 106 50 76 124 50 76 124 50 76 124 62 76 124 62 76 124 62 76 124 62 76 142 62 90 142 38 90 142 38 90 142 38 90 142 38 90 142 38 90 88 50 90 88 50 34 88 50 34 88 50 34 88 50 34 88 62 34 106 62 34 106 62 34 106 62 48 106 62 48 106 38 48 106 38 48 124 38 48 124 38 48 124 38 48 124 50 62 124 50 62 124 50 62 142 50 62 142 50 62 142 62 62 142 62 62 142 62 76 142 62 76 88 62 76 88 38 76 88 38 76 88 38 76 88 38 76 88 38 90 106 50 90 106 50 90 106 50 90 106 50 90 106 50 90 106 62 90 124 62 34 124 62 34 124 62 34 124 62 34 124 38 34 124 38 34 142 38 34 142 38 48 142 38 48 142 50 48 142 50 48 142 50 48 88 50 48 88 50 48 88 62 62 88 62 62 88 62 62 88 62 62 106 62 62 106 38 62 106 38 62 106 38 76 106 38 76 106 38 76 124 50 76 124 50 76 124 50 76 124 50 76 124 50 90 124 62 90 142 62 90 142 62 90 142 62 90 142 62 90 142 38 90 142 38 34 88 38 34 88 38 34 88 38 34 88 50 34 88 50 34 88 50 34 106 50 48 106 50 48 106 62 48 106 62 48 106 62 48 106 62 48 124 62 48 124 38 62 124 38 62 124 38 62 124 38 62 124 38 62 142 50 62 142 50 62 142 50 76 142 50 76 142 50 76 142 62 76 88 62 76 88 62 76 88 62 76 88 62 90 88 38 90 88 38 90 106 38 90 106 38 90 106 38 90 106 50 90 106 50 34 106 50 34 124 50 34 124 50 34 124 62 34 124 62 34 124 62 34 124 62 48 142 62 48 142 38 48 142 38 48 142 38 48 142 38 48 142 38 48 88 50 62 88 50 62 88 50 62 88 50 62 88 50 62 88 62 62 106 62 62 106 62 76 106 62 76 106 62 76 106 38 76 106 38 76 124 38 76 124 38 76 124 38 90 124 50 90 124 50 90 124 50 90 142 50 90 142 50
90 124 50 90 124 50 90 124 50 90 124 50 90 124 50 90 124 62 90 142 62 34 142 62 34 142 62 34 142 62 34 142 38 34 142 38 34 88 38 34 88 38 48 88 38 48 88 50 48 88 50 48 88 50 48 106 50 48 106 50 48 106 62 62 106 62 62 106 62 62 106 62 62 124 62 62 124 38 62 124 38 62 124 38 76 124 38 76 124 38 76 142 50 76 142 50 76 142 50 76 142 50 76 142 50 90 142 62 90 88 62 90 88 62 90 88 62 90 88 62 90 88 38 90 88 38 34 106 38 34 106 38 34 106 38 34 106 50 34 106 50 34 106 50 34 124 50 48 124 50 48 124 62 48 124 62 48 124 62 48 124 62 48 142 62 48 142 38 62 142 38 62 142 38 62 142 38 62 142 38 62 88 50 62 88 50 62 88 50 76 88 50 76 88 50 76 88 62 76 106 62 76 106 62 76 106 62 76 106 62 90 106 38 90 106 38 90 124 38 90 124 38 90 124 38 90 124 50 90 124 50 34 124 50 34 142 50 34 142 50 34 142 62 34 142 62 34 142 62 34 142 62 48 88 62 48 88 38 48 88 38 48 88 38 48 88 38 48 88 38 48 106 50 62 106 50 62 106 50 62 106 50 62 106 50 62 106 62 62 124 62 62 124 62 76 124 62 76 124 62 76 124 38 76 124 38 76 142 38 76 142 38 76 142 38 90 142 50 90 142 50 90 142 50 90 88 50 90 88 50 90 88 62 90 88 62 34 88 62 34 88 62 34 106 62 34 106 38 34 106 38 34 106 38 34 106 38 48 106 38 48 124 50 48 124 50 48 124 50 48 124 50 48 124 50 48 124 62 62 142 62 62 142 62 62 142 62 62 142 62 62 142 38 62 142 38 62 88 38 76 88 38 76 88 38 76 88 50 76 88 50 76 88 50 76 106 50 76 106 50 90 106 62 90 106 62 90 106 62 90 106 62 90 124 62 90 124 38 90 124 38 34 124 38 34 124 38 34 124 38 34 142 50 34 142 50 34 142 50 34 142 50 48 142 50 48 142 62 48 88 62 48 88 62 48 88 62 48 88 62 48 88 38 62 88 38 62 106 38 62 106 38 62 106 38 62 106 50 62 106 50 62 106 50 76 124 50 76 124 50 76 124 62 76 124 62 76 124 62 76 124 62 76 142 62 90 142 38 90 142 38 90 142 38 90 142 38 90 142 38 90 88 50 90 88 50 34 88 50 34 88 50 34 88 50 34 88 62 34 106 62 34 106 62 34 106 62 48 106 62 48 106 38 48 106 38 48 124 38 48 124 38 48 124 38 48 124 50 62 124 50 62 124 50 62 142 50 62 142 50 62 142 62 62 142 62 62 142 62 76 142 62 76 88 62 76 88 38 76 88 38 76 88 38 76 88 38 76 88 38 90 106 50 90 106 50 90 106 50 90 106 50 90 106 50 90 106 62 90 124 62 34 124 62 34 124 62 34 124 62 34 124 38 34 124 38 34 142 38 34 142 38 48 142 38 48 142 50 48 142 50 48 142 50 48 88 50 48 88 50 48 88 62 62 88 62 62 88 62 62 88 62 62 106 62 62 106 38 62 106 38 62 106 38 76 106 38 76 106 38 76 124 50 76 124 50 76 124 50 76 124 50 76 124 50 90 124 62 90 142 62 90 142 62 90 142 62 90 142 62 90 142 38 90 142 38 34 88 38 34 88 38 34 88 38 34 88 50 34 88 50 34 88 50 34 106 50 48 106 50 48 106 62 48 106 62 48 106 62 48 106 62 48 124 62 48 124 38 62 124 38 62 124 38 62 124 38 62 124 38 62 142 50 62 142 50 62 142 50 76 142 50 76 142 50 76 142 62 76 88 62 76 88 62 76 88 62 76 88 62 90 88 38 90 88 38 90 106 38 90 106 38 90 106 38 90 106 50 90 106 50 34 106 50 34 124 50 34 124 50 34 124 62 34 124 62 34 124 62 34 124 62 48 142 62 48 142 38 48 142 38 48 142 38 48 142 38 48 142 38 48 88 50 62 88 50 62 88 50 62 88 50 62 88 50 62 88 62 62 106 62 62 106 62 76 106 62 76 106 62 76 106 38 76 106 38 76 124 38 76 124 38 76 124 38 90 124 50 90 124 50 90 124 50 90 142 50 90 142 50
34 124 50 34 124 50 34 124 50 34 124 50 34 124 50 34 124 62 34 142 62 48 142 62 48 142 62 48 142 62 48 142 38 48 142 38 48 88 38 48 88 38 62 88 38 62 88 50 62 88 50 62 88 50 62 106 50 62 106 50 62 106 62 76 106 62 76 106 62 76 106 62 76 124 62 76 124 38 76 124 38 76 124 38 90 124 38 90 124 38 90 142 50 90 142 50 90 142 50 90 142 50 90 142 50 34 142 62 34 88 62 34 88 62 34 88 62 34 88 62 34 88 38 34 88 38 48 106 38 48 106 38 48 106 38 48 106 50 48 106 50 48 106 50 48 124 50 62 124 50 62 124 62 62 124 62 62 124 62 62 124 62 62 142 62 62 142 38 76 142 38 76 142 38 76 142 38 76 142 38 76 88 50 76 88 50 76 88 50 90 88 50 90 88 50 90 88 62 90 106 62 90 106 62 90 106 62 90 106 62 34 106 38 34 106 38 34 124 38 34 124 38 34 124 38 34 124 50 34 124 50 48 124 50 48 142 50 48 142 50 48 142 62 48 142 62 48 142 62 48 142 62 62 88 62 62 88 38 62 88 38 62 88 38 62 88 38 62 88 38 62 106 50 76 106 50 76 106 50 76 106 50 76 106 50 76 106 62 76 124 62 76 124 62 90 124 62 90 124 62 90 124 38 90 124 38 90 142 38 90 142 38 90 142 38 34 142 50 34 142 50 34 142 50 34 88 50 34 88 50 34 88 62 34 88 62 48 88 62 48 88 62 48 106 62 48 106 38 48 106 38 48 106 38 48 106 38 62 106 38 62 124 50 62 124 50 62 124 50 62 124 50 62 124 50 62 124 62 76 142 62 76 142 62 76 142 62 76 142 62 76 142 38 76 142 38 76 88 38 90 88 38 90 88 38 90 88 50 90 88 50 90 88 50 90 106 50 90 106 50 34 106 62 34 106 62 34 106 62 34 106 62 34 124 62 34 124 38 34 124 38 48 124 38 48 124 38 48 124 38 48 142 50 48 142 50 48 142 50 48 142 50 62 142 50 62 142 62 62 88 62 62 88 62 62 88 62 62 88 62 62 88 38 76 88 38 76 106 38 76 106 38 76 106 38 76 106 50 76 106 50 76 106 50 90 124 50 90 124 50 90 124 62 90 124 62 90 124 62 90 124 62 90 142 62 34 142 38 34 142 38 34 142 38 34 142 38 34 142 38 34 88 50 34 88 50 48 88 50 48 88 50 48 88 50 48 88 62 48 106 62 48 106 62 48 106 62 62 106 62 62 106 38 62 106 38 62 124 38 62 124 38 62 124 38 62 124 50 76 124 50 76 124 50 76 142 50 76 142 50 76 142 62 76 142 62 76 142 62 90 142 62 90 88 62 90 88 38 90 88 38 90 88 38 90 88 38 90 88 38 34 106 50 34 106 50 34 106 50 34 106 50 34 106 50 34 106 62 34 124 62 48 124 62 48 124 62 48 124 62 48 124 38 48 124 38 48 142 38 48 142 38 62 142 38 62 142 50 62 142 50 62 142 50 62 88 50 62 88 50 62 88 62 76 88 62 76 88 62 76 88 62 76 106 62 76 106 38 76 106 38 76 106 38 90 106 38 90 106 38 90 124 50 90 124 50 90 124 50 90 124 50 90 124 50 34 124 62 34 142 62 34 142 62 34 142 62 34 142 62 34 142 38 34 142 38 48 88 38 48 88 38 48 88 38 48 88 50 48 88 50 48 88 50 48 106 50 62 106 50 62 106 62 62 106 62 62 106 62 62 106 62 62 124 62 62 124 38 76 124 38 76 124 38 76 124 38 76 124 38 76 142 50 76 142 50 76 142 50 90 142 50 90 142 50 90 142 62 90 88 62 90 88 62 90 88 62 90 88 62 34 88 38 34 88 38 34 106 38 34 106 38 34 106 38 34 106 50 34 106 50 48 106 50 48 124 50 48 124 50 48 124 62 48 124 62 48 124 62 48 124 62 62 142 62 62 142 38 62 142 38 62 142 38 62 142 38 62 142 38 62 88 50 76 88 50 76 88 50 76 88 50 76 88 50 76 88 62 76 106 62 76 106 62 90 106 62 90 106 62 90 106 38 90 106 38 90 124 38 90 124 38 90 124 38 34 124 50 34 124 50 34 124 50 34 142 50 34 142 50
34 142 50 34 142 50 34 142 50 34 142 50 34 142 50 34 142 62 34 88 62 48 88 62 48 88 62 48 88 62 48 88 38 48 88 38 48 106 38 48 106 38 62 106 38 62 106 50 62 106 50 62 106 50 62 124 50 62 124 50 62 124 62 76 124 62 76 124 62 76 124 62 76 142 62 76 142 38 76 142 38 76 142 38 90 142 38 90 142 38 90 88 50 90 88 50 90 88 50 90 88 50 90 88 50 34 88 62 34 106 62 34 106 62 34 106 62 34 106 62 34 106 38 34 106 38 48 124 38 48 124 38 48 124 38 48 124 50 48 124 50 48 124 50 48 142 50 62 142 50 62 142 62 62 142 62 62 142 62 62 142 62 62 88 62 62 88 38 76 88 38 76 88 38 76 88 38 76 88 38 76 106 50 76 106 50 76 106 50 90 106 50 90 106 50 90 106 62 90 124 62 90 124 62 90 124 62 90 124 62 34 124 38 34 124 38 34 142 38 34 142 38 34 142 38 34 142 50 34 142 50 48 142 50 48 88 50 48 88 50 48 88 62 48 88 62 48 88 62 48 88 62 62 106 62 62 106 38 62 106 38 62 106 38 62 106 38 62 106 38 62 124 50 76 124 50 76 124 50 76 124 50 76 124 50 76 124 62 76 142 62 76 142 62 90 142 62 90 142 62 90 142 38 90 142 38 90 88 38 90 88 38 90 88 38 34 88 50 34 88 50 34 88 50 34 106 50 34 106 50 34 106 62 34 106 62 48 106 62 48 106 62 48 124 62 48 124 38 48 124 38 48 124 38 48 124 38 62 124 38 62 142 50 62 142 50 62 142 50 62 142 50 62 142 50 62 142 62 76 88 62 76 88 62 76 88 62 76 88 62 76 88 38 76 88 38 76 106 38 90 106 38 90 106 38 90 106 50 90 106 50 90 106 50 90 124 50 90 124 50 34 124 62 34 124 62 34 124 62 34 124 62 34 142 62 34 142 38 34 142 38 48 142 38 48 142 38 48 142 38 48 88 50 48 88 50 48 88 50 48 88 50 62 88 50 62 88 62 62 106 62 62 106 62 62 106 62 62 106 62 62 106 38 76 106 38 76 124 38 76 124 38 76 124 38 76 124 50 76 124 50 76 124 50 90 142 50 90 142 50 90 142 62 90 142 62 90 142 62 90 142 62 90 88 62 34 88 38 34 88 38 34 88 38 34 88 38 34 88 38 34 106 50 34 106 50 48 106 50 48 106 50 48 106 50 48 106 62 48 124 62 48 124 62 48 124 62 62 124 62 62 124 38 62 124 38 62 142 38 62 142 38 62 142 38 62 142 50 76 142 50 76 142 50 76 88 50 76 88 50 76 88 62 76 88 62 76 88 62 90 88 62 90 106 62 90 106 38 90 106 38 90 106 38 90 106 38 90 106 38 34 124 50 34 124 50 34 124 50 34 124 50 34 124 50 34 124 62 34 142 62 48 142 62 48 142 62 48 142 62 48 142 38 48 142 38 48 88 38 48 88 38 62 88 38 62 88 50 62 88 50 62 88 50 62 106 50 62 106 50 62 106 62 76 106 62 76 106 62 76 106 62 76 124 62 76 124 38 76 124 38 76 124 38 90 124 38 90 124 38 90 142 50 90 142 50 90 142 50 90 142 50 90 142 50 34 142 62 34 88 62 34 88 62 34 88 62 34 88 62 34 88 38 34 88 38 48 106 38 48 106 38 48 106 38 48 106 50 48 106 50 48 106 50 48 124 50 62 124 50 62 124 62 62 124 62 62 124 62 62 124 62 62 142 62 62 142 38 76 142 38 76 142 38 76 142 38 76 142 38 76 88 50 76 88 50 76 88 50 90 88 50 90 88 50 90 88 62 90 106 62 90 106 62 90 106 62 90 106 62 34 106 38 34 106 38 34 124 38 34 124 38 34 124 38 34 124 50 34 124 50 48 124 50 48 142 50 48 142 50 48 142 62 48 142 62 48 142 62 48 142 62 62 88 62 62 88 38 62 88 38 62 88 38 62 88 38 62 88 38 62 106 50 76 106 50 76 106 50 76 106 50 76 106 50 76 106 62 76 124 62 76 124 62 90 124 62 90 124 62 90 124 38 90 124 38 90 142 38 90 142 38 90 142 38 34 142 50 34 142 50 34 142 50 34 88 50 34 88 50
34 142 50 34 142 50 34 142 50 34 142 50 34 142 50 34 142 62 34 88 62 48 88 62 48 88 62 48 88 62 48 88 38 48 88 38 48 106 38 48 106 38 62 106 38 62 106 50 62 106 50 62 106 50 62 124 50 62 124 50 62 124 62 76 124 62 76 124 62 76 124 62 76 142 62 76 142 38 76 142 38 76 142 38 90 142 38 90 142 38 90 88 50 90 88 50 90 88 50 90 88 50 90 88 50 34 88 62 34 106 62 34 106 62 34 106 62 34 106 62 34 106 38 34 106 38 48 124 38 48 124 38 48 124 38 48 124 50 48 124 50 48 124 50 48 142 50 62 142 50 62 142 62 62 142 62 62 142 62 62 142 62 62 88 62 62 88 38 76 88 38 76 88 38 76 88 38 76 88 38 76 106 50 76 106 50 76 106 50 90 106 50 90 106 50 90 106 62 90 124 62 90 124 62 90 124 62 90 124 62 34 124 38 34 124 38 34 142 38 34 142 38 34 142 38 34 142 50 34 142 50 48 142 50 48 88 50 48 88 50 48 88 62 48 88 62 48 88 62 48 88 62 62 106 62 62 106 38 62 106 38 62 106 38 62 106 38 62 106 38 62 124 50 76 124 50 76 124 50 76 124 50 76 124 50 76 124 62 76 142 62 76 142 62 90 142 62 90 142 62 90 142 38 90 142 38 90 88 38 90 88 38 90 88 38 34 88 50 34 88 50 34 88 50 34 106 50 34 106 50 34 106 62 34 106 62 48 106 62 48 106 62 48 124 62 48 124 38 48 124 38 48 124 38 48 124 38 62 124 38 62 142 50 62 142 50 62 142 50 62 142 50 62 142 50 62 142 62 76 88 62 76 88 62 76 88 62 76 88 62 76 88 38 76 88 38 76 106 38 90 106 38 90 106 38 90 106 50 90 106 50 90 106 50 90 124 50 90 124 50 34 124 62 34 124 62 34 124 62 34 124 62 34 142 62 34 142 38 34 142 38 48 142 38 48 142 38 48 142 38 48 88 50 48 88 50 48 88 50 48 88 50 62 88 50 62 88 62 62 106 62 62 106 62 62 106 62 62 106 62 62 106 38 76 106 38 76 124 38 76 124 38 76 124 38 76 124 50 76 124 50 76 124 50 90 142 50 90 142 50 90 142 62 90 142 62 90 142 62 90 142 62 90 88 62 34 88 38 34 88 38 34 88 38 34 88 38 34 88 38 34 106 50 34 106 50 48 106 50 48 106 50 48 106 50 48 106 62 48 124 62 48 124 62 48 124 62 62 124 62 62 124 38 62 124 38 62 142 38 62 142 38 62 142 38 62 142 50 76 142 50 76 142 50 76 88 50 76 88 50 76 88 62 76 88 62 76 88 62 90 88 62 90 106 62 90 106 38 90 106 38 90 106 38 90 106 38 90 106 38 34 124 50 34 124 50 34 124 50 34 124 50 34 124 50 34 124 62 34 142 62 48 142 62 48 142 62 48 142 62 48 142 38 48 142 38 48 88 38 48 88 38 62 88 38 62 88 50 62 88 50 62 88 50 62 106 50 62 106 50 62 106 62 76 106 62 76 106 62 76 106 62 76 124 62 76 124 38 76 124 38 76 124 38 90 124 38 90 124 38 90 142 50 90 142 50 90 142 50 90 142 50 90 142 50 34 142 62 34 88 62 34 88 62 34 88 62 34 88 62 34 88 38 34 88 38 48 106 38 48 106 38 48 106 38 48 106 50 48 106 50 48 106 50 48 124 50 62 124 50 62 124 62 62 124 62 62 124 62 62 124 62 62 142 62 62 142 38 76 142 38 76 142 38 76 142 38 76 142 38 76 88 50 76 88 50 76 88 50 90 88 50 90 88 50 90 88 62 90 106 62 90 106 62 90 106 62 90 106 62 34 106 38 34 106 38 34 124 38 34 124 38 34 124 38 34 124 50 34 124 50 48 124 50 48 142 50 48 142 50 48 142 62 48 142 62 48 142 62 48 142 62 62 88 62 62 88 38 62 88 38 62 88 38 62 88 38 62 88 38 62 106 50 76 106 50 76 106 50 76 106 50 76 106 50 76 106 62 76 124 62 76 124 62 90 124 62 90 124 62 90 124 38 90 124 38 90 142 38 90 142 38 90 142 38 34 142 50 34 142 50 34 142 50 34 88 50 34 88 50
34 142 50 34 142 50 34 142 50 34 142 50 34 142 50 34 142 62 34 88 62 48 88 62 48 88 62 48 88 62 48 88 38 48 88 38 48 106 38 48 106 38 62 106 38 62 106 50 62 106 50 62 106 50 62 124 50 62 124 50 62 124 62 76 124 62 76 124 62 76 124 62 76 142 62 76 142 38 76 142 38 76 142 38 90 142 38 90 142 38 90 88 50 90 88 50 90 88 50 90 88 50 90 88 50 34 88 62 34 106 62 34 106 62 34 106 62 34 106 62 34 106 38 34 106 38 48 124 38 48 124 38 48 124 38 48 124 50 48 124 50 48 124 50 48 142 50 62 142 50 62 142 62 62 142 62 62 142 62 62 142 62 62 88 62 62 88 38 76 88 38 76 88 38 76 88 38 76 88 38 76 106 50 76 106 50 76 106 50 90 106 50 90 106 50 90 106 62 90 124 62 90 124 62 90 124 62 90 124 62 34 124 38 34 124 38 34 142 38 34 142 38 34 142 38 34 142 50 34 142 50 48 142 50 48 88 50 48 88 50 48 88 62 48 88 62 48 88 62 48 88 62 62 106 62 62 106 38 62 106 38 62 106 38 62 106 38 62 106 38 62 124 50 76 124 50 76 124 50 76 124 50 76 124 50 76 124 62 76 142 62 76 142 62 90 142 62 90 142 62 90 142 38 90 142 38 90 88 38 90 88 38 90 88 38 34 88 50 34 88 50 34 88 50 34 106 50 34 106 50 34 106 62 34 106 62 48 106 62 48 106 62 48 124 62 48 124 38 48 124 38 48 124 38 48 124 38 62 124 38 62 142 50 62 142 50 62 142 50 62 142 50 62 142 50 62 142 62 76 88 62 76 88 62 76 88 62 76 88 62 76 88 38 76 88 38 76 106 38 90 106 38 90 106 38 90 106 50 90 106 50 90 106 50 90 124 50 90 124 50 34 124 62 34 124 62 34 124 62 34 124 62 34 142 62 34 142 38 34 142 38 48 142 38 48 142 38 48 142 38 48 88 50 48 88 50 48 88 50 48 88 50 62 88 50 62 88 62 62 106 62 62 106 62 62 106 62 62 106 62 62 106 38 76 106 38 76 124 38 76 124 38 76 124 38 76 124 50 76 124 50 76 124 50 90 142 50 90 142 50 90 142 62 90 142 62 90 142 62 90 142 62 90 88 62 34 88 38 34 88 38 34 88 38 34 88 38 34 88 38 34 106 50 34 106 50 48 106 50 48 106 50 48 106 50 48 106 62 48 124 62 48 124 62 48 124 62 62 124 62 62 124 38 62 124 38 62 142 38 62 142 38 62 142 38 62 142 50 76 142 50 76 142 50 76 88 50 76 88 50 76 88 62 76 88 62 76 88 62 90 88 62 90 106 62 90 106 38 90 106 38 90 106 38 90 106 38 90 106 38 34 124 50 34 124 50 34 124 50 34 124 50 34 124 50 34 124 62 34 142 62 48 142 62 48 142 62 48 142 62 48 142 38 48 142 38 48 88 38 48 88 38 62 88 38 62 88 50 62 88 50 62 88 50 62 106 50 62 106 50 62 106 62 76 106 62 76 106 62 76 106 62 76 124 62 76 124 38 76 124 38 76 124 38 90 124 38 90 124 38 90 142 50 90 142 50 90 142 50 90 142 50 90 142 50 34 142 62 34 88 62 34 88 62 34 88 62 34 88 62 34 88 38 34 88 38 48 106 38 48 106 38 48 106 38 48 106 50 48 106 50 48 106 50 48 124 50 62 124 50 62 124 62 62 124 62 62 124 62 62 124 62 62 142 62 62 142 38 76 142 38 76 142 38 76 142 38 76 142 38 76 88 50 76 88 50 76 88 50 90 88 50 90 88 50 90 88 62 90 106 62 90 106 62 90 106 62 90 106 62 34 106 38 34 106 38 34 124 38 34 124 38 34 124 38 34 124 50 34 124 50 48 124 50 48 142 50 48 142 50 48 142 62 48 142 62 48 142 62 48 142 62 62 88 62 62 88 38 62 88 38 62 88 38 62 88 38 62 88 38 62 106 50 76 106 50 76 106 50 76 106 50 76 106 50 76 106 62 76 124 62 76 124 62 90 124 62 90 124 62 90 124 38 90 124 38 90 142 38 90 142 38 90 142 38 34 142 50 34 142 50 34 142 50 34 88 50 34 88 50
34 142 62 34 142 62 34 142 62 34 142 62 34 142 62 34 142 38 34 88 38 48 88 38 48 88 38 48 88 38 48 88 50 48 88 50 48 106 50 48 106 50 62 106 50 62 106 62 62 106 62 62 106 62 62 124 62 62 124 62 62 124 38 76 124 38 76 124 38 76 124 38 76 142 38 76 142 50 76 142 50 76 142 50 90 142 50 90 142 50 90 88 62 90 88 62 90 88 62 90 88 62 90 88 62 34 88 38 34 106 38 34 106 38 34 106 38 34 106 38 34 106 50 34 106 50 48 124 50 48 124 50 48 124 50 48 124 62 48 124 62 48 124 62 48 142 62 62 142 62 62 142 38 62 142 38 62 142 38 62 142 38 62 88 38 62 88 50 76 88 50 76 88 50 76 88 50 76 88 50 76 106 62 76 106 62 76 106 62 90 106 62 90 106 62 90 106 38 90 124 38 90 124 38 90 124 38 90 124 38 34 124 50 34 124 50 34 142 50 34 142 50 34 142 50 34 142 62 34 142 62 48 142 62 48 88 62 48 88 62 48 88 38 48 88 38 48 88 38 48 88 38 62 106 38 62 106 50 62 106 50 62 106 50 62 106 50 62 106 50 62 124 62 76 124 62 76 124 62 76 124 62 76 124 62 76 124 38 76 142 38 76 142 38 90 142 38 90 142 38 90 142 50 90 142 50 90 88 50 90 88 50 90 88 50 34 88 62 34 88 62 34 88 62 34 106 62 34 106 62 34 106 38 34 106 38 48 106 38 48 106 38 48 124 38 48 124 50 48 124 50 48 124 50 48 124 50 62 124 50 62 142 62 62 142 62 62 142 62 62 142 62 62 142 62 62 142 38 76 88 38 76 88 38 76 88 38 76 88 38 76 88 50 76 88 50 76 106 50 90 106 50 90 106 50 90 106 62 90 106 62 90 106 62 90 124 62 90 124 62 34 124 38 34 124 38 34 124 38 34 124 38 34 142 38 34 142 50 34 142 50 48 142 50 48 142 50 48 142 50 48 88 62 48 88 62 48 88 62 48 88 62 62 88 62 62 88 38 62 106 38 62 106 38 62 106 38 62 106 38 62 106 50 76 106 50 76 124 50 76 124 50 76 124 50 76 124 62 76 124 62 76 124 62 90 142 62 90 142 62 90 142 38 90 142 38 90 142 38 90 142 38 90 88 38 34 88 50 34 88 50 34 88 50 34 88 50 34 88 50 34 106 62 34 106 62 48 106 62 48 106 62 48 106 62 48 106 38 48 124 38 48 124 38 48 124 38 62 124 38 62 124 50 62 124 50 62 142 50 62 142 50 62 142 50 62 142 62 76 142 62 76 142 62 76 88 62 76 88 62 76 88 38 76 88 38 76 88 38 90 88 38 90 106 38 90 106 50 90 106 50 90 106 50 90 106 50 90 106 50 34 124 62 34 124 62 34 124 62 34 124 62 34 124 62 34 124 38 34 142 38 48 142 38 48 142 38 48 142 38 48 142 50 48 142 50 48 88 50 48 88 50 62 88 50 62 88 62 62 88 62 62 88 62 62 106 62 62 106 62 62 106 38 76 106 38 76 106 38 76 106 38 76 124 38 76 124 50 76 124 50 76 124 50 90 124 50 90 124 50 90 142 62 90 142 62 90 142 62 90 142 62 90 142 62 34 142 38 34 88 38 34 88 38 34 88 38 34 88 38 34 88 50 34 88 50 48 106 50 48 106 50 48 106 50 48 106 62 48 106 62 48 106 62 48 124 62 62 124 62 62 124 38 62 124 38 62 124 38 62 124 38 62 142 38 62 142 50 76 142 50 76 142 50 76 142 50 76 142 50 76 88 62 76 88 62 76 88 62 90 88 62 90 88 62 90 88 38 90 106 38 90 106 38 90 106 38 90 106 38 34 106 50 34 106 50 34 124 50 34 124 50 34 124 50 34 124 62 34 124 62 48 124 62 48 142 62 48 142 62 48 142 38 48 142 38 48 142 38 48 142 38 62 88 38 62 88 50 62 88 50 62 88 50 62 88 50 62 88 50 62 106 62 76 106 62 76 106 62 76 106 62 76 106 62 76 106 38 76 124 38 76 124 38 90 124 38 90 124 38 90 124 50 90 124 50 90 142 50 90 142 50 90 142 50 34 142 62 34 142 62 34 142 62 34 88 62 34 88 62
48 142 62 48 142 62 48 142 62 48 142 62 48 142 62 48 142 38 48 88 38 62 88 38 62 88 38 62 88 38 62 88 50 62 88 50 62 106 50 62 106 50 76 106 50 76 106 62 76 106 62 76 106 62 76 124 62 76 124 62 76 124 38 90 124 38 90 124 38 90 124 38 90 142 38 90 142 50 90 142 50 90 142 50 34 142 50 34 142 50 34 88 62 34 88 62 34 88 62 34 88 62 34 88 62 48 88 38 48 106 38 48 106 38 48 106 38 48 106 38 48 106 50 48 106 50 62 124 50 62 124 50 62 124 50 62 124 62 62 124 62 62 124 62 62 142 62 76 142 62 76 142 38 76 142 38 76 142 38 76 142 38 76 88 38 76 88 50 90 88 50 90 88 50 90 88 50 90 88 50 90 106 62 90 106 62 90 106 62 34 106 62 34 106 62 34 106 38 34 124 38 34 124 38 34 124 38 34 124 38 48 124 50 48 124 50 48 142 50 48 142 50 48 142 50 48 142 62 48 142 62 62 142 62 62 88 62 62 88 62 62 88 38 62 88 38 62 88 38 62 88 38 76 106 38 76 106 50 76 106 50 76 106 50 76 106 50 76 106 50 76 124 62 90 124 62 90 124 62 90 124 62 90 124 62 90 124 38 90 142 38 90 142 38 34 142 38 34 142 38 34 142 50 34 142 50 34 88 50 34 88 50 34 88 50 48 88 62 48 88 62 48 88 62 48 106 62 48 106 62 48 106 38 48 106 38 62 106 38 62 106 38 62 124 38 62 124 50 62 124 50 62 124 50 62 124 50 76 124 50 76 142 62 76 142 62 76 142 62 76 142 62 76 142 62 76 142 38 90 88 38 90 88 38 90 88 38 90 88 38 90 88 50 90 88 50 90 106 50 34 106 50 34 106 50 34 106 62 34 106 62 34 106 62 34 124 62 34 124 62 48 124 38 48 124 38 48 124 38 48 124 38 48 142 38 48 142 50 48 142 50 62 142 50 62 142 50 62 142 50 62 88 62 62 88 62 62 88 62 62 88 62 76 88 62 76 88 38 76 106 38 76 106 38 76 106 38 76 106 38 76 106 50 90 106 50 90 124 50 90 124 50 90 124 50 90 124 62 90 124 62 90 124 62 34 142 62 34 142 62 34 142 38 34 142 38 34 142 38 34 142 38 34 88 38 48 88 50 48 88 50 48 88 50 48 88 50 48 88 50 48 106 62 48 106 62 62 106 62 62 106 62 62 106 62 62 106 38 62 124 38 62 124 38 62 124 38 76 124 38 76 124 50 76 124 50 76 142 50 76 142 50 76 142 50 76 142 62 90 142 62 90 142 62 90 88 62 90 88 62 90 88 38 90 88 38 90 88 38 34 88 38 34 106 38 34 106 50 34 106 50 34 106 50 34 106 50 34 106 50 48 124 62 48 124 62 48 124 62 48 124 62 48 124 62 48 124 38 48 142 38 62 142 38 62 142 38 62 142 38 62 142 50 62 142 50 62 88 50 62 88 50 76 88 50 76 88 62 76 88 62 76 88 62 76 106 62 76 106 62 76 106 38 90 106 38 90 106 38 90 106 38 90 124 38 90 124 50 90 124 50 90 124 50 34 124 50 34 124 50 34 142 62 34 142 62 34 142 62 34 142 62 34 142 62 48 142 38 48 88 38 48 88 38 48 88 38 48 88 38 48 88 50 48 88 50 62 106 50 62 106 50 62 106 50 62 106 62 62 106 62 62 106 62 62 124 62 76 124 62 76 124 38 76 124 38 76 124 38 76 124 38 76 142 38 76 142 50 90 142 50 90 142 50 90 142 50 90 142 50 90 88 62 90 88 62 90 88 62 34 88 62 34 88 62 34 88 38 34 106 38 34 106 38 34 106 38 34 106 38 48 106 50 48 106 50 48 124 50 48 124 50 48 124 50 48 124 62 48 124 62 62 124 62 62 142 62 62 142 62 62 142 38 62 142 38 62 142 38 62 142 38 76 88 38 76 88 50 76 88 50 76 88 50 76 88 50 76 88 50 76 106 62 90 106 62 90 106 62 90 106 62 90 106 62 90 106 38 90 124 38 90 124 38 34 124 38 34 124 38 34 124 50 34 124 50 34 142 50 34 142 50 34 142 50 48 142 62 48 142 62 48 142 62 48 88 62 48 88 62
48 142 62 48 142 62 48 142 62 48 142 62 48 142 62 48 142 38 48 88 38 62 88 38 62 88 38 62 88 38 62 88 50 62 88 50 62 106 50 62 106 50 76 106 50 76 106 62 76 106 62 76 106 62 76 124 62 76 124 62 76 124 38 90 124 38 90 124 38 90 124 38 90 142 38 90 142 50 90 142 50 90 142 50 34 142 50 34 142 50 34 88 62 34 88 62 34 88 62 34 88 62 34 88 62 48 88 38 48 106 38 48 106 38 48 106 38 48 106 38 48 106 50 48 106 50 62 124 50 62 124 50 62 124 50 62 124 62 62 124 62 62 124 62 62 142 62 76 142 62 76 142 38 76 142 38 76 142 38 76 142 38 76 88 38 76 88 50 90 88 50 90 88 50 90 88 50 90 88 50 90 106 62 90 106 62 90 106 62 34 106 62 34 106 62 34 106 38 34 124 38 34 124 38 34 124 38 34 124 38 48 124 50 48 124 50 48 142 50 48 142 50 48 142 50 48 142 62 48 142 62 62 142 62 62 88 62 62 88 62 62 88 38 62 88 38 62 88 38 62 88 38 76 106 38 76 106 50 76 106 50 76 106 50 76 106 50 76 106 50 76 124 62 90 124 62 90 124 62 90 124 62 90 124 62 90 124 38 90 142 38 90 142 38 34 142 38 34 142 38 34 142 50 34 142 50 34 88 50 34 88 50 34 88 50 48 88 62 48 88 62 48 88 62 48 106 62 48 106 62 48 106 38 48 106 38 62 106 38 62 106 38 62 124 38 62 124 50 62 124 50 62 124 50 62 124 50 76 124 50 76 142 62 76 142 62 76 142 62 76 142 62 76 142 62 76 142 38 90 88 38 90 88 38 90 88 38 90 88 38 90 88 50 90 88 50 90 106 50 34 106 50 34 106 50 34 106 62 34 106 62 34 106 62 34 124 62 34 124 62 48 124 38 48 124 38 48 124 38 48 124 38 48 142 38 48 142 50 48 142 50 62 142 50 62 142 50 62 142 50 62 88 62 62 88 62 62 88 62 62 88 62 76 88 62 76 88 38 76 106 38 76 106 38 76 106 38 76 106 38 76 106 50 90 106 50 90 124 50 90 124 50 90 124 50 90 124 62 90 124 62 90 124 62 34 142 62 34 142 62 34 142 38 34 142 38 34 142 38 34 142 38 34 88 38 48 88 50 48 88 50 48 88 50 48 88 50 48 88 50 48 106 62 48 106 62 62 106 62 62 106 62 62 106 62 62 106 38 62 124 38 62 124 38 62 124 38 76 124 38 76 124 50 76 124 50 76 142 50 76 142 50 76 142 50 76 142 62 90 142 62 90 142 62 90 88 62 90 88 62 90 88 38 90 88 38 90 88 38 34 88 38 34 106 38 34 106 50 34 106 50 34 106 50 34 106 50 34 106 50 48 124 62 48 124 62 48 124 62 48 124 62 48 124 62 48 124 38 48 142 38 62 142 38 62 142 38 62 142 38 62 142 50 62 142 50 62 88 50 62 88 50 76 88 50 76 88 62 76 88 62 76 88 62 76 106 62 76 106 62 76 106 38 90 106 38 90 106 38 90 106 38 90 124 38 90 124 50 90 124 50 90 124 50 34 124 50 34 124 50 34 142 62 34 142 62 34 142 62 34 142 62 34 142 62 48 142 38 48 88 38 48 88 38 48 88 38 48 88 38 48 88 50 48 88 50 62 106 50 62 106 50 62 106 50 62 106 62 62 106 62 62 106 62 62 124 62 76 124 62 76 124 38 76 124 38 76 124 38 76 124 38 76 142 38 76 142 50 90 142 50 90 142 50 90 142 50 90 142 50 90 88 62 90 88 62 90 88 62 34 88 62 34 88 62 34 88 38 34 106 38 34 106 38 34 106 38 34 106 38 48 106 50 48 106 50 48 124 50 48 124 50 48 124 50 48 124 62 48 124 62 62 124 62 62 142 62 62 142 62 62 142 38 62 142 38 62 142 38 62 142 38 76 88 38 76 88 50 76 88 50 76 88 50 76 88 50 76 88 50 76 106 62 90 106 62 90 106 62 90 106 62 90 106 62 90 106 38 90 124 38 90 124 38 34 124 38 34 124 38 34 124 50 34 124 50 34 142 50 34 142 50 34 142 50 48 142 62 48 142 62 48 142 62 48 88 62 48 88 62
48 142 62 48 142 62 48 142 62 48 142 62 48 142 62 48 142 38 48 88 38 62 88 38 62 88 38 62 88 38 62 88 50 62 88 50 62 106 50 62 106 50 76 106 50 76 106 62 76 106 62 76 106 62 76 124 62 76 124 62 76 124 38 90 124 38 90 124 38 90 124 38 90 142 38 90 142 50 90 142 50 90 142 50 34 142 50 34 142 50 34 88 62 34 88 62 34 88 62 34 88 62 34 88 62 48 88 38 48 106 38 48 106 38 48 106 38 48 106 38 48 106 50 48 106 50 62 124 50 62 124 50 62 124 50 62 124 62 62 124 62 62 124 62 62 142 62 76 142 62 76 142 38 76 142 38 76 142 38 76 142 38 76 88 38 76 88 50 90 88 50 90 88 50 90 88 50 90 88 50 90 106 62 90 106 62 90 106 62 34 106 62 34 106 62 34 106 38 34 124 38 34 124 38 34 124 38 34 124 38 48 124 50 48 124 50 48 142 50 48 142 50 48 142 50 48 142 62 48 142 62 62 142 62 62 88 62 62 88 62 62 88 38 62 88 38 62 88 38 62 88 38 76 106 38 76 106 50 76 106 50 76 106 50 76 106 50 76 106 50 76 124 62 90 124 62 90 124 62 90 124 62 90 124 62 90 124 38 90 142 38 90 142 38 34 142 38 34 142 38 34 142 50 34 142 50 34 88 50 34 88 50 34 88 50 48 88 62 48 88 62 48 88 62 48 106 62 48 106 62 48 106 38 48 106 38 62 106 38 62 106 38 62 124 38 62 124 50 62 124 50 62 124 50 62 124 50 76 124 50 76 142 62 76 142 62 76 142 62 76 142 62 76 142 62 76 142 38 90 88 38 90 88 38 90 88 38 90 88 38 90 88 50 90 88 50 90 106 50 34 106 50 34 106 50 34 106 62 34 106 62 34 106 62 34 124 62 34 124 62 48 124 38 48 124 38 48 124 38 48 124 38 48 142 38 48 142 50 48 142 50 62 142 50 62 142 50 62 142 50 62 88 62 62 88 62 62 88 62 62 88 62 76 88 62 76 88 38 76 106 38 76 106 38 76 106 38 76 106 38 76 106 50 90 106 50 90 124 50 90 124 50 90 124 50 90 124 62 90 124 62 90 124 62 34 142 62 34 142 62 34 142 38 34 142 38 34 142 38 34 142 38 34 88 38 48 88 50 48 88 50 48 88 50 48 88 50 48 88 50 48 106 62 48 106 62 62 106 62 62 106 62 62 106 62 62 106 38 62 124 38 62 124 38 62 124 38 76 124 38 76 124 50 76 124 50 76 142 50 76 142 50 76 142 50 76 142 62 90 142 62 90 142 62 90 88 62 90 88 62 90 88 38 90 88 38 90 88 38 34 88 38 34 106 38 34 106 50 34 106 50 34 106 50 34 106 50 34 106 50 48 124 62 48 124 62 48 124 62 48 124 62 48 124 62 48 124 38 48 142 38 62 142 38 62 142 38 62 142 38 62 142 50 62 142 50 62 88 50 62 88 50 76 88 50 76 88 62 76 88 62 76 88 62 76 106 62 76 106 62 76 106 38 90 106 38 90 106 38 90 106 38 90 124 38 90 124 50 90 124 50 90 124 50 34 124 50 34 124 50 34 142 62 34 142 62 34 142 62 34 142 62 34 142 62 48 142 38 48 88 38 48 88 38 48 88 38 48 88 38 48 88 50 48 88 50 62 106 50 62 106 50 62 106 50 62 106 62 62 106 62 62 106 62 62 124 62 76 124 62 76 124 38 76 124 38 76 124 38 76 124 38 76 142 38 76 142 50 90 142 50 90 142 50 90 142 50 90 142 50 90 88 62 90 88 62 90 88 62 34 88 62 34 88 62 34 88 38 34 106 38 34 106 38 34 106 38 34 106 38 48 106 50 48 106 50 48 124 50 48 124 50 48 124 50 48 124 62 48 124 62 62 124 62 62 142 62 62 142 62 62 142 38 62 142 38 62 142 38 62 142 38 76 88 38 76 88 50 76 88 50 76 88 50 76 88 50 76 88 50 76 106 62 90 106 62 90 106 62 90 106 62 90 106 62 90 106 38 90 124 38 90 124 38 34 124 38 34 124 38 34 124 50 34 124 50 34 142 50 34 142 50 34 142 50 48 142 62 48 142 62 48 142 62 48 88 62 48 88 62
48 88 62 48 88 62 48 88 62 48 88 62 48 88 62 48 88 38 48 106 38 62 106 38 62 106 38 62 106 38 62 106 50 62 106 50 62 124 50 62 124 50 76 124 50 76 124 62 76 124 62 76 124 62 76 142 62 76 142 62 76 142 38 90 142 38 90 142 38 90 142 38 90 88 38 90 88 50 90 88 50 90 88 50 34 88 50 34 88 50 34 106 62 34 106 62 34 106 62 34 106 62 34 106 62 48 106 38 48 124 38 48 124 38 48 124 38 48 124 38 48 124 50 48 124 50 62 142 50 62 142 50 62 142 50 62 142 62 62 142 62 62 142 62 62 88 62 76 88 62 76 88 38 76 88 38 76 88 38 76 88 38 76 106 38 76 106 50 90 106 50 90 106 50 90 106 50 90 106 50 90 124 62 90 124 62 90 124 62 34 124 62 34 124 62 34 124 38 34 142 38 34 142 38 34 142 38 34 142 38 48 142 50 48 142 50 48 88 50 48 88 50 48 88 50 48 88 62 48 88 62 62 88 62 62 106 62 62 106 62 62 106 38 62 106 38 62 106 38 62 106 38 76 124 38 76 124 50 76 124 50 76 124 50 76 124 50 76 124 50 76 142 62 90 142 62 90 142 62 90 142 62 90 142 62 90 142 38 90 88 38 90 88 38 34 88 38 34 88 38 34 88 50 34 88 50 34 106 50 34 106 50 34 106 50 48 106 62 48 106 62 48 106 62 48 124 62 48 124 62 48 124 38 48 124 38 62 124 38 62 124 38 62 142 38 62 142 50 62 142 50 62 142 50 62 142 50 76 142 50 76 88 62 76 88 62 76 88 62 76 88 62 76 88 62 76 88 38 90 106 38 90 106 38 90 106 38 90 106 38 90 106 50 90 106 50 90 124 50 34 124 50 34 124 50 34 124 62 34 124 62 34 124 62 34 142 62 34 142 62 48 142 38 48 142 38 48 142 38 48 142 38 48 88 38 48 88 50 48 88 50 62 88 50 62 88 50 62 88 50 62 106 62 62 106 62 62 106 62 62 106 62 76 106 62 76 106 38 76 124 38 76 124 38 76 124 38 76 124 38 76 124 50 90 124 50 90 142 50 90 142 50 90 142 50 90 142 62 90 142 62 90 142 62 34 88 62 34 88 62 34 88 38 34 88 38 34 88 38 34 88 38 34 106 38 48 106 50 48 106 50 48 106 50 48 106 50 48 106 50 48 124 62 48 124 62 62 124 62 62 124 62 62 124 62 62 124 38 62 142 38 62 142 38 62 142 38 76 142 38 76 142 50 76 142 50 76 88 50 76 88 50 76 88 50 76 88 62 90 88 62 90 88 62 90 106 62 90 106 62 90 106 38 90 106 38 90 106 38 34 106 38 34 124 38 34 124 50 34 124 50 34 124 50 34 124 50 34 124 50 48 142 62 48 142 62 48 142 62 48 142 62 48 142 62 48 142 38 48 88 38 62 88 38 62 88 38 62 88 38 62 88 50 62 88 50 62 106 50 62 106 50 76 106 50 76 106 62 76 106 62 76 106 62 76 124 62 76 124 62 76 124 38 90 124 38 90 124 38 90 124 38 90 142 38 90 142 50 90 142 50 90 142 50 34 142 50 34 142 50 34 88 62 34 88 62 34 88 62 34 88 62 34 88 62 48 88 38 48 106 38 48 106 38 48 106 38 48 106 38 48 106 50 48 106 50 62 124 50 62 124 50 62 124 50 62 124 62 62 124 62 62 124 62 62 142 62 76 142 62 76 142 38 76 142 38 76 142 38 76 142 38 76 88 38 76 88 50 90 88 50 90 88 50 90 88 50 90 88 50 90 106 62 90 106 62 90 106 62 34 106 62 34 106 62 34 106 38 34 124 38 34 124 38 34 124 38 34 124 38 48 124 50 48 124 50 48 142 50 48 142 50 48 142 50 48 142 62 48 142 62 62 142 62 62 88 62 62 88 62 62 88 38 62 88 38 62 88 38 62 88 38 76 106 38 76 106 50 76 106 50 76 106 50 76 106 50 76 106 50 76 124 62 90 124 62 90 124 62 90 124 62 90 124 62 90 124 38 90 142 38 90 142 38 34 142 38 34 142 38 34 142 50 34 142 50 34 88 50 34 88 50 34 88 50 48 88 62 48 88 62 48 88 62 48 106 62 48 106 62
48 88 62 48 88 62 48 88 62 48 88 62 48 88 62 48 88 38 48 106 38 62 106 38 62 106 38 62 106 38 62 106 50 62 106 50 62 124 50 62 124 50 76 124 50 76 124 62 76 124 62 76 124 62 76 142 62 76 142 62 76 142 38 90 142 38 90 142 38 90 142 38 90 88 38 90 88 50 90 88 50 90 88 50 34 88 50 34 88 50 34 106 62 34 106 62 34 106 62 34 106 62 34 106 62 48 106 38 48 124 38 48 124 38 48 124 38 48 124 38 48 124 50 48 124 50 62 142 50 62 142 50 62 142 50 62 142 62 62 142 62 62 142 62 62 88 62 76 88 62 76 88 38 76 88 38 76 88 38 76 88 38 76 106 38 76 106 50 90 106 50 90 106 50 90 106 50 90 106 50 90 124 62 90 124 62 90 124 62 34 124 62 34 124 62 34 124 38 34 142 38 34 142 38 34 142 38 34 142 38 48 142 50 48 142 50 48 88 50 48 88 50 48 88 50 48 88 62 48 88 62 62 88 62 62 106 62 62 106 62 62 106 38 62 106 38 62 106 38 62 106 38 76 124 38 76 124 50 76 124 50 76 124 50 76 124 50 76 124 50 76 142 62 90 142 62 90 142 62 90 142 62 90 142 62 90 142 38 90 88 38 90 88 38 34 88 38 34 88 38 34 88 50 34 88 50 34 106 50 34 106 50 34 106 50 48 106 62 48 106 62 48 106 62 48 124 62 48 124 62 48 124 38 48 124 38 62 124 38 62 124 38 62 142 38 62 142 50 62 142 50 62 142 50 62 142 50 76 142 50 76 88 62 76 88 62 76 88 62 76 88 62 76 88 62 76 88 38 90 106 38 90 106 38 90 106 38 90 106 38 90 106 50 90 106 50 90 124 50 34 124 50 34 124 50 34 124 62 34 124 62 34 124 62 34 142 62 34 142 62 48 142 38 48 142 38 48 142 38 48 142 38 48 88 38 48 88 50 48 88 50 62 88 50 62 88 50 62 88 50 62 106 62 62 106 62 62 106 62 62 106 62 76 106 62 76 106 38 76 124 38 76 124 38 76 124 38 76 124 38 76 124 50 90 124 50 90 142 50 90 142 50 90 142 50 90 142 62 90 142 62 90 142 62 34 88 62 34 88 62 34 88 38 34 88 38 34 88 38 34 88 38 34 106 38 48 106 50 48 106 50 48 106 50 48 106 50 48 106 50 48 124 62 48 124 62 62 124 62 62 124 62 62 124 62 62 124 38 62 142 38 62 142 38 62 142 38 76 142 38 76 142 50 76 142 50 76 88 50 76 88 50 76 88 50 76 88 62 90 88 62 90 88 62 90 106 62 90 106 62 90 106 38 90 106 38 90 106 38 34 106 38 34 124 38 34 124 50 34 124 50 34 124 50 34 124 50 34 124 50 48 142 62 48 142 62 48 142 62 48 142 62 48 142 62 48 142 38 48 88 38 62 88 38 62 88 38 62 88 38 62 88 50 62 88 50 62 106 50 62 106 50 76 106 50 76 106 62 76 106 62 76 106 62 76 124 62 76 124 62 76 124 38 90 124 38 90 124 38 90 124 38 90 142 38 90 142 50 90 142 50 90 142 50 34 142 50 34 142 50 34 88 62 34 88 62 34 88 62 34 88 62 34 88 62 48 88 38 48 106 38 48 106 38 48 106 38 48 106 38 48 106 50 48 106 50 62 124 50 62 124 50 62 124 50 62 124 62 62 124 62 62 124 62 62 142 62 76 142 62 76 142 38 76 142 38 76 142 38 76 142 38 76 88 38 76 88 50 90 88 50 90 88 50 90 88 50 90 88 50 90 106 62 90 106 62 90 106 62 34 106 62 34 106 62 34 106 38 34 124 38 34 124 38 34 124 38 34 124 38 48 124 50 48 124 50 48 142 50 48 142 50 48 142 50 48 142 62 48 142 62 62 142 62 62 88 62 62 88 62 62 88 38 62 88 38 62 88 38 62 88 38 76 106 38 76 106 50 76 106 50 76 106 50 76 106 50 76 106 50 76 124 62 90 124 62 90 124 62 90 124 62 90 124 62 90 124 38 90 142 38 90 142 38 34 142 38 34 142 38 34 142 50 34 142 50 34 88 50 34 88 50 34 88 50 48 88 62 48 88 62 48 88 62 48 106 62 48 106 62
62 88 62 62 88 62 62 88 62 62 88 62 62 88 62 62 88 38 62 106 38 76 106 38 76 106 38 76 106 38 76 106 50 76 106 50 76 124 50 76 124 50 90 124 50 90 124 62 90 124 62 90 124 62 90 142 62 90 142 62 90 142 38 34 142 38 34 142 38 34 142 38 34 88 38 34 88 50 34 88 50 34 88 50 48 88 50 48 88 50 48 106 62 48 106 62 48 106 62 48 106 62 48 106 62 62 106 38 62 124 38 62 124 38 62 124 38 62 124 38 62 124 50 62 124 50 76 142 50 76 142 50 76 142 50 76 142 62 76 142 62 76 142 62 76 88 62 90 88 62 90 88 38 90 88 38 90 88 38 90 88 38 90 106 38 90 106 50 34 106 50 34 106 50 34 106 50 34 106 50 34 124 62 34 124 62 34 124 62 48 124 62 48 124 62 48 124 38 48 142 38 48 142 38 48 142 38 48 142 38 62 142 50 62 142 50 62 88 50 62 88 50 62 88 50 62 88 62 62 88 62 76 88 62 76 106 62 76 106 62 76 106 38 76 106 38 76 106 38 76 106 38 90 124 38 90 124 50 90 124 50 90 124 50 90 124 50 90 124 50 90 142 62 34 142 62 34 142 62 34 142 62 34 142 62 34 142 38 34 88 38 34 88 38 48 88 38 48 88 38 48 88 50 48 88 50 48 106 50 48 106 50 48 106 50 62 106 62 62 106 62 62 106 62 62 124 62 62 124 62 62 124 38 62 124 38 76 124 38 76 124 38 76 142 38 76 142 50 76 142 50 76 142 50 76 142 50 90 142 50 90 88 62 90 88 62 90 88 62 90 88 62 90 88 62 90 88 38 34 106 38 34 106 38 34 106 38 34 106 38 34 106 50 34 106 50 34 124 50 48 124 50 48 124 50 48 124 62 48 124 62 48 124 62 48 142 62 48 142 62 62 142 38 62 142 38 62 142 38 62 142 38 62 88 38 62 88 50 62 88 50 76 88 50 76 88 50 76 88 50 76 106 62 76 106 62 76 106 62 76 106 62 90 106 62 90 106 38 90 124 38 90 124 38 90 124 38 90 124 38 90 124 50 34 124 50 34 142 50 34 142 50 34 142 50 34 142 62 34 142 62 34 142 62 48 88 62 48 88 62 48 88 38 48 88 38 48 88 38 48 88 38 48 106 38 62 106 50 62 106 50 62 106 50 62 106 50 62 106 50 62 124 62 62 124 62 76 124 62 76 124 62 76 124 62 76 124 38 76 142 38 76 142 38 76 142 38 90 142 38 90 142 50 90 142 50 90 88 50 90 88 50 90 88 50 90 88 62 34 88 62 34 88 62 34 106 62 34 106 62 34 106 38 34 106 38 34 106 38 48 106 38 48 124 38 48 124 50 48 124 50 48 124 50 48 124 50 48 124 50 62 142 62 62 142 62 62 142 62 62 142 62 62 142 62 62 142 38 62 88 38 76 88 38 76 88 38 76 88 38 76 88 50 76 88 50 76 106 50 76 106 50 90 106 50 90 106 62 90 106 62 90 106 62 90 124 62 90 124 62 90 124 38 34 124 38 34 124 38 34 124 38 34 142 38 34 142 50 34 142 50 34 142 50 48 142 50 48 142 50 48 88 62 48 88 62 48 88 62 48 88 62 48 88 62 62 88 38 62 106 38 62 106 38 62 106 38 62 106 38 62 106 50 62 106 50 76 124 50 76 124 50 76 124 50 76 124 62 76 124 62 76 124 62 76 142 62 90 142 62 90 142 38 90 142 38 90 142 38 90 142 38 90 88 38 90 88 50 34 88 50 34 88 50 34 88 50 34 88 50 34 106 62 34 106 62 34 106 62 48 106 62 48 106 62 48 106 38 48 124 38 48 124 38 48 124 38 48 124 38 62 124 50 62 124 50 62 142 50 62 142 50 62 142 50 62 142 62 62 142 62 76 142 62 76 88 62 76 88 62 76 88 38 76 88 38 76 88 38 76 88 38 90 106 38 90 106 50 90 106 50 90 106 50 90 106 50 90 106 50 90 124 62 34 124 62 34 124 62 34 124 62 34 124 62 34 124 38 34 142 38 34 142 38 48 142 38 48 142 38 48 142 50 48 142 50 48 88 50 48 88 50 48 88 50 62 88 62 62 88 62 62 88 62 62 106 62 62 106 62
62 88 62 62 88 62 62 88 62 62 88 62 62 88 62 62 88 38 62 106 38 76 106 38 76 106 38 76 106 38 76 106 50 76 106 50 76 124 50 76 124 50 90 124 50 90 124 62 90 124 62 90 124 62 90 142 62 90 142 62 90 142 38 34 142 38 34 142 38 34 142 38 34 88 38 34 88 50 34 88 50 34 88 50 48 88 50 48 88 50 48 106 62 48 106 62 48 106 62 48 106 62 48 106 62 62 106 38 62 124 38 62 124 38 62 124 38 62 124 38 62 124 50 62 124 50 76 142 50 76 142 50 76 142 50 76 142 62 76 142 62 76 142 62 76 88 62 90 88 62 90 88 38 90 88 38 90 88 38 90 88 38 90 106 38 90 106 50 34 106 50 34 106 50 34 106 50 34 106 50 34 124 62 34 124 62 34 124 62 48 124 62 48 124 62 48 124 38 48 142 38 48 142 38 48 142 38 48 142 38 62 142 50 62 142 50 62 88 50 62 88 50 62 88 50 62 88 62 62 88 62 76 88 62 76 106 62 76 106 62 76 106 38 76 106 38 76 106 38 76 106 38 90 124 38 90 124 50 90 124 50 90 124 50 90 124 50 90 124 50 90 142 62 34 142 62 34 142 62 34 142 62 34 142 62 34 142 38 34 88 38 34 88 38 48 88 38 48 88 38 48 88 50 48 88 50 48 106 50 48 106 50 48 106 50 62 106 62 62 106 62 62 106 62 62 124 62 62 124 62 62 124 38 62 124 38 76 124 38 76 124 38 76 142 38 76 142 50 76 142 50 76 142 50 76 142 50 90 142 50 90 88 62 90 88 62 90 88 62 90 88 62 90 88 62 90 88 38 34 106 38 34 106 38 34 106 38 34 106 38 34 106 50 34 106 50 34 124 50 48 124 50 48 124 50 48 124 62 48 124 62 48 124 62 48 142 62 48 142 62 62 142 38 62 142 38 62 142 38 62 142 38 62 88 38 62 88 50 62 88 50 76 88 50 76 88 50 76 88 50 76 106 62 76 106 62 76 106 62 76 106 62 90 106 62 90 106 38 90 124 38 90 124 38 90 124 38 90 124 38 90 124 50 34 124 50 34 142 50 34 142 50 34 142 50 34 142 62 34 142 62 34 142 62 48 88 62 48 88 62 48 88 38 48 88 38 48 88 38 48 88 38 48 106 38 62 106 50 62 106 50 62 106 50 62 106 50 62 106 50 62 124 62 62 124 62 76 124 62 76 124 62 76 124 62 76 124 38 76 142 38 76 142 38 76 142 38 90 142 38 90 142 50 90 142 50 90 88 50 90 88 50 90 88 50 90 88 62 34 88 62 34 88 62 34 106 62 34 106 62 34 106 38 34 106 38 34 106 38 48 106 38 48 124 38 48 124 50 48 124 50 48 124 50 48 124 50 48 124 50 62 142 62 62 142 62 62 142 62 62 142 62 62 142 62 62 142 38 62 88 38 76 88 38 76 88 38 76 88 38 76 88 50 76 88 50 76 106 50 76 106 50 90 106 50 90 106 62 90 106 62 90 106 62 90 124 62 90 124 62 90 124 38 34 124 38 34 124 38 34 124 38 34 142 38 34 142 50 34 142 50 34 142 50 48 142 50 48 142 50 48 88 62 48 88 62 48 88 62 48 88 62 48 88 62 62 88 38 62 106 38 62 106 38 62 106 38 62 106 38 62 106 50 62 106 50 76 124 50 76 124 50 76 124 50 76 124 62 76 124 62 76 124 62 76 142 62 90 142 62 90 142 38 90 142 38 90 142 38 90 142 38 90 88 38 90 88 50 34 88 50 34 88 50 34 88 50 34 88 50 34 106 62 34 106 62 34 106 62 48 106 62 48 106 62 48 106 38 48 124 38 48 124 38 48 124 38 48 124 38 62 124 50 62 124 50 62 142 50 62 142 50 62 142 50 62 142 62 62 142 62 76 142 62 76 88 62 76 88 62 76 88 38 76 88 38 76 88 38 76 88 38 90 106 38 90 106 50 90 106 50 90 106 50 90 106 50 90 106 50 90 124 62 34 124 62 34 124 62 34 124 62 34 124 62 34 124 38 34 142 38 34 142 38 48 142 38 48 142 38 48 142 50 48 142 50 48 88 50 48 88 50 48 88 50 62 88 62 62 88 62 62 88 62 62 106 62 62 106 62
62 88 38 62 88 38 62 88 38 62 88 38 62 88 38 62 88 50 62 106 50 76 106 50 76 106 50 76 106 50 76 106 62 76 106 62 76 124 62 76 124 62 90 124 62 90 124 38 90 124 38 90 124 38 90 142 38 90 142 38 90 142 50 34 142 50 34 142 50 34 142 50 34 88 50 34 88 62 34 88 62 34 88 62 48 88 62 48 88 62 48 106 38 48 106 38 48 106 38 48 106 38 48 106 38 62 106 50 62 124 50 62 124 50 62 124 50 62 124 50 62 124 62 62 124 62 76 142 62 76 142 62 76 142 62 76 142 38 76 142 38 76 142 38 76 88 38 90 88 38 90 88 50 90 88 50 90 88 50 90 88 50 90 106 50 90 106 62 34 106 62 34 106 62 34 106 62 34 106 62 34 124 38 34 124 38 34 124 38 48 124 38 48 124 38 48 124 50 48 142 50 48 142 50 48 142 50 48 142 50 62 142 62 62 142 62 62 88 62 62 88 62 62 88 62 62 88 38 62 88 38 76 88 38 76 106 38 76 106 38 76 106 50 76 106 50 76 106 50 76 106 50 90 124 50 90 124 62 90 124 62 90 124 62 90 124 62 90 124 62 90 142 38 34 142 38 34 142 38 34 142 38 34 142 38 34 142 50 34 88 50 34 88 50 48 88 50 48 88 50 48 88 62 48 88 62 48 106 62 48 106 62 48 106 62 62 106 38 62 106 38 62 106 38 62 124 38 62 124 38 62 124 50 62 124 50 76 124 50 76 124 50 76 142 50 76 142 62 76 142 62 76 142 62 76 142 62 90 142 62 90 88 38 90 88 38 90 88 38 90 88 38 90 88 38 90 88 50 34 106 50 34 106 50 34 106 50 34 106 50 34 106 62 34 106 62 34 124 62 48 124 62 48 124 62 48 124 38 48 124 38 48 124 38 48 142 38 48 142 38 62 142 50 62 142 50 62 142 50 62 142 50 62 88 50 62 88 62 62 88 62 76 88 62 76 88 62 76 88 62 76 106 38 76 106 38 76 106 38 76 106 38 90 106 38 90 106 50 90 124 50 90 124 50 90 124 50 90 124 50 90 124 62 34 124 62 34 142 62 34 142 62 34 142 62 34 142 38 34 142 38 34 142 38 48 88 38 48 88 38 48 88 50 48 88 50 48 88 50 48 88 50 48 106 50 62 106 62 62 106 62 62 106 62 62 106 62 62 106 62 62 124 38 62 124 38 76 124 38 76 124 38 76 124 38 76 124 50 76 142 50 76 142 50 76 142 50 90 142 50 90 142 62 90 142 62 90 88 62 90 88 62 90 88 62 90 88 38 34 88 38 34 88 38 34 106 38 34 106 38 34 106 50 34 106 50 34 106 50 48 106 50 48 124 50 48 124 62 48 124 62 48 124 62 48 124 62 48 124 62 62 142 38 62 142 38 62 142 38 62 142 38 62 142 38 62 142 50 62 88 50 76 88 50 76 88 50 76 88 50 76 88 62 76 88 62 76 106 62 76 106 62 90 106 62 90 106 38 90 106 38 90 106 38 90 124 38 90 124 38 90 124 50 34 124 50 34 124 50 34 124 50 34 142 50 34 142 62 34 142 62 34 142 62 48 142 62 48 142 62 48 88 38 48 88 38 48 88 38 48 88 38 48 88 38 62 88 50 62 106 50 62 106 50 62 106 50 62 106 50 62 106 62 62 106 62 76 124 62 76 124 62 76 124 62 76 124 38 76 124 38 76 124 38 76 142 38 90 142 38 90 142 50 90 142 50 90 142 50 90 142 50 90 88 50 90 88 62 34 88 62 34 88 62 34 88 62 34 88 62 34 106 38 34 106 38 34 106 38 48 106 38 48 106 38 48 106 50 48 124 50 48 124 50 48 124 50 48 124 50 62 124 62 62 124 62 62 142 62 62 142 62 62 142 62 62 142 38 62 142 38 76 142 38 76 88 38 76 88 38 76 88 50 76 88 50 76 88 50 76 88 50 90 106 50 90 106 62 90 106 62 90 106 62 90 106 62 90 106 62 90 124 38 34 124 38 34 124 38 34 124 38 34 124 38 34 124 50 34 142 50 34 142 50 48 142 50 48 142 50 48 142 62 48 142 62 48 88 62 48 88 62 48 88 62 62 88 38 62 88 38 62 88 38 62 106 38 62 106 38
62 88 38 62 88 38 62 88 38 62 88 38 62 88 38 62 88 50 62 106 50 76 106 50 76 106 50 76 106 50 76 106 62 76 106 62 76 124 62 76 124 62 90 124 62 90 124 38 90 124 38 90 124 38 90 142 38 90 142 38 90 142 50 34 142 50 34 142 50 34 142 50 34 88 50 34 88 62 34 88 62 34 88 62 48 88 62 48 88 62 48 106 38 48 106 38 48 106 38 48 106 38 48 106 38 62 106 50 62 124 50 62 124 50 62 124 50 62 124 50 62 124 62 62 124 62 76 142 62 76 142 62 76 142 62 76 142 38 76 142 38 76 142 38 76 88 38 90 88 38 90 88 50 90 88 50 90 88 50 90 88 50 90 106 50 90 106 62 34 106 62 34 106 62 34 106 62 34 106 62 34 124 38 34 124 38 34 124 38 48 124 38 48 124 38 48 124 50 48 142 50 48 142 50 48 142 50 48 142 50 62 142 62 62 142 62 62 88 62 62 88 62 62 88 62 62 88 38 62 88 38 76 88 38 76 106 38 76 106 38 76 106 50 76 106 50 76 106 50 76 106 50 90 124 50 90 124 62 90 124 62 90 124 62 90 124 62 90 124 62 90 142 38 34 142 38 34 142 38 34 142 38 34 142 38 34 142 50 34 88 50 34 88 50 48 88 50 48 88 50 48 88 62 48 88 62 48 106 62 48 106 62 48 106 62 62 106 38 62 106 38 62 106 38 62 124 38 62 124 38 62 124 50 62 124 50 76 124 50 76 124 50 76 142 50 76 142 62 76 142 62 76 142 62 76 142 62 90 142 62 90 88 38 90 88 38 90 88 38 90 88 38 90 88 38 90 88 50 34 106 50 34 106 50 34 106 50 34 106 50 34 106 62 34 106 62 34 124 62 48 124 62 48 124 62 48 124 38 48 124 38 48 124 38 48 142 38 48 142 38 62 142 50 62 142 50 62 142 50 62 142 50 62 88 50 62 88 62 62 88 62 76 88 62 76 88 62 76 88 62 76 106 38 76 106 38 76 106 38 76 106 38 90 106 38 90 106 50 90 124 50 90 124 50 90 124 50 90 124 50 90 124 62 34 124 62 34 142 62 34 142 62 34 142 62 34 142 38 34 142 38 34 142 38 48 88 38 48 88 38 48 88 50 48 88 50 48 88 50 48 88 50 48 106 50 62 106 62 62 106 62 62 106 62 62 106 62 62 106 62 62 124 38 62 124 38 76 124 38 76 124 38 76 124 38 76 124 50 76 142 50 76 142 50 76 142 50 90 142 50 90 142 62 90 142 62 90 88 62 90 88 62 90 88 62 90 88 38 34 88 38 34 88 38 34 106 38 34 106 38 34 106 50 34 106 50 34 106 50 48 106 50 48 124 50 48 124 62 48 124 62 48 124 62 48 124 62 48 124 62 62 142 38 62 142 38 62 142 38 62 142 38 62 142 38 62 142 50 62 88 50 76 88 50 76 88 50 76 88 50 76 88 62 76 88 62 76 106 62 76 106 62 90 106 62 90 106 38 90 106 38 90 106 38 90 124 38 90 124 38 90 124 50 34 124 50 34 124 50 34 124 50 34 142 50 34 142 62 34 142 62 34 142 62 48 142 62 48 142 62 48 88 38 48 88 38 48 88 38 48 88 38 48 88 38 62 88 50 62 106 50 62 106 50 62 106 50 62 106 50 62 106 62 62 106 62 76 124 62 76 124 62 76 124 62 76 124 38 76 124 38 76 124 38 76 142 38 90 142 38 90 142 50 90 142 50 90 142 50 90 142 50 90 88 50 90 88 62 34 88 62 34 88 62 34 88 62 34 88 62 34 106 38 34 106 38 34 106 38 48 106 38 48 106 38 48 106 50 48 124 50 48 124 50 48 124 50 48 124 50 62 124 62 62 124 62 62 142 62 62 142 62 62 142 62 62 142 38 62 142 38 76 142 38 76 88 38 76 88 38 76 88 50 76 88 50 76 88 50 76 88 50 90 106 50 90 106 62 90 106 62 90 106 62 90 106 62 90 106 62 90 124 38 34 124 38 34 124 38 34 124 38 34 124 38 34 124 50 34 142 50 34 142 50 48 142 50 48 142 50 48 142 62 48 142 62 48 88 62 48 88 62 48 88 62 62 88 38 62 88 38 62 88 38 62 106 38 62 106 38
62 88 38 62 88 38 62 88 38 62 88 38 62 88 38 62 88 50 62 106 50 76 106 50 76 106 50 76 106 50 76 106 62 76 106 62 76 124 62 76 124 62 90 124 62 90 124 38 90 124 38 90 124 38 90 142 38 90 142 38 90 142 50 34 142 50 34 142 50 34 142 50 34 88 50 34 88 62 34 88 62 34 88 62 48 88 62 48 88 62 48 106 38 48 106 38 48 106 38 48 106 38 48 106 38 62 106 50 62 124 50 62 124 50 62 124 50 62 124 50 62 124 62 62 124 62 76 142 62 76 142 62 76 142 62 76 142 38 76 142 38 76 142 38 76 88 38 90 88 38 90 88 50 90 88 50 90 88 50 90 88 50 90 106 50 90 106 62 34 106 62 34 106 62 34 106 62 34 106 62 34 124 38 34 124 38 34 124 38 48 124 38 48 124 38 48 124 50 48 142 50 48 142 50 48 142 50 48 142 50 62 142 62 62 142 62 62 88 62 62 88 62 62 88 62 62 88 38 62 88 38 76 88 38 76 106 38 76 106 38 76 106 50 76 106 50 76 106 50 76 106 50 90 124 50 90 124 62 90 124 62 90 124 62 90 124 62 90 124 62 90 142 38 34 142 38 34 142 38 34 142 38 34 142 38 34 142 50 34 88 50 34 88 50 48 88 50 48 88 50 48 88 62 48 88 62 48 106 62 48 106 62 48 106 62 62 106 38 62 106 38 62 106 38 62 124 38 62 124 38 62 124 50 62 124 50 76 124 50 76 124 50 76 142 50 76 142 62 76 142 62 76 142 62 76 142 62 90 142 62 90 88 38 90 88 38 90 88 38 90 88 38 90 88 38 90 88 50 34 106 50 34 106 50 34 106 50 34 106 50 34 106 62 34 106 62 34 124 62 48 124 62 48 124 62 48 124 38 48 124 38 48 124 38 48 142 38 48 142 38 62 142 50 62 142 50 62 142 50 62 142 50 62 88 50 62 88 62 62 88 62 76 88 62 76 88 62 76 88 62 76 106 38 76 106 38 76 106 38 76 106 38 90 106 38 90 106 50 90 124 50 90 124 50 90 124 50 90 124 50 90 124 62 34 124 62 34 142 62 34 142 62 34 142 62 34 142 38 34 142 38 34 142 38 48 88 38 48 88 38 48 88 50 48 88 50 48 88 50 48 88 50 48 106 50 62 106 62 62 106 62 62 106 62 62 106 62 62 106 62 62 124 38 62 124 38 76 124 38 76 124 38 76 124 38 76 124 50 76 142 50 76 142 50 76 142 50 90 142 50 90 142 62 90 142 62 90 88 62 90 88 62 90 88 62 90 88 38 34 88 38 34 88 38 34 106 38 34 106 38 34 106 50 34 106 50 34 106 50 48 106 50 48 124 50 48 124 62 48 124 62 48 124 62 48 124 62 48 124 62 62 142 38 62 142 38 62 142 38 62 142 38 62 142 38 62 142 50 62 88 50 76 88 50 76 88 50 76 88 50 76 88 62 76 88 62 76 106 62 76 106 62 90 106 62 90 106 38 90 106 38 90 106 38 90 124 38 90 124 38 90 124 50 34 124 50 34 124 50 34 124 50 34 142 50 34 142 62 34 142 62 34 142 62 48 142 62 48 142 62 48 88 38 48 88 38 48 88 38 48 88 38 48 88 38 62 88 50 62 106 50 62 106 50 62 106 50 62 106 50 62 106 62 62 106 62 76 124 62 76 124 62 76 124 62 76 124 38 76 124 38 76 124 38 76 142 38 90 142 38 90 142 50 90 142 50 90 142 50 90 142 50 90 88 50 90 88 62 34 88 62 34 88 62 34 88 62 34 88 62 34 106 38 34 106 38 34 106 38 48 106 38 48 106 38 48 106 50 48 124 50 48 124 50 48 124 50 48 124 50 62 124 62 62 124 62 62 142 62 62 142 62 62 142 62 62 142 38 62 142 38 76 142 38 76 88 38 76 88 38 76 88 50 76 88 50 76 88 50 76 88 50 90 106 50 90 106 62 90 106 62 90 106 62 90 106 62 90 106 62 90 124 38 34 124 38 34 124 38 34 124 38 34 124 38 34 124 50 34 142 50 34 142 50 48 142 50 48 142 50 48 142 62 48 142 62 48 88 62 48 88 62 48 88 62 62 88 38 62 88 38 62 88 38 62 106 38 62 106 38
76 106 38 76 106 38 76 106 38 76 106 38 76 106 38 76 106 50 76 124 50 90 124 50 90 124 50 90 124 50 90 124 62 90 124 62 90 142 62 90 142 62 34 142 62 34 142 38 34 142 38 34 142 38 34 88 38 34 88 38 34 88 50 48 88 50 48 88 50 48 88 50 48 106 50 48 106 62 48 106 62 48 106 62 62 106 62 62 106 62 62 124 38 62 124 38 62 124 38 62 124 38 62 124 38 76 124 50 76 142 50 76 142 50 76 142 50 76 142 50 76 142 62 76 142 62 90 88 62 90 88 62 90 88 62 90 88 38 90 88 38 90 88 38 90 106 38 34 106 38 34 106 50 34 106 50 34 106 50 34 106 50 34 124 50 34 124 62 48 124 62 48 124 62 48 124 62 48 124 62 48 142 38 48 142 38 48 142 38 62 142 38 62 142 38 62 142 50 62 88 50 62 88 50 62 88 50 62 88 50 76 88 62 76 88 62 76 106 62 76 106 62 76 106 62 76 106 38 76 106 38 90 106 38 90 124 38 90 124 38 90 124 50 90 124 50 90 124 50 90 124 50 34 142 50 34 142 62 34 142 62 34 142 62 34 142 62 34 142 62 34 88 38 48 88 38 48 88 38 48 88 38 48 88 38 48 88 50 48 106 50 48 106 50 62 106 50 62 106 50 62 106 62 62 106 62 62 124 62 62 124 62 62 124 62 76 124 38 76 124 38 76 124 38 76 142 38 76 142 38 76 142 50 76 142 50 90 142 50 90 142 50 90 88 50 90 88 62 90 88 62 90 88 62 90 88 62 34 88 62 34 106 38 34 106 38 34 106 38 34 106 38 34 106 38 34 106 50 48 124 50 48 124 50 48 124 50 48 124 50 48 124 62 48 124 62 48 142 62 62 142 62 62 142 62 62 142 38 62 142 38 62 142 38 62 88 38 62 88 38 76 88 50 76 88 50 76 88 50 76 88 50 76 106 50 76 106 62 76 106 62 90 106 62 90 106 62 90 106 62 90 124 38 90 124 38 90 124 38 90 124 38 34 124 38 34 124 50 34 142 50 34 142 50 34 142 50 34 142 50 34 142 62 48 142 62 48 88 62 48 88 62 48 88 62 48 88 38 48 88 38 48 88 38 62 106 38 62 106 38 62 106 50 62 106 50 62 106 50 62 106 50 62 124 50 76 124 62 76 124 62 76 124 62 76 124 62 76 124 62 76 142 38 76 142 38 90 142 38 90 142 38 90 142 38 90 142 50 90 88 50 90 88 50 90 88 50 34 88 50 34 88 62 34 88 62 34 106 62 34 106 62 34 106 62 34 106 38 48 106 38 48 106 38 48 124 38 48 124 38 48 124 50 48 124 50 48 124 50 62 124 50 62 142 50 62 142 62 62 142 62 62 142 62 62 142 62 62 142 62 76 88 38 76 88 38 76 88 38 76 88 38 76 88 38 76 88 50 76 106 50 90 106 50 90 106 50 90 106 50 90 106 62 90 106 62 90 124 62 90 124 62 34 124 62 34 124 38 34 124 38 34 124 38 34 142 38 34 142 38 34 142 50 48 142 50 48 142 50 48 142 50 48 88 50 48 88 62 48 88 62 48 88 62 62 88 62 62 88 62 62 106 38 62 106 38 62 106 38 62 106 38 62 106 38 76 106 50 76 124 50 76 124 50 76 124 50 76 124 50 76 124 62 76 124 62 90 142 62 90 142 62 90 142 62 90 142 38 90 142 38 90 142 38 90 88 38 34 88 38 34 88 50 34 88 50 34 88 50 34 88 50 34 106 50 34 106 62 48 106 62 48 106 62 48 106 62 48 106 62 48 124 38 48 124 38 48 124 38 62 124 38 62 124 38 62 124 50 62 142 50 62 142 50 62 142 50 62 142 50 76 142 62 76 142 62 76 88 62 76 88 62 76 88 62 76 88 38 76 88 38 90 88 38 90 106 38 90 106 38 90 106 50 90 106 50 90 106 50 90 106 50 34 124 50 34 124 62 34 124 62 34 124 62 34 124 62 34 124 62 34 142 38 48 142 38 48 142 38 48 142 38 48 142 38 48 142 50 48 88 50 48 88 50 62 88 50 62 88 50 62 88 62 62 88 62 62 106 62 62 106 62 62 106 62 76 106 38 76 106 38 76 106 38 76 124 38 76 124 38
76 106 38 76 106 38 76 106 38 76 106 38 76 106 38 76 106 50 76 124 50 90 124 50 90 124 50 90 124 50 90 124 62 90 124 62 90 142 62 90 142 62 34 142 62 34 142 38 34 142 38 34 142 38 34 88 38 34 88 38 34 88 50 48 88 50 48 88 50 48 88 50 48 106 50 48 106 62 48 106 62 48 106 62 62 106 62 62 106 62 62 124 38 62 124 38 62 124 38 62 124 38 62 124 38 76 124 50 76 142 50 76 142 50 76 142 50 76 142 50 76 142 62 76 142 62 90 88 62 90 88 62 90 88 62 90 88 38 90 88 38 90 88 38 90 106 38 34 106 38 34 106 50 34 106 50 34 106 50 34 106 50 34 124 50 34 124 62 48 124 62 48 124 62 48 124 62 48 124 62 48 142 38 48 142 38 48 142 38 62 142 38 62 142 38 62 142 50 62 88 50 62 88 50 62 88 50 62 88 50 76 88 62 76 88 62 76 106 62 76 106 62 76 106 62 76 106 38 76 106 38 90 106 38 90 124 38 90 124 38 90 124 50 90 124 50 90 124 50 90 124 50 34 142 50 34 142 62 34 142 62 34 142 62 34 142 62 34 142 62 34 88 38 48 88 38 48 88 38 48 88 38 48 88 38 48 88 50 48 106 50 48 106 50 62 106 50 62 106 50 62 106 62 62 106 62 62 124 62 62 124 62 62 124 62 76 124 38 76 124 38 76 124 38 76 142 38 76 142 38 76 142 50 76 142 50 90 142 50 90 142 50 90 88 50 90 88 62 90 88 62 90 88 62 90 88 62 34 88 62 34 106 38 34 106 38 34 106 38 34 106 38 34 106 38 34 106 50 48 124 50 48 124 50 48 124 50 48 124 50 48 124 62 48 124 62 48 142 62 62 142 62 62 142 62 62 142 38 62 142 38 62 142 38 62 88 38 62 88 38 76 88 50 76 88 50 76 88 50 76 88 50 76 106 50 76 106 62 76 106 62 90 106 62 90 106 62 90 106 62 90 124 38 90 124 38 90 124 38 90 124 38 34 124 38 34 124 50 34 142 50 34 142 50 34 142 50 34 142 50 34 142 62 48 142 62 48 88 62 48 88 62 48 88 62 48 88 38 48 88 38 48 88 38 62 106 38 62 106 38 62 106 50 62 106 50 62 106 50 62 106 50 62 124 50 76 124 62 76 124 62 76 124 62 76 124 62 76 124 62 76 142 38 76 142 38 90 142 38 90 142 38 90 142 38 90 142 50 90 88 50 90 88 50 90 88 50 34 88 50 34 88 62 34 88 62 34 106 62 34 106 62 34 106 62 34 106 38 48 106 38 48 106 38 48 124 38 48 124 38 48 124 50 48 124 50 48 124 50 62 124 50 62 142 50 62 142 62 62 142 62 62 142 62 62 142 62 62 142 62 76 88 38 76 88 38 76 88 38 76 88 38 76 88 38 76 88 50 76 106 50 90 106 50 90 106 50 90 106 50 90 106 62 90 106 62 90 124 62 90 124 62 34 124 62 34 124 38 34 124 38 34 124 38 34 142 38 34 142 38 34 142 50 48 142 50 48 142 50 48 142 50 48 88 50 48 88 62 48 88 62 48 88 62 62 88 62 62 88 62 62 106 38 62 106 38 62 106 38 62 106 38 62 106 38 76 106 50 76 124 50 76 124 50 76 124 50 76 124 50 76 124 62 76 124 62 90 142 62 90 142 62 90 142 62 90 142 38 90 142 38 90 142 38 90 88 38 34 88 38 34 88 50 34 88 50 34 88 50 34 88 50 34 106 50 34 106 62 48 106 62 48 106 62 48 106 62 48 106 62 48 124 38 48 124 38 48 124 38 62 124 38 62 124 38 62 124 50 62 142 50 62 142 50 62 142 50 62 142 50 76 142 62 76 142 62 76 88 62 76 88 62 76 88 62 76 88 38 76 88 38 90 88 38 90 106 38 90 106 38 90 106 50 90 106 50 90 106 50 90 106 50 34 124 50 34 124 62 34 124 62 34 124 62 34 124 62 34 124 62 34 142 38 48 142 38 48 142 38 48 142 38 48 142 38 48 142 50 48 88 50 48 88 50 62 88 50 62 88 50 62 88 62 62 88 62 62 106 62 62 106 62 62 106 62 76 106 38 76 106 38 76 106 38 76 124 38 76 124 38
76 106 38 76 106 38 76 106 38 76 106 38 76 106 38 76 106 50 76 124 50 90 124 50 90 124 50 90 124 50 90 124 62 90 124 62 90 142 62 90 142 62 34 142 62 34 142 38 34 142 38 34 142 38 34 88 38 34 88 38 34 88 50 48 88 50 48 88 50 48 88 50 48 106 50 48 106 62 48 106 62 48 106 62 62 106 62 62 106 62 62 124 38 62 124 38 62 124 38 62 124 38 62 124 38 76 124 50 76 142 50 76 142 50 76 142 50 76 142 50 76 142 62 76 142 62 90 88 62 90 88 62 90 88 62 90 88 38 90 88 38 90 88 38 90 106 38 34 106 38 34 106 50 34 106 50 34 106 50 34 106 50 34 124 50 34 124 62 48 124 62 48 124 62 48 124 62 48 124 62 48 142 38 48 142 38 48 142 38 62 142 38 62 142 38 62 142 50 62 88 50 62 88 50 62 88 50 62 88 50 76 88 62 76 88 62 76 106 62 76 106 62 76 106 62 76 106 38 76 106 38 90 106 38 90 124 38 90 124 38 90 124 50 90 124 50 90 124 50 90 124 50 34 142 50 34 142 62 34 142 62 34 142 62 34 142 62 34 142 62 34 88 38 48 88 38 48 88 38 48 88 38 48 88 38 48 88 50 48 106 50 48 106 50 62 106 50 62 106 50 62 106 62 62 106 62 62 124 62 62 124 62 62 124 62 76 124 38 76 124 38 76 124 38 76 142 38 76 142 38 76 142 50 76 142 50 90 142 50 90 142 50 90 88 50 90 88 62 90 88 62 90 88 62 90 88 62 34 88 62 34 106 38 34 106 38 34 106 38 34 106 38 34 106 38 34 106 50 48 124 50 48 124 50 48 124 50 48 124 50 48 124 62 48 124 62 48 142 62 62 142 62 62 142 62 62 142 38 62 142 38 62 142 38 62 88 38 62 88 38 76 88 50 76 88 50 76 88 50 76 88 50 76 106 50 76 106 62 76 106 62 90 106 62 90 106 62 90 106 62 90 124 38 90 124 38 90 124 38 90 124 38 34 124 38 34 124 50 34 142 50 34 142 50 34 142 50 34 142 50 34 142 62 48 142 62 48 88 62 48 88 62 48 88 62 48 88 38 48 88 38 48 88 38 62 106 38 62 106 38 62 106 50 62 106 50 62 106 50 62 106 50 62 124 50 76 124 62 76 124 62 76 124 62 76 124 62 76 124 62 76 142 38 76 142 38 90 142 38 90 142 38 90 142 38 90 142 50 90 88 50 90 88 50 90 88 50 34 88 50 34 88 62 34 88 62 34 106 62 34 106 62 34 106 62 34 106 38 48 106 38 48 106 38 48 124 38 48 124 38 48 124 50 48 124 50 48 124 50 62 124 50 62 142 50 62 142 62 62 142 62 62 142 62 62 142 62 62 142 62 76 88 38 76 88 38 76 88 38 76 88 38 76 88 38 76 88 50 76 106 50 90 106 50 90 106 50 90 106 50 90 106 62 90 106 62 90 124 62 90 124 62 34 124 62 34 124 38 34 124 38 34 124 38 34 142 38 34 142 38 34 142 50 48 142 50 48 142 50 48 142 50 48 88 50 48 88 62 48 88 62 48 88 62 62 88 62 62 88 62 62 106 38 62 106 38 62 106 38 62 106 38 62 106 38 76 106 50 76 124 50 76 124 50 76 124 50 76 124 50 76 124 62 76 124 62 90 142 62 90 142 62 90 142 62 90 142 38 90 142 38 90 142 38 90 88 38 34 88 38 34 88 50 34 88 50 34 88 50 34 88 50 34 106 50 34 106 62 48 106 62 48 106 62 48 106 62 48 106 62 48 124 38 48 124 38 48 124 38 62 124 38 62 124 38 62 124 50 62 142 50 62 142 50 62 142 50 62 142 50 76 142 62 76 142 62 76 88 62 76 88 62 76 88 62 76 88 38 76 88 38 90 88 38 90 106 38 90 106 38 90 106 50 90 106 50 90 106 50 90 106 50 34 124 50 34 124 62 34 124 62 34 124 62 34 124 62 34 124 62 34 142 38 48 142 38 48 142 38 48 142 38 48 142 38 48 142 50 48 88 50 48 88 50 62 88 50 62 88 50 62 88 62 62 88 62 62 106 62 62 106 62 62 106 62 76 106 38 76 106 38 76 106 38 76 124 38 76 124 38
76 106 38 76 106 38 76 106 38 76 106 38 76 106 38 76 106 50 76 124 50 90 124 50 90 124 50 90 124 50 90 124 62 90 124 62 90 142 62 90 142 62 34 142 62 34 142 38 34 142 38 34 142 38 34 88 38 34 88 38 34 88 50 48 88 50 48 88 50 48 88 50 48 106 50 48 106 62 48 106 62 48 106 62 62 106 62 62 106 62 62 124 38 62 124 38 62 124 38 62 124 38 62 124 38 76 124 50 76 142 50 76 142 50 76 142 50 76 142 50 76 142 62 76 142 62 90 88 62 90 88 62 90 88 62 90 88 38 90 88 38 90 88 38 90 106 38 34 106 38 34 106 50 34 106 50 34 106 50 34 106 50 34 124 50 34 124 62 48 124 62 48 124 62 48 124 62 48 124 62 48 142 38 48 142 38 48 142 38 62 142 38 62 142 38 62 142 50 62 88 50 62 88 50 62 88 50 62 88 50 76 88 62 76 88 62 76 106 62 76 106 62 76 106 62 76 106 38 76 106 38 90 106 38 90 124 38 90 124 38 90 124 50 90 124 50 90 124 50 90 124 50 34 142 50 34 142 62 34 142 62 34 142 62 34 142 62 34 142 62 34 88 38 48 88 38 48 88 38 48 88 38 48 88 38 48 88 50 48 106 50 48 106 50 62 106 50 62 106 50 62 106 62 62 106 62 62 124 62 62 124 62 62 124 62 76 124 38 76 124 38 76 124 38 76 142 38 76 142 38 76 142 50 76 142 50 90 142 50 90 142 50 90 88 50 90 88 62 90 88 62 90 88 62 90 88 62 34 88 62 34 106 38 34 106 38 34 106 38 34 106 38 34 106 38 34 106 50 48 124 50 48 124 50 48 124 50 48 124 50 48 124 62 48 124 62 48 142 62 62 142 62 62 142 62 62 142 38 62 142 38 62 142 38 62 88 38 62 88 38 76 88 50 76 88 50 76 88 50 76 88 50 76 106 50 76 106 62 76 106 62 90 106 62 90 106 62 90 106 62 90 124 38 90 124 38 90 124 38 90 124 38 34 124 38 34 124 50 34 142 50 34 142 50 34 142 50 34 142 50 34 142 62 48 142 62 48 88 62 48 88 62 48 88 62 48 88 38 48 88 38 48 88 38 62 106 38 62 106 38 62 106 50 62 106 50 62 106 50 62 106 50 62 124 50 76 124 62 76 124 62 76 124 62 76 124 62 76 124 62 76 142 38 76 142 38 90 142 38 90 142 38 90 142 38 90 142 50 90 88 50 90 88 50 90 88 50 34 88 50 34 88 62 34 88 62 34 106 62 34 106 62 34 106 62 34 106 38 48 106 38 48 106 38 48 124 38 48 124 38 48 124 50 48 124 50 48 124 50 62 124 50 62 142 50 62 142 62 62 142 62 62 142 62 62 142 62 62 142 62 76 88 38 76 88 38 76 88 38 76 88 38 76 88 38 76 88 50 76 106 50 90 106 50 90 106 50 90 106 50 90 106 62 90 106 62 90 124 62 90 124 62 34 124 62 34 124 38 34 124 38 34 124 38 34 142 38 34 142 38 34 142 50 48 142 50 48 142 50 48 142 50 48 88 50 48 88 62 48 88 62 48 88 62 62 88 62 62 88 62 62 106 38 62 106 38 62 106 38 62 106 38 62 106 38 76 106 50 76 124 50 76 124 50 76 124 50 76 124 50 76 124 62 76 124 62 90 142 62 90 142 62 90 142 62 90 142 38 90 142 38 90 142 38 90 88 38 34 88 38 34 88 50 34 88 50 34 88 50 34 88 50 34 106 50 34 106 62 48 106 62 48 106 62 48 106 62 48 106 62 48 124 38 48 124 38 48 124 38 62 124 38 62 124 38 62 124 50 62 142 50 62 142 50 62 142 50 62 142 50 76 142 62 76 142 62 76 88 62 76 88 62 76 88 62 76 88 38 76 88 38 90 88 38 90 106 38 90 106 38 90 106 50 90 106 50 90 106 50 90 106 50 34 124 50 34 124 62 34 124 62 34 124 62 34 124 62 34 124 62 34 142 38 48 142 38 48 142 38 48 142 38 48 142 38 48 142 50 48 88 50 48 88 50 62 88 50 62 88 50 62 88 62 62 88 62 62 106 62 62 106 62 62 106 62 76 106 38 76 106 38 76 106 38 76 124 38 76 124 38
76 106 38 76 106 38 76 106 38 76 106 38 76 106 38 76 106 50 76 124 50 90 124 50 90 124 50 90 124 50 90 124 62 90 124 62 90 142 62 90 142 62 34 142 62 34 142 38 34 142 38 34 142 38 34 88 38 34 88 38 34 88 50 48 88 50 48 88 50 48 88 50 48 106 50 48 106 62 48 106 62 48 106 62 62 106 62 62 106 62 62 124 38 62 124 38 62 124 38 62 124 38 62 124 38 76 124 50 76 142 50 76 142 50 76 142 50 76 142 50 76 142 62 76 142 62 90 88 62 90 88 62 90 88 62 90 88 38 90 88 38 90 88 38 90 106 38 34 106 38 34 106 50 34 106 50 34 106 50 34 106 50 34 124 50 34 124 62 48 124 62 48 124 62 48 124 62 48 124 62 48 142 38 48 142 38 48 142 38 62 142 38 62 142 38 62 142 50 62 88 50 62 88 50 62 88 50 62 88 50 76 88 62 76 88 62 76 106 62 76 106 62 76 106 62 76 106 38 76 106 38 90 106 38 90 124 38 90 124 38 90 124 50 90 124 50 90 124 50 90 124 50 34 142 50 34 142 62 34 142 62 34 142 62 34 142 62 34 142 62 34 88 38 48 88 38 48 88 38 48 88 38 48 88 38 48 88 50 48 106 50 48 106 50 62 106 50 62 106 50 62 106 62 62 106 62 62 124 62 62 124 62 62 124 62 76 124 38 76 124 38 76 124 38 76 142 38 76 142 38 76 142 50 76 142 50 90 142 50 90 142 50 90 88 50 90 88 62 90 88 62 90 88 62 90 88 62 34 88 62 34 106 38 34 106 38 34 106 38 34 106 38 34 106 38 34 106 50 48 124 50 48 124 50 48 124 50 48 124 50 48 124 62 48 124 62 48 142 62 62 142 62 62 142 62 62 142 38 62 142 38 62 142 38 62 88 38 62 88 38 76 88 50 76 88 50 76 88 50 76 88 50 76 106 50 76 106 62 76 106 62 90 106 62 90 106 62 90 106 62 90 124 38 90 124 38 90 124 38 90 124 38 34 124 38 34 124 50 34 142 50 34 142 50 34 142 50 34 142 50 34 142 62 48 142 62 48 88 62 48 88 62 48 88 62 48 88 38 48 88 38 48 88 38 62 106 38 62 106 38 62 106 50 62 106 50 62 106 50 62 106 50 62 124 50 76 124 62 76 124 62 76 124 62 76 124 62 76 124 62 76 142 38 76 142 38 90 142 38 90 142 38 90 142 38 90 142 50 90 88 50 90 88 50 90 88 50 34 88 50 34 88 62 34 88 62 34 106 62 34 106 62 34 106 62 34 106 38 48 106 38 48 106 38 48 124 38 48 124 38 48 124 50 48 124 50 48 124 50 62 124 50 62 142 50 62 142 62 62 142 62 62 142 62 62 142 62 62 142 62 76 88 38 76 88 38 76 88 38 76 88 38 76 88 38 76 88 50 76 106 50 90 106 50 90 106 50 90 106 50 90 106 62 90 106 62 90 124 62 90 124 62 34 124 62 34 124 38 34 124 38 34 124 38 34 142 38 34 142 38 34 142 50 48 142 50 48 142 50 48 142 50 48 88 50 48 88 62 48 88 62 48 88 62 62 88 62 62 88 62 62 106 38 62 106 38 62 106 38 62 106 38 62 106 38 76 106 50 76 124 50 76 124 50 76 124 50 76 124 50 76 124 62 76 124 62 90 142 62 90 142 62 90 142 62 90 142 38 90 142 38 90 142 38 90 88 38 34 88 38 34 88 50 34 88 50 34 88 50 34 88 50 34 106 50 34 106 62 48 106 62 48 106 62 48 106 62 48 106 62 48 124 38 48 124 38 48 124 38 62 124 38 62 124 38 62 124 50 62 142 50 62 142 50 62 142 50 62 142 50 76 142 62 76 142 62 76 88 62 76 88 62 76 88 62 76 88 38 76 88 38 90 88 38 90 106 38 90 106 38 90 106 50 90 106 50 90 106 50 90 106 50 34 124 50 34 124 62 34 124 62 34 124 62 34 124 62 34 124 62 34 142 38 48 142 38 48 142 38 48 142 38 48 142 38 48 142 50 48 88 50 48 88 50 62 88 50 62 88 50 62 88 62 62 88 62 62 106 62 62 106 62 62 106 62 76 106 38 76 106 38 76 106 38 76 124 38 76 124 38
