P3
128 128
255
42 96 46 42 96 46 42 96 46 42 96 46 42 96 46 42 96 46 42 96 60 42 116 60 60 116 60 60 116 60 60 116 60 60 116 60 60 116 46 60 116 46 60 136 46 60 136 46 78 136 46 78 136 46 78 136 60 78 136 60 78 136 60 78 96 60 78 96 60 78 96 60 96 96 46 96 96 46 96 96 46 96 96 46 96 116 46 96 116 46 96 116 60 96 116 60 42 116 60 42 116 60 42 116 60 42 136 60 42 136 46 42 136 46 42 136 46 42 136 46 60 136 46 60 136 46 60 96 60 60 96 60 60 96 60 60 96 60 60 96 60 60 96 60 78 96 46 78 116 46 78 116 46 78 116 46 78 116 46 78 116 46 78 116 60 78 116 60 96 136 60 96 136 60 96 136 60 96 136 60 96 136 46 96 136 46 96 136 46 96 96 46 42 96 46 42 96 46 42 96 60 42 96 60 42 96 60 42 96 60 42 116 60 42 116 60 60 116 46 60 116 46 60 116 46 60 116 46 60 116 46 60 136 46 60 136 60 60 136 60 78 136 60 78 136 60 78 136 60 78 136 60 78 96 46 78 96 46 78 96 46 78 96 46 96 96 46 96 96 46 96 96 60 96 116 60 96 116 60 96 116 60 96 116 60 96 116 60 42 116 46 42 116 46 42 136 46 42 136 46 42 136 46 42 136 46 42 136 60 42 136 60 60 136 60 60 96 60 60 96 60 60 96 60 60 96 46 60 96 46 60 96 46 60 96 46 78 116 46 78 116 46 78 116 60 78 116 60 78 116 60 78 116 60 78 116 60 78 136 60 96 136 46 96 136 46 96 136 46 96 136 46 96 136 46 96 136 46 96 96 60 96 96 60
42 96 46 42 96 46 42 96 46 42 96 46 42 96 46 42 96 46 42 96 60 42 116 60 60 116 60 60 116 60 60 116 60 60 116 60 60 116 46 60 116 46 60 136 46 60 136 46 78 136 46 78 136 46 78 136 60 78 136 60 78 136 60 78 96 60 78 96 60 78 96 60 96 96 46 96 96 46 96 96 46 96 96 46 96 116 46 96 116 46 96 116 60 96 116 60 42 116 60 42 116 60 42 116 60 42 136 60 42 136 46 42 136 46 42 136 46 42 136 46 60 136 46 60 136 46 60 96 60 60 96 60 60 96 60 60 96 60 60 96 60 60 96 60 78 96 46 78 116 46 78 116 46 78 116 46 78 116 46 78 116 46 78 116 60 78 116 60 96 136 60 96 136 60 96 136 60 96 136 60 96 136 46 96 136 46 96 136 46 96 96 46 42 96 46 42 96 46 42 96 60 42 96 60 42 96 60 42 96 60 42 116 60 42 116 60 60 116 46 60 116 46 60 116 46 60 116 46 60 116 46 60 136 46 60 136 60 60 136 60 78 136 60 78 136 60 78 136 60 78 136 60 78 96 46 78 96 46 78 96 46 78 96 46 96 96 46 96 96 46 96 96 60 96 116 60 96 116 60 96 116 60 96 116 60 96 116 60 42 116 46 42 116 46 42 136 46 42 136 46 42 136 46 42 136 46 42 136 60 42 136 60 60 136 60 60 96 60 60 96 60 60 96 60 60 96 46 60 96 46 60 96 46 60 96 46 78 116 46 78 116 46 78 116 60 78 116 60 78 116 60 78 116 60 78 116 60 78 136 60 96 136 46 96 136 46 96 136 46 96 136 46 96 136 46 96 136 46 96 96 60 96 96 60
42 96 46 42 96 46 42 96 46 42 96 46 42 96 46 42 96 46 42 96 60 42 116 60 60 116 60 60 116 60 60 116 60 60 116 60 60 116 46 60 116 46 60 136 46 60 136 46 78 136 46 78 136 46 78 136 60 78 136 60 78 136 60 78 96 60 78 96 60 78 96 60 96 96 46 96 96 46 96 96 46 96 96 46 96 116 46 96 116 46 96 116 60 96 116 60 42 116 60 42 116 60 42 116 60 42 136 60 42 136 46 42 136 46 42 136 46 42 136 46 60 136 46 60 136 46 60 96 60 60 96 60 60 96 60 60 96 60 60 96 60 60 96 60 78 96 46 78 116 46 78 116 46 78 116 46 78 116 46 78 116 46 78 116 60 78 116 60 96 136 60 96 136 60 96 136 60 96 136 60 96 136 46 96 136 46 96 136 46 96 96 46 42 96 46 42 96 46 42 96 60 42 96 60 42 96 60 42 96 60 42 116 60 42 116 60 60 116 46 60 116 46 60 116 46 60 116 46 60 116 46 60 136 46 60 136 60 60 136 60 78 136 60 78 136 60 78 136 60 78 136 60 78 96 46 78 96 46 78 96 46 78 96 46 96 96 46 96 96 46 96 96 60 96 116 60 96 116 60 96 116 60 96 116 60 96 116 60 42 116 46 42 116 46 42 136 46 42 136 46 42 136 46 42 136 46 42 136 60 42 136 60 60 136 60 60 96 60 60 96 60 60 96 60 60 96 46 60 96 46 60 96 46 60 96 46 78 116 46 78 116 46 78 116 60 78 116 60 78 116 60 78 116 60 78 116 60 78 136 60 96 136 46 96 136 46 96 136 46 96 136 46 96 136 46 96 136 46 96 96 60 96 96 60
42 96 46 42 96 46 42 96 46 42 96 46 42 96 46 42 96 46 42 96 60 42 116 60 60 116 60 60 116 60 60 116 60 60 116 60 60 116 46 60 116 46 60 136 46 60 136 46 78 136 46 78 136 46 78 136 60 78 136 60 78 136 60 78 96 60 78 96 60 78 96 60 96 96 46 96 96 46 96 96 46 96 96 46 96 116 46 96 116 46 96 116 60 96 116 60 42 116 60 42 116 60 42 116 60 42 136 60 42 136 46 42 136 46 42 136 46 42 136 46 60 136 46 60 136 46 60 96 60 60 96 60 60 96 60 60 96 60 60 96 60 60 96 60 78 96 46 78 116 46 78 116 46 78 116 46 78 116 46 78 116 46 78 116 60 78 116 60 96 136 60 96 136 60 96 136 60 96 136 60 96 136 46 96 136 46 96 136 46 96 96 46 42 96 46 42 96 46 42 96 60 42 96 60 42 96 60 42 96 60 42 116 60 42 116 60 60 116 46 60 116 46 60 116 46 60 116 46 60 116 46 60 136 46 60 136 60 60 136 60 78 136 60 78 136 60 78 136 60 78 136 60 78 96 46 78 96 46 78 96 46 78 96 46 96 96 46 96 96 46 96 96 60 96 116 60 96 116 60 96 116 60 96 116 60 96 116 60 42 116 46 42 116 46 42 136 46 42 136 46 42 136 46 42 136 46 42 136 60 42 136 60 60 136 60 60 96 60 60 96 60 60 96 60 60 96 46 60 96 46 60 96 46 60 96 46 78 116 46 78 116 46 78 116 60 78 116 60 78 116 60 78 116 60 78 116 60 78 136 60 96 136 46 96 136 46 96 136 46 96 136 46 96 136 46 96 136 46 96 96 60 96 96 60
42 96 46 42 96 46 42 96 46 42 96 46 42 96 46 42 96 46 42 96 60 42 116 60 60 116 60 60 116 60 60 116 60 60 116 60 60 116 46 60 116 46 60 136 46 60 136 46 78 136 46 78 136 46 78 136 60 78 136 60 78 136 60 78 96 60 78 96 60 78 96 60 96 96 46 96 96 46 96 96 46 96 96 46 96 116 46 96 116 46 96 116 60 96 116 60 42 116 60 42 116 60 42 116 60 42 136 60 42 136 46 42 136 46 42 136 46 42 136 46 60 136 46 60 136 46 60 96 60 60 96 60 60 96 60 60 96 60 60 96 60 60 96 60 78 96 46 78 116 46 78 116 46 78 116 46 78 116 46 78 116 46 78 116 60 78 116 60 96 136 60 96 136 60 96 136 60 96 136 60 96 136 46 96 136 46 96 136 46 96 96 46 42 96 46 42 96 46 42 96 60 42 96 60 42 96 60 42 96 60 42 116 60 42 116 60 60 116 46 60 116 46 60 116 46 60 116 46 60 116 46 60 136 46 60 136 60 60 136 60 78 136 60 78 136 60 78 136 60 78 136 60 78 96 46 78 96 46 78 96 46 78 96 46 96 96 46 96 96 46 96 96 60 96 116 60 96 116 60 96 116 60 96 116 60 96 116 60 42 116 46 42 116 46 42 136 46 42 136 46 42 136 46 42 136 46 42 136 60 42 136 60 60 136 60 60 96 60 60 96 60 60 96 60 60 96 46 60 96 46 60 96 46 60 96 46 78 116 46 78 116 46 78 116 60 78 116 60 78 116 60 78 116 60 78 116 60 78 136 60 96 136 46 96 136 46 96 136 46 96 136 46 96 136 46 96 136 46 96 96 60 96 96 60
42 96 46 42 96 46 42 96 46 42 96 46 42 96 46 42 96 46 42 96 60 42 116 60 60 116 60 60 116 60 60 116 60 60 116 60 60 116 46 60 116 46 60 136 46 60 136 46 78 136 46 78 136 46 78 136 60 78 136 60 78 136 60 78 96 60 78 96 60 78 96 60 96 96 46 96 96 46 96 96 46 96 96 46 96 116 46 96 116 46 96 116 60 96 116 60 42 116 60 42 116 60 42 116 60 42 136 60 42 136 46 42 136 46 42 136 46 42 136 46 60 136 46 60 136 46 60 96 60 60 96 60 60 96 60 60 96 60 60 96 60 60 96 60 78 96 46 78 116 46 78 116 46 78 116 46 78 116 46 78 116 46 78 116 60 78 116 60 96 136 60 96 136 60 96 136 60 96 136 60 96 136 46 96 136 46 96 136 46 96 96 46 42 96 46 42 96 46 42 96 60 42 96 60 42 96 60 42 96 60 42 116 60 42 116 60 60 116 46 60 116 46 60 116 46 60 116 46 60 116 46 60 136 46 60 136 60 60 136 60 78 136 60 78 136 60 78 136 60 78 136 60 78 96 46 78 96 46 78 96 46 78 96 46 96 96 46 96 96 46 96 96 60 96 116 60 96 116 60 96 116 60 96 116 60 96 116 60 42 116 46 42 116 46 42 136 46 42 136 46 42 136 46 42 136 46 42 136 60 42 136 60 60 136 60 60 96 60 60 96 60 60 96 60 60 96 46 60 96 46 60 96 46 60 96 46 78 116 46 78 116 46 78 116 60 78 116 60 78 116 60 78 116 60 78 116 60 78 136 60 96 136 46 96 136 46 96 136 46 96 136 46 96 136 46 96 136 46 96 96 60 96 96 60
60 96 46 60 96 46 60 96 46 60 96 46 60 96 46 60 96 46 60 96 60 60 116 60 78 116 60 78 116 60 78 116 60 78 116 60 78 116 46 78 116 46 78 136 46 78 136 46 96 136 46 96 136 46 96 136 60 96 136 60 96 136 60 96 96 60 96 96 60 96 96 60 42 96 46 42 96 46 42 96 46 42 96 46 42 116 46 42 116 46 42 116 60 42 116 60 60 116 60 60 116 60 60 116 60 60 136 60 60 136 46 60 136 46 60 136 46 60 136 46 78 136 46 78 136 46 78 96 60 78 96 60 78 96 60 78 96 60 78 96 60 78 96 60 96 96 46 96 116 46 96 116 46 96 116 46 96 116 46 96 116 46 96 116 60 96 116 60 42 136 60 42 136 60 42 136 60 42 136 60 42 136 46 42 136 46 42 136 46 42 96 46 60 96 46 60 96 46 60 96 60 60 96 60 60 96 60 60 96 60 60 116 60 60 116 60 78 116 46 78 116 46 78 116 46 78 116 46 78 116 46 78 136 46 78 136 60 78 136 60 96 136 60 96 136 60 96 136 60 96 136 60 96 96 46 96 96 46 96 96 46 96 96 46 42 96 46 42 96 46 42 96 60 42 116 60 42 116 60 42 116 60 42 116 60 42 116 60 60 116 46 60 116 46 60 136 46 60 136 46 60 136 46 60 136 46 60 136 60 60 136 60 78 136 60 78 96 60 78 96 60 78 96 60 78 96 46 78 96 46 78 96 46 78 96 46 96 116 46 96 116 46 96 116 60 96 116 60 96 116 60 96 116 60 96 116 60 96 136 60 42 136 46 42 136 46 42 136 46 42 136 46 42 136 46 42 136 46 42 96 60 42 96 60
60 96 46 60 96 46 60 96 46 60 96 46 60 96 46 60 96 46 60 96 60 60 116 60 78 116 60 78 116 60 78 116 60 78 116 60 78 116 46 78 116 46 78 136 46 78 136 46 96 136 46 96 136 46 96 136 60 96 136 60 96 136 60 96 96 60 96 96 60 96 96 60 42 96 46 42 96 46 42 96 46 42 96 46 42 116 46 42 116 46 42 116 60 42 116 60 60 116 60 60 116 60 60 116 60 60 136 60 60 136 46 60 136 46 60 136 46 60 136 46 78 136 46 78 136 46 78 96 60 78 96 60 78 96 60 78 96 60 78 96 60 78 96 60 96 96 46 96 116 46 96 116 46 96 116 46 96 116 46 96 116 46 96 116 60 96 116 60 42 136 60 42 136 60 42 136 60 42 136 60 42 136 46 42 136 46 42 136 46 42 96 46 60 96 46 60 96 46 60 96 60 60 96 60 60 96 60 60 96 60 60 116 60 60 116 60 78 116 46 78 116 46 78 116 46 78 116 46 78 116 46 78 136 46 78 136 60 78 136 60 96 136 60 96 136 60 96 136 60 96 136 60 96 96 46 96 96 46 96 96 46 96 96 46 42 96 46 42 96 46 42 96 60 42 116 60 42 116 60 42 116 60 42 116 60 42 116 60 60 116 46 60 116 46 60 136 46 60 136 46 60 136 46 60 136 46 60 136 60 60 136 60 78 136 60 78 96 60 78 96 60 78 96 60 78 96 46 78 96 46 78 96 46 78 96 46 96 116 46 96 116 46 96 116 60 96 116 60 96 116 60 96 116 60 96 116 60 96 136 60 42 136 46 42 136 46 42 136 46 42 136 46 42 136 46 42 136 46 42 96 60 42 96 60
60 96 60 60 96 60 60 96 60 60 96 60 60 96 60 60 96 60 60 96 46 60 116 46 78 116 46 78 116 46 78 116 46 78 116 46 78 116 60 78 116 60 78 136 60 78 136 60 96 136 60 96 136 60 96 136 46 96 136 46 96 136 46 96 96 46 96 96 46 96 96 46 42 96 60 42 96 60 42 96 60 42 96 60 42 116 60 42 116 60 42 116 46 42 116 46 60 116 46 60 116 46 60 116 46 60 136 46 60 136 60 60 136 60 60 136 60 60 136 60 78 136 60 78 136 60 78 96 46 78 96 46 78 96 46 78 96 46 78 96 46 78 96 46 96 96 60 96 116 60 96 116 60 96 116 60 96 116 60 96 116 60 96 116 46 96 116 46 42 136 46 42 136 46 42 136 46 42 136 46 42 136 60 42 136 60 42 136 60 42 96 60 60 96 60 60 96 60 60 96 46 60 96 46 60 96 46 60 96 46 60 116 46 60 116 46 78 116 60 78 116 60 78 116 60 78 116 60 78 116 60 78 136 60 78 136 46 78 136 46 96 136 46 96 136 46 96 136 46 96 136 46 96 96 60 96 96 60 96 96 60 96 96 60 42 96 60 42 96 60 42 96 46 42 116 46 42 116 46 42 116 46 42 116 46 42 116 46 60 116 60 60 116 60 60 136 60 60 136 60 60 136 60 60 136 60 60 136 46 60 136 46 78 136 46 78 96 46 78 96 46 78 96 46 78 96 60 78 96 60 78 96 60 78 96 60 96 116 60 96 116 60 96 116 46 96 116 46 96 116 46 96 116 46 96 116 46 96 136 46 42 136 60 42 136 60 42 136 60 42 136 60 42 136 60 42 136 60 42 96 46 42 96 46
60 116 60 60 116 60 60 116 60 60 116 60 60 116 60 60 116 60 60 116 46 60 136 46 78 136 46 78 136 46 78 136 46 78 136 46 78 136 60 78 136 60 78 96 60 78 96 60 96 96 60 96 96 60 96 96 46 96 96 46 96 96 46 96 116 46 96 116 46 96 116 46 42 116 60 42 116 60 42 116 60 42 116 60 42 136 60 42 136 60 42 136 46 42 136 46 60 136 46 60 136 46 60 136 46 60 96 46 60 96 60 60 96 60 60 96 60 60 96 60 78 96 60 78 96 60 78 116 46 78 116 46 78 116 46 78 116 46 78 116 46 78 116 46 96 116 60 96 136 60 96 136 60 96 136 60 96 136 60 96 136 60 96 136 46 96 136 46 42 96 46 42 96 46 42 96 46 42 96 46 42 96 60 42 96 60 42 96 60 42 116 60 60 116 60 60 116 60 60 116 46 60 116 46 60 116 46 60 116 46 60 136 46 60 136 46 78 136 60 78 136 60 78 136 60 78 136 60 78 136 60 78 96 60 78 96 46 78 96 46 96 96 46 96 96 46 96 96 46 96 96 46 96 116 60 96 116 60 96 116 60 96 116 60 42 116 60 42 116 60 42 116 46 42 136 46 42 136 46 42 136 46 42 136 46 42 136 46 60 136 60 60 136 60 60 96 60 60 96 60 60 96 60 60 96 60 60 96 46 60 96 46 78 96 46 78 116 46 78 116 46 78 116 46 78 116 60 78 116 60 78 116 60 78 116 60 96 136 60 96 136 60 96 136 46 96 136 46 96 136 46 96 136 46 96 136 46 96 96 46 42 96 60 42 96 60 42 96 60 42 96 60 42 96 60 42 96 60 42 116 46 42 116 46
60 116 60 60 116 60 60 116 60 60 116 60 60 116 60 60 116 60 60 116 46 60 136 46 78 136 46 78 136 46 78 136 46 78 136 46 78 136 60 78 136 60 78 96 60 78 96 60 96 96 60 96 96 60 96 96 46 96 96 46 96 96 46 96 116 46 96 116 46 96 116 46 42 116 60 42 116 60 42 116 60 42 116 60 42 136 60 42 136 60 42 136 46 42 136 46 60 136 46 60 136 46 60 136 46 60 96 46 60 96 60 60 96 60 60 96 60 60 96 60 78 96 60 78 96 60 78 116 46 78 116 46 78 116 46 78 116 46 78 116 46 78 116 46 96 116 60 96 136 60 96 136 60 96 136 60 96 136 60 96 136 60 96 136 46 96 136 46 42 96 46 42 96 46 42 96 46 42 96 46 42 96 60 42 96 60 42 96 60 42 116 60 60 116 60 60 116 60 60 116 46 60 116 46 60 116 46 60 116 46 60 136 46 60 136 46 78 136 60 78 136 60 78 136 60 78 136 60 78 136 60 78 96 60 78 96 46 78 96 46 96 96 46 96 96 46 96 96 46 96 96 46 96 116 60 96 116 60 96 116 60 96 116 60 42 116 60 42 116 60 42 116 46 42 136 46 42 136 46 42 136 46 42 136 46 42 136 46 60 136 60 60 136 60 60 96 60 60 96 60 60 96 60 60 96 60 60 96 46 60 96 46 78 96 46 78 116 46 78 116 46 78 116 46 78 116 60 78 116 60 78 116 60 78 116 60 96 136 60 96 136 60 96 136 46 96 136 46 96 136 46 96 136 46 96 136 46 96 96 46 42 96 60 42 96 60 42 96 60 42 96 60 42 96 60 42 96 60 42 116 46 42 116 46
60 116 60 60 116 60 60 116 60 60 116 60 60 116 60 60 116 60 60 116 46 60 136 46 78 136 46 78 136 46 78 136 46 78 136 46 78 136 60 78 136 60 78 96 60 78 96 60 96 96 60 96 96 60 96 96 46 96 96 46 96 96 46 96 116 46 96 116 46 96 116 46 42 116 60 42 116 60 42 116 60 42 116 60 42 136 60 42 136 60 42 136 46 42 136 46 60 136 46 60 136 46 60 136 46 60 96 46 60 96 60 60 96 60 60 96 60 60 96 60 78 96 60 78 96 60 78 116 46 78 116 46 78 116 46 78 116 46 78 116 46 78 116 46 96 116 60 96 136 60 96 136 60 96 136 60 96 136 60 96 136 60 96 136 46 96 136 46 42 96 46 42 96 46 42 96 46 42 96 46 42 96 60 42 96 60 42 96 60 42 116 60 60 116 60 60 116 60 60 116 46 60 116 46 60 116 46 60 116 46 60 136 46 60 136 46 78 136 60 78 136 60 78 136 60 78 136 60 78 136 60 78 96 60 78 96 46 78 96 46 96 96 46 96 96 46 96 96 46 96 96 46 96 116 60 96 116 60 96 116 60 96 116 60 42 116 60 42 116 60 42 116 46 42 136 46 42 136 46 42 136 46 42 136 46 42 136 46 60 136 60 60 136 60 60 96 60 60 96 60 60 96 60 60 96 60 60 96 46 60 96 46 78 96 46 78 116 46 78 116 46 78 116 46 78 116 60 78 116 60 78 116 60 78 116 60 96 136 60 96 136 60 96 136 46 96 136 46 96 136 46 96 136 46 96 136 46 96 96 46 42 96 60 42 96 60 42 96 60 42 96 60 42 96 60 42 96 60 42 116 46 42 116 46
78 116 60 78 116 60 78 116 60 78 116 60 78 116 60 78 116 60 78 116 46 78 136 46 96 136 46 96 136 46 96 136 46 96 136 46 96 136 60 96 136 60 96 96 60 96 96 60 42 96 60 42 96 60 42 96 46 42 96 46 42 96 46 42 116 46 42 116 46 42 116 46 60 116 60 60 116 60 60 116 60 60 116 60 60 136 60 60 136 60 60 136 46 60 136 46 78 136 46 78 136 46 78 136 46 78 96 46 78 96 60 78 96 60 78 96 60 78 96 60 96 96 60 96 96 60 96 116 46 96 116 46 96 116 46 96 116 46 96 116 46 96 116 46 42 116 60 42 136 60 42 136 60 42 136 60 42 136 60 42 136 60 42 136 46 42 136 46 60 96 46 60 96 46 60 96 46 60 96 46 60 96 60 60 96 60 60 96 60 60 116 60 78 116 60 78 116 60 78 116 46 78 116 46 78 116 46 78 116 46 78 136 46 78 136 46 96 136 60 96 136 60 96 136 60 96 136 60 96 136 60 96 96 60 96 96 46 96 96 46 42 96 46 42 96 46 42 96 46 42 96 46 42 116 60 42 116 60 42 116 60 42 116 60 60 116 60 60 116 60 60 116 46 60 136 46 60 136 46 60 136 46 60 136 46 60 136 46 78 136 60 78 136 60 78 96 60 78 96 60 78 96 60 78 96 60 78 96 46 78 96 46 96 96 46 96 116 46 96 116 46 96 116 46 96 116 60 96 116 60 96 116 60 96 116 60 42 136 60 42 136 60 42 136 46 42 136 46 42 136 46 42 136 46 42 136 46 42 96 46 60 96 60 60 96 60 60 96 60 60 96 60 60 96 60 60 96 60 60 116 46 60 116 46
78 116 60 78 116 60 78 116 60 78 116 60 78 116 60 78 116 60 78 116 46 78 136 46 96 136 46 96 136 46 96 136 46 96 136 46 96 136 60 96 136 60 96 96 60 96 96 60 42 96 60 42 96 60 42 96 46 42 96 46 42 96 46 42 116 46 42 116 46 42 116 46 60 116 60 60 116 60 60 116 60 60 116 60 60 136 60 60 136 60 60 136 46 60 136 46 78 136 46 78 136 46 78 136 46 78 96 46 78 96 60 78 96 60 78 96 60 78 96 60 96 96 60 96 96 60 96 116 46 96 116 46 96 116 46 96 116 46 96 116 46 96 116 46 42 116 60 42 136 60 42 136 60 42 136 60 42 136 60 42 136 60 42 136 46 42 136 46 60 96 46 60 96 46 60 96 46 60 96 46 60 96 60 60 96 60 60 96 60 60 116 60 78 116 60 78 116 60 78 116 46 78 116 46 78 116 46 78 116 46 78 136 46 78 136 46 96 136 60 96 136 60 96 136 60 96 136 60 96 136 60 96 96 60 96 96 46 96 96 46 42 96 46 42 96 46 42 96 46 42 96 46 42 116 60 42 116 60 42 116 60 42 116 60 60 116 60 60 116 60 60 116 46 60 136 46 60 136 46 60 136 46 60 136 46 60 136 46 78 136 60 78 136 60 78 96 60 78 96 60 78 96 60 78 96 60 78 96 46 78 96 46 96 96 46 96 116 46 96 116 46 96 116 46 96 116 60 96 116 60 96 116 60 96 116 60 42 136 60 42 136 60 42 136 46 42 136 46 42 136 46 42 136 46 42 136 46 42 96 46 60 96 60 60 96 60 60 96 60 60 96 60 60 96 60 60 96 60 60 116 46 60 116 46
78 116 60 78 116 60 78 116 60 78 116 60 78 116 60 78 116 60 78 116 46 78 136 46 96 136 46 96 136 46 96 136 46 96 136 46 96 136 60 96 136 60 96 96 60 96 96 60 42 96 60 42 96 60 42 96 46 42 96 46 42 96 46 42 116 46 42 116 46 42 116 46 60 116 60 60 116 60 60 116 60 60 116 60 60 136 60 60 136 60 60 136 46 60 136 46 78 136 46 78 136 46 78 136 46 78 96 46 78 96 60 78 96 60 78 96 60 78 96 60 96 96 60 96 96 60 96 116 46 96 116 46 96 116 46 96 116 46 96 116 46 96 116 46 42 116 60 42 136 60 42 136 60 42 136 60 42 136 60 42 136 60 42 136 46 42 136 46 60 96 46 60 96 46 60 96 46 60 96 46 60 96 60 60 96 60 60 96 60 60 116 60 78 116 60 78 116 60 78 116 46 78 116 46 78 116 46 78 116 46 78 136 46 78 136 46 96 136 60 96 136 60 96 136 60 96 136 60 96 136 60 96 96 60 96 96 46 96 96 46 42 96 46 42 96 46 42 96 46 42 96 46 42 116 60 42 116 60 42 116 60 42 116 60 60 116 60 60 116 60 60 116 46 60 136 46 60 136 46 60 136 46 60 136 46 60 136 46 78 136 60 78 136 60 78 96 60 78 96 60 78 96 60 78 96 60 78 96 46 78 96 46 96 96 46 96 116 46 96 116 46 96 116 46 96 116 60 96 116 60 96 116 60 96 116 60 42 136 60 42 136 60 42 136 46 42 136 46 42 136 46 42 136 46 42 136 46 42 96 46 60 96 60 60 96 60 60 96 60 60 96 60 60 96 60 60 96 60 60 116 46 60 116 46
78 116 60 78 116 60 78 116 60 78 116 60 78 116 60 78 116 60 78 116 46 78 136 46 96 136 46 96 136 46 96 136 46 96 136 46 96 136 60 96 136 60 96 96 60 96 96 60 42 96 60 42 96 60 42 96 46 42 96 46 42 96 46 42 116 46 42 116 46 42 116 46 60 116 60 60 116 60 60 116 60 60 116 60 60 136 60 60 136 60 60 136 46 60 136 46 78 136 46 78 136 46 78 136 46 78 96 46 78 96 60 78 96 60 78 96 60 78 96 60 96 96 60 96 96 60 96 116 46 96 116 46 96 116 46 96 116 46 96 116 46 96 116 46 42 116 60 42 136 60 42 136 60 42 136 60 42 136 60 42 136 60 42 136 46 42 136 46 60 96 46 60 96 46 60 96 46 60 96 46 60 96 60 60 96 60 60 96 60 60 116 60 78 116 60 78 116 60 78 116 46 78 116 46 78 116 46 78 116 46 78 136 46 78 136 46 96 136 60 96 136 60 96 136 60 96 136 60 96 136 60 96 96 60 96 96 46 96 96 46 42 96 46 42 96 46 42 96 46 42 96 46 42 116 60 42 116 60 42 116 60 42 116 60 60 116 60 60 116 60 60 116 46 60 136 46 60 136 46 60 136 46 60 136 46 60 136 46 78 136 60 78 136 60 78 96 60 78 96 60 78 96 60 78 96 60 78 96 46 78 96 46 96 96 46 96 116 46 96 116 46 96 116 46 96 116 60 96 116 60 96 116 60 96 116 60 42 136 60 42 136 60 42 136 46 42 136 46 42 136 46 42 136 46 42 136 46 42 96 46 60 96 60 60 96 60 60 96 60 60 96 60 60 96 60 60 96 60 60 116 46 60 116 46
78 116 46 78 116 46 78 116 46 78 116 46 78 116 46 78 116 46 78 116 60 78 136 60 96 136 60 96 136 60 96 136 60 96 136 60 96 136 46 96 136 46 96 96 46 96 96 46 42 96 46 42 96 46 42 96 60 42 96 60 42 96 60 42 116 60 42 116 60 42 116 60 60 116 46 60 116 46 60 116 46 60 116 46 60 136 46 60 136 46 60 136 60 60 136 60 78 136 60 78 136 60 78 136 60 78 96 60 78 96 46 78 96 46 78 96 46 78 96 46 96 96 46 96 96 46 96 116 60 96 116 60 96 116 60 96 116 60 96 116 60 96 116 60 42 116 46 42 136 46 42 136 46 42 136 46 42 136 46 42 136 46 42 136 60 42 136 60 60 96 60 60 96 60 60 96 60 60 96 60 60 96 46 60 96 46 60 96 46 60 116 46 78 116 46 78 116 46 78 116 60 78 116 60 78 116 60 78 116 60 78 136 60 78 136 60 96 136 46 96 136 46 96 136 46 96 136 46 96 136 46 96 96 46 96 96 60 96 96 60 42 96 60 42 96 60 42 96 60 42 96 60 42 116 46 42 116 46 42 116 46 42 116 46 60 116 46 60 116 46 60 116 60 60 136 60 60 136 60 60 136 60 60 136 60 60 136 60 78 136 46 78 136 46 78 96 46 78 96 46 78 96 46 78 96 46 78 96 60 78 96 60 96 96 60 96 116 60 96 116 60 96 116 60 96 116 46 96 116 46 96 116 46 96 116 46 42 136 46 42 136 46 42 136 60 42 136 60 42 136 60 42 136 60 42 136 60 42 96 60 60 96 46 60 96 46 60 96 46 60 96 46 60 96 46 60 96 46 60 116 60 60 116 60
78 116 46 78 116 46 78 116 46 78 116 46 78 116 46 78 116 46 78 116 60 78 136 60 96 136 60 96 136 60 96 136 60 96 136 60 96 136 46 96 136 46 96 96 46 96 96 46 42 96 46 42 96 46 42 96 60 42 96 60 42 96 60 42 116 60 42 116 60 42 116 60 60 116 46 60 116 46 60 116 46 60 116 46 60 136 46 60 136 46 60 136 60 60 136 60 78 136 60 78 136 60 78 136 60 78 96 60 78 96 46 78 96 46 78 96 46 78 96 46 96 96 46 96 96 46 96 116 60 96 116 60 96 116 60 96 116 60 96 116 60 96 116 60 42 116 46 42 136 46 42 136 46 42 136 46 42 136 46 42 136 46 42 136 60 42 136 60 60 96 60 60 96 60 60 96 60 60 96 60 60 96 46 60 96 46 60 96 46 60 116 46 78 116 46 78 116 46 78 116 60 78 116 60 78 116 60 78 116 60 78 136 60 78 136 60 96 136 46 96 136 46 96 136 46 96 136 46 96 136 46 96 96 46 96 96 60 96 96 60 42 96 60 42 96 60 42 96 60 42 96 60 42 116 46 42 116 46 42 116 46 42 116 46 60 116 46 60 116 46 60 116 60 60 136 60 60 136 60 60 136 60 60 136 60 60 136 60 78 136 46 78 136 46 78 96 46 78 96 46 78 96 46 78 96 46 78 96 60 78 96 60 96 96 60 96 116 60 96 116 60 96 116 60 96 116 46 96 116 46 96 116 46 96 116 46 42 136 46 42 136 46 42 136 60 42 136 60 42 136 60 42 136 60 42 136 60 42 96 60 60 96 46 60 96 46 60 96 46 60 96 46 60 96 46 60 96 46 60 116 60 60 116 60
96 136 46 96 136 46 96 136 46 96 136 46 96 136 46 96 136 46 96 136 60 96 96 60 42 96 60 42 96 60 42 96 60 42 96 60 42 96 46 42 96 46 42 116 46 42 116 46 60 116 46 60 116 46 60 116 60 60 116 60 60 116 60 60 136 60 60 136 60 60 136 60 78 136 46 78 136 46 78 136 46 78 136 46 78 96 46 78 96 46 78 96 60 78 96 60 96 96 60 96 96 60 96 96 60 96 116 60 96 116 46 96 116 46 96 116 46 96 116 46 42 116 46 42 116 46 42 136 60 42 136 60 42 136 60 42 136 60 42 136 60 42 136 60 60 136 46 60 96 46 60 96 46 60 96 46 60 96 46 60 96 46 60 96 60 60 96 60 78 116 60 78 116 60 78 116 60 78 116 60 78 116 46 78 116 46 78 116 46 78 136 46 96 136 46 96 136 46 96 136 60 96 136 60 96 136 60 96 136 60 96 96 60 96 96 60 42 96 46 42 96 46 42 96 46 42 96 46 42 96 46 42 116 46 42 116 60 42 116 60 60 116 60 60 116 60 60 116 60 60 116 60 60 136 46 60 136 46 60 136 46 60 136 46 78 136 46 78 136 46 78 136 60 78 96 60 78 96 60 78 96 60 78 96 60 78 96 60 96 96 46 96 96 46 96 116 46 96 116 46 96 116 46 96 116 46 96 116 60 96 116 60 42 116 60 42 136 60 42 136 60 42 136 60 42 136 46 42 136 46 42 136 46 42 136 46 60 96 46 60 96 46 60 96 60 60 96 60 60 96 60 60 96 60 60 96 60 60 116 60 78 116 46 78 116 46 78 116 46 78 116 46 78 116 46 78 116 46 78 136 60 78 136 60
96 136 46 96 136 46 96 136 46 96 136 46 96 136 46 96 136 46 96 136 60 96 96 60 42 96 60 42 96 60 42 96 60 42 96 60 42 96 46 42 96 46 42 116 46 42 116 46 60 116 46 60 116 46 60 116 60 60 116 60 60 116 60 60 136 60 60 136 60 60 136 60 78 136 46 78 136 46 78 136 46 78 136 46 78 96 46 78 96 46 78 96 60 78 96 60 96 96 60 96 96 60 96 96 60 96 116 60 96 116 46 96 116 46 96 116 46 96 116 46 42 116 46 42 116 46 42 136 60 42 136 60 42 136 60 42 136 60 42 136 60 42 136 60 60 136 46 60 96 46 60 96 46 60 96 46 60 96 46 60 96 46 60 96 60 60 96 60 78 116 60 78 116 60 78 116 60 78 116 60 78 116 46 78 116 46 78 116 46 78 136 46 96 136 46 96 136 46 96 136 60 96 136 60 96 136 60 96 136 60 96 96 60 96 96 60 42 96 46 42 96 46 42 96 46 42 96 46 42 96 46 42 116 46 42 116 60 42 116 60 60 116 60 60 116 60 60 116 60 60 116 60 60 136 46 60 136 46 60 136 46 60 136 46 78 136 46 78 136 46 78 136 60 78 96 60 78 96 60 78 96 60 78 96 60 78 96 60 96 96 46 96 96 46 96 116 46 96 116 46 96 116 46 96 116 46 96 116 60 96 116 60 42 116 60 42 136 60 42 136 60 42 136 60 42 136 46 42 136 46 42 136 46 42 136 46 60 96 46 60 96 46 60 96 60 60 96 60 60 96 60 60 96 60 60 96 60 60 116 60 78 116 46 78 116 46 78 116 46 78 116 46 78 116 46 78 116 46 78 136 60 78 136 60
96 136 46 96 136 46 96 136 46 96 136 46 96 136 46 96 136 46 96 136 60 96 96 60 42 96 60 42 96 60 42 96 60 42 96 60 42 96 46 42 96 46 42 116 46 42 116 46 60 116 46 60 116 46 60 116 60 60 116 60 60 116 60 60 136 60 60 136 60 60 136 60 78 136 46 78 136 46 78 136 46 78 136 46 78 96 46 78 96 46 78 96 60 78 96 60 96 96 60 96 96 60 96 96 60 96 116 60 96 116 46 96 116 46 96 116 46 96 116 46 42 116 46 42 116 46 42 136 60 42 136 60 42 136 60 42 136 60 42 136 60 42 136 60 60 136 46 60 96 46 60 96 46 60 96 46 60 96 46 60 96 46 60 96 60 60 96 60 78 116 60 78 116 60 78 116 60 78 116 60 78 116 46 78 116 46 78 116 46 78 136 46 96 136 46 96 136 46 96 136 60 96 136 60 96 136 60 96 136 60 96 96 60 96 96 60 42 96 46 42 96 46 42 96 46 42 96 46 42 96 46 42 116 46 42 116 60 42 116 60 60 116 60 60 116 60 60 116 60 60 116 60 60 136 46 60 136 46 60 136 46 60 136 46 78 136 46 78 136 46 78 136 60 78 96 60 78 96 60 78 96 60 78 96 60 78 96 60 96 96 46 96 96 46 96 116 46 96 116 46 96 116 46 96 116 46 96 116 60 96 116 60 42 116 60 42 136 60 42 136 60 42 136 60 42 136 46 42 136 46 42 136 46 42 136 46 60 96 46 60 96 46 60 96 60 60 96 60 60 96 60 60 96 60 60 96 60 60 116 60 78 116 46 78 116 46 78 116 46 78 116 46 78 116 46 78 116 46 78 136 60 78 136 60
96 136 46 96 136 46 96 136 46 96 136 46 96 136 46 96 136 46 96 136 60 96 96 60 42 96 60 42 96 60 42 96 60 42 96 60 42 96 46 42 96 46 42 116 46 42 116 46 60 116 46 60 116 46 60 116 60 60 116 60 60 116 60 60 136 60 60 136 60 60 136 60 78 136 46 78 136 46 78 136 46 78 136 46 78 96 46 78 96 46 78 96 60 78 96 60 96 96 60 96 96 60 96 96 60 96 116 60 96 116 46 96 116 46 96 116 46 96 116 46 42 116 46 42 116 46 42 136 60 42 136 60 42 136 60 42 136 60 42 136 60 42 136 60 60 136 46 60 96 46 60 96 46 60 96 46 60 96 46 60 96 46 60 96 60 60 96 60 78 116 60 78 116 60 78 116 60 78 116 60 78 116 46 78 116 46 78 116 46 78 136 46 96 136 46 96 136 46 96 136 60 96 136 60 96 136 60 96 136 60 96 96 60 96 96 60 42 96 46 42 96 46 42 96 46 42 96 46 42 96 46 42 116 46 42 116 60 42 116 60 60 116 60 60 116 60 60 116 60 60 116 60 60 136 46 60 136 46 60 136 46 60 136 46 78 136 46 78 136 46 78 136 60 78 96 60 78 96 60 78 96 60 78 96 60 78 96 60 96 96 46 96 96 46 96 116 46 96 116 46 96 116 46 96 116 46 96 116 60 96 116 60 42 116 60 42 136 60 42 136 60 42 136 60 42 136 46 42 136 46 42 136 46 42 136 46 60 96 46 60 96 46 60 96 60 60 96 60 60 96 60 60 96 60 60 96 60 60 116 60 78 116 46 78 116 46 78 116 46 78 116 46 78 116 46 78 116 46 78 136 60 78 136 60
96 136 46 96 136 46 96 136 46 96 136 46 96 136 46 96 136 46 96 136 60 96 96 60 42 96 60 42 96 60 42 96 60 42 96 60 42 96 46 42 96 46 42 116 46 42 116 46 60 116 46 60 116 46 60 116 60 60 116 60 60 116 60 60 136 60 60 136 60 60 136 60 78 136 46 78 136 46 78 136 46 78 136 46 78 96 46 78 96 46 78 96 60 78 96 60 96 96 60 96 96 60 96 96 60 96 116 60 96 116 46 96 116 46 96 116 46 96 116 46 42 116 46 42 116 46 42 136 60 42 136 60 42 136 60 42 136 60 42 136 60 42 136 60 60 136 46 60 96 46 60 96 46 60 96 46 60 96 46 60 96 46 60 96 60 60 96 60 78 116 60 78 116 60 78 116 60 78 116 60 78 116 46 78 116 46 78 116 46 78 136 46 96 136 46 96 136 46 96 136 60 96 136 60 96 136 60 96 136 60 96 96 60 96 96 60 42 96 46 42 96 46 42 96 46 42 96 46 42 96 46 42 116 46 42 116 60 42 116 60 60 116 60 60 116 60 60 116 60 60 116 60 60 136 46 60 136 46 60 136 46 60 136 46 78 136 46 78 136 46 78 136 60 78 96 60 78 96 60 78 96 60 78 96 60 78 96 60 96 96 46 96 96 46 96 116 46 96 116 46 96 116 46 96 116 46 96 116 60 96 116 60 42 116 60 42 136 60 42 136 60 42 136 60 42 136 46 42 136 46 42 136 46 42 136 46 60 96 46 60 96 46 60 96 60 60 96 60 60 96 60 60 96 60 60 96 60 60 116 60 78 116 46 78 116 46 78 116 46 78 116 46 78 116 46 78 116 46 78 136 60 78 136 60
96 136 46 96 136 46 96 136 46 96 136 46 96 136 46 96 136 46 96 136 60 96 96 60 42 96 60 42 96 60 42 96 60 42 96 60 42 96 46 42 96 46 42 116 46 42 116 46 60 116 46 60 116 46 60 116 60 60 116 60 60 116 60 60 136 60 60 136 60 60 136 60 78 136 46 78 136 46 78 136 46 78 136 46 78 96 46 78 96 46 78 96 60 78 96 60 96 96 60 96 96 60 96 96 60 96 116 60 96 116 46 96 116 46 96 116 46 96 116 46 42 116 46 42 116 46 42 136 60 42 136 60 42 136 60 42 136 60 42 136 60 42 136 60 60 136 46 60 96 46 60 96 46 60 96 46 60 96 46 60 96 46 60 96 60 60 96 60 78 116 60 78 116 60 78 116 60 78 116 60 78 116 46 78 116 46 78 116 46 78 136 46 96 136 46 96 136 46 96 136 60 96 136 60 96 136 60 96 136 60 96 96 60 96 96 60 42 96 46 42 96 46 42 96 46 42 96 46 42 96 46 42 116 46 42 116 60 42 116 60 60 116 60 60 116 60 60 116 60 60 116 60 60 136 46 60 136 46 60 136 46 60 136 46 78 136 46 78 136 46 78 136 60 78 96 60 78 96 60 78 96 60 78 96 60 78 96 60 96 96 46 96 96 46 96 116 46 96 116 46 96 116 46 96 116 46 96 116 60 96 116 60 42 116 60 42 136 60 42 136 60 42 136 60 42 136 46 42 136 46 42 136 46 42 136 46 60 96 46 60 96 46 60 96 60 60 96 60 60 96 60 60 96 60 60 96 60 60 116 60 78 116 46 78 116 46 78 116 46 78 116 46 78 116 46 78 116 46 78 136 60 78 136 60
42 136 60 42 136 60 42 136 60 42 136 60 42 136 60 42 136 60 42 136 46 42 96 46 60 96 46 60 96 46 60 96 46 60 96 46 60 96 60 60 96 60 60 116 60 60 116 60 78 116 60 78 116 60 78 116 46 78 116 46 78 116 46 78 136 46 78 136 46 78 136 46 96 136 60 96 136 60 96 136 60 96 136 60 96 96 60 96 96 60 96 96 46 96 96 46 42 96 46 42 96 46 42 96 46 42 116 46 42 116 60 42 116 60 42 116 60 42 116 60 60 116 60 60 116 60 60 136 46 60 136 46 60 136 46 60 136 46 60 136 46 60 136 46 78 136 60 78 96 60 78 96 60 78 96 60 78 96 60 78 96 60 78 96 46 78 96 46 96 116 46 96 116 46 96 116 46 96 116 46 96 116 60 96 116 60 96 116 60 96 136 60 42 136 60 42 136 60 42 136 46 42 136 46 42 136 46 42 136 46 42 96 46 42 96 46 60 96 60 60 96 60 60 96 60 60 96 60 60 96 60 60 116 60 60 116 46 60 116 46 78 116 46 78 116 46 78 116 46 78 116 46 78 136 60 78 136 60 78 136 60 78 136 60 96 136 60 96 136 60 96 136 46 96 96 46 96 96 46 96 96 46 96 96 46 96 96 46 42 96 60 42 96 60 42 116 60 42 116 60 42 116 60 42 116 60 42 116 46 42 116 46 60 116 46 60 136 46 60 136 46 60 136 46 60 136 60 60 136 60 60 136 60 60 136 60 78 96 60 78 96 60 78 96 46 78 96 46 78 96 46 78 96 46 78 96 46 78 116 46 96 116 60 96 116 60 96 116 60 96 116 60 96 116 60 96 116 60 96 136 46 96 136 46
42 136 60 42 136 60 42 136 60 42 136 60 42 136 60 42 136 60 42 136 46 42 96 46 60 96 46 60 96 46 60 96 46 60 96 46 60 96 60 60 96 60 60 116 60 60 116 60 78 116 60 78 116 60 78 116 46 78 116 46 78 116 46 78 136 46 78 136 46 78 136 46 96 136 60 96 136 60 96 136 60 96 136 60 96 96 60 96 96 60 96 96 46 96 96 46 42 96 46 42 96 46 42 96 46 42 116 46 42 116 60 42 116 60 42 116 60 42 116 60 60 116 60 60 116 60 60 136 46 60 136 46 60 136 46 60 136 46 60 136 46 60 136 46 78 136 60 78 96 60 78 96 60 78 96 60 78 96 60 78 96 60 78 96 46 78 96 46 96 116 46 96 116 46 96 116 46 96 116 46 96 116 60 96 116 60 96 116 60 96 136 60 42 136 60 42 136 60 42 136 46 42 136 46 42 136 46 42 136 46 42 96 46 42 96 46 60 96 60 60 96 60 60 96 60 60 96 60 60 96 60 60 116 60 60 116 46 60 116 46 78 116 46 78 116 46 78 116 46 78 116 46 78 136 60 78 136 60 78 136 60 78 136 60 96 136 60 96 136 60 96 136 46 96 96 46 96 96 46 96 96 46 96 96 46 96 96 46 42 96 60 42 96 60 42 116 60 42 116 60 42 116 60 42 116 60 42 116 46 42 116 46 60 116 46 60 136 46 60 136 46 60 136 46 60 136 60 60 136 60 60 136 60 60 136 60 78 96 60 78 96 60 78 96 46 78 96 46 78 96 46 78 96 46 78 96 46 78 116 46 96 116 60 96 116 60 96 116 60 96 116 60 96 116 60 96 116 60 96 136 46 96 136 46
42 136 60 42 136 60 42 136 60 42 136 60 42 136 60 42 136 60 42 136 46 42 96 46 60 96 46 60 96 46 60 96 46 60 96 46 60 96 60 60 96 60 60 116 60 60 116 60 78 116 60 78 116 60 78 116 46 78 116 46 78 116 46 78 136 46 78 136 46 78 136 46 96 136 60 96 136 60 96 136 60 96 136 60 96 96 60 96 96 60 96 96 46 96 96 46 42 96 46 42 96 46 42 96 46 42 116 46 42 116 60 42 116 60 42 116 60 42 116 60 60 116 60 60 116 60 60 136 46 60 136 46 60 136 46 60 136 46 60 136 46 60 136 46 78 136 60 78 96 60 78 96 60 78 96 60 78 96 60 78 96 60 78 96 46 78 96 46 96 116 46 96 116 46 96 116 46 96 116 46 96 116 60 96 116 60 96 116 60 96 136 60 42 136 60 42 136 60 42 136 46 42 136 46 42 136 46 42 136 46 42 96 46 42 96 46 60 96 60 60 96 60 60 96 60 60 96 60 60 96 60 60 116 60 60 116 46 60 116 46 78 116 46 78 116 46 78 116 46 78 116 46 78 136 60 78 136 60 78 136 60 78 136 60 96 136 60 96 136 60 96 136 46 96 96 46 96 96 46 96 96 46 96 96 46 96 96 46 42 96 60 42 96 60 42 116 60 42 116 60 42 116 60 42 116 60 42 116 46 42 116 46 60 116 46 60 136 46 60 136 46 60 136 46 60 136 60 60 136 60 60 136 60 60 136 60 78 96 60 78 96 60 78 96 46 78 96 46 78 96 46 78 96 46 78 96 46 78 116 46 96 116 60 96 116 60 96 116 60 96 116 60 96 116 60 96 116 60 96 136 46 96 136 46
42 96 60 42 96 60 42 96 60 42 96 60 42 96 60 42 96 60 42 96 46 42 116 46 60 116 46 60 116 46 60 116 46 60 116 46 60 116 60 60 116 60 60 136 60 60 136 60 78 136 60 78 136 60 78 136 46 78 136 46 78 136 46 78 96 46 78 96 46 78 96 46 96 96 60 96 96 60 96 96 60 96 96 60 96 116 60 96 116 60 96 116 46 96 116 46 42 116 46 42 116 46 42 116 46 42 136 46 42 136 60 42 136 60 42 136 60 42 136 60 60 136 60 60 136 60 60 96 46 60 96 46 60 96 46 60 96 46 60 96 46 60 96 46 78 96 60 78 116 60 78 116 60 78 116 60 78 116 60 78 116 60 78 116 46 78 116 46 96 136 46 96 136 46 96 136 46 96 136 46 96 136 60 96 136 60 96 136 60 96 96 60 42 96 60 42 96 60 42 96 46 42 96 46 42 96 46 42 96 46 42 116 46 42 116 46 60 116 60 60 116 60 60 116 60 60 116 60 60 116 60 60 136 60 60 136 46 60 136 46 78 136 46 78 136 46 78 136 46 78 136 46 78 96 60 78 96 60 78 96 60 78 96 60 96 96 60 96 96 60 96 96 46 96 116 46 96 116 46 96 116 46 96 116 46 96 116 46 42 116 60 42 116 60 42 136 60 42 136 60 42 136 60 42 136 60 42 136 46 42 136 46 60 136 46 60 96 46 60 96 46 60 96 46 60 96 60 60 96 60 60 96 60 60 96 60 78 116 60 78 116 60 78 116 46 78 116 46 78 116 46 78 116 46 78 116 46 78 136 46 96 136 60 96 136 60 96 136 60 96 136 60 96 136 60 96 136 60 96 96 46 96 96 46
42 96 60 42 96 60 42 96 60 42 96 60 42 96 60 42 96 60 42 96 46 42 116 46 60 116 46 60 116 46 60 116 46 60 116 46 60 116 60 60 116 60 60 136 60 60 136 60 78 136 60 78 136 60 78 136 46 78 136 46 78 136 46 78 96 46 78 96 46 78 96 46 96 96 60 96 96 60 96 96 60 96 96 60 96 116 60 96 116 60 96 116 46 96 116 46 42 116 46 42 116 46 42 116 46 42 136 46 42 136 60 42 136 60 42 136 60 42 136 60 60 136 60 60 136 60 60 96 46 60 96 46 60 96 46 60 96 46 60 96 46 60 96 46 78 96 60 78 116 60 78 116 60 78 116 60 78 116 60 78 116 60 78 116 46 78 116 46 96 136 46 96 136 46 96 136 46 96 136 46 96 136 60 96 136 60 96 136 60 96 96 60 42 96 60 42 96 60 42 96 46 42 96 46 42 96 46 42 96 46 42 116 46 42 116 46 60 116 60 60 116 60 60 116 60 60 116 60 60 116 60 60 136 60 60 136 46 60 136 46 78 136 46 78 136 46 78 136 46 78 136 46 78 96 60 78 96 60 78 96 60 78 96 60 96 96 60 96 96 60 96 96 46 96 116 46 96 116 46 96 116 46 96 116 46 96 116 46 42 116 60 42 116 60 42 136 60 42 136 60 42 136 60 42 136 60 42 136 46 42 136 46 60 136 46 60 96 46 60 96 46 60 96 46 60 96 60 60 96 60 60 96 60 60 96 60 78 116 60 78 116 60 78 116 46 78 116 46 78 116 46 78 116 46 78 116 46 78 136 46 96 136 60 96 136 60 96 136 60 96 136 60 96 136 60 96 136 60 96 96 46 96 96 46
42 96 60 42 96 60 42 96 60 42 96 60 42 96 60 42 96 60 42 96 46 42 116 46 60 116 46 60 116 46 60 116 46 60 116 46 60 116 60 60 116 60 60 136 60 60 136 60 78 136 60 78 136 60 78 136 46 78 136 46 78 136 46 78 96 46 78 96 46 78 96 46 96 96 60 96 96 60 96 96 60 96 96 60 96 116 60 96 116 60 96 116 46 96 116 46 42 116 46 42 116 46 42 116 46 42 136 46 42 136 60 42 136 60 42 136 60 42 136 60 60 136 60 60 136 60 60 96 46 60 96 46 60 96 46 60 96 46 60 96 46 60 96 46 78 96 60 78 116 60 78 116 60 78 116 60 78 116 60 78 116 60 78 116 46 78 116 46 96 136 46 96 136 46 96 136 46 96 136 46 96 136 60 96 136 60 96 136 60 96 96 60 42 96 60 42 96 60 42 96 46 42 96 46 42 96 46 42 96 46 42 116 46 42 116 46 60 116 60 60 116 60 60 116 60 60 116 60 60 116 60 60 136 60 60 136 46 60 136 46 78 136 46 78 136 46 78 136 46 78 136 46 78 96 60 78 96 60 78 96 60 78 96 60 96 96 60 96 96 60 96 96 46 96 116 46 96 116 46 96 116 46 96 116 46 96 116 46 42 116 60 42 116 60 42 136 60 42 136 60 42 136 60 42 136 60 42 136 46 42 136 46 60 136 46 60 96 46 60 96 46 60 96 46 60 96 60 60 96 60 60 96 60 60 96 60 78 116 60 78 116 60 78 116 46 78 116 46 78 116 46 78 116 46 78 116 46 78 136 46 96 136 60 96 136 60 96 136 60 96 136 60 96 136 60 96 136 60 96 96 46 96 96 46
60 96 60 60 96 60 60 96 60 60 96 60 60 96 60 60 96 60 60 96 46 60 116 46 78 116 46 78 116 46 78 116 46 78 116 46 78 116 60 78 116 60 78 136 60 78 136 60 96 136 60 96 136 60 96 136 46 96 136 46 96 136 46 96 96 46 96 96 46 96 96 46 42 96 60 42 96 60 42 96 60 42 96 60 42 116 60 42 116 60 42 116 46 42 116 46 60 116 46 60 116 46 60 116 46 60 136 46 60 136 60 60 136 60 60 136 60 60 136 60 78 136 60 78 136 60 78 96 46 78 96 46 78 96 46 78 96 46 78 96 46 78 96 46 96 96 60 96 116 60 96 116 60 96 116 60 96 116 60 96 116 60 96 116 46 96 116 46 42 136 46 42 136 46 42 136 46 42 136 46 42 136 60 42 136 60 42 136 60 42 96 60 60 96 60 60 96 60 60 96 46 60 96 46 60 96 46 60 96 46 60 116 46 60 116 46 78 116 60 78 116 60 78 116 60 78 116 60 78 116 60 78 136 60 78 136 46 78 136 46 96 136 46 96 136 46 96 136 46 96 136 46 96 96 60 96 96 60 96 96 60 96 96 60 42 96 60 42 96 60 42 96 46 42 116 46 42 116 46 42 116 46 42 116 46 42 116 46 60 116 60 60 116 60 60 136 60 60 136 60 60 136 60 60 136 60 60 136 46 60 136 46 78 136 46 78 96 46 78 96 46 78 96 46 78 96 60 78 96 60 78 96 60 78 96 60 96 116 60 96 116 60 96 116 46 96 116 46 96 116 46 96 116 46 96 116 46 96 136 46 42 136 60 42 136 60 42 136 60 42 136 60 42 136 60 42 136 60 42 96 46 42 96 46
60 96 60 60 96 60 60 96 60 60 96 60 60 96 60 60 96 60 60 96 46 60 116 46 78 116 46 78 116 46 78 116 46 78 116 46 78 116 60 78 116 60 78 136 60 78 136 60 96 136 60 96 136 60 96 136 46 96 136 46 96 136 46 96 96 46 96 96 46 96 96 46 42 96 60 42 96 60 42 96 60 42 96 60 42 116 60 42 116 60 42 116 46 42 116 46 60 116 46 60 116 46 60 116 46 60 136 46 60 136 60 60 136 60 60 136 60 60 136 60 78 136 60 78 136 60 78 96 46 78 96 46 78 96 46 78 96 46 78 96 46 78 96 46 96 96 60 96 116 60 96 116 60 96 116 60 96 116 60 96 116 60 96 116 46 96 116 46 42 136 46 42 136 46 42 136 46 42 136 46 42 136 60 42 136 60 42 136 60 42 96 60 60 96 60 60 96 60 60 96 46 60 96 46 60 96 46 60 96 46 60 116 46 60 116 46 78 116 60 78 116 60 78 116 60 78 116 60 78 116 60 78 136 60 78 136 46 78 136 46 96 136 46 96 136 46 96 136 46 96 136 46 96 96 60 96 96 60 96 96 60 96 96 60 42 96 60 42 96 60 42 96 46 42 116 46 42 116 46 42 116 46 42 116 46 42 116 46 60 116 60 60 116 60 60 136 60 60 136 60 60 136 60 60 136 60 60 136 46 60 136 46 78 136 46 78 96 46 78 96 46 78 96 46 78 96 60 78 96 60 78 96 60 78 96 60 96 116 60 96 116 60 96 116 46 96 116 46 96 116 46 96 116 46 96 116 46 96 136 46 42 136 60 42 136 60 42 136 60 42 136 60 42 136 60 42 136 60 42 96 46 42 96 46
60 96 46 60 96 46 60 96 46 60 96 46 60 96 46 60 96 46 60 96 60 60 116 60 78 116 60 78 116 60 78 116 60 78 116 60 78 116 46 78 116 46 78 136 46 78 136 46 96 136 46 96 136 46 96 136 60 96 136 60 96 136 60 96 96 60 96 96 60 96 96 60 42 96 46 42 96 46 42 96 46 42 96 46 42 116 46 42 116 46 42 116 60 42 116 60 60 116 60 60 116 60 60 116 60 60 136 60 60 136 46 60 136 46 60 136 46 60 136 46 78 136 46 78 136 46 78 96 60 78 96 60 78 96 60 78 96 60 78 96 60 78 96 60 96 96 46 96 116 46 96 116 46 96 116 46 96 116 46 96 116 46 96 116 60 96 116 60 42 136 60 42 136 60 42 136 60 42 136 60 42 136 46 42 136 46 42 136 46 42 96 46 60 96 46 60 96 46 60 96 60 60 96 60 60 96 60 60 96 60 60 116 60 60 116 60 78 116 46 78 116 46 78 116 46 78 116 46 78 116 46 78 136 46 78 136 60 78 136 60 96 136 60 96 136 60 96 136 60 96 136 60 96 96 46 96 96 46 96 96 46 96 96 46 42 96 46 42 96 46 42 96 60 42 116 60 42 116 60 42 116 60 42 116 60 42 116 60 60 116 46 60 116 46 60 136 46 60 136 46 60 136 46 60 136 46 60 136 60 60 136 60 78 136 60 78 96 60 78 96 60 78 96 60 78 96 46 78 96 46 78 96 46 78 96 46 96 116 46 96 116 46 96 116 60 96 116 60 96 116 60 96 116 60 96 116 60 96 136 60 42 136 46 42 136 46 42 136 46 42 136 46 42 136 46 42 136 46 42 96 60 42 96 60
60 96 46 60 96 46 60 96 46 60 96 46 60 96 46 60 96 46 60 96 60 60 116 60 78 116 60 78 116 60 78 116 60 78 116 60 78 116 46 78 116 46 78 136 46 78 136 46 96 136 46 96 136 46 96 136 60 96 136 60 96 136 60 96 96 60 96 96 60 96 96 60 42 96 46 42 96 46 42 96 46 42 96 46 42 116 46 42 116 46 42 116 60 42 116 60 60 116 60 60 116 60 60 116 60 60 136 60 60 136 46 60 136 46 60 136 46 60 136 46 78 136 46 78 136 46 78 96 60 78 96 60 78 96 60 78 96 60 78 96 60 78 96 60 96 96 46 96 116 46 96 116 46 96 116 46 96 116 46 96 116 46 96 116 60 96 116 60 42 136 60 42 136 60 42 136 60 42 136 60 42 136 46 42 136 46 42 136 46 42 96 46 60 96 46 60 96 46 60 96 60 60 96 60 60 96 60 60 96 60 60 116 60 60 116 60 78 116 46 78 116 46 78 116 46 78 116 46 78 116 46 78 136 46 78 136 60 78 136 60 96 136 60 96 136 60 96 136 60 96 136 60 96 96 46 96 96 46 96 96 46 96 96 46 42 96 46 42 96 46 42 96 60 42 116 60 42 116 60 42 116 60 42 116 60 42 116 60 60 116 46 60 116 46 60 136 46 60 136 46 60 136 46 60 136 46 60 136 60 60 136 60 78 136 60 78 96 60 78 96 60 78 96 60 78 96 46 78 96 46 78 96 46 78 96 46 96 116 46 96 116 46 96 116 60 96 116 60 96 116 60 96 116 60 96 116 60 96 136 60 42 136 46 42 136 46 42 136 46 42 136 46 42 136 46 42 136 46 42 96 60 42 96 60
60 96 46 60 96 46 60 96 46 60 96 46 60 96 46 60 96 46 60 96 60 60 116 60 78 116 60 78 116 60 78 116 60 78 116 60 78 116 46 78 116 46 78 136 46 78 136 46 96 136 46 96 136 46 96 136 60 96 136 60 96 136 60 96 96 60 96 96 60 96 96 60 42 96 46 42 96 46 42 96 46 42 96 46 42 116 46 42 116 46 42 116 60 42 116 60 60 116 60 60 116 60 60 116 60 60 136 60 60 136 46 60 136 46 60 136 46 60 136 46 78 136 46 78 136 46 78 96 60 78 96 60 78 96 60 78 96 60 78 96 60 78 96 60 96 96 46 96 116 46 96 116 46 96 116 46 96 116 46 96 116 46 96 116 60 96 116 60 42 136 60 42 136 60 42 136 60 42 136 60 42 136 46 42 136 46 42 136 46 42 96 46 60 96 46 60 96 46 60 96 60 60 96 60 60 96 60 60 96 60 60 116 60 60 116 60 78 116 46 78 116 46 78 116 46 78 116 46 78 116 46 78 136 46 78 136 60 78 136 60 96 136 60 96 136 60 96 136 60 96 136 60 96 96 46 96 96 46 96 96 46 96 96 46 42 96 46 42 96 46 42 96 60 42 116 60 42 116 60 42 116 60 42 116 60 42 116 60 60 116 46 60 116 46 60 136 46 60 136 46 60 136 46 60 136 46 60 136 60 60 136 60 78 136 60 78 96 60 78 96 60 78 96 60 78 96 46 78 96 46 78 96 46 78 96 46 96 116 46 96 116 46 96 116 60 96 116 60 96 116 60 96 116 60 96 116 60 96 136 60 42 136 46 42 136 46 42 136 46 42 136 46 42 136 46 42 136 46 42 96 60 42 96 60
60 96 46 60 96 46 60 96 46 60 96 46 60 96 46 60 96 46 60 96 60 60 116 60 78 116 60 78 116 60 78 116 60 78 116 60 78 116 46 78 116 46 78 136 46 78 136 46 96 136 46 96 136 46 96 136 60 96 136 60 96 136 60 96 96 60 96 96 60 96 96 60 42 96 46 42 96 46 42 96 46 42 96 46 42 116 46 42 116 46 42 116 60 42 116 60 60 116 60 60 116 60 60 116 60 60 136 60 60 136 46 60 136 46 60 136 46 60 136 46 78 136 46 78 136 46 78 96 60 78 96 60 78 96 60 78 96 60 78 96 60 78 96 60 96 96 46 96 116 46 96 116 46 96 116 46 96 116 46 96 116 46 96 116 60 96 116 60 42 136 60 42 136 60 42 136 60 42 136 60 42 136 46 42 136 46 42 136 46 42 96 46 60 96 46 60 96 46 60 96 60 60 96 60 60 96 60 60 96 60 60 116 60 60 116 60 78 116 46 78 116 46 78 116 46 78 116 46 78 116 46 78 136 46 78 136 60 78 136 60 96 136 60 96 136 60 96 136 60 96 136 60 96 96 46 96 96 46 96 96 46 96 96 46 42 96 46 42 96 46 42 96 60 42 116 60 42 116 60 42 116 60 42 116 60 42 116 60 60 116 46 60 116 46 60 136 46 60 136 46 60 136 46 60 136 46 60 136 60 60 136 60 78 136 60 78 96 60 78 96 60 78 96 60 78 96 46 78 96 46 78 96 46 78 96 46 96 116 46 96 116 46 96 116 60 96 116 60 96 116 60 96 116 60 96 116 60 96 136 60 42 136 46 42 136 46 42 136 46 42 136 46 42 136 46 42 136 46 42 96 60 42 96 60
78 116 46 78 116 46 78 116 46 78 116 46 78 116 46 78 116 46 78 116 60 78 136 60 96 136 60 96 136 60 96 136 60 96 136 60 96 136 46 96 136 46 96 96 46 96 96 46 42 96 46 42 96 46 42 96 60 42 96 60 42 96 60 42 116 60 42 116 60 42 116 60 60 116 46 60 116 46 60 116 46 60 116 46 60 136 46 60 136 46 60 136 60 60 136 60 78 136 60 78 136 60 78 136 60 78 96 60 78 96 46 78 96 46 78 96 46 78 96 46 96 96 46 96 96 46 96 116 60 96 116 60 96 116 60 96 116 60 96 116 60 96 116 60 42 116 46 42 136 46 42 136 46 42 136 46 42 136 46 42 136 46 42 136 60 42 136 60 60 96 60 60 96 60 60 96 60 60 96 60 60 96 46 60 96 46 60 96 46 60 116 46 78 116 46 78 116 46 78 116 60 78 116 60 78 116 60 78 116 60 78 136 60 78 136 60 96 136 46 96 136 46 96 136 46 96 136 46 96 136 46 96 96 46 96 96 60 96 96 60 42 96 60 42 96 60 42 96 60 42 96 60 42 116 46 42 116 46 42 116 46 42 116 46 60 116 46 60 116 46 60 116 60 60 136 60 60 136 60 60 136 60 60 136 60 60 136 60 78 136 46 78 136 46 78 96 46 78 96 46 78 96 46 78 96 46 78 96 60 78 96 60 96 96 60 96 116 60 96 116 60 96 116 60 96 116 46 96 116 46 96 116 46 96 116 46 42 136 46 42 136 46 42 136 60 42 136 60 42 136 60 42 136 60 42 136 60 42 96 60 60 96 46 60 96 46 60 96 46 60 96 46 60 96 46 60 96 46 60 116 60 60 116 60
78 116 46 78 116 46 78 116 46 78 116 46 78 116 46 78 116 46 78 116 60 78 136 60 96 136 60 96 136 60 96 136 60 96 136 60 96 136 46 96 136 46 96 96 46 96 96 46 42 96 46 42 96 46 42 96 60 42 96 60 42 96 60 42 116 60 42 116 60 42 116 60 60 116 46 60 116 46 60 116 46 60 116 46 60 136 46 60 136 46 60 136 60 60 136 60 78 136 60 78 136 60 78 136 60 78 96 60 78 96 46 78 96 46 78 96 46 78 96 46 96 96 46 96 96 46 96 116 60 96 116 60 96 116 60 96 116 60 96 116 60 96 116 60 42 116 46 42 136 46 42 136 46 42 136 46 42 136 46 42 136 46 42 136 60 42 136 60 60 96 60 60 96 60 60 96 60 60 96 60 60 96 46 60 96 46 60 96 46 60 116 46 78 116 46 78 116 46 78 116 60 78 116 60 78 116 60 78 116 60 78 136 60 78 136 60 96 136 46 96 136 46 96 136 46 96 136 46 96 136 46 96 96 46 96 96 60 96 96 60 42 96 60 42 96 60 42 96 60 42 96 60 42 116 46 42 116 46 42 116 46 42 116 46 60 116 46 60 116 46 60 116 60 60 136 60 60 136 60 60 136 60 60 136 60 60 136 60 78 136 46 78 136 46 78 96 46 78 96 46 78 96 46 78 96 46 78 96 60 78 96 60 96 96 60 96 116 60 96 116 60 96 116 60 96 116 46 96 116 46 96 116 46 96 116 46 42 136 46 42 136 46 42 136 60 42 136 60 42 136 60 42 136 60 42 136 60 42 96 60 60 96 46 60 96 46 60 96 46 60 96 46 60 96 46 60 96 46 60 116 60 60 116 60
78 116 46 78 116 46 78 116 46 78 116 46 78 116 46 78 116 46 78 116 60 78 136 60 96 136 60 96 136 60 96 136 60 96 136 60 96 136 46 96 136 46 96 96 46 96 96 46 42 96 46 42 96 46 42 96 60 42 96 60 42 96 60 42 116 60 42 116 60 42 116 60 60 116 46 60 116 46 60 116 46 60 116 46 60 136 46 60 136 46 60 136 60 60 136 60 78 136 60 78 136 60 78 136 60 78 96 60 78 96 46 78 96 46 78 96 46 78 96 46 96 96 46 96 96 46 96 116 60 96 116 60 96 116 60 96 116 60 96 116 60 96 116 60 42 116 46 42 136 46 42 136 46 42 136 46 42 136 46 42 136 46 42 136 60 42 136 60 60 96 60 60 96 60 60 96 60 60 96 60 60 96 46 60 96 46 60 96 46 60 116 46 78 116 46 78 116 46 78 116 60 78 116 60 78 116 60 78 116 60 78 136 60 78 136 60 96 136 46 96 136 46 96 136 46 96 136 46 96 136 46 96 96 46 96 96 60 96 96 60 42 96 60 42 96 60 42 96 60 42 96 60 42 116 46 42 116 46 42 116 46 42 116 46 60 116 46 60 116 46 60 116 60 60 136 60 60 136 60 60 136 60 60 136 60 60 136 60 78 136 46 78 136 46 78 96 46 78 96 46 78 96 46 78 96 46 78 96 60 78 96 60 96 96 60 96 116 60 96 116 60 96 116 60 96 116 46 96 116 46 96 116 46 96 116 46 42 136 46 42 136 46 42 136 60 42 136 60 42 136 60 42 136 60 42 136 60 42 96 60 60 96 46 60 96 46 60 96 46 60 96 46 60 96 46 60 96 46 60 116 60 60 116 60
78 116 46 78 116 46 78 116 46 78 116 46 78 116 46 78 116 46 78 116 60 78 136 60 96 136 60 96 136 60 96 136 60 96 136 60 96 136 46 96 136 46 96 96 46 96 96 46 42 96 46 42 96 46 42 96 60 42 96 60 42 96 60 42 116 60 42 116 60 42 116 60 60 116 46 60 116 46 60 116 46 60 116 46 60 136 46 60 136 46 60 136 60 60 136 60 78 136 60 78 136 60 78 136 60 78 96 60 78 96 46 78 96 46 78 96 46 78 96 46 96 96 46 96 96 46 96 116 60 96 116 60 96 116 60 96 116 60 96 116 60 96 116 60 42 116 46 42 136 46 42 136 46 42 136 46 42 136 46 42 136 46 42 136 60 42 136 60 60 96 60 60 96 60 60 96 60 60 96 60 60 96 46 60 96 46 60 96 46 60 116 46 78 116 46 78 116 46 78 116 60 78 116 60 78 116 60 78 116 60 78 136 60 78 136 60 96 136 46 96 136 46 96 136 46 96 136 46 96 136 46 96 96 46 96 96 60 96 96 60 42 96 60 42 96 60 42 96 60 42 96 60 42 116 46 42 116 46 42 116 46 42 116 46 60 116 46 60 116 46 60 116 60 60 136 60 60 136 60 60 136 60 60 136 60 60 136 60 78 136 46 78 136 46 78 96 46 78 96 46 78 96 46 78 96 46 78 96 60 78 96 60 96 96 60 96 116 60 96 116 60 96 116 60 96 116 46 96 116 46 96 116 46 96 116 46 42 136 46 42 136 46 42 136 60 42 136 60 42 136 60 42 136 60 42 136 60 42 96 60 60 96 46 60 96 46 60 96 46 60 96 46 60 96 46 60 96 46 60 116 60 60 116 60
78 116 60 78 116 60 78 116 60 78 116 60 78 116 60 78 116 60 78 116 46 78 136 46 96 136 46 96 136 46 96 136 46 96 136 46 96 136 60 96 136 60 96 96 60 96 96 60 42 96 60 42 96 60 42 96 46 42 96 46 42 96 46 42 116 46 42 116 46 42 116 46 60 116 60 60 116 60 60 116 60 60 116 60 60 136 60 60 136 60 60 136 46 60 136 46 78 136 46 78 136 46 78 136 46 78 96 46 78 96 60 78 96 60 78 96 60 78 96 60 96 96 60 96 96 60 96 116 46 96 116 46 96 116 46 96 116 46 96 116 46 96 116 46 42 116 60 42 136 60 42 136 60 42 136 60 42 136 60 42 136 60 42 136 46 42 136 46 60 96 46 60 96 46 60 96 46 60 96 46 60 96 60 60 96 60 60 96 60 60 116 60 78 116 60 78 116 60 78 116 46 78 116 46 78 116 46 78 116 46 78 136 46 78 136 46 96 136 60 96 136 60 96 136 60 96 136 60 96 136 60 96 96 60 96 96 46 96 96 46 42 96 46 42 96 46 42 96 46 42 96 46 42 116 60 42 116 60 42 116 60 42 116 60 60 116 60 60 116 60 60 116 46 60 136 46 60 136 46 60 136 46 60 136 46 60 136 46 78 136 60 78 136 60 78 96 60 78 96 60 78 96 60 78 96 60 78 96 46 78 96 46 96 96 46 96 116 46 96 116 46 96 116 46 96 116 60 96 116 60 96 116 60 96 116 60 42 136 60 42 136 60 42 136 46 42 136 46 42 136 46 42 136 46 42 136 46 42 96 46 60 96 60 60 96 60 60 96 60 60 96 60 60 96 60 60 96 60 60 116 46 60 116 46
78 116 60 78 116 60 78 116 60 78 116 60 78 116 60 78 116 60 78 116 46 78 136 46 96 136 46 96 136 46 96 136 46 96 136 46 96 136 60 96 136 60 96 96 60 96 96 60 42 96 60 42 96 60 42 96 46 42 96 46 42 96 46 42 116 46 42 116 46 42 116 46 60 116 60 60 116 60 60 116 60 60 116 60 60 136 60 60 136 60 60 136 46 60 136 46 78 136 46 78 136 46 78 136 46 78 96 46 78 96 60 78 96 60 78 96 60 78 96 60 96 96 60 96 96 60 96 116 46 96 116 46 96 116 46 96 116 46 96 116 46 96 116 46 42 116 60 42 136 60 42 136 60 42 136 60 42 136 60 42 136 60 42 136 46 42 136 46 60 96 46 60 96 46 60 96 46 60 96 46 60 96 60 60 96 60 60 96 60 60 116 60 78 116 60 78 116 60 78 116 46 78 116 46 78 116 46 78 116 46 78 136 46 78 136 46 96 136 60 96 136 60 96 136 60 96 136 60 96 136 60 96 96 60 96 96 46 96 96 46 42 96 46 42 96 46 42 96 46 42 96 46 42 116 60 42 116 60 42 116 60 42 116 60 60 116 60 60 116 60 60 116 46 60 136 46 60 136 46 60 136 46 60 136 46 60 136 46 78 136 60 78 136 60 78 96 60 78 96 60 78 96 60 78 96 60 78 96 46 78 96 46 96 96 46 96 116 46 96 116 46 96 116 46 96 116 60 96 116 60 96 116 60 96 116 60 42 136 60 42 136 60 42 136 46 42 136 46 42 136 46 42 136 46 42 136 46 42 96 46 60 96 60 60 96 60 60 96 60 60 96 60 60 96 60 60 96 60 60 116 46 60 116 46
96 116 60 96 116 60 96 116 60 96 116 60 96 116 60 96 116 60 96 116 46 96 136 46 42 136 46 42 136 46 42 136 46 42 136 46 42 136 60 42 136 60 42 96 60 42 96 60 60 96 60 60 96 60 60 96 46 60 96 46 60 96 46 60 116 46 60 116 46 60 116 46 78 116 60 78 116 60 78 116 60 78 116 60 78 136 60 78 136 60 78 136 46 78 136 46 96 136 46 96 136 46 96 136 46 96 96 46 96 96 60 96 96 60 96 96 60 96 96 60 42 96 60 42 96 60 42 116 46 42 116 46 42 116 46 42 116 46 42 116 46 42 116 46 60 116 60 60 136 60 60 136 60 60 136 60 60 136 60 60 136 60 60 136 46 60 136 46 78 96 46 78 96 46 78 96 46 78 96 46 78 96 60 78 96 60 78 96 60 78 116 60 96 116 60 96 116 60 96 116 46 96 116 46 96 116 46 96 116 46 96 136 46 96 136 46 42 136 60 42 136 60 42 136 60 42 136 60 42 136 60 42 96 60 42 96 46 42 96 46 60 96 46 60 96 46 60 96 46 60 96 46 60 116 60 60 116 60 60 116 60 60 116 60 78 116 60 78 116 60 78 116 46 78 136 46 78 136 46 78 136 46 78 136 46 78 136 46 96 136 60 96 136 60 96 96 60 96 96 60 96 96 60 96 96 60 96 96 46 96 96 46 42 96 46 42 116 46 42 116 46 42 116 46 42 116 60 42 116 60 42 116 60 42 116 60 60 136 60 60 136 60 60 136 46 60 136 46 60 136 46 60 136 46 60 136 46 60 96 46 78 96 60 78 96 60 78 96 60 78 96 60 78 96 60 78 96 60 78 116 46 78 116 46
96 116 60 96 116 60 96 116 60 96 116 60 96 116 60 96 116 60 96 116 46 96 136 46 42 136 46 42 136 46 42 136 46 42 136 46 42 136 60 42 136 60 42 96 60 42 96 60 60 96 60 60 96 60 60 96 46 60 96 46 60 96 46 60 116 46 60 116 46 60 116 46 78 116 60 78 116 60 78 116 60 78 116 60 78 136 60 78 136 60 78 136 46 78 136 46 96 136 46 96 136 46 96 136 46 96 96 46 96 96 60 96 96 60 96 96 60 96 96 60 42 96 60 42 96 60 42 116 46 42 116 46 42 116 46 42 116 46 42 116 46 42 116 46 60 116 60 60 136 60 60 136 60 60 136 60 60 136 60 60 136 60 60 136 46 60 136 46 78 96 46 78 96 46 78 96 46 78 96 46 78 96 60 78 96 60 78 96 60 78 116 60 96 116 60 96 116 60 96 116 46 96 116 46 96 116 46 96 116 46 96 136 46 96 136 46 42 136 60 42 136 60 42 136 60 42 136 60 42 136 60 42 96 60 42 96 46 42 96 46 60 96 46 60 96 46 60 96 46 60 96 46 60 116 60 60 116 60 60 116 60 60 116 60 78 116 60 78 116 60 78 116 46 78 136 46 78 136 46 78 136 46 78 136 46 78 136 46 96 136 60 96 136 60 96 96 60 96 96 60 96 96 60 96 96 60 96 96 46 96 96 46 42 96 46 42 116 46 42 116 46 42 116 46 42 116 60 42 116 60 42 116 60 42 116 60 60 136 60 60 136 60 60 136 46 60 136 46 60 136 46 60 136 46 60 136 46 60 96 46 78 96 60 78 96 60 78 96 60 78 96 60 78 96 60 78 96 60 78 116 46 78 116 46
96 116 60 96 116 60 96 116 60 96 116 60 96 116 60 96 116 60 96 116 46 96 136 46 42 136 46 42 136 46 42 136 46 42 136 46 42 136 60 42 136 60 42 96 60 42 96 60 60 96 60 60 96 60 60 96 46 60 96 46 60 96 46 60 116 46 60 116 46 60 116 46 78 116 60 78 116 60 78 116 60 78 116 60 78 136 60 78 136 60 78 136 46 78 136 46 96 136 46 96 136 46 96 136 46 96 96 46 96 96 60 96 96 60 96 96 60 96 96 60 42 96 60 42 96 60 42 116 46 42 116 46 42 116 46 42 116 46 42 116 46 42 116 46 60 116 60 60 136 60 60 136 60 60 136 60 60 136 60 60 136 60 60 136 46 60 136 46 78 96 46 78 96 46 78 96 46 78 96 46 78 96 60 78 96 60 78 96 60 78 116 60 96 116 60 96 116 60 96 116 46 96 116 46 96 116 46 96 116 46 96 136 46 96 136 46 42 136 60 42 136 60 42 136 60 42 136 60 42 136 60 42 96 60 42 96 46 42 96 46 60 96 46 60 96 46 60 96 46 60 96 46 60 116 60 60 116 60 60 116 60 60 116 60 78 116 60 78 116 60 78 116 46 78 136 46 78 136 46 78 136 46 78 136 46 78 136 46 96 136 60 96 136 60 96 96 60 96 96 60 96 96 60 96 96 60 96 96 46 96 96 46 42 96 46 42 116 46 42 116 46 42 116 46 42 116 60 42 116 60 42 116 60 42 116 60 60 136 60 60 136 60 60 136 46 60 136 46 60 136 46 60 136 46 60 136 46 60 96 46 78 96 60 78 96 60 78 96 60 78 96 60 78 96 60 78 96 60 78 116 46 78 116 46
96 136 60 96 136 60 96 136 60 96 136 60 96 136 60 96 136 60 96 136 46 96 96 46 42 96 46 42 96 46 42 96 46 42 96 46 42 96 60 42 96 60 42 116 60 42 116 60 60 116 60 60 116 60 60 116 46 60 116 46 60 116 46 60 136 46 60 136 46 60 136 46 78 136 60 78 136 60 78 136 60 78 136 60 78 96 60 78 96 60 78 96 46 78 96 46 96 96 46 96 96 46 96 96 46 96 116 46 96 116 60 96 116 60 96 116 60 96 116 60 42 116 60 42 116 60 42 136 46 42 136 46 42 136 46 42 136 46 42 136 46 42 136 46 60 136 60 60 96 60 60 96 60 60 96 60 60 96 60 60 96 60 60 96 46 60 96 46 78 116 46 78 116 46 78 116 46 78 116 46 78 116 60 78 116 60 78 116 60 78 136 60 96 136 60 96 136 60 96 136 46 96 136 46 96 136 46 96 136 46 96 96 46 96 96 46 42 96 60 42 96 60 42 96 60 42 96 60 42 96 60 42 116 60 42 116 46 42 116 46 60 116 46 60 116 46 60 116 46 60 116 46 60 136 60 60 136 60 60 136 60 60 136 60 78 136 60 78 136 60 78 136 46 78 96 46 78 96 46 78 96 46 78 96 46 78 96 46 96 96 60 96 96 60 96 116 60 96 116 60 96 116 60 96 116 60 96 116 46 96 116 46 42 116 46 42 136 46 42 136 46 42 136 46 42 136 60 42 136 60 42 136 60 42 136 60 60 96 60 60 96 60 60 96 46 60 96 46 60 96 46 60 96 46 60 96 46 60 116 46 78 116 60 78 116 60 78 116 60 78 116 60 78 116 60 78 116 60 78 136 46 78 136 46
96 136 60 96 136 60 96 136 60 96 136 60 96 136 60 96 136 60 96 136 46 96 96 46 42 96 46 42 96 46 42 96 46 42 96 46 42 96 60 42 96 60 42 116 60 42 116 60 60 116 60 60 116 60 60 116 46 60 116 46 60 116 46 60 136 46 60 136 46 60 136 46 78 136 60 78 136 60 78 136 60 78 136 60 78 96 60 78 96 60 78 96 46 78 96 46 96 96 46 96 96 46 96 96 46 96 116 46 96 116 60 96 116 60 96 116 60 96 116 60 42 116 60 42 116 60 42 136 46 42 136 46 42 136 46 42 136 46 42 136 46 42 136 46 60 136 60 60 96 60 60 96 60 60 96 60 60 96 60 60 96 60 60 96 46 60 96 46 78 116 46 78 116 46 78 116 46 78 116 46 78 116 60 78 116 60 78 116 60 78 136 60 96 136 60 96 136 60 96 136 46 96 136 46 96 136 46 96 136 46 96 96 46 96 96 46 42 96 60 42 96 60 42 96 60 42 96 60 42 96 60 42 116 60 42 116 46 42 116 46 60 116 46 60 116 46 60 116 46 60 116 46 60 136 60 60 136 60 60 136 60 60 136 60 78 136 60 78 136 60 78 136 46 78 96 46 78 96 46 78 96 46 78 96 46 78 96 46 96 96 60 96 96 60 96 116 60 96 116 60 96 116 60 96 116 60 96 116 46 96 116 46 42 116 46 42 136 46 42 136 46 42 136 46 42 136 60 42 136 60 42 136 60 42 136 60 60 96 60 60 96 60 60 96 46 60 96 46 60 96 46 60 96 46 60 96 46 60 116 46 78 116 60 78 116 60 78 116 60 78 116 60 78 116 60 78 116 60 78 136 46 78 136 46
96 136 60 96 136 60 96 136 60 96 136 60 96 136 60 96 136 60 96 136 46 96 96 46 42 96 46 42 96 46 42 96 46 42 96 46 42 96 60 42 96 60 42 116 60 42 116 60 60 116 60 60 116 60 60 116 46 60 116 46 60 116 46 60 136 46 60 136 46 60 136 46 78 136 60 78 136 60 78 136 60 78 136 60 78 96 60 78 96 60 78 96 46 78 96 46 96 96 46 96 96 46 96 96 46 96 116 46 96 116 60 96 116 60 96 116 60 96 116 60 42 116 60 42 116 60 42 136 46 42 136 46 42 136 46 42 136 46 42 136 46 42 136 46 60 136 60 60 96 60 60 96 60 60 96 60 60 96 60 60 96 60 60 96 46 60 96 46 78 116 46 78 116 46 78 116 46 78 116 46 78 116 60 78 116 60 78 116 60 78 136 60 96 136 60 96 136 60 96 136 46 96 136 46 96 136 46 96 136 46 96 96 46 96 96 46 42 96 60 42 96 60 42 96 60 42 96 60 42 96 60 42 116 60 42 116 46 42 116 46 60 116 46 60 116 46 60 116 46 60 116 46 60 136 60 60 136 60 60 136 60 60 136 60 78 136 60 78 136 60 78 136 46 78 96 46 78 96 46 78 96 46 78 96 46 78 96 46 96 96 60 96 96 60 96 116 60 96 116 60 96 116 60 96 116 60 96 116 46 96 116 46 42 116 46 42 136 46 42 136 46 42 136 46 42 136 60 42 136 60 42 136 60 42 136 60 60 96 60 60 96 60 60 96 46 60 96 46 60 96 46 60 96 46 60 96 46 60 116 46 78 116 60 78 116 60 78 116 60 78 116 60 78 116 60 78 116 60 78 136 46 78 136 46
42 136 46 42 136 46 42 136 46 42 136 46 42 136 46 42 136 46 42 136 60 42 96 60 60 96 60 60 96 60 60 96 60 60 96 60 60 96 46 60 96 46 60 116 46 60 116 46 78 116 46 78 116 46 78 116 60 78 116 60 78 116 60 78 136 60 78 136 60 78 136 60 96 136 46 96 136 46 96 136 46 96 136 46 96 96 46 96 96 46 96 96 60 96 96 60 42 96 60 42 96 60 42 96 60 42 116 60 42 116 46 42 116 46 42 116 46 42 116 46 60 116 46 60 116 46 60 136 60 60 136 60 60 136 60 60 136 60 60 136 60 60 136 60 78 136 46 78 96 46 78 96 46 78 96 46 78 96 46 78 96 46 78 96 60 78 96 60 96 116 60 96 116 60 96 116 60 96 116 60 96 116 46 96 116 46 96 116 46 96 136 46 42 136 46 42 136 46 42 136 60 42 136 60 42 136 60 42 136 60 42 96 60 42 96 60 60 96 46 60 96 46 60 96 46 60 96 46 60 96 46 60 116 46 60 116 60 60 116 60 78 116 60 78 116 60 78 116 60 78 116 60 78 136 46 78 136 46 78 136 46 78 136 46 96 136 46 96 136 46 96 136 60 96 96 60 96 96 60 96 96 60 96 96 60 96 96 60 42 96 46 42 96 46 42 116 46 42 116 46 42 116 46 42 116 46 42 116 60 42 116 60 60 116 60 60 136 60 60 136 60 60 136 60 60 136 46 60 136 46 60 136 46 60 136 46 78 96 46 78 96 46 78 96 60 78 96 60 78 96 60 78 96 60 78 96 60 78 116 60 96 116 46 96 116 46 96 116 46 96 116 46 96 116 46 96 116 46 96 136 60 96 136 60
42 136 46 42 136 46 42 136 46 42 136 46 42 136 46 42 136 46 42 136 60 42 96 60 60 96 60 60 96 60 60 96 60 60 96 60 60 96 46 60 96 46 60 116 46 60 116 46 78 116 46 78 116 46 78 116 60 78 116 60 78 116 60 78 136 60 78 136 60 78 136 60 96 136 46 96 136 46 96 136 46 96 136 46 96 96 46 96 96 46 96 96 60 96 96 60 42 96 60 42 96 60 42 96 60 42 116 60 42 116 46 42 116 46 42 116 46 42 116 46 60 116 46 60 116 46 60 136 60 60 136 60 60 136 60 60 136 60 60 136 60 60 136 60 78 136 46 78 96 46 78 96 46 78 96 46 78 96 46 78 96 46 78 96 60 78 96 60 96 116 60 96 116 60 96 116 60 96 116 60 96 116 46 96 116 46 96 116 46 96 136 46 42 136 46 42 136 46 42 136 60 42 136 60 42 136 60 42 136 60 42 96 60 42 96 60 60 96 46 60 96 46 60 96 46 60 96 46 60 96 46 60 116 46 60 116 60 60 116 60 78 116 60 78 116 60 78 116 60 78 116 60 78 136 46 78 136 46 78 136 46 78 136 46 96 136 46 96 136 46 96 136 60 96 96 60 96 96 60 96 96 60 96 96 60 96 96 60 42 96 46 42 96 46 42 116 46 42 116 46 42 116 46 42 116 46 42 116 60 42 116 60 60 116 60 60 136 60 60 136 60 60 136 60 60 136 46 60 136 46 60 136 46 60 136 46 78 96 46 78 96 46 78 96 60 78 96 60 78 96 60 78 96 60 78 96 60 78 116 60 96 116 46 96 116 46 96 116 46 96 116 46 96 116 46 96 116 46 96 136 60 96 136 60
42 136 46 42 136 46 42 136 46 42 136 46 42 136 46 42 136 46 42 136 60 42 96 60 60 96 60 60 96 60 60 96 60 60 96 60 60 96 46 60 96 46 60 116 46 60 116 46 78 116 46 78 116 46 78 116 60 78 116 60 78 116 60 78 136 60 78 136 60 78 136 60 96 136 46 96 136 46 96 136 46 96 136 46 96 96 46 96 96 46 96 96 60 96 96 60 42 96 60 42 96 60 42 96 60 42 116 60 42 116 46 42 116 46 42 116 46 42 116 46 60 116 46 60 116 46 60 136 60 60 136 60 60 136 60 60 136 60 60 136 60 60 136 60 78 136 46 78 96 46 78 96 46 78 96 46 78 96 46 78 96 46 78 96 60 78 96 60 96 116 60 96 116 60 96 116 60 96 116 60 96 116 46 96 116 46 96 116 46 96 136 46 42 136 46 42 136 46 42 136 60 42 136 60 42 136 60 42 136 60 42 96 60 42 96 60 60 96 46 60 96 46 60 96 46 60 96 46 60 96 46 60 116 46 60 116 60 60 116 60 78 116 60 78 116 60 78 116 60 78 116 60 78 136 46 78 136 46 78 136 46 78 136 46 96 136 46 96 136 46 96 136 60 96 96 60 96 96 60 96 96 60 96 96 60 96 96 60 42 96 46 42 96 46 42 116 46 42 116 46 42 116 46 42 116 46 42 116 60 42 116 60 60 116 60 60 136 60 60 136 60 60 136 60 60 136 46 60 136 46 60 136 46 60 136 46 78 96 46 78 96 46 78 96 60 78 96 60 78 96 60 78 96 60 78 96 60 78 116 60 96 116 46 96 116 46 96 116 46 96 116 46 96 116 46 96 116 46 96 136 60 96 136 60
42 136 46 42 136 46 42 136 46 42 136 46 42 136 46 42 136 46 42 136 60 42 96 60 60 96 60 60 96 60 60 96 60 60 96 60 60 96 46 60 96 46 60 116 46 60 116 46 78 116 46 78 116 46 78 116 60 78 116 60 78 116 60 78 136 60 78 136 60 78 136 60 96 136 46 96 136 46 96 136 46 96 136 46 96 96 46 96 96 46 96 96 60 96 96 60 42 96 60 42 96 60 42 96 60 42 116 60 42 116 46 42 116 46 42 116 46 42 116 46 60 116 46 60 116 46 60 136 60 60 136 60 60 136 60 60 136 60 60 136 60 60 136 60 78 136 46 78 96 46 78 96 46 78 96 46 78 96 46 78 96 46 78 96 60 78 96 60 96 116 60 96 116 60 96 116 60 96 116 60 96 116 46 96 116 46 96 116 46 96 136 46 42 136 46 42 136 46 42 136 60 42 136 60 42 136 60 42 136 60 42 96 60 42 96 60 60 96 46 60 96 46 60 96 46 60 96 46 60 96 46 60 116 46 60 116 60 60 116 60 78 116 60 78 116 60 78 116 60 78 116 60 78 136 46 78 136 46 78 136 46 78 136 46 96 136 46 96 136 46 96 136 60 96 96 60 96 96 60 96 96 60 96 96 60 96 96 60 42 96 46 42 96 46 42 116 46 42 116 46 42 116 46 42 116 46 42 116 60 42 116 60 60 116 60 60 136 60 60 136 60 60 136 60 60 136 46 60 136 46 60 136 46 60 136 46 78 96 46 78 96 46 78 96 60 78 96 60 78 96 60 78 96 60 78 96 60 78 116 60 96 116 46 96 116 46 96 116 46 96 116 46 96 116 46 96 116 46 96 136 60 96 136 60
42 136 46 42 136 46 42 136 46 42 136 46 42 136 46 42 136 46 42 136 60 42 96 60 60 96 60 60 96 60 60 96 60 60 96 60 60 96 46 60 96 46 60 116 46 60 116 46 78 116 46 78 116 46 78 116 60 78 116 60 78 116 60 78 136 60 78 136 60 78 136 60 96 136 46 96 136 46 96 136 46 96 136 46 96 96 46 96 96 46 96 96 60 96 96 60 42 96 60 42 96 60 42 96 60 42 116 60 42 116 46 42 116 46 42 116 46 42 116 46 60 116 46 60 116 46 60 136 60 60 136 60 60 136 60 60 136 60 60 136 60 60 136 60 78 136 46 78 96 46 78 96 46 78 96 46 78 96 46 78 96 46 78 96 60 78 96 60 96 116 60 96 116 60 96 116 60 96 116 60 96 116 46 96 116 46 96 116 46 96 136 46 42 136 46 42 136 46 42 136 60 42 136 60 42 136 60 42 136 60 42 96 60 42 96 60 60 96 46 60 96 46 60 96 46 60 96 46 60 96 46 60 116 46 60 116 60 60 116 60 78 116 60 78 116 60 78 116 60 78 116 60 78 136 46 78 136 46 78 136 46 78 136 46 96 136 46 96 136 46 96 136 60 96 96 60 96 96 60 96 96 60 96 96 60 96 96 60 42 96 46 42 96 46 42 116 46 42 116 46 42 116 46 42 116 46 42 116 60 42 116 60 60 116 60 60 136 60 60 136 60 60 136 60 60 136 46 60 136 46 60 136 46 60 136 46 78 96 46 78 96 46 78 96 60 78 96 60 78 96 60 78 96 60 78 96 60 78 116 60 96 116 46 96 116 46 96 116 46 96 116 46 96 116 46 96 116 46 96 136 60 96 136 60
42 136 46 42 136 46 42 136 46 42 136 46 42 136 46 42 136 46 42 136 60 42 96 60 60 96 60 60 96 60 60 96 60 60 96 60 60 96 46 60 96 46 60 116 46 60 116 46 78 116 46 78 116 46 78 116 60 78 116 60 78 116 60 78 136 60 78 136 60 78 136 60 96 136 46 96 136 46 96 136 46 96 136 46 96 96 46 96 96 46 96 96 60 96 96 60 42 96 60 42 96 60 42 96 60 42 116 60 42 116 46 42 116 46 42 116 46 42 116 46 60 116 46 60 116 46 60 136 60 60 136 60 60 136 60 60 136 60 60 136 60 60 136 60 78 136 46 78 96 46 78 96 46 78 96 46 78 96 46 78 96 46 78 96 60 78 96 60 96 116 60 96 116 60 96 116 60 96 116 60 96 116 46 96 116 46 96 116 46 96 136 46 42 136 46 42 136 46 42 136 60 42 136 60 42 136 60 42 136 60 42 96 60 42 96 60 60 96 46 60 96 46 60 96 46 60 96 46 60 96 46 60 116 46 60 116 60 60 116 60 78 116 60 78 116 60 78 116 60 78 116 60 78 136 46 78 136 46 78 136 46 78 136 46 96 136 46 96 136 46 96 136 60 96 96 60 96 96 60 96 96 60 96 96 60 96 96 60 42 96 46 42 96 46 42 116 46 42 116 46 42 116 46 42 116 46 42 116 60 42 116 60 60 116 60 60 136 60 60 136 60 60 136 60 60 136 46 60 136 46 60 136 46 60 136 46 78 96 46 78 96 46 78 96 60 78 96 60 78 96 60 78 96 60 78 96 60 78 116 60 96 116 46 96 116 46 96 116 46 96 116 46 96 116 46 96 116 46 96 136 60 96 136 60
60 96 46 60 96 46 60 96 46 60 96 46 60 96 46 60 96 46 60 96 60 60 116 60 78 116 60 78 116 60 78 116 60 78 116 60 78 116 46 78 116 46 78 136 46 78 136 46 96 136 46 96 136 46 96 136 60 96 136 60 96 136 60 96 96 60 96 96 60 96 96 60 42 96 46 42 96 46 42 96 46 42 96 46 42 116 46 42 116 46 42 116 60 42 116 60 60 116 60 60 116 60 60 116 60 60 136 60 60 136 46 60 136 46 60 136 46 60 136 46 78 136 46 78 136 46 78 96 60 78 96 60 78 96 60 78 96 60 78 96 60 78 96 60 96 96 46 96 116 46 96 116 46 96 116 46 96 116 46 96 116 46 96 116 60 96 116 60 42 136 60 42 136 60 42 136 60 42 136 60 42 136 46 42 136 46 42 136 46 42 96 46 60 96 46 60 96 46 60 96 60 60 96 60 60 96 60 60 96 60 60 116 60 60 116 60 78 116 46 78 116 46 78 116 46 78 116 46 78 116 46 78 136 46 78 136 60 78 136 60 96 136 60 96 136 60 96 136 60 96 136 60 96 96 46 96 96 46 96 96 46 96 96 46 42 96 46 42 96 46 42 96 60 42 116 60 42 116 60 42 116 60 42 116 60 42 116 60 60 116 46 60 116 46 60 136 46 60 136 46 60 136 46 60 136 46 60 136 60 60 136 60 78 136 60 78 96 60 78 96 60 78 96 60 78 96 46 78 96 46 78 96 46 78 96 46 96 116 46 96 116 46 96 116 60 96 116 60 96 116 60 96 116 60 96 116 60 96 136 60 42 136 46 42 136 46 42 136 46 42 136 46 42 136 46 42 136 46 42 96 60 42 96 60
60 96 46 60 96 46 60 96 46 60 96 46 60 96 46 60 96 46 60 96 60 60 116 60 78 116 60 78 116 60 78 116 60 78 116 60 78 116 46 78 116 46 78 136 46 78 136 46 96 136 46 96 136 46 96 136 60 96 136 60 96 136 60 96 96 60 96 96 60 96 96 60 42 96 46 42 96 46 42 96 46 42 96 46 42 116 46 42 116 46 42 116 60 42 116 60 60 116 60 60 116 60 60 116 60 60 136 60 60 136 46 60 136 46 60 136 46 60 136 46 78 136 46 78 136 46 78 96 60 78 96 60 78 96 60 78 96 60 78 96 60 78 96 60 96 96 46 96 116 46 96 116 46 96 116 46 96 116 46 96 116 46 96 116 60 96 116 60 42 136 60 42 136 60 42 136 60 42 136 60 42 136 46 42 136 46 42 136 46 42 96 46 60 96 46 60 96 46 60 96 60 60 96 60 60 96 60 60 96 60 60 116 60 60 116 60 78 116 46 78 116 46 78 116 46 78 116 46 78 116 46 78 136 46 78 136 60 78 136 60 96 136 60 96 136 60 96 136 60 96 136 60 96 96 46 96 96 46 96 96 46 96 96 46 42 96 46 42 96 46 42 96 60 42 116 60 42 116 60 42 116 60 42 116 60 42 116 60 60 116 46 60 116 46 60 136 46 60 136 46 60 136 46 60 136 46 60 136 60 60 136 60 78 136 60 78 96 60 78 96 60 78 96 60 78 96 46 78 96 46 78 96 46 78 96 46 96 116 46 96 116 46 96 116 60 96 116 60 96 116 60 96 116 60 96 116 60 96 136 60 42 136 46 42 136 46 42 136 46 42 136 46 42 136 46 42 136 46 42 96 60 42 96 60
60 96 60 60 96 60 60 96 60 60 96 60 60 96 60 60 96 60 60 96 46 60 116 46 78 116 46 78 116 46 78 116 46 78 116 46 78 116 60 78 116 60 78 136 60 78 136 60 96 136 60 96 136 60 96 136 46 96 136 46 96 136 46 96 96 46 96 96 46 96 96 46 42 96 60 42 96 60 42 96 60 42 96 60 42 116 60 42 116 60 42 116 46 42 116 46 60 116 46 60 116 46 60 116 46 60 136 46 60 136 60 60 136 60 60 136 60 60 136 60 78 136 60 78 136 60 78 96 46 78 96 46 78 96 46 78 96 46 78 96 46 78 96 46 96 96 60 96 116 60 96 116 60 96 116 60 96 116 60 96 116 60 96 116 46 96 116 46 42 136 46 42 136 46 42 136 46 42 136 46 42 136 60 42 136 60 42 136 60 42 96 60 60 96 60 60 96 60 60 96 46 60 96 46 60 96 46 60 96 46 60 116 46 60 116 46 78 116 60 78 116 60 78 116 60 78 116 60 78 116 60 78 136 60 78 136 46 78 136 46 96 136 46 96 136 46 96 136 46 96 136 46 96 96 60 96 96 60 96 96 60 96 96 60 42 96 60 42 96 60 42 96 46 42 116 46 42 116 46 42 116 46 42 116 46 42 116 46 60 116 60 60 116 60 60 136 60 60 136 60 60 136 60 60 136 60 60 136 46 60 136 46 78 136 46 78 96 46 78 96 46 78 96 46 78 96 60 78 96 60 78 96 60 78 96 60 96 116 60 96 116 60 96 116 46 96 116 46 96 116 46 96 116 46 96 116 46 96 136 46 42 136 60 42 136 60 42 136 60 42 136 60 42 136 60 42 136 60 42 96 46 42 96 46
60 96 60 60 96 60 60 96 60 60 96 60 60 96 60 60 96 60 60 96 46 60 116 46 78 116 46 78 116 46 78 116 46 78 116 46 78 116 60 78 116 60 78 136 60 78 136 60 96 136 60 96 136 60 96 136 46 96 136 46 96 136 46 96 96 46 96 96 46 96 96 46 42 96 60 42 96 60 42 96 60 42 96 60 42 116 60 42 116 60 42 116 46 42 116 46 60 116 46 60 116 46 60 116 46 60 136 46 60 136 60 60 136 60 60 136 60 60 136 60 78 136 60 78 136 60 78 96 46 78 96 46 78 96 46 78 96 46 78 96 46 78 96 46 96 96 60 96 116 60 96 116 60 96 116 60 96 116 60 96 116 60 96 116 46 96 116 46 42 136 46 42 136 46 42 136 46 42 136 46 42 136 60 42 136 60 42 136 60 42 96 60 60 96 60 60 96 60 60 96 46 60 96 46 60 96 46 60 96 46 60 116 46 60 116 46 78 116 60 78 116 60 78 116 60 78 116 60 78 116 60 78 136 60 78 136 46 78 136 46 96 136 46 96 136 46 96 136 46 96 136 46 96 96 60 96 96 60 96 96 60 96 96 60 42 96 60 42 96 60 42 96 46 42 116 46 42 116 46 42 116 46 42 116 46 42 116 46 60 116 60 60 116 60 60 136 60 60 136 60 60 136 60 60 136 60 60 136 46 60 136 46 78 136 46 78 96 46 78 96 46 78 96 46 78 96 60 78 96 60 78 96 60 78 96 60 96 116 60 96 116 60 96 116 46 96 116 46 96 116 46 96 116 46 96 116 46 96 136 46 42 136 60 42 136 60 42 136 60 42 136 60 42 136 60 42 136 60 42 96 46 42 96 46
60 96 60 60 96 60 60 96 60 60 96 60 60 96 60 60 96 60 60 96 46 60 116 46 78 116 46 78 116 46 78 116 46 78 116 46 78 116 60 78 116 60 78 136 60 78 136 60 96 136 60 96 136 60 96 136 46 96 136 46 96 136 46 96 96 46 96 96 46 96 96 46 42 96 60 42 96 60 42 96 60 42 96 60 42 116 60 42 116 60 42 116 46 42 116 46 60 116 46 60 116 46 60 116 46 60 136 46 60 136 60 60 136 60 60 136 60 60 136 60 78 136 60 78 136 60 78 96 46 78 96 46 78 96 46 78 96 46 78 96 46 78 96 46 96 96 60 96 116 60 96 116 60 96 116 60 96 116 60 96 116 60 96 116 46 96 116 46 42 136 46 42 136 46 42 136 46 42 136 46 42 136 60 42 136 60 42 136 60 42 96 60 60 96 60 60 96 60 60 96 46 60 96 46 60 96 46 60 96 46 60 116 46 60 116 46 78 116 60 78 116 60 78 116 60 78 116 60 78 116 60 78 136 60 78 136 46 78 136 46 96 136 46 96 136 46 96 136 46 96 136 46 96 96 60 96 96 60 96 96 60 96 96 60 42 96 60 42 96 60 42 96 46 42 116 46 42 116 46 42 116 46 42 116 46 42 116 46 60 116 60 60 116 60 60 136 60 60 136 60 60 136 60 60 136 60 60 136 46 60 136 46 78 136 46 78 96 46 78 96 46 78 96 46 78 96 60 78 96 60 78 96 60 78 96 60 96 116 60 96 116 60 96 116 46 96 116 46 96 116 46 96 116 46 96 116 46 96 136 46 42 136 60 42 136 60 42 136 60 42 136 60 42 136 60 42 136 60 42 96 46 42 96 46
60 96 60 60 96 60 60 96 60 60 96 60 60 96 60 60 96 60 60 96 46 60 116 46 78 116 46 78 116 46 78 116 46 78 116 46 78 116 60 78 116 60 78 136 60 78 136 60 96 136 60 96 136 60 96 136 46 96 136 46 96 136 46 96 96 46 96 96 46 96 96 46 42 96 60 42 96 60 42 96 60 42 96 60 42 116 60 42 116 60 42 116 46 42 116 46 60 116 46 60 116 46 60 116 46 60 136 46 60 136 60 60 136 60 60 136 60 60 136 60 78 136 60 78 136 60 78 96 46 78 96 46 78 96 46 78 96 46 78 96 46 78 96 46 96 96 60 96 116 60 96 116 60 96 116 60 96 116 60 96 116 60 96 116 46 96 116 46 42 136 46 42 136 46 42 136 46 42 136 46 42 136 60 42 136 60 42 136 60 42 96 60 60 96 60 60 96 60 60 96 46 60 96 46 60 96 46 60 96 46 60 116 46 60 116 46 78 116 60 78 116 60 78 116 60 78 116 60 78 116 60 78 136 60 78 136 46 78 136 46 96 136 46 96 136 46 96 136 46 96 136 46 96 96 60 96 96 60 96 96 60 96 96 60 42 96 60 42 96 60 42 96 46 42 116 46 42 116 46 42 116 46 42 116 46 42 116 46 60 116 60 60 116 60 60 136 60 60 136 60 60 136 60 60 136 60 60 136 46 60 136 46 78 136 46 78 96 46 78 96 46 78 96 46 78 96 60 78 96 60 78 96 60 78 96 60 96 116 60 96 116 60 96 116 46 96 116 46 96 116 46 96 116 46 96 116 46 96 136 46 42 136 60 42 136 60 42 136 60 42 136 60 42 136 60 42 136 60 42 96 46 42 96 46
78 96 60 78 96 60 78 96 60 78 96 60 78 96 60 78 96 60 78 96 46 78 116 46 96 116 46 96 116 46 96 116 46 96 116 46 96 116 60 96 116 60 96 136 60 96 136 60 42 136 60 42 136 60 42 136 46 42 136 46 42 136 46 42 96 46 42 96 46 42 96 46 60 96 60 60 96 60 60 96 60 60 96 60 60 116 60 60 116 60 60 116 46 60 116 46 78 116 46 78 116 46 78 116 46 78 136 46 78 136 60 78 136 60 78 136 60 78 136 60 96 136 60 96 136 60 96 96 46 96 96 46 96 96 46 96 96 46 96 96 46 96 96 46 42 96 60 42 116 60 42 116 60 42 116 60 42 116 60 42 116 60 42 116 46 42 116 46 60 136 46 60 136 46 60 136 46 60 136 46 60 136 60 60 136 60 60 136 60 60 96 60 78 96 60 78 96 60 78 96 46 78 96 46 78 96 46 78 96 46 78 116 46 78 116 46 96 116 60 96 116 60 96 116 60 96 116 60 96 116 60 96 136 60 96 136 46 96 136 46 42 136 46 42 136 46 42 136 46 42 136 46 42 96 60 42 96 60 42 96 60 42 96 60 60 96 60 60 96 60 60 96 46 60 116 46 60 116 46 60 116 46 60 116 46 60 116 46 78 116 60 78 116 60 78 136 60 78 136 60 78 136 60 78 136 60 78 136 46 78 136 46 96 136 46 96 96 46 96 96 46 96 96 46 96 96 60 96 96 60 96 96 60 96 96 60 42 116 60 42 116 60 42 116 46 42 116 46 42 116 46 42 116 46 42 116 46 42 136 46 60 136 60 60 136 60 60 136 60 60 136 60 60 136 60 60 136 60 60 96 46 60 96 46
78 96 60 78 96 60 78 96 60 78 96 60 78 96 60 78 96 60 78 96 46 78 116 46 96 116 46 96 116 46 96 116 46 96 116 46 96 116 60 96 116 60 96 136 60 96 136 60 42 136 60 42 136 60 42 136 46 42 136 46 42 136 46 42 96 46 42 96 46 42 96 46 60 96 60 60 96 60 60 96 60 60 96 60 60 116 60 60 116 60 60 116 46 60 116 46 78 116 46 78 116 46 78 116 46 78 136 46 78 136 60 78 136 60 78 136 60 78 136 60 96 136 60 96 136 60 96 96 46 96 96 46 96 96 46 96 96 46 96 96 46 96 96 46 42 96 60 42 116 60 42 116 60 42 116 60 42 116 60 42 116 60 42 116 46 42 116 46 60 136 46 60 136 46 60 136 46 60 136 46 60 136 60 60 136 60 60 136 60 60 96 60 78 96 60 78 96 60 78 96 46 78 96 46 78 96 46 78 96 46 78 116 46 78 116 46 96 116 60 96 116 60 96 116 60 96 116 60 96 116 60 96 136 60 96 136 46 96 136 46 42 136 46 42 136 46 42 136 46 42 136 46 42 96 60 42 96 60 42 96 60 42 96 60 60 96 60 60 96 60 60 96 46 60 116 46 60 116 46 60 116 46 60 116 46 60 116 46 78 116 60 78 116 60 78 136 60 78 136 60 78 136 60 78 136 60 78 136 46 78 136 46 96 136 46 96 96 46 96 96 46 96 96 46 96 96 60 96 96 60 96 96 60 96 96 60 42 116 60 42 116 60 42 116 46 42 116 46 42 116 46 42 116 46 42 116 46 42 136 46 60 136 60 60 136 60 60 136 60 60 136 60 60 136 60 60 136 60 60 96 46 60 96 46
78 96 60 78 96 60 78 96 60 78 96 60 78 96 60 78 96 60 78 96 46 78 116 46 96 116 46 96 116 46 96 116 46 96 116 46 96 116 60 96 116 60 96 136 60 96 136 60 42 136 60 42 136 60 42 136 46 42 136 46 42 136 46 42 96 46 42 96 46 42 96 46 60 96 60 60 96 60 60 96 60 60 96 60 60 116 60 60 116 60 60 116 46 60 116 46 78 116 46 78 116 46 78 116 46 78 136 46 78 136 60 78 136 60 78 136 60 78 136 60 96 136 60 96 136 60 96 96 46 96 96 46 96 96 46 96 96 46 96 96 46 96 96 46 42 96 60 42 116 60 42 116 60 42 116 60 42 116 60 42 116 60 42 116 46 42 116 46 60 136 46 60 136 46 60 136 46 60 136 46 60 136 60 60 136 60 60 136 60 60 96 60 78 96 60 78 96 60 78 96 46 78 96 46 78 96 46 78 96 46 78 116 46 78 116 46 96 116 60 96 116 60 96 116 60 96 116 60 96 116 60 96 136 60 96 136 46 96 136 46 42 136 46 42 136 46 42 136 46 42 136 46 42 96 60 42 96 60 42 96 60 42 96 60 60 96 60 60 96 60 60 96 46 60 116 46 60 116 46 60 116 46 60 116 46 60 116 46 78 116 60 78 116 60 78 136 60 78 136 60 78 136 60 78 136 60 78 136 46 78 136 46 96 136 46 96 96 46 96 96 46 96 96 46 96 96 60 96 96 60 96 96 60 96 96 60 42 116 60 42 116 60 42 116 46 42 116 46 42 116 46 42 116 46 42 116 46 42 136 46 60 136 60 60 136 60 60 136 60 60 136 60 60 136 60 60 136 60 60 96 46 60 96 46
78 116 60 78 116 60 78 116 60 78 116 60 78 116 60 78 116 60 78 116 46 78 136 46 96 136 46 96 136 46 96 136 46 96 136 46 96 136 60 96 136 60 96 96 60 96 96 60 42 96 60 42 96 60 42 96 46 42 96 46 42 96 46 42 116 46 42 116 46 42 116 46 60 116 60 60 116 60 60 116 60 60 116 60 60 136 60 60 136 60 60 136 46 60 136 46 78 136 46 78 136 46 78 136 46 78 96 46 78 96 60 78 96 60 78 96 60 78 96 60 96 96 60 96 96 60 96 116 46 96 116 46 96 116 46 96 116 46 96 116 46 96 116 46 42 116 60 42 136 60 42 136 60 42 136 60 42 136 60 42 136 60 42 136 46 42 136 46 60 96 46 60 96 46 60 96 46 60 96 46 60 96 60 60 96 60 60 96 60 60 116 60 78 116 60 78 116 60 78 116 46 78 116 46 78 116 46 78 116 46 78 136 46 78 136 46 96 136 60 96 136 60 96 136 60 96 136 60 96 136 60 96 96 60 96 96 46 96 96 46 42 96 46 42 96 46 42 96 46 42 96 46 42 116 60 42 116 60 42 116 60 42 116 60 60 116 60 60 116 60 60 116 46 60 136 46 60 136 46 60 136 46 60 136 46 60 136 46 78 136 60 78 136 60 78 96 60 78 96 60 78 96 60 78 96 60 78 96 46 78 96 46 96 96 46 96 116 46 96 116 46 96 116 46 96 116 60 96 116 60 96 116 60 96 116 60 42 136 60 42 136 60 42 136 46 42 136 46 42 136 46 42 136 46 42 136 46 42 96 46 60 96 60 60 96 60 60 96 60 60 96 60 60 96 60 60 96 60 60 116 46 60 116 46
78 116 46 78 116 46 78 116 46 78 116 46 78 116 46 78 116 46 78 116 60 78 136 60 96 136 60 96 136 60 96 136 60 96 136 60 96 136 46 96 136 46 96 96 46 96 96 46 42 96 46 42 96 46 42 96 60 42 96 60 42 96 60 42 116 60 42 116 60 42 116 60 60 116 46 60 116 46 60 116 46 60 116 46 60 136 46 60 136 46 60 136 60 60 136 60 78 136 60 78 136 60 78 136 60 78 96 60 78 96 46 78 96 46 78 96 46 78 96 46 96 96 46 96 96 46 96 116 60 96 116 60 96 116 60 96 116 60 96 116 60 96 116 60 42 116 46 42 136 46 42 136 46 42 136 46 42 136 46 42 136 46 42 136 60 42 136 60 60 96 60 60 96 60 60 96 60 60 96 60 60 96 46 60 96 46 60 96 46 60 116 46 78 116 46 78 116 46 78 116 60 78 116 60 78 116 60 78 116 60 78 136 60 78 136 60 96 136 46 96 136 46 96 136 46 96 136 46 96 136 46 96 96 46 96 96 60 96 96 60 42 96 60 42 96 60 42 96 60 42 96 60 42 116 46 42 116 46 42 116 46 42 116 46 60 116 46 60 116 46 60 116 60 60 136 60 60 136 60 60 136 60 60 136 60 60 136 60 78 136 46 78 136 46 78 96 46 78 96 46 78 96 46 78 96 46 78 96 60 78 96 60 96 96 60 96 116 60 96 116 60 96 116 60 96 116 46 96 116 46 96 116 46 96 116 46 42 136 46 42 136 46 42 136 60 42 136 60 42 136 60 42 136 60 42 136 60 42 96 60 60 96 46 60 96 46 60 96 46 60 96 46 60 96 46 60 96 46 60 116 60 60 116 60
78 116 46 78 116 46 78 116 46 78 116 46 78 116 46 78 116 46 78 116 60 78 136 60 96 136 60 96 136 60 96 136 60 96 136 60 96 136 46 96 136 46 96 96 46 96 96 46 42 96 46 42 96 46 42 96 60 42 96 60 42 96 60 42 116 60 42 116 60 42 116 60 60 116 46 60 116 46 60 116 46 60 116 46 60 136 46 60 136 46 60 136 60 60 136 60 78 136 60 78 136 60 78 136 60 78 96 60 78 96 46 78 96 46 78 96 46 78 96 46 96 96 46 96 96 46 96 116 60 96 116 60 96 116 60 96 116 60 96 116 60 96 116 60 42 116 46 42 136 46 42 136 46 42 136 46 42 136 46 42 136 46 42 136 60 42 136 60 60 96 60 60 96 60 60 96 60 60 96 60 60 96 46 60 96 46 60 96 46 60 116 46 78 116 46 78 116 46 78 116 60 78 116 60 78 116 60 78 116 60 78 136 60 78 136 60 96 136 46 96 136 46 96 136 46 96 136 46 96 136 46 96 96 46 96 96 60 96 96 60 42 96 60 42 96 60 42 96 60 42 96 60 42 116 46 42 116 46 42 116 46 42 116 46 60 116 46 60 116 46 60 116 60 60 136 60 60 136 60 60 136 60 60 136 60 60 136 60 78 136 46 78 136 46 78 96 46 78 96 46 78 96 46 78 96 46 78 96 60 78 96 60 96 96 60 96 116 60 96 116 60 96 116 60 96 116 46 96 116 46 96 116 46 96 116 46 42 136 46 42 136 46 42 136 60 42 136 60 42 136 60 42 136 60 42 136 60 42 96 60 60 96 46 60 96 46 60 96 46 60 96 46 60 96 46 60 96 46 60 116 60 60 116 60
96 116 46 96 116 46 96 116 46 96 116 46 96 116 46 96 116 46 96 116 60 96 136 60 42 136 60 42 136 60 42 136 60 42 136 60 42 136 46 42 136 46 42 96 46 42 96 46 60 96 46 60 96 46 60 96 60 60 96 60 60 96 60 60 116 60 60 116 60 60 116 60 78 116 46 78 116 46 78 116 46 78 116 46 78 136 46 78 136 46 78 136 60 78 136 60 96 136 60 96 136 60 96 136 60 96 96 60 96 96 46 96 96 46 96 96 46 96 96 46 42 96 46 42 96 46 42 116 60 42 116 60 42 116 60 42 116 60 42 116 60 42 116 60 60 116 46 60 136 46 60 136 46 60 136 46 60 136 46 60 136 46 60 136 60 60 136 60 78 96 60 78 96 60 78 96 60 78 96 60 78 96 46 78 96 46 78 96 46 78 116 46 96 116 46 96 116 46 96 116 60 96 116 60 96 116 60 96 116 60 96 136 60 96 136 60 42 136 46 42 136 46 42 136 46 42 136 46 42 136 46 42 96 46 42 96 60 42 96 60 60 96 60 60 96 60 60 96 60 60 96 60 60 116 46 60 116 46 60 116 46 60 116 46 78 116 46 78 116 46 78 116 60 78 136 60 78 136 60 78 136 60 78 136 60 78 136 60 96 136 46 96 136 46 96 96 46 96 96 46 96 96 46 96 96 46 96 96 60 96 96 60 42 96 60 42 116 60 42 116 60 42 116 60 42 116 46 42 116 46 42 116 46 42 116 46 60 136 46 60 136 46 60 136 60 60 136 60 60 136 60 60 136 60 60 136 60 60 96 60 78 96 46 78 96 46 78 96 46 78 96 46 78 96 46 78 96 46 78 116 60 78 116 60
96 116 46 96 116 46 96 116 46 96 116 46 96 116 46 96 116 46 96 116 60 96 136 60 42 136 60 42 136 60 42 136 60 42 136 60 42 136 46 42 136 46 42 96 46 42 96 46 60 96 46 60 96 46 60 96 60 60 96 60 60 96 60 60 116 60 60 116 60 60 116 60 78 116 46 78 116 46 78 116 46 78 116 46 78 136 46 78 136 46 78 136 60 78 136 60 96 136 60 96 136 60 96 136 60 96 96 60 96 96 46 96 96 46 96 96 46 96 96 46 42 96 46 42 96 46 42 116 60 42 116 60 42 116 60 42 116 60 42 116 60 42 116 60 60 116 46 60 136 46 60 136 46 60 136 46 60 136 46 60 136 46 60 136 60 60 136 60 78 96 60 78 96 60 78 96 60 78 96 60 78 96 46 78 96 46 78 96 46 78 116 46 96 116 46 96 116 46 96 116 60 96 116 60 96 116 60 96 116 60 96 136 60 96 136 60 42 136 46 42 136 46 42 136 46 42 136 46 42 136 46 42 96 46 42 96 60 42 96 60 60 96 60 60 96 60 60 96 60 60 96 60 60 116 46 60 116 46 60 116 46 60 116 46 78 116 46 78 116 46 78 116 60 78 136 60 78 136 60 78 136 60 78 136 60 78 136 60 96 136 46 96 136 46 96 96 46 96 96 46 96 96 46 96 96 46 96 96 60 96 96 60 42 96 60 42 116 60 42 116 60 42 116 60 42 116 46 42 116 46 42 116 46 42 116 46 60 136 46 60 136 46 60 136 60 60 136 60 60 136 60 60 136 60 60 136 60 60 96 60 78 96 46 78 96 46 78 96 46 78 96 46 78 96 46 78 96 46 78 116 60 78 116 60
96 116 46 96 116 46 96 116 46 96 116 46 96 116 46 96 116 46 96 116 60 96 136 60 42 136 60 42 136 60 42 136 60 42 136 60 42 136 46 42 136 46 42 96 46 42 96 46 60 96 46 60 96 46 60 96 60 60 96 60 60 96 60 60 116 60 60 116 60 60 116 60 78 116 46 78 116 46 78 116 46 78 116 46 78 136 46 78 136 46 78 136 60 78 136 60 96 136 60 96 136 60 96 136 60 96 96 60 96 96 46 96 96 46 96 96 46 96 96 46 42 96 46 42 96 46 42 116 60 42 116 60 42 116 60 42 116 60 42 116 60 42 116 60 60 116 46 60 136 46 60 136 46 60 136 46 60 136 46 60 136 46 60 136 60 60 136 60 78 96 60 78 96 60 78 96 60 78 96 60 78 96 46 78 96 46 78 96 46 78 116 46 96 116 46 96 116 46 96 116 60 96 116 60 96 116 60 96 116 60 96 136 60 96 136 60 42 136 46 42 136 46 42 136 46 42 136 46 42 136 46 42 96 46 42 96 60 42 96 60 60 96 60 60 96 60 60 96 60 60 96 60 60 116 46 60 116 46 60 116 46 60 116 46 78 116 46 78 116 46 78 116 60 78 136 60 78 136 60 78 136 60 78 136 60 78 136 60 96 136 46 96 136 46 96 96 46 96 96 46 96 96 46 96 96 46 96 96 60 96 96 60 42 96 60 42 116 60 42 116 60 42 116 60 42 116 46 42 116 46 42 116 46 42 116 46 60 136 46 60 136 46 60 136 60 60 136 60 60 136 60 60 136 60 60 136 60 60 96 60 78 96 46 78 96 46 78 96 46 78 96 46 78 96 46 78 96 46 78 116 60 78 116 60
96 116 46 96 116 46 96 116 46 96 116 46 96 116 46 96 116 46 96 116 60 96 136 60 42 136 60 42 136 60 42 136 60 42 136 60 42 136 46 42 136 46 42 96 46 42 96 46 60 96 46 60 96 46 60 96 60 60 96 60 60 96 60 60 116 60 60 116 60 60 116 60 78 116 46 78 116 46 78 116 46 78 116 46 78 136 46 78 136 46 78 136 60 78 136 60 96 136 60 96 136 60 96 136 60 96 96 60 96 96 46 96 96 46 96 96 46 96 96 46 42 96 46 42 96 46 42 116 60 42 116 60 42 116 60 42 116 60 42 116 60 42 116 60 60 116 46 60 136 46 60 136 46 60 136 46 60 136 46 60 136 46 60 136 60 60 136 60 78 96 60 78 96 60 78 96 60 78 96 60 78 96 46 78 96 46 78 96 46 78 116 46 96 116 46 96 116 46 96 116 60 96 116 60 96 116 60 96 116 60 96 136 60 96 136 60 42 136 46 42 136 46 42 136 46 42 136 46 42 136 46 42 96 46 42 96 60 42 96 60 60 96 60 60 96 60 60 96 60 60 96 60 60 116 46 60 116 46 60 116 46 60 116 46 78 116 46 78 116 46 78 116 60 78 136 60 78 136 60 78 136 60 78 136 60 78 136 60 96 136 46 96 136 46 96 96 46 96 96 46 96 96 46 96 96 46 96 96 60 96 96 60 42 96 60 42 116 60 42 116 60 42 116 60 42 116 46 42 116 46 42 116 46 42 116 46 60 136 46 60 136 46 60 136 60 60 136 60 60 136 60 60 136 60 60 136 60 60 96 60 78 96 46 78 96 46 78 96 46 78 96 46 78 96 46 78 96 46 78 116 60 78 116 60
96 116 46 96 116 46 96 116 46 96 116 46 96 116 46 96 116 46 96 116 60 96 136 60 42 136 60 42 136 60 42 136 60 42 136 60 42 136 46 42 136 46 42 96 46 42 96 46 60 96 46 60 96 46 60 96 60 60 96 60 60 96 60 60 116 60 60 116 60 60 116 60 78 116 46 78 116 46 78 116 46 78 116 46 78 136 46 78 136 46 78 136 60 78 136 60 96 136 60 96 136 60 96 136 60 96 96 60 96 96 46 96 96 46 96 96 46 96 96 46 42 96 46 42 96 46 42 116 60 42 116 60 42 116 60 42 116 60 42 116 60 42 116 60 60 116 46 60 136 46 60 136 46 60 136 46 60 136 46 60 136 46 60 136 60 60 136 60 78 96 60 78 96 60 78 96 60 78 96 60 78 96 46 78 96 46 78 96 46 78 116 46 96 116 46 96 116 46 96 116 60 96 116 60 96 116 60 96 116 60 96 136 60 96 136 60 42 136 46 42 136 46 42 136 46 42 136 46 42 136 46 42 96 46 42 96 60 42 96 60 60 96 60 60 96 60 60 96 60 60 96 60 60 116 46 60 116 46 60 116 46 60 116 46 78 116 46 78 116 46 78 116 60 78 136 60 78 136 60 78 136 60 78 136 60 78 136 60 96 136 46 96 136 46 96 96 46 96 96 46 96 96 46 96 96 46 96 96 60 96 96 60 42 96 60 42 116 60 42 116 60 42 116 60 42 116 46 42 116 46 42 116 46 42 116 46 60 136 46 60 136 46 60 136 60 60 136 60 60 136 60 60 136 60 60 136 60 60 96 60 78 96 46 78 96 46 78 96 46 78 96 46 78 96 46 78 96 46 78 116 60 78 116 60
96 116 46 96 116 46 96 116 46 96 116 46 96 116 46 96 116 46 96 116 60 96 136 60 42 136 60 42 136 60 42 136 60 42 136 60 42 136 46 42 136 46 42 96 46 42 96 46 60 96 46 60 96 46 60 96 60 60 96 60 60 96 60 60 116 60 60 116 60 60 116 60 78 116 46 78 116 46 78 116 46 78 116 46 78 136 46 78 136 46 78 136 60 78 136 60 96 136 60 96 136 60 96 136 60 96 96 60 96 96 46 96 96 46 96 96 46 96 96 46 42 96 46 42 96 46 42 116 60 42 116 60 42 116 60 42 116 60 42 116 60 42 116 60 60 116 46 60 136 46 60 136 46 60 136 46 60 136 46 60 136 46 60 136 60 60 136 60 78 96 60 78 96 60 78 96 60 78 96 60 78 96 46 78 96 46 78 96 46 78 116 46 96 116 46 96 116 46 96 116 60 96 116 60 96 116 60 96 116 60 96 136 60 96 136 60 42 136 46 42 136 46 42 136 46 42 136 46 42 136 46 42 96 46 42 96 60 42 96 60 60 96 60 60 96 60 60 96 60 60 96 60 60 116 46 60 116 46 60 116 46 60 116 46 78 116 46 78 116 46 78 116 60 78 136 60 78 136 60 78 136 60 78 136 60 78 136 60 96 136 46 96 136 46 96 96 46 96 96 46 96 96 46 96 96 46 96 96 60 96 96 60 42 96 60 42 116 60 42 116 60 42 116 60 42 116 46 42 116 46 42 116 46 42 116 46 60 136 46 60 136 46 60 136 60 60 136 60 60 136 60 60 136 60 60 136 60 60 96 60 78 96 46 78 96 46 78 96 46 78 96 46 78 96 46 78 96 46 78 116 60 78 116 60
42 136 60 42 136 60 42 136 60 42 136 60 42 136 60 42 136 60 42 136 46 42 96 46 60 96 46 60 96 46 60 96 46 60 96 46 60 96 60 60 96 60 60 116 60 60 116 60 78 116 60 78 116 60 78 116 46 78 116 46 78 116 46 78 136 46 78 136 46 78 136 46 96 136 60 96 136 60 96 136 60 96 136 60 96 96 60 96 96 60 96 96 46 96 96 46 42 96 46 42 96 46 42 96 46 42 116 46 42 116 60 42 116 60 42 116 60 42 116 60 60 116 60 60 116 60 60 136 46 60 136 46 60 136 46 60 136 46 60 136 46 60 136 46 78 136 60 78 96 60 78 96 60 78 96 60 78 96 60 78 96 60 78 96 46 78 96 46 96 116 46 96 116 46 96 116 46 96 116 46 96 116 60 96 116 60 96 116 60 96 136 60 42 136 60 42 136 60 42 136 46 42 136 46 42 136 46 42 136 46 42 96 46 42 96 46 60 96 60 60 96 60 60 96 60 60 96 60 60 96 60 60 116 60 60 116 46 60 116 46 78 116 46 78 116 46 78 116 46 78 116 46 78 136 60 78 136 60 78 136 60 78 136 60 96 136 60 96 136 60 96 136 46 96 96 46 96 96 46 96 96 46 96 96 46 96 96 46 42 96 60 42 96 60 42 116 60 42 116 60 42 116 60 42 116 60 42 116 46 42 116 46 60 116 46 60 136 46 60 136 46 60 136 46 60 136 60 60 136 60 60 136 60 60 136 60 78 96 60 78 96 60 78 96 46 78 96 46 78 96 46 78 96 46 78 96 46 78 116 46 96 116 60 96 116 60 96 116 60 96 116 60 96 116 60 96 116 60 96 136 46 96 136 46
42 136 60 42 136 60 42 136 60 42 136 60 42 136 60 42 136 60 42 136 46 42 96 46 60 96 46 60 96 46 60 96 46 60 96 46 60 96 60 60 96 60 60 116 60 60 116 60 78 116 60 78 116 60 78 116 46 78 116 46 78 116 46 78 136 46 78 136 46 78 136 46 96 136 60 96 136 60 96 136 60 96 136 60 96 96 60 96 96 60 96 96 46 96 96 46 42 96 46 42 96 46 42 96 46 42 116 46 42 116 60 42 116 60 42 116 60 42 116 60 60 116 60 60 116 60 60 136 46 60 136 46 60 136 46 60 136 46 60 136 46 60 136 46 78 136 60 78 96 60 78 96 60 78 96 60 78 96 60 78 96 60 78 96 46 78 96 46 96 116 46 96 116 46 96 116 46 96 116 46 96 116 60 96 116 60 96 116 60 96 136 60 42 136 60 42 136 60 42 136 46 42 136 46 42 136 46 42 136 46 42 96 46 42 96 46 60 96 60 60 96 60 60 96 60 60 96 60 60 96 60 60 116 60 60 116 46 60 116 46 78 116 46 78 116 46 78 116 46 78 116 46 78 136 60 78 136 60 78 136 60 78 136 60 96 136 60 96 136 60 96 136 46 96 96 46 96 96 46 96 96 46 96 96 46 96 96 46 42 96 60 42 96 60 42 116 60 42 116 60 42 116 60 42 116 60 42 116 46 42 116 46 60 116 46 60 136 46 60 136 46 60 136 46 60 136 60 60 136 60 60 136 60 60 136 60 78 96 60 78 96 60 78 96 46 78 96 46 78 96 46 78 96 46 78 96 46 78 116 46 96 116 60 96 116 60 96 116 60 96 116 60 96 116 60 96 116 60 96 136 46 96 136 46
42 136 60 42 136 60 42 136 60 42 136 60 42 136 60 42 136 60 42 136 46 42 96 46 60 96 46 60 96 46 60 96 46 60 96 46 60 96 60 60 96 60 60 116 60 60 116 60 78 116 60 78 116 60 78 116 46 78 116 46 78 116 46 78 136 46 78 136 46 78 136 46 96 136 60 96 136 60 96 136 60 96 136 60 96 96 60 96 96 60 96 96 46 96 96 46 42 96 46 42 96 46 42 96 46 42 116 46 42 116 60 42 116 60 42 116 60 42 116 60 60 116 60 60 116 60 60 136 46 60 136 46 60 136 46 60 136 46 60 136 46 60 136 46 78 136 60 78 96 60 78 96 60 78 96 60 78 96 60 78 96 60 78 96 46 78 96 46 96 116 46 96 116 46 96 116 46 96 116 46 96 116 60 96 116 60 96 116 60 96 136 60 42 136 60 42 136 60 42 136 46 42 136 46 42 136 46 42 136 46 42 96 46 42 96 46 60 96 60 60 96 60 60 96 60 60 96 60 60 96 60 60 116 60 60 116 46 60 116 46 78 116 46 78 116 46 78 116 46 78 116 46 78 136 60 78 136 60 78 136 60 78 136 60 96 136 60 96 136 60 96 136 46 96 96 46 96 96 46 96 96 46 96 96 46 96 96 46 42 96 60 42 96 60 42 116 60 42 116 60 42 116 60 42 116 60 42 116 46 42 116 46 60 116 46 60 136 46 60 136 46 60 136 46 60 136 60 60 136 60 60 136 60 60 136 60 78 96 60 78 96 60 78 96 46 78 96 46 78 96 46 78 96 46 78 96 46 78 116 46 96 116 60 96 116 60 96 116 60 96 116 60 96 116 60 96 116 60 96 136 46 96 136 46
42 136 60 42 136 60 42 136 60 42 136 60 42 136 60 42 136 60 42 136 46 42 96 46 60 96 46 60 96 46 60 96 46 60 96 46 60 96 60 60 96 60 60 116 60 60 116 60 78 116 60 78 116 60 78 116 46 78 116 46 78 116 46 78 136 46 78 136 46 78 136 46 96 136 60 96 136 60 96 136 60 96 136 60 96 96 60 96 96 60 96 96 46 96 96 46 42 96 46 42 96 46 42 96 46 42 116 46 42 116 60 42 116 60 42 116 60 42 116 60 60 116 60 60 116 60 60 136 46 60 136 46 60 136 46 60 136 46 60 136 46 60 136 46 78 136 60 78 96 60 78 96 60 78 96 60 78 96 60 78 96 60 78 96 46 78 96 46 96 116 46 96 116 46 96 116 46 96 116 46 96 116 60 96 116 60 96 116 60 96 136 60 42 136 60 42 136 60 42 136 46 42 136 46 42 136 46 42 136 46 42 96 46 42 96 46 60 96 60 60 96 60 60 96 60 60 96 60 60 96 60 60 116 60 60 116 46 60 116 46 78 116 46 78 116 46 78 116 46 78 116 46 78 136 60 78 136 60 78 136 60 78 136 60 96 136 60 96 136 60 96 136 46 96 96 46 96 96 46 96 96 46 96 96 46 96 96 46 42 96 60 42 96 60 42 116 60 42 116 60 42 116 60 42 116 60 42 116 46 42 116 46 60 116 46 60 136 46 60 136 46 60 136 46 60 136 60 60 136 60 60 136 60 60 136 60 78 96 60 78 96 60 78 96 46 78 96 46 78 96 46 78 96 46 78 96 46 78 116 46 96 116 60 96 116 60 96 116 60 96 116 60 96 116 60 96 116 60 96 136 46 96 136 46
42 136 60 42 136 60 42 136 60 42 136 60 42 136 60 42 136 60 42 136 46 42 96 46 60 96 46 60 96 46 60 96 46 60 96 46 60 96 60 60 96 60 60 116 60 60 116 60 78 116 60 78 116 60 78 116 46 78 116 46 78 116 46 78 136 46 78 136 46 78 136 46 96 136 60 96 136 60 96 136 60 96 136 60 96 96 60 96 96 60 96 96 46 96 96 46 42 96 46 42 96 46 42 96 46 42 116 46 42 116 60 42 116 60 42 116 60 42 116 60 60 116 60 60 116 60 60 136 46 60 136 46 60 136 46 60 136 46 60 136 46 60 136 46 78 136 60 78 96 60 78 96 60 78 96 60 78 96 60 78 96 60 78 96 46 78 96 46 96 116 46 96 116 46 96 116 46 96 116 46 96 116 60 96 116 60 96 116 60 96 136 60 42 136 60 42 136 60 42 136 46 42 136 46 42 136 46 42 136 46 42 96 46 42 96 46 60 96 60 60 96 60 60 96 60 60 96 60 60 96 60 60 116 60 60 116 46 60 116 46 78 116 46 78 116 46 78 116 46 78 116 46 78 136 60 78 136 60 78 136 60 78 136 60 96 136 60 96 136 60 96 136 46 96 96 46 96 96 46 96 96 46 96 96 46 96 96 46 42 96 60 42 96 60 42 116 60 42 116 60 42 116 60 42 116 60 42 116 46 42 116 46 60 116 46 60 136 46 60 136 46 60 136 46 60 136 60 60 136 60 60 136 60 60 136 60 78 96 60 78 96 60 78 96 46 78 96 46 78 96 46 78 96 46 78 96 46 78 116 46 96 116 60 96 116 60 96 116 60 96 116 60 96 116 60 96 116 60 96 136 46 96 136 46
42 136 60 42 136 60 42 136 60 42 136 60 42 136 60 42 136 60 42 136 46 42 96 46 60 96 46 60 96 46 60 96 46 60 96 46 60 96 60 60 96 60 60 116 60 60 116 60 78 116 60 78 116 60 78 116 46 78 116 46 78 116 46 78 136 46 78 136 46 78 136 46 96 136 60 96 136 60 96 136 60 96 136 60 96 96 60 96 96 60 96 96 46 96 96 46 42 96 46 42 96 46 42 96 46 42 116 46 42 116 60 42 116 60 42 116 60 42 116 60 60 116 60 60 116 60 60 136 46 60 136 46 60 136 46 60 136 46 60 136 46 60 136 46 78 136 60 78 96 60 78 96 60 78 96 60 78 96 60 78 96 60 78 96 46 78 96 46 96 116 46 96 116 46 96 116 46 96 116 46 96 116 60 96 116 60 96 116 60 96 136 60 42 136 60 42 136 60 42 136 46 42 136 46 42 136 46 42 136 46 42 96 46 42 96 46 60 96 60 60 96 60 60 96 60 60 96 60 60 96 60 60 116 60 60 116 46 60 116 46 78 116 46 78 116 46 78 116 46 78 116 46 78 136 60 78 136 60 78 136 60 78 136 60 96 136 60 96 136 60 96 136 46 96 96 46 96 96 46 96 96 46 96 96 46 96 96 46 42 96 60 42 96 60 42 116 60 42 116 60 42 116 60 42 116 60 42 116 46 42 116 46 60 116 46 60 136 46 60 136 46 60 136 46 60 136 60 60 136 60 60 136 60 60 136 60 78 96 60 78 96 60 78 96 46 78 96 46 78 96 46 78 96 46 78 96 46 78 116 46 96 116 60 96 116 60 96 116 60 96 116 60 96 116 60 96 116 60 96 136 46 96 136 46
60 136 60 60 136 60 60 136 60 60 136 60 60 136 60 60 136 60 60 136 46 60 96 46 78 96 46 78 96 46 78 96 46 78 96 46 78 96 60 78 96 60 78 116 60 78 116 60 96 116 60 96 116 60 96 116 46 96 116 46 96 116 46 96 136 46 96 136 46 96 136 46 42 136 60 42 136 60 42 136 60 42 136 60 42 96 60 42 96 60 42 96 46 42 96 46 60 96 46 60 96 46 60 96 46 60 116 46 60 116 60 60 116 60 60 116 60 60 116 60 78 116 60 78 116 60 78 136 46 78 136 46 78 136 46 78 136 46 78 136 46 78 136 46 96 136 60 96 96 60 96 96 60 96 96 60 96 96 60 96 96 60 96 96 46 96 96 46 42 116 46 42 116 46 42 116 46 42 116 46 42 116 60 42 116 60 42 116 60 42 136 60 60 136 60 60 136 60 60 136 46 60 136 46 60 136 46 60 136 46 60 96 46 60 96 46 78 96 60 78 96 60 78 96 60 78 96 60 78 96 60 78 116 60 78 116 46 78 116 46 96 116 46 96 116 46 96 116 46 96 116 46 96 136 60 96 136 60 96 136 60 96 136 60 42 136 60 42 136 60 42 136 46 42 96 46 42 96 46 42 96 46 42 96 46 42 96 46 60 96 60 60 96 60 60 116 60 60 116 60 60 116 60 60 116 60 60 116 46 60 116 46 78 116 46 78 136 46 78 136 46 78 136 46 78 136 60 78 136 60 78 136 60 78 136 60 96 96 60 96 96 60 96 96 46 96 96 46 96 96 46 96 96 46 96 96 46 96 116 46 42 116 60 42 116 60 42 116 60 42 116 60 42 116 60 42 116 60 42 136 46 42 136 46
60 136 60 60 136 60 60 136 60 60 136 60 60 136 60 60 136 60 60 136 46 60 96 46 78 96 46 78 96 46 78 96 46 78 96 46 78 96 60 78 96 60 78 116 60 78 116 60 96 116 60 96 116 60 96 116 46 96 116 46 96 116 46 96 136 46 96 136 46 96 136 46 42 136 60 42 136 60 42 136 60 42 136 60 42 96 60 42 96 60 42 96 46 42 96 46 60 96 46 60 96 46 60 96 46 60 116 46 60 116 60 60 116 60 60 116 60 60 116 60 78 116 60 78 116 60 78 136 46 78 136 46 78 136 46 78 136 46 78 136 46 78 136 46 96 136 60 96 96 60 96 96 60 96 96 60 96 96 60 96 96 60 96 96 46 96 96 46 42 116 46 42 116 46 42 116 46 42 116 46 42 116 60 42 116 60 42 116 60 42 136 60 60 136 60 60 136 60 60 136 46 60 136 46 60 136 46 60 136 46 60 96 46 60 96 46 78 96 60 78 96 60 78 96 60 78 96 60 78 96 60 78 116 60 78 116 46 78 116 46 96 116 46 96 116 46 96 116 46 96 116 46 96 136 60 96 136 60 96 136 60 96 136 60 42 136 60 42 136 60 42 136 46 42 96 46 42 96 46 42 96 46 42 96 46 42 96 46 60 96 60 60 96 60 60 116 60 60 116 60 60 116 60 60 116 60 60 116 46 60 116 46 78 116 46 78 136 46 78 136 46 78 136 46 78 136 60 78 136 60 78 136 60 78 136 60 96 96 60 96 96 60 96 96 46 96 96 46 96 96 46 96 96 46 96 96 46 96 116 46 42 116 60 42 116 60 42 116 60 42 116 60 42 116 60 42 116 60 42 136 46 42 136 46
60 136 46 60 136 46 60 136 46 60 136 46 60 136 46 60 136 46 60 136 60 60 96 60 78 96 60 78 96 60 78 96 60 78 96 60 78 96 46 78 96 46 78 116 46 78 116 46 96 116 46 96 116 46 96 116 60 96 116 60 96 116 60 96 136 60 96 136 60 96 136 60 42 136 46 42 136 46 42 136 46 42 136 46 42 96 46 42 96 46 42 96 60 42 96 60 60 96 60 60 96 60 60 96 60 60 116 60 60 116 46 60 116 46 60 116 46 60 116 46 78 116 46 78 116 46 78 136 60 78 136 60 78 136 60 78 136 60 78 136 60 78 136 60 96 136 46 96 96 46 96 96 46 96 96 46 96 96 46 96 96 46 96 96 60 96 96 60 42 116 60 42 116 60 42 116 60 42 116 60 42 116 46 42 116 46 42 116 46 42 136 46 60 136 46 60 136 46 60 136 60 60 136 60 60 136 60 60 136 60 60 96 60 60 96 60 78 96 46 78 96 46 78 96 46 78 96 46 78 96 46 78 116 46 78 116 60 78 116 60 96 116 60 96 116 60 96 116 60 96 116 60 96 136 46 96 136 46 96 136 46 96 136 46 42 136 46 42 136 46 42 136 60 42 96 60 42 96 60 42 96 60 42 96 60 42 96 60 60 96 46 60 96 46 60 116 46 60 116 46 60 116 46 60 116 46 60 116 60 60 116 60 78 116 60 78 136 60 78 136 60 78 136 60 78 136 46 78 136 46 78 136 46 78 136 46 96 96 46 96 96 46 96 96 60 96 96 60 96 96 60 96 96 60 96 96 60 96 116 60 42 116 46 42 116 46 42 116 46 42 116 46 42 116 46 42 116 46 42 136 60 42 136 60
60 96 46 60 96 46 60 96 46 60 96 46 60 96 46 60 96 46 60 96 60 60 116 60 78 116 60 78 116 60 78 116 60 78 116 60 78 116 46 78 116 46 78 136 46 78 136 46 96 136 46 96 136 46 96 136 60 96 136 60 96 136 60 96 96 60 96 96 60 96 96 60 42 96 46 42 96 46 42 96 46 42 96 46 42 116 46 42 116 46 42 116 60 42 116 60 60 116 60 60 116 60 60 116 60 60 136 60 60 136 46 60 136 46 60 136 46 60 136 46 78 136 46 78 136 46 78 96 60 78 96 60 78 96 60 78 96 60 78 96 60 78 96 60 96 96 46 96 116 46 96 116 46 96 116 46 96 116 46 96 116 46 96 116 60 96 116 60 42 136 60 42 136 60 42 136 60 42 136 60 42 136 46 42 136 46 42 136 46 42 96 46 60 96 46 60 96 46 60 96 60 60 96 60 60 96 60 60 96 60 60 116 60 60 116 60 78 116 46 78 116 46 78 116 46 78 116 46 78 116 46 78 136 46 78 136 60 78 136 60 96 136 60 96 136 60 96 136 60 96 136 60 96 96 46 96 96 46 96 96 46 96 96 46 42 96 46 42 96 46 42 96 60 42 116 60 42 116 60 42 116 60 42 116 60 42 116 60 60 116 46 60 116 46 60 136 46 60 136 46 60 136 46 60 136 46 60 136 60 60 136 60 78 136 60 78 96 60 78 96 60 78 96 60 78 96 46 78 96 46 78 96 46 78 96 46 96 116 46 96 116 46 96 116 60 96 116 60 96 116 60 96 116 60 96 116 60 96 136 60 42 136 46 42 136 46 42 136 46 42 136 46 42 136 46 42 136 46 42 96 60 42 96 60
60 96 46 60 96 46 60 96 46 60 96 46 60 96 46 60 96 46 60 96 60 60 116 60 78 116 60 78 116 60 78 116 60 78 116 60 78 116 46 78 116 46 78 136 46 78 136 46 96 136 46 96 136 46 96 136 60 96 136 60 96 136 60 96 96 60 96 96 60 96 96 60 42 96 46 42 96 46 42 96 46 42 96 46 42 116 46 42 116 46 42 116 60 42 116 60 60 116 60 60 116 60 60 116 60 60 136 60 60 136 46 60 136 46 60 136 46 60 136 46 78 136 46 78 136 46 78 96 60 78 96 60 78 96 60 78 96 60 78 96 60 78 96 60 96 96 46 96 116 46 96 116 46 96 116 46 96 116 46 96 116 46 96 116 60 96 116 60 42 136 60 42 136 60 42 136 60 42 136 60 42 136 46 42 136 46 42 136 46 42 96 46 60 96 46 60 96 46 60 96 60 60 96 60 60 96 60 60 96 60 60 116 60 60 116 60 78 116 46 78 116 46 78 116 46 78 116 46 78 116 46 78 136 46 78 136 60 78 136 60 96 136 60 96 136 60 96 136 60 96 136 60 96 96 46 96 96 46 96 96 46 96 96 46 42 96 46 42 96 46 42 96 60 42 116 60 42 116 60 42 116 60 42 116 60 42 116 60 60 116 46 60 116 46 60 136 46 60 136 46 60 136 46 60 136 46 60 136 60 60 136 60 78 136 60 78 96 60 78 96 60 78 96 60 78 96 46 78 96 46 78 96 46 78 96 46 96 116 46 96 116 46 96 116 60 96 116 60 96 116 60 96 116 60 96 116 60 96 136 60 42 136 46 42 136 46 42 136 46 42 136 46 42 136 46 42 136 46 42 96 60 42 96 60
60 96 46 60 96 46 60 96 46 60 96 46 60 96 46 60 96 46 60 96 60 60 116 60 78 116 60 78 116 60 78 116 60 78 116 60 78 116 46 78 116 46 78 136 46 78 136 46 96 136 46 96 136 46 96 136 60 96 136 60 96 136 60 96 96 60 96 96 60 96 96 60 42 96 46 42 96 46 42 96 46 42 96 46 42 116 46 42 116 46 42 116 60 42 116 60 60 116 60 60 116 60 60 116 60 60 136 60 60 136 46 60 136 46 60 136 46 60 136 46 78 136 46 78 136 46 78 96 60 78 96 60 78 96 60 78 96 60 78 96 60 78 96 60 96 96 46 96 116 46 96 116 46 96 116 46 96 116 46 96 116 46 96 116 60 96 116 60 42 136 60 42 136 60 42 136 60 42 136 60 42 136 46 42 136 46 42 136 46 42 96 46 60 96 46 60 96 46 60 96 60 60 96 60 60 96 60 60 96 60 60 116 60 60 116 60 78 116 46 78 116 46 78 116 46 78 116 46 78 116 46 78 136 46 78 136 60 78 136 60 96 136 60 96 136 60 96 136 60 96 136 60 96 96 46 96 96 46 96 96 46 96 96 46 42 96 46 42 96 46 42 96 60 42 116 60 42 116 60 42 116 60 42 116 60 42 116 60 60 116 46 60 116 46 60 136 46 60 136 46 60 136 46 60 136 46 60 136 60 60 136 60 78 136 60 78 96 60 78 96 60 78 96 60 78 96 46 78 96 46 78 96 46 78 96 46 96 116 46 96 116 46 96 116 60 96 116 60 96 116 60 96 116 60 96 116 60 96 136 60 42 136 46 42 136 46 42 136 46 42 136 46 42 136 46 42 136 46 42 96 60 42 96 60
78 96 46 78 96 46 78 96 46 78 96 46 78 96 46 78 96 46 78 96 60 78 116 60 96 116 60 96 116 60 96 116 60 96 116 60 96 116 46 96 116 46 96 136 46 96 136 46 42 136 46 42 136 46 42 136 60 42 136 60 42 136 60 42 96 60 42 96 60 42 96 60 60 96 46 60 96 46 60 96 46 60 96 46 60 116 46 60 116 46 60 116 60 60 116 60 78 116 60 78 116 60 78 116 60 78 136 60 78 136 46 78 136 46 78 136 46 78 136 46 96 136 46 96 136 46 96 96 60 96 96 60 96 96 60 96 96 60 96 96 60 96 96 60 42 96 46 42 116 46 42 116 46 42 116 46 42 116 46 42 116 46 42 116 60 42 116 60 60 136 60 60 136 60 60 136 60 60 136 60 60 136 46 60 136 46 60 136 46 60 96 46 78 96 46 78 96 46 78 96 60 78 96 60 78 96 60 78 96 60 78 116 60 78 116 60 96 116 46 96 116 46 96 116 46 96 116 46 96 116 46 96 136 46 96 136 60 96 136 60 42 136 60 42 136 60 42 136 60 42 136 60 42 96 46 42 96 46 42 96 46 42 96 46 60 96 46 60 96 46 60 96 60 60 116 60 60 116 60 60 116 60 60 116 60 60 116 60 78 116 46 78 116 46 78 136 46 78 136 46 78 136 46 78 136 46 78 136 60 78 136 60 96 136 60 96 96 60 96 96 60 96 96 60 96 96 46 96 96 46 96 96 46 96 96 46 42 116 46 42 116 46 42 116 60 42 116 60 42 116 60 42 116 60 42 116 60 42 136 60 60 136 46 60 136 46 60 136 46 60 136 46 60 136 46 60 136 46 60 96 60 60 96 60
78 96 46 78 96 46 78 96 46 78 96 46 78 96 46 78 96 46 78 96 60 78 116 60 96 116 60 96 116 60 96 116 60 96 116 60 96 116 46 96 116 46 96 136 46 96 136 46 42 136 46 42 136 46 42 136 60 42 136 60 42 136 60 42 96 60 42 96 60 42 96 60 60 96 46 60 96 46 60 96 46 60 96 46 60 116 46 60 116 46 60 116 60 60 116 60 78 116 60 78 116 60 78 116 60 78 136 60 78 136 46 78 136 46 78 136 46 78 136 46 96 136 46 96 136 46 96 96 60 96 96 60 96 96 60 96 96 60 96 96 60 96 96 60 42 96 46 42 116 46 42 116 46 42 116 46 42 116 46 42 116 46 42 116 60 42 116 60 60 136 60 60 136 60 60 136 60 60 136 60 60 136 46 60 136 46 60 136 46 60 96 46 78 96 46 78 96 46 78 96 60 78 96 60 78 96 60 78 96 60 78 116 60 78 116 60 96 116 46 96 116 46 96 116 46 96 116 46 96 116 46 96 136 46 96 136 60 96 136 60 42 136 60 42 136 60 42 136 60 42 136 60 42 96 46 42 96 46 42 96 46 42 96 46 60 96 46 60 96 46 60 96 60 60 116 60 60 116 60 60 116 60 60 116 60 60 116 60 78 116 46 78 116 46 78 136 46 78 136 46 78 136 46 78 136 46 78 136 60 78 136 60 96 136 60 96 96 60 96 96 60 96 96 60 96 96 46 96 96 46 96 96 46 96 96 46 42 116 46 42 116 46 42 116 60 42 116 60 42 116 60 42 116 60 42 116 60 42 136 60 60 136 46 60 136 46 60 136 46 60 136 46 60 136 46 60 136 46 60 96 60 60 96 60
78 96 46 78 96 46 78 96 46 78 96 46 78 96 46 78 96 46 78 96 60 78 116 60 96 116 60 96 116 60 96 116 60 96 116 60 96 116 46 96 116 46 96 136 46 96 136 46 42 136 46 42 136 46 42 136 60 42 136 60 42 136 60 42 96 60 42 96 60 42 96 60 60 96 46 60 96 46 60 96 46 60 96 46 60 116 46 60 116 46 60 116 60 60 116 60 78 116 60 78 116 60 78 116 60 78 136 60 78 136 46 78 136 46 78 136 46 78 136 46 96 136 46 96 136 46 96 96 60 96 96 60 96 96 60 96 96 60 96 96 60 96 96 60 42 96 46 42 116 46 42 116 46 42 116 46 42 116 46 42 116 46 42 116 60 42 116 60 60 136 60 60 136 60 60 136 60 60 136 60 60 136 46 60 136 46 60 136 46 60 96 46 78 96 46 78 96 46 78 96 60 78 96 60 78 96 60 78 96 60 78 116 60 78 116 60 96 116 46 96 116 46 96 116 46 96 116 46 96 116 46 96 136 46 96 136 60 96 136 60 42 136 60 42 136 60 42 136 60 42 136 60 42 96 46 42 96 46 42 96 46 42 96 46 60 96 46 60 96 46 60 96 60 60 116 60 60 116 60 60 116 60 60 116 60 60 116 60 78 116 46 78 116 46 78 136 46 78 136 46 78 136 46 78 136 46 78 136 60 78 136 60 96 136 60 96 96 60 96 96 60 96 96 60 96 96 46 96 96 46 96 96 46 96 96 46 42 116 46 42 116 46 42 116 60 42 116 60 42 116 60 42 116 60 42 116 60 42 136 60 60 136 46 60 136 46 60 136 46 60 136 46 60 136 46 60 136 46 60 96 60 60 96 60
78 96 46 78 96 46 78 96 46 78 96 46 78 96 46 78 96 46 78 96 60 78 116 60 96 116 60 96 116 60 96 116 60 96 116 60 96 116 46 96 116 46 96 136 46 96 136 46 42 136 46 42 136 46 42 136 60 42 136 60 42 136 60 42 96 60 42 96 60 42 96 60 60 96 46 60 96 46 60 96 46 60 96 46 60 116 46 60 116 46 60 116 60 60 116 60 78 116 60 78 116 60 78 116 60 78 136 60 78 136 46 78 136 46 78 136 46 78 136 46 96 136 46 96 136 46 96 96 60 96 96 60 96 96 60 96 96 60 96 96 60 96 96 60 42 96 46 42 116 46 42 116 46 42 116 46 42 116 46 42 116 46 42 116 60 42 116 60 60 136 60 60 136 60 60 136 60 60 136 60 60 136 46 60 136 46 60 136 46 60 96 46 78 96 46 78 96 46 78 96 60 78 96 60 78 96 60 78 96 60 78 116 60 78 116 60 96 116 46 96 116 46 96 116 46 96 116 46 96 116 46 96 136 46 96 136 60 96 136 60 42 136 60 42 136 60 42 136 60 42 136 60 42 96 46 42 96 46 42 96 46 42 96 46 60 96 46 60 96 46 60 96 60 60 116 60 60 116 60 60 116 60 60 116 60 60 116 60 78 116 46 78 116 46 78 136 46 78 136 46 78 136 46 78 136 46 78 136 60 78 136 60 96 136 60 96 96 60 96 96 60 96 96 60 96 96 46 96 96 46 96 96 46 96 96 46 42 116 46 42 116 46 42 116 60 42 116 60 42 116 60 42 116 60 42 116 60 42 136 60 60 136 46 60 136 46 60 136 46 60 136 46 60 136 46 60 136 46 60 96 60 60 96 60
78 96 60 78 96 60 78 96 60 78 96 60 78 96 60 78 96 60 78 96 46 78 116 46 96 116 46 96 116 46 96 116 46 96 116 46 96 116 60 96 116 60 96 136 60 96 136 60 42 136 60 42 136 60 42 136 46 42 136 46 42 136 46 42 96 46 42 96 46 42 96 46 60 96 60 60 96 60 60 96 60 60 96 60 60 116 60 60 116 60 60 116 46 60 116 46 78 116 46 78 116 46 78 116 46 78 136 46 78 136 60 78 136 60 78 136 60 78 136 60 96 136 60 96 136 60 96 96 46 96 96 46 96 96 46 96 96 46 96 96 46 96 96 46 42 96 60 42 116 60 42 116 60 42 116 60 42 116 60 42 116 60 42 116 46 42 116 46 60 136 46 60 136 46 60 136 46 60 136 46 60 136 60 60 136 60 60 136 60 60 96 60 78 96 60 78 96 60 78 96 46 78 96 46 78 96 46 78 96 46 78 116 46 78 116 46 96 116 60 96 116 60 96 116 60 96 116 60 96 116 60 96 136 60 96 136 46 96 136 46 42 136 46 42 136 46 42 136 46 42 136 46 42 96 60 42 96 60 42 96 60 42 96 60 60 96 60 60 96 60 60 96 46 60 116 46 60 116 46 60 116 46 60 116 46 60 116 46 78 116 60 78 116 60 78 136 60 78 136 60 78 136 60 78 136 60 78 136 46 78 136 46 96 136 46 96 96 46 96 96 46 96 96 46 96 96 60 96 96 60 96 96 60 96 96 60 42 116 60 42 116 60 42 116 46 42 116 46 42 116 46 42 116 46 42 116 46 42 136 46 60 136 60 60 136 60 60 136 60 60 136 60 60 136 60 60 136 60 60 96 46 60 96 46
78 96 60 78 96 60 78 96 60 78 96 60 78 96 60 78 96 60 78 96 46 78 116 46 96 116 46 96 116 46 96 116 46 96 116 46 96 116 60 96 116 60 96 136 60 96 136 60 42 136 60 42 136 60 42 136 46 42 136 46 42 136 46 42 96 46 42 96 46 42 96 46 60 96 60 60 96 60 60 96 60 60 96 60 60 116 60 60 116 60 60 116 46 60 116 46 78 116 46 78 116 46 78 116 46 78 136 46 78 136 60 78 136 60 78 136 60 78 136 60 96 136 60 96 136 60 96 96 46 96 96 46 96 96 46 96 96 46 96 96 46 96 96 46 42 96 60 42 116 60 42 116 60 42 116 60 42 116 60 42 116 60 42 116 46 42 116 46 60 136 46 60 136 46 60 136 46 60 136 46 60 136 60 60 136 60 60 136 60 60 96 60 78 96 60 78 96 60 78 96 46 78 96 46 78 96 46 78 96 46 78 116 46 78 116 46 96 116 60 96 116 60 96 116 60 96 116 60 96 116 60 96 136 60 96 136 46 96 136 46 42 136 46 42 136 46 42 136 46 42 136 46 42 96 60 42 96 60 42 96 60 42 96 60 60 96 60 60 96 60 60 96 46 60 116 46 60 116 46 60 116 46 60 116 46 60 116 46 78 116 60 78 116 60 78 136 60 78 136 60 78 136 60 78 136 60 78 136 46 78 136 46 96 136 46 96 96 46 96 96 46 96 96 46 96 96 60 96 96 60 96 96 60 96 96 60 42 116 60 42 116 60 42 116 46 42 116 46 42 116 46 42 116 46 42 116 46 42 136 46 60 136 60 60 136 60 60 136 60 60 136 60 60 136 60 60 136 60 60 96 46 60 96 46
96 116 60 96 116 60 96 116 60 96 116 60 96 116 60 96 116 60 96 116 46 96 136 46 42 136 46 42 136 46 42 136 46 42 136 46 42 136 60 42 136 60 42 96 60 42 96 60 60 96 60 60 96 60 60 96 46 60 96 46 60 96 46 60 116 46 60 116 46 60 116 46 78 116 60 78 116 60 78 116 60 78 116 60 78 136 60 78 136 60 78 136 46 78 136 46 96 136 46 96 136 46 96 136 46 96 96 46 96 96 60 96 96 60 96 96 60 96 96 60 42 96 60 42 96 60 42 116 46 42 116 46 42 116 46 42 116 46 42 116 46 42 116 46 60 116 60 60 136 60 60 136 60 60 136 60 60 136 60 60 136 60 60 136 46 60 136 46 78 96 46 78 96 46 78 96 46 78 96 46 78 96 60 78 96 60 78 96 60 78 116 60 96 116 60 96 116 60 96 116 46 96 116 46 96 116 46 96 116 46 96 136 46 96 136 46 42 136 60 42 136 60 42 136 60 42 136 60 42 136 60 42 96 60 42 96 46 42 96 46 60 96 46 60 96 46 60 96 46 60 96 46 60 116 60 60 116 60 60 116 60 60 116 60 78 116 60 78 116 60 78 116 46 78 136 46 78 136 46 78 136 46 78 136 46 78 136 46 96 136 60 96 136 60 96 96 60 96 96 60 96 96 60 96 96 60 96 96 46 96 96 46 42 96 46 42 116 46 42 116 46 42 116 46 42 116 60 42 116 60 42 116 60 42 116 60 60 136 60 60 136 60 60 136 46 60 136 46 60 136 46 60 136 46 60 136 46 60 96 46 78 96 60 78 96 60 78 96 60 78 96 60 78 96 60 78 96 60 78 116 46 78 116 46
96 116 60 96 116 60 96 116 60 96 116 60 96 116 60 96 116 60 96 116 46 96 136 46 42 136 46 42 136 46 42 136 46 42 136 46 42 136 60 42 136 60 42 96 60 42 96 60 60 96 60 60 96 60 60 96 46 60 96 46 60 96 46 60 116 46 60 116 46 60 116 46 78 116 60 78 116 60 78 116 60 78 116 60 78 136 60 78 136 60 78 136 46 78 136 46 96 136 46 96 136 46 96 136 46 96 96 46 96 96 60 96 96 60 96 96 60 96 96 60 42 96 60 42 96 60 42 116 46 42 116 46 42 116 46 42 116 46 42 116 46 42 116 46 60 116 60 60 136 60 60 136 60 60 136 60 60 136 60 60 136 60 60 136 46 60 136 46 78 96 46 78 96 46 78 96 46 78 96 46 78 96 60 78 96 60 78 96 60 78 116 60 96 116 60 96 116 60 96 116 46 96 116 46 96 116 46 96 116 46 96 136 46 96 136 46 42 136 60 42 136 60 42 136 60 42 136 60 42 136 60 42 96 60 42 96 46 42 96 46 60 96 46 60 96 46 60 96 46 60 96 46 60 116 60 60 116 60 60 116 60 60 116 60 78 116 60 78 116 60 78 116 46 78 136 46 78 136 46 78 136 46 78 136 46 78 136 46 96 136 60 96 136 60 96 96 60 96 96 60 96 96 60 96 96 60 96 96 46 96 96 46 42 96 46 42 116 46 42 116 46 42 116 46 42 116 60 42 116 60 42 116 60 42 116 60 60 136 60 60 136 60 60 136 46 60 136 46 60 136 46 60 136 46 60 136 46 60 96 46 78 96 60 78 96 60 78 96 60 78 96 60 78 96 60 78 96 60 78 116 46 78 116 46
96 116 60 96 116 60 96 116 60 96 116 60 96 116 60 96 116 60 96 116 46 96 136 46 42 136 46 42 136 46 42 136 46 42 136 46 42 136 60 42 136 60 42 96 60 42 96 60 60 96 60 60 96 60 60 96 46 60 96 46 60 96 46 60 116 46 60 116 46 60 116 46 78 116 60 78 116 60 78 116 60 78 116 60 78 136 60 78 136 60 78 136 46 78 136 46 96 136 46 96 136 46 96 136 46 96 96 46 96 96 60 96 96 60 96 96 60 96 96 60 42 96 60 42 96 60 42 116 46 42 116 46 42 116 46 42 116 46 42 116 46 42 116 46 60 116 60 60 136 60 60 136 60 60 136 60 60 136 60 60 136 60 60 136 46 60 136 46 78 96 46 78 96 46 78 96 46 78 96 46 78 96 60 78 96 60 78 96 60 78 116 60 96 116 60 96 116 60 96 116 46 96 116 46 96 116 46 96 116 46 96 136 46 96 136 46 42 136 60 42 136 60 42 136 60 42 136 60 42 136 60 42 96 60 42 96 46 42 96 46 60 96 46 60 96 46 60 96 46 60 96 46 60 116 60 60 116 60 60 116 60 60 116 60 78 116 60 78 116 60 78 116 46 78 136 46 78 136 46 78 136 46 78 136 46 78 136 46 96 136 60 96 136 60 96 96 60 96 96 60 96 96 60 96 96 60 96 96 46 96 96 46 42 96 46 42 116 46 42 116 46 42 116 46 42 116 60 42 116 60 42 116 60 42 116 60 60 136 60 60 136 60 60 136 46 60 136 46 60 136 46 60 136 46 60 136 46 60 96 46 78 96 60 78 96 60 78 96 60 78 96 60 78 96 60 78 96 60 78 116 46 78 116 46
96 116 60 96 116 60 96 116 60 96 116 60 96 116 60 96 116 60 96 116 46 96 136 46 42 136 46 42 136 46 42 136 46 42 136 46 42 136 60 42 136 60 42 96 60 42 96 60 60 96 60 60 96 60 60 96 46 60 96 46 60 96 46 60 116 46 60 116 46 60 116 46 78 116 60 78 116 60 78 116 60 78 116 60 78 136 60 78 136 60 78 136 46 78 136 46 96 136 46 96 136 46 96 136 46 96 96 46 96 96 60 96 96 60 96 96 60 96 96 60 42 96 60 42 96 60 42 116 46 42 116 46 42 116 46 42 116 46 42 116 46 42 116 46 60 116 60 60 136 60 60 136 60 60 136 60 60 136 60 60 136 60 60 136 46 60 136 46 78 96 46 78 96 46 78 96 46 78 96 46 78 96 60 78 96 60 78 96 60 78 116 60 96 116 60 96 116 60 96 116 46 96 116 46 96 116 46 96 116 46 96 136 46 96 136 46 42 136 60 42 136 60 42 136 60 42 136 60 42 136 60 42 96 60 42 96 46 42 96 46 60 96 46 60 96 46 60 96 46 60 96 46 60 116 60 60 116 60 60 116 60 60 116 60 78 116 60 78 116 60 78 116 46 78 136 46 78 136 46 78 136 46 78 136 46 78 136 46 96 136 60 96 136 60 96 96 60 96 96 60 96 96 60 96 96 60 96 96 46 96 96 46 42 96 46 42 116 46 42 116 46 42 116 46 42 116 60 42 116 60 42 116 60 42 116 60 60 136 60 60 136 60 60 136 46 60 136 46 60 136 46 60 136 46 60 136 46 60 96 46 78 96 60 78 96 60 78 96 60 78 96 60 78 96 60 78 96 60 78 116 46 78 116 46
96 116 60 96 116 60 96 116 60 96 116 60 96 116 60 96 116 60 96 116 46 96 136 46 42 136 46 42 136 46 42 136 46 42 136 46 42 136 60 42 136 60 42 96 60 42 96 60 60 96 60 60 96 60 60 96 46 60 96 46 60 96 46 60 116 46 60 116 46 60 116 46 78 116 60 78 116 60 78 116 60 78 116 60 78 136 60 78 136 60 78 136 46 78 136 46 96 136 46 96 136 46 96 136 46 96 96 46 96 96 60 96 96 60 96 96 60 96 96 60 42 96 60 42 96 60 42 116 46 42 116 46 42 116 46 42 116 46 42 116 46 42 116 46 60 116 60 60 136 60 60 136 60 60 136 60 60 136 60 60 136 60 60 136 46 60 136 46 78 96 46 78 96 46 78 96 46 78 96 46 78 96 60 78 96 60 78 96 60 78 116 60 96 116 60 96 116 60 96 116 46 96 116 46 96 116 46 96 116 46 96 136 46 96 136 46 42 136 60 42 136 60 42 136 60 42 136 60 42 136 60 42 96 60 42 96 46 42 96 46 60 96 46 60 96 46 60 96 46 60 96 46 60 116 60 60 116 60 60 116 60 60 116 60 78 116 60 78 116 60 78 116 46 78 136 46 78 136 46 78 136 46 78 136 46 78 136 46 96 136 60 96 136 60 96 96 60 96 96 60 96 96 60 96 96 60 96 96 46 96 96 46 42 96 46 42 116 46 42 116 46 42 116 46 42 116 60 42 116 60 42 116 60 42 116 60 60 136 60 60 136 60 60 136 46 60 136 46 60 136 46 60 136 46 60 136 46 60 96 46 78 96 60 78 96 60 78 96 60 78 96 60 78 96 60 78 96 60 78 116 46 78 116 46
96 116 60 96 116 60 96 116 60 96 116 60 96 116 60 96 116 60 96 116 46 96 136 46 42 136 46 42 136 46 42 136 46 42 136 46 42 136 60 42 136 60 42 96 60 42 96 60 60 96 60 60 96 60 60 96 46 60 96 46 60 96 46 60 116 46 60 116 46 60 116 46 78 116 60 78 116 60 78 116 60 78 116 60 78 136 60 78 136 60 78 136 46 78 136 46 96 136 46 96 136 46 96 136 46 96 96 46 96 96 60 96 96 60 96 96 60 96 96 60 42 96 60 42 96 60 42 116 46 42 116 46 42 116 46 42 116 46 42 116 46 42 116 46 60 116 60 60 136 60 60 136 60 60 136 60 60 136 60 60 136 60 60 136 46 60 136 46 78 96 46 78 96 46 78 96 46 78 96 46 78 96 60 78 96 60 78 96 60 78 116 60 96 116 60 96 116 60 96 116 46 96 116 46 96 116 46 96 116 46 96 136 46 96 136 46 42 136 60 42 136 60 42 136 60 42 136 60 42 136 60 42 96 60 42 96 46 42 96 46 60 96 46 60 96 46 60 96 46 60 96 46 60 116 60 60 116 60 60 116 60 60 116 60 78 116 60 78 116 60 78 116 46 78 136 46 78 136 46 78 136 46 78 136 46 78 136 46 96 136 60 96 136 60 96 96 60 96 96 60 96 96 60 96 96 60 96 96 46 96 96 46 42 96 46 42 116 46 42 116 46 42 116 46 42 116 60 42 116 60 42 116 60 42 116 60 60 136 60 60 136 60 60 136 46 60 136 46 60 136 46 60 136 46 60 136 46 60 96 46 78 96 60 78 96 60 78 96 60 78 96 60 78 96 60 78 96 60 78 116 46 78 116 46
42 116 46 42 116 46 42 116 46 42 116 46 42 116 46 42 116 46 42 116 60 42 136 60 60 136 60 60 136 60 60 136 60 60 136 60 60 136 46 60 136 46 60 96 46 60 96 46 78 96 46 78 96 46 78 96 60 78 96 60 78 96 60 78 116 60 78 116 60 78 116 60 96 116 46 96 116 46 96 116 46 96 116 46 96 136 46 96 136 46 96 136 60 96 136 60 42 136 60 42 136 60 42 136 60 42 96 60 42 96 46 42 96 46 42 96 46 42 96 46 60 96 46 60 96 46 60 116 60 60 116 60 60 116 60 60 116 60 60 116 60 60 116 60 78 116 46 78 136 46 78 136 46 78 136 46 78 136 46 78 136 46 78 136 60 78 136 60 96 96 60 96 96 60 96 96 60 96 96 60 96 96 46 96 96 46 96 96 46 96 116 46 42 116 46 42 116 46 42 116 60 42 116 60 42 116 60 42 116 60 42 136 60 42 136 60 60 136 46 60 136 46 60 136 46 60 136 46 60 136 46 60 96 46 60 96 60 60 96 60 78 96 60 78 96 60 78 96 60 78 96 60 78 116 46 78 116 46 78 116 46 78 116 46 96 116 46 96 116 46 96 116 60 96 136 60 96 136 60 96 136 60 96 136 60 96 136 60 42 136 46 42 136 46 42 96 46 42 96 46 42 96 46 42 96 46 42 96 60 42 96 60 60 96 60 60 116 60 60 116 60 60 116 60 60 116 46 60 116 46 60 116 46 60 116 46 78 136 46 78 136 46 78 136 60 78 136 60 78 136 60 78 136 60 78 136 60 78 96 60 96 96 46 96 96 46 96 96 46 96 96 46 96 96 46 96 96 46 96 116 60 96 116 60
42 116 46 42 116 46 42 116 46 42 116 46 42 116 46 42 116 46 42 116 60 42 136 60 60 136 60 60 136 60 60 136 60 60 136 60 60 136 46 60 136 46 60 96 46 60 96 46 78 96 46 78 96 46 78 96 60 78 96 60 78 96 60 78 116 60 78 116 60 78 116 60 96 116 46 96 116 46 96 116 46 96 116 46 96 136 46 96 136 46 96 136 60 96 136 60 42 136 60 42 136 60 42 136 60 42 96 60 42 96 46 42 96 46 42 96 46 42 96 46 60 96 46 60 96 46 60 116 60 60 116 60 60 116 60 60 116 60 60 116 60 60 116 60 78 116 46 78 136 46 78 136 46 78 136 46 78 136 46 78 136 46 78 136 60 78 136 60 96 96 60 96 96 60 96 96 60 96 96 60 96 96 46 96 96 46 96 96 46 96 116 46 42 116 46 42 116 46 42 116 60 42 116 60 42 116 60 42 116 60 42 136 60 42 136 60 60 136 46 60 136 46 60 136 46 60 136 46 60 136 46 60 96 46 60 96 60 60 96 60 78 96 60 78 96 60 78 96 60 78 96 60 78 116 46 78 116 46 78 116 46 78 116 46 96 116 46 96 116 46 96 116 60 96 136 60 96 136 60 96 136 60 96 136 60 96 136 60 42 136 46 42 136 46 42 96 46 42 96 46 42 96 46 42 96 46 42 96 60 42 96 60 60 96 60 60 116 60 60 116 60 60 116 60 60 116 46 60 116 46 60 116 46 60 116 46 78 136 46 78 136 46 78 136 60 78 136 60 78 136 60 78 136 60 78 136 60 78 96 60 96 96 46 96 96 46 96 96 46 96 96 46 96 96 46 96 96 46 96 116 60 96 116 60
42 116 46 42 116 46 42 116 46 42 116 46 42 116 46 42 116 46 42 116 60 42 136 60 60 136 60 60 136 60 60 136 60 60 136 60 60 136 46 60 136 46 60 96 46 60 96 46 78 96 46 78 96 46 78 96 60 78 96 60 78 96 60 78 116 60 78 116 60 78 116 60 96 116 46 96 116 46 96 116 46 96 116 46 96 136 46 96 136 46 96 136 60 96 136 60 42 136 60 42 136 60 42 136 60 42 96 60 42 96 46 42 96 46 42 96 46 42 96 46 60 96 46 60 96 46 60 116 60 60 116 60 60 116 60 60 116 60 60 116 60 60 116 60 78 116 46 78 136 46 78 136 46 78 136 46 78 136 46 78 136 46 78 136 60 78 136 60 96 96 60 96 96 60 96 96 60 96 96 60 96 96 46 96 96 46 96 96 46 96 116 46 42 116 46 42 116 46 42 116 60 42 116 60 42 116 60 42 116 60 42 136 60 42 136 60 60 136 46 60 136 46 60 136 46 60 136 46 60 136 46 60 96 46 60 96 60 60 96 60 78 96 60 78 96 60 78 96 60 78 96 60 78 116 46 78 116 46 78 116 46 78 116 46 96 116 46 96 116 46 96 116 60 96 136 60 96 136 60 96 136 60 96 136 60 96 136 60 42 136 46 42 136 46 42 96 46 42 96 46 42 96 46 42 96 46 42 96 60 42 96 60 60 96 60 60 116 60 60 116 60 60 116 60 60 116 46 60 116 46 60 116 46 60 116 46 78 136 46 78 136 46 78 136 60 78 136 60 78 136 60 78 136 60 78 136 60 78 96 60 96 96 46 96 96 46 96 96 46 96 96 46 96 96 46 96 96 46 96 116 60 96 116 60
42 136 46 42 136 46 42 136 46 42 136 46 42 136 46 42 136 46 42 136 60 42 96 60 60 96 60 60 96 60 60 96 60 60 96 60 60 96 46 60 96 46 60 116 46 60 116 46 78 116 46 78 116 46 78 116 60 78 116 60 78 116 60 78 136 60 78 136 60 78 136 60 96 136 46 96 136 46 96 136 46 96 136 46 96 96 46 96 96 46 96 96 60 96 96 60 42 96 60 42 96 60 42 96 60 42 116 60 42 116 46 42 116 46 42 116 46 42 116 46 60 116 46 60 116 46 60 136 60 60 136 60 60 136 60 60 136 60 60 136 60 60 136 60 78 136 46 78 96 46 78 96 46 78 96 46 78 96 46 78 96 46 78 96 60 78 96 60 96 116 60 96 116 60 96 116 60 96 116 60 96 116 46 96 116 46 96 116 46 96 136 46 42 136 46 42 136 46 42 136 60 42 136 60 42 136 60 42 136 60 42 96 60 42 96 60 60 96 46 60 96 46 60 96 46 60 96 46 60 96 46 60 116 46 60 116 60 60 116 60 78 116 60 78 116 60 78 116 60 78 116 60 78 136 46 78 136 46 78 136 46 78 136 46 96 136 46 96 136 46 96 136 60 96 96 60 96 96 60 96 96 60 96 96 60 96 96 60 42 96 46 42 96 46 42 116 46 42 116 46 42 116 46 42 116 46 42 116 60 42 116 60 60 116 60 60 136 60 60 136 60 60 136 60 60 136 46 60 136 46 60 136 46 60 136 46 78 96 46 78 96 46 78 96 60 78 96 60 78 96 60 78 96 60 78 96 60 78 116 60 96 116 46 96 116 46 96 116 46 96 116 46 96 116 46 96 116 46 96 136 60 96 136 60
42 136 46 42 136 46 42 136 46 42 136 46 42 136 46 42 136 46 42 136 60 42 96 60 60 96 60 60 96 60 60 96 60 60 96 60 60 96 46 60 96 46 60 116 46 60 116 46 78 116 46 78 116 46 78 116 60 78 116 60 78 116 60 78 136 60 78 136 60 78 136 60 96 136 46 96 136 46 96 136 46 96 136 46 96 96 46 96 96 46 96 96 60 96 96 60 42 96 60 42 96 60 42 96 60 42 116 60 42 116 46 42 116 46 42 116 46 42 116 46 60 116 46 60 116 46 60 136 60 60 136 60 60 136 60 60 136 60 60 136 60 60 136 60 78 136 46 78 96 46 78 96 46 78 96 46 78 96 46 78 96 46 78 96 60 78 96 60 96 116 60 96 116 60 96 116 60 96 116 60 96 116 46 96 116 46 96 116 46 96 136 46 42 136 46 42 136 46 42 136 60 42 136 60 42 136 60 42 136 60 42 96 60 42 96 60 60 96 46 60 96 46 60 96 46 60 96 46 60 96 46 60 116 46 60 116 60 60 116 60 78 116 60 78 116 60 78 116 60 78 116 60 78 136 46 78 136 46 78 136 46 78 136 46 96 136 46 96 136 46 96 136 60 96 96 60 96 96 60 96 96 60 96 96 60 96 96 60 42 96 46 42 96 46 42 116 46 42 116 46 42 116 46 42 116 46 42 116 60 42 116 60 60 116 60 60 136 60 60 136 60 60 136 60 60 136 46 60 136 46 60 136 46 60 136 46 78 96 46 78 96 46 78 96 60 78 96 60 78 96 60 78 96 60 78 96 60 78 116 60 96 116 46 96 116 46 96 116 46 96 116 46 96 116 46 96 116 46 96 136 60 96 136 60
42 136 46 42 136 46 42 136 46 42 136 46 42 136 46 42 136 46 42 136 60 42 96 60 60 96 60 60 96 60 60 96 60 60 96 60 60 96 46 60 96 46 60 116 46 60 116 46 78 116 46 78 116 46 78 116 60 78 116 60 78 116 60 78 136 60 78 136 60 78 136 60 96 136 46 96 136 46 96 136 46 96 136 46 96 96 46 96 96 46 96 96 60 96 96 60 42 96 60 42 96 60 42 96 60 42 116 60 42 116 46 42 116 46 42 116 46 42 116 46 60 116 46 60 116 46 60 136 60 60 136 60 60 136 60 60 136 60 60 136 60 60 136 60 78 136 46 78 96 46 78 96 46 78 96 46 78 96 46 78 96 46 78 96 60 78 96 60 96 116 60 96 116 60 96 116 60 96 116 60 96 116 46 96 116 46 96 116 46 96 136 46 42 136 46 42 136 46 42 136 60 42 136 60 42 136 60 42 136 60 42 96 60 42 96 60 60 96 46 60 96 46 60 96 46 60 96 46 60 96 46 60 116 46 60 116 60 60 116 60 78 116 60 78 116 60 78 116 60 78 116 60 78 136 46 78 136 46 78 136 46 78 136 46 96 136 46 96 136 46 96 136 60 96 96 60 96 96 60 96 96 60 96 96 60 96 96 60 42 96 46 42 96 46 42 116 46 42 116 46 42 116 46 42 116 46 42 116 60 42 116 60 60 116 60 60 136 60 60 136 60 60 136 60 60 136 46 60 136 46 60 136 46 60 136 46 78 96 46 78 96 46 78 96 60 78 96 60 78 96 60 78 96 60 78 96 60 78 116 60 96 116 46 96 116 46 96 116 46 96 116 46 96 116 46 96 116 46 96 136 60 96 136 60
60 136 46 60 136 46 60 136 46 60 136 46 60 136 46 60 136 46 60 136 60 60 96 60 78 96 60 78 96 60 78 96 60 78 96 60 78 96 46 78 96 46 78 116 46 78 116 46 96 116 46 96 116 46 96 116 60 96 116 60 96 116 60 96 136 60 96 136 60 96 136 60 42 136 46 42 136 46 42 136 46 42 136 46 42 96 46 42 96 46 42 96 60 42 96 60 60 96 60 60 96 60 60 96 60 60 116 60 60 116 46 60 116 46 60 116 46 60 116 46 78 116 46 78 116 46 78 136 60 78 136 60 78 136 60 78 136 60 78 136 60 78 136 60 96 136 46 96 96 46 96 96 46 96 96 46 96 96 46 96 96 46 96 96 60 96 96 60 42 116 60 42 116 60 42 116 60 42 116 60 42 116 46 42 116 46 42 116 46 42 136 46 60 136 46 60 136 46 60 136 60 60 136 60 60 136 60 60 136 60 60 96 60 60 96 60 78 96 46 78 96 46 78 96 46 78 96 46 78 96 46 78 116 46 78 116 60 78 116 60 96 116 60 96 116 60 96 116 60 96 116 60 96 136 46 96 136 46 96 136 46 96 136 46 42 136 46 42 136 46 42 136 60 42 96 60 42 96 60 42 96 60 42 96 60 42 96 60 60 96 46 60 96 46 60 116 46 60 116 46 60 116 46 60 116 46 60 116 60 60 116 60 78 116 60 78 136 60 78 136 60 78 136 60 78 136 46 78 136 46 78 136 46 78 136 46 96 96 46 96 96 46 96 96 60 96 96 60 96 96 60 96 96 60 96 96 60 96 116 60 42 116 46 42 116 46 42 116 46 42 116 46 42 116 46 42 116 46 42 136 60 42 136 60
60 136 46 60 136 46 60 136 46 60 136 46 60 136 46 60 136 46 60 136 60 60 96 60 78 96 60 78 96 60 78 96 60 78 96 60 78 96 46 78 96 46 78 116 46 78 116 46 96 116 46 96 116 46 96 116 60 96 116 60 96 116 60 96 136 60 96 136 60 96 136 60 42 136 46 42 136 46 42 136 46 42 136 46 42 96 46 42 96 46 42 96 60 42 96 60 60 96 60 60 96 60 60 96 60 60 116 60 60 116 46 60 116 46 60 116 46 60 116 46 78 116 46 78 116 46 78 136 60 78 136 60 78 136 60 78 136 60 78 136 60 78 136 60 96 136 46 96 96 46 96 96 46 96 96 46 96 96 46 96 96 46 96 96 60 96 96 60 42 116 60 42 116 60 42 116 60 42 116 60 42 116 46 42 116 46 42 116 46 42 136 46 60 136 46 60 136 46 60 136 60 60 136 60 60 136 60 60 136 60 60 96 60 60 96 60 78 96 46 78 96 46 78 96 46 78 96 46 78 96 46 78 116 46 78 116 60 78 116 60 96 116 60 96 116 60 96 116 60 96 116 60 96 136 46 96 136 46 96 136 46 96 136 46 42 136 46 42 136 46 42 136 60 42 96 60 42 96 60 42 96 60 42 96 60 42 96 60 60 96 46 60 96 46 60 116 46 60 116 46 60 116 46 60 116 46 60 116 60 60 116 60 78 116 60 78 136 60 78 136 60 78 136 60 78 136 46 78 136 46 78 136 46 78 136 46 96 96 46 96 96 46 96 96 60 96 96 60 96 96 60 96 96 60 96 96 60 96 116 60 42 116 46 42 116 46 42 116 46 42 116 46 42 116 46 42 116 46 42 136 60 42 136 60
60 136 60 60 136 60 60 136 60 60 136 60 60 136 60 60 136 60 60 136 46 60 96 46 78 96 46 78 96 46 78 96 46 78 96 46 78 96 60 78 96 60 78 116 60 78 116 60 96 116 60 96 116 60 96 116 46 96 116 46 96 116 46 96 136 46 96 136 46 96 136 46 42 136 60 42 136 60 42 136 60 42 136 60 42 96 60 42 96 60 42 96 46 42 96 46 60 96 46 60 96 46 60 96 46 60 116 46 60 116 60 60 116 60 60 116 60 60 116 60 78 116 60 78 116 60 78 136 46 78 136 46 78 136 46 78 136 46 78 136 46 78 136 46 96 136 60 96 96 60 96 96 60 96 96 60 96 96 60 96 96 60 96 96 46 96 96 46 42 116 46 42 116 46 42 116 46 42 116 46 42 116 60 42 116 60 42 116 60 42 136 60 60 136 60 60 136 60 60 136 46 60 136 46 60 136 46 60 136 46 60 96 46 60 96 46 78 96 60 78 96 60 78 96 60 78 96 60 78 96 60 78 116 60 78 116 46 78 116 46 96 116 46 96 116 46 96 116 46 96 116 46 96 136 60 96 136 60 96 136 60 96 136 60 42 136 60 42 136 60 42 136 46 42 96 46 42 96 46 42 96 46 42 96 46 42 96 46 60 96 60 60 96 60 60 116 60 60 116 60 60 116 60 60 116 60 60 116 46 60 116 46 78 116 46 78 136 46 78 136 46 78 136 46 78 136 60 78 136 60 78 136 60 78 136 60 96 96 60 96 96 60 96 96 46 96 96 46 96 96 46 96 96 46 96 96 46 96 116 46 42 116 60 42 116 60 42 116 60 42 116 60 42 116 60 42 116 60 42 136 46 42 136 46
60 136 60 60 136 60 60 136 60 60 136 60 60 136 60 60 136 60 60 136 46 60 96 46 78 96 46 78 96 46 78 96 46 78 96 46 78 96 60 78 96 60 78 116 60 78 116 60 96 116 60 96 116 60 96 116 46 96 116 46 96 116 46 96 136 46 96 136 46 96 136 46 42 136 60 42 136 60 42 136 60 42 136 60 42 96 60 42 96 60 42 96 46 42 96 46 60 96 46 60 96 46 60 96 46 60 116 46 60 116 60 60 116 60 60 116 60 60 116 60 78 116 60 78 116 60 78 136 46 78 136 46 78 136 46 78 136 46 78 136 46 78 136 46 96 136 60 96 96 60 96 96 60 96 96 60 96 96 60 96 96 60 96 96 46 96 96 46 42 116 46 42 116 46 42 116 46 42 116 46 42 116 60 42 116 60 42 116 60 42 136 60 60 136 60 60 136 60 60 136 46 60 136 46 60 136 46 60 136 46 60 96 46 60 96 46 78 96 60 78 96 60 78 96 60 78 96 60 78 96 60 78 116 60 78 116 46 78 116 46 96 116 46 96 116 46 96 116 46 96 116 46 96 136 60 96 136 60 96 136 60 96 136 60 42 136 60 42 136 60 42 136 46 42 96 46 42 96 46 42 96 46 42 96 46 42 96 46 60 96 60 60 96 60 60 116 60 60 116 60 60 116 60 60 116 60 60 116 46 60 116 46 78 116 46 78 136 46 78 136 46 78 136 46 78 136 60 78 136 60 78 136 60 78 136 60 96 96 60 96 96 60 96 96 46 96 96 46 96 96 46 96 96 46 96 96 46 96 116 46 42 116 60 42 116 60 42 116 60 42 116 60 42 116 60 42 116 60 42 136 46 42 136 46
60 136 60 60 136 60 60 136 60 60 136 60 60 136 60 60 136 60 60 136 46 60 96 46 78 96 46 78 96 46 78 96 46 78 96 46 78 96 60 78 96 60 78 116 60 78 116 60 96 116 60 96 116 60 96 116 46 96 116 46 96 116 46 96 136 46 96 136 46 96 136 46 42 136 60 42 136 60 42 136 60 42 136 60 42 96 60 42 96 60 42 96 46 42 96 46 60 96 46 60 96 46 60 96 46 60 116 46 60 116 60 60 116 60 60 116 60 60 116 60 78 116 60 78 116 60 78 136 46 78 136 46 78 136 46 78 136 46 78 136 46 78 136 46 96 136 60 96 96 60 96 96 60 96 96 60 96 96 60 96 96 60 96 96 46 96 96 46 42 116 46 42 116 46 42 116 46 42 116 46 42 116 60 42 116 60 42 116 60 42 136 60 60 136 60 60 136 60 60 136 46 60 136 46 60 136 46 60 136 46 60 96 46 60 96 46 78 96 60 78 96 60 78 96 60 78 96 60 78 96 60 78 116 60 78 116 46 78 116 46 96 116 46 96 116 46 96 116 46 96 116 46 96 136 60 96 136 60 96 136 60 96 136 60 42 136 60 42 136 60 42 136 46 42 96 46 42 96 46 42 96 46 42 96 46 42 96 46 60 96 60 60 96 60 60 116 60 60 116 60 60 116 60 60 116 60 60 116 46 60 116 46 78 116 46 78 136 46 78 136 46 78 136 46 78 136 60 78 136 60 78 136 60 78 136 60 96 96 60 96 96 60 96 96 46 96 96 46 96 96 46 96 96 46 96 96 46 96 116 46 42 116 60 42 116 60 42 116 60 42 116 60 42 116 60 42 116 60 42 136 46 42 136 46
60 136 60 60 136 60 60 136 60 60 136 60 60 136 60 60 136 60 60 136 46 60 96 46 78 96 46 78 96 46 78 96 46 78 96 46 78 96 60 78 96 60 78 116 60 78 116 60 96 116 60 96 116 60 96 116 46 96 116 46 96 116 46 96 136 46 96 136 46 96 136 46 42 136 60 42 136 60 42 136 60 42 136 60 42 96 60 42 96 60 42 96 46 42 96 46 60 96 46 60 96 46 60 96 46 60 116 46 60 116 60 60 116 60 60 116 60 60 116 60 78 116 60 78 116 60 78 136 46 78 136 46 78 136 46 78 136 46 78 136 46 78 136 46 96 136 60 96 96 60 96 96 60 96 96 60 96 96 60 96 96 60 96 96 46 96 96 46 42 116 46 42 116 46 42 116 46 42 116 46 42 116 60 42 116 60 42 116 60 42 136 60 60 136 60 60 136 60 60 136 46 60 136 46 60 136 46 60 136 46 60 96 46 60 96 46 78 96 60 78 96 60 78 96 60 78 96 60 78 96 60 78 116 60 78 116 46 78 116 46 96 116 46 96 116 46 96 116 46 96 116 46 96 136 60 96 136 60 96 136 60 96 136 60 42 136 60 42 136 60 42 136 46 42 96 46 42 96 46 42 96 46 42 96 46 42 96 46 60 96 60 60 96 60 60 116 60 60 116 60 60 116 60 60 116 60 60 116 46 60 116 46 78 116 46 78 136 46 78 136 46 78 136 46 78 136 60 78 136 60 78 136 60 78 136 60 96 96 60 96 96 60 96 96 46 96 96 46 96 96 46 96 96 46 96 96 46 96 116 46 42 116 60 42 116 60 42 116 60 42 116 60 42 116 60 42 116 60 42 136 46 42 136 46
78 96 60 78 96 60 78 96 60 78 96 60 78 96 60 78 96 60 78 96 46 78 116 46 96 116 46 96 116 46 96 116 46 96 116 46 96 116 60 96 116 60 96 136 60 96 136 60 42 136 60 42 136 60 42 136 46 42 136 46 42 136 46 42 96 46 42 96 46 42 96 46 60 96 60 60 96 60 60 96 60 60 96 60 60 116 60 60 116 60 60 116 46 60 116 46 78 116 46 78 116 46 78 116 46 78 136 46 78 136 60 78 136 60 78 136 60 78 136 60 96 136 60 96 136 60 96 96 46 96 96 46 96 96 46 96 96 46 96 96 46 96 96 46 42 96 60 42 116 60 42 116 60 42 116 60 42 116 60 42 116 60 42 116 46 42 116 46 60 136 46 60 136 46 60 136 46 60 136 46 60 136 60 60 136 60 60 136 60 60 96 60 78 96 60 78 96 60 78 96 46 78 96 46 78 96 46 78 96 46 78 116 46 78 116 46 96 116 60 96 116 60 96 116 60 96 116 60 96 116 60 96 136 60 96 136 46 96 136 46 42 136 46 42 136 46 42 136 46 42 136 46 42 96 60 42 96 60 42 96 60 42 96 60 60 96 60 60 96 60 60 96 46 60 116 46 60 116 46 60 116 46 60 116 46 60 116 46 78 116 60 78 116 60 78 136 60 78 136 60 78 136 60 78 136 60 78 136 46 78 136 46 96 136 46 96 96 46 96 96 46 96 96 46 96 96 60 96 96 60 96 96 60 96 96 60 42 116 60 42 116 60 42 116 46 42 116 46 42 116 46 42 116 46 42 116 46 42 136 46 60 136 60 60 136 60 60 136 60 60 136 60 60 136 60 60 136 60 60 96 46 60 96 46
78 96 60 78 96 60 78 96 60 78 96 60 78 96 60 78 96 60 78 96 46 78 116 46 96 116 46 96 116 46 96 116 46 96 116 46 96 116 60 96 116 60 96 136 60 96 136 60 42 136 60 42 136 60 42 136 46 42 136 46 42 136 46 42 96 46 42 96 46 42 96 46 60 96 60 60 96 60 60 96 60 60 96 60 60 116 60 60 116 60 60 116 46 60 116 46 78 116 46 78 116 46 78 116 46 78 136 46 78 136 60 78 136 60 78 136 60 78 136 60 96 136 60 96 136 60 96 96 46 96 96 46 96 96 46 96 96 46 96 96 46 96 96 46 42 96 60 42 116 60 42 116 60 42 116 60 42 116 60 42 116 60 42 116 46 42 116 46 60 136 46 60 136 46 60 136 46 60 136 46 60 136 60 60 136 60 60 136 60 60 96 60 78 96 60 78 96 60 78 96 46 78 96 46 78 96 46 78 96 46 78 116 46 78 116 46 96 116 60 96 116 60 96 116 60 96 116 60 96 116 60 96 136 60 96 136 46 96 136 46 42 136 46 42 136 46 42 136 46 42 136 46 42 96 60 42 96 60 42 96 60 42 96 60 60 96 60 60 96 60 60 96 46 60 116 46 60 116 46 60 116 46 60 116 46 60 116 46 78 116 60 78 116 60 78 136 60 78 136 60 78 136 60 78 136 60 78 136 46 78 136 46 96 136 46 96 96 46 96 96 46 96 96 46 96 96 60 96 96 60 96 96 60 96 96 60 42 116 60 42 116 60 42 116 46 42 116 46 42 116 46 42 116 46 42 116 46 42 136 46 60 136 60 60 136 60 60 136 60 60 136 60 60 136 60 60 136 60 60 96 46 60 96 46
78 96 60 78 96 60 78 96 60 78 96 60 78 96 60 78 96 60 78 96 46 78 116 46 96 116 46 96 116 46 96 116 46 96 116 46 96 116 60 96 116 60 96 136 60 96 136 60 42 136 60 42 136 60 42 136 46 42 136 46 42 136 46 42 96 46 42 96 46 42 96 46 60 96 60 60 96 60 60 96 60 60 96 60 60 116 60 60 116 60 60 116 46 60 116 46 78 116 46 78 116 46 78 116 46 78 136 46 78 136 60 78 136 60 78 136 60 78 136 60 96 136 60 96 136 60 96 96 46 96 96 46 96 96 46 96 96 46 96 96 46 96 96 46 42 96 60 42 116 60 42 116 60 42 116 60 42 116 60 42 116 60 42 116 46 42 116 46 60 136 46 60 136 46 60 136 46 60 136 46 60 136 60 60 136 60 60 136 60 60 96 60 78 96 60 78 96 60 78 96 46 78 96 46 78 96 46 78 96 46 78 116 46 78 116 46 96 116 60 96 116 60 96 116 60 96 116 60 96 116 60 96 136 60 96 136 46 96 136 46 42 136 46 42 136 46 42 136 46 42 136 46 42 96 60 42 96 60 42 96 60 42 96 60 60 96 60 60 96 60 60 96 46 60 116 46 60 116 46 60 116 46 60 116 46 60 116 46 78 116 60 78 116 60 78 136 60 78 136 60 78 136 60 78 136 60 78 136 46 78 136 46 96 136 46 96 96 46 96 96 46 96 96 46 96 96 60 96 96 60 96 96 60 96 96 60 42 116 60 42 116 60 42 116 46 42 116 46 42 116 46 42 116 46 42 116 46 42 136 46 60 136 60 60 136 60 60 136 60 60 136 60 60 136 60 60 136 60 60 96 46 60 96 46
78 96 60 78 96 60 78 96 60 78 96 60 78 96 60 78 96 60 78 96 46 78 116 46 96 116 46 96 116 46 96 116 46 96 116 46 96 116 60 96 116 60 96 136 60 96 136 60 42 136 60 42 136 60 42 136 46 42 136 46 42 136 46 42 96 46 42 96 46 42 96 46 60 96 60 60 96 60 60 96 60 60 96 60 60 116 60 60 116 60 60 116 46 60 116 46 78 116 46 78 116 46 78 116 46 78 136 46 78 136 60 78 136 60 78 136 60 78 136 60 96 136 60 96 136 60 96 96 46 96 96 46 96 96 46 96 96 46 96 96 46 96 96 46 42 96 60 42 116 60 42 116 60 42 116 60 42 116 60 42 116 60 42 116 46 42 116 46 60 136 46 60 136 46 60 136 46 60 136 46 60 136 60 60 136 60 60 136 60 60 96 60 78 96 60 78 96 60 78 96 46 78 96 46 78 96 46 78 96 46 78 116 46 78 116 46 96 116 60 96 116 60 96 116 60 96 116 60 96 116 60 96 136 60 96 136 46 96 136 46 42 136 46 42 136 46 42 136 46 42 136 46 42 96 60 42 96 60 42 96 60 42 96 60 60 96 60 60 96 60 60 96 46 60 116 46 60 116 46 60 116 46 60 116 46 60 116 46 78 116 60 78 116 60 78 136 60 78 136 60 78 136 60 78 136 60 78 136 46 78 136 46 96 136 46 96 96 46 96 96 46 96 96 46 96 96 60 96 96 60 96 96 60 96 96 60 42 116 60 42 116 60 42 116 46 42 116 46 42 116 46 42 116 46 42 116 46 42 136 46 60 136 60 60 136 60 60 136 60 60 136 60 60 136 60 60 136 60 60 96 46 60 96 46
78 96 46 78 96 46 78 96 46 78 96 46 78 96 46 78 96 46 78 96 60 78 116 60 96 116 60 96 116 60 96 116 60 96 116 60 96 116 46 96 116 46 96 136 46 96 136 46 42 136 46 42 136 46 42 136 60 42 136 60 42 136 60 42 96 60 42 96 60 42 96 60 60 96 46 60 96 46 60 96 46 60 96 46 60 116 46 60 116 46 60 116 60 60 116 60 78 116 60 78 116 60 78 116 60 78 136 60 78 136 46 78 136 46 78 136 46 78 136 46 96 136 46 96 136 46 96 96 60 96 96 60 96 96 60 96 96 60 96 96 60 96 96 60 42 96 46 42 116 46 42 116 46 42 116 46 42 116 46 42 116 46 42 116 60 42 116 60 60 136 60 60 136 60 60 136 60 60 136 60 60 136 46 60 136 46 60 136 46 60 96 46 78 96 46 78 96 46 78 96 60 78 96 60 78 96 60 78 96 60 78 116 60 78 116 60 96 116 46 96 116 46 96 116 46 96 116 46 96 116 46 96 136 46 96 136 60 96 136 60 42 136 60 42 136 60 42 136 60 42 136 60 42 96 46 42 96 46 42 96 46 42 96 46 60 96 46 60 96 46 60 96 60 60 116 60 60 116 60 60 116 60 60 116 60 60 116 60 78 116 46 78 116 46 78 136 46 78 136 46 78 136 46 78 136 46 78 136 60 78 136 60 96 136 60 96 96 60 96 96 60 96 96 60 96 96 46 96 96 46 96 96 46 96 96 46 42 116 46 42 116 46 42 116 60 42 116 60 42 116 60 42 116 60 42 116 60 42 136 60 60 136 46 60 136 46 60 136 46 60 136 46 60 136 46 60 136 46 60 96 60 60 96 60
78 96 46 78 96 46 78 96 46 78 96 46 78 96 46 78 96 46 78 96 60 78 116 60 96 116 60 96 116 60 96 116 60 96 116 60 96 116 46 96 116 46 96 136 46 96 136 46 42 136 46 42 136 46 42 136 60 42 136 60 42 136 60 42 96 60 42 96 60 42 96 60 60 96 46 60 96 46 60 96 46 60 96 46 60 116 46 60 116 46 60 116 60 60 116 60 78 116 60 78 116 60 78 116 60 78 136 60 78 136 46 78 136 46 78 136 46 78 136 46 96 136 46 96 136 46 96 96 60 96 96 60 96 96 60 96 96 60 96 96 60 96 96 60 42 96 46 42 116 46 42 116 46 42 116 46 42 116 46 42 116 46 42 116 60 42 116 60 60 136 60 60 136 60 60 136 60 60 136 60 60 136 46 60 136 46 60 136 46 60 96 46 78 96 46 78 96 46 78 96 60 78 96 60 78 96 60 78 96 60 78 116 60 78 116 60 96 116 46 96 116 46 96 116 46 96 116 46 96 116 46 96 136 46 96 136 60 96 136 60 42 136 60 42 136 60 42 136 60 42 136 60 42 96 46 42 96 46 42 96 46 42 96 46 60 96 46 60 96 46 60 96 60 60 116 60 60 116 60 60 116 60 60 116 60 60 116 60 78 116 46 78 116 46 78 136 46 78 136 46 78 136 46 78 136 46 78 136 60 78 136 60 96 136 60 96 96 60 96 96 60 96 96 60 96 96 46 96 96 46 96 96 46 96 96 46 42 116 46 42 116 46 42 116 60 42 116 60 42 116 60 42 116 60 42 116 60 42 136 60 60 136 46 60 136 46 60 136 46 60 136 46 60 136 46 60 136 46 60 96 60 60 96 60
96 96 46 96 96 46 96 96 46 96 96 46 96 96 46 96 96 46 96 96 60 96 116 60 42 116 60 42 116 60 42 116 60 42 116 60 42 116 46 42 116 46 42 136 46 42 136 46 60 136 46 60 136 46 60 136 60 60 136 60 60 136 60 60 96 60 60 96 60 60 96 60 78 96 46 78 96 46 78 96 46 78 96 46 78 116 46 78 116 46 78 116 60 78 116 60 96 116 60 96 116 60 96 116 60 96 136 60 96 136 46 96 136 46 96 136 46 96 136 46 42 136 46 42 136 46 42 96 60 42 96 60 42 96 60 42 96 60 42 96 60 42 96 60 60 96 46 60 116 46 60 116 46 60 116 46 60 116 46 60 116 46 60 116 60 60 116 60 78 136 60 78 136 60 78 136 60 78 136 60 78 136 46 78 136 46 78 136 46 78 96 46 96 96 46 96 96 46 96 96 60 96 96 60 96 96 60 96 96 60 96 116 60 96 116 60 42 116 46 42 116 46 42 116 46 42 116 46 42 116 46 42 136 46 42 136 60 42 136 60 60 136 60 60 136 60 60 136 60 60 136 60 60 96 46 60 96 46 60 96 46 60 96 46 78 96 46 78 96 46 78 96 60 78 116 60 78 116 60 78 116 60 78 116 60 78 116 60 96 116 46 96 116 46 96 136 46 96 136 46 96 136 46 96 136 46 96 136 60 96 136 60 42 136 60 42 96 60 42 96 60 42 96 60 42 96 46 42 96 46 42 96 46 42 96 46 60 116 46 60 116 46 60 116 60 60 116 60 60 116 60 60 116 60 60 116 60 60 136 60 78 136 46 78 136 46 78 136 46 78 136 46 78 136 46 78 136 46 78 96 60 78 96 60
96 96 46 96 96 46 96 96 46 96 96 46 96 96 46 96 96 46 96 96 60 96 116 60 42 116 60 42 116 60 42 116 60 42 116 60 42 116 46 42 116 46 42 136 46 42 136 46 60 136 46 60 136 46 60 136 60 60 136 60 60 136 60 60 96 60 60 96 60 60 96 60 78 96 46 78 96 46 78 96 46 78 96 46 78 116 46 78 116 46 78 116 60 78 116 60 96 116 60 96 116 60 96 116 60 96 136 60 96 136 46 96 136 46 96 136 46 96 136 46 42 136 46 42 136 46 42 96 60 42 96 60 42 96 60 42 96 60 42 96 60 42 96 60 60 96 46 60 116 46 60 116 46 60 116 46 60 116 46 60 116 46 60 116 60 60 116 60 78 136 60 78 136 60 78 136 60 78 136 60 78 136 46 78 136 46 78 136 46 78 96 46 96 96 46 96 96 46 96 96 60 96 96 60 96 96 60 96 96 60 96 116 60 96 116 60 42 116 46 42 116 46 42 116 46 42 116 46 42 116 46 42 136 46 42 136 60 42 136 60 60 136 60 60 136 60 60 136 60 60 136 60 60 96 46 60 96 46 60 96 46 60 96 46 78 96 46 78 96 46 78 96 60 78 116 60 78 116 60 78 116 60 78 116 60 78 116 60 96 116 46 96 116 46 96 136 46 96 136 46 96 136 46 96 136 46 96 136 60 96 136 60 42 136 60 42 96 60 42 96 60 42 96 60 42 96 46 42 96 46 42 96 46 42 96 46 60 116 46 60 116 46 60 116 60 60 116 60 60 116 60 60 116 60 60 116 60 60 136 60 78 136 46 78 136 46 78 136 46 78 136 46 78 136 46 78 136 46 78 96 60 78 96 60
96 96 46 96 96 46 96 96 46 96 96 46 96 96 46 96 96 46 96 96 60 96 116 60 42 116 60 42 116 60 42 116 60 42 116 60 42 116 46 42 116 46 42 136 46 42 136 46 60 136 46 60 136 46 60 136 60 60 136 60 60 136 60 60 96 60 60 96 60 60 96 60 78 96 46 78 96 46 78 96 46 78 96 46 78 116 46 78 116 46 78 116 60 78 116 60 96 116 60 96 116 60 96 116 60 96 136 60 96 136 46 96 136 46 96 136 46 96 136 46 42 136 46 42 136 46 42 96 60 42 96 60 42 96 60 42 96 60 42 96 60 42 96 60 60 96 46 60 116 46 60 116 46 60 116 46 60 116 46 60 116 46 60 116 60 60 116 60 78 136 60 78 136 60 78 136 60 78 136 60 78 136 46 78 136 46 78 136 46 78 96 46 96 96 46 96 96 46 96 96 60 96 96 60 96 96 60 96 96 60 96 116 60 96 116 60 42 116 46 42 116 46 42 116 46 42 116 46 42 116 46 42 136 46 42 136 60 42 136 60 60 136 60 60 136 60 60 136 60 60 136 60 60 96 46 60 96 46 60 96 46 60 96 46 78 96 46 78 96 46 78 96 60 78 116 60 78 116 60 78 116 60 78 116 60 78 116 60 96 116 46 96 116 46 96 136 46 96 136 46 96 136 46 96 136 46 96 136 60 96 136 60 42 136 60 42 96 60 42 96 60 42 96 60 42 96 46 42 96 46 42 96 46 42 96 46 60 116 46 60 116 46 60 116 60 60 116 60 60 116 60 60 116 60 60 116 60 60 136 60 78 136 46 78 136 46 78 136 46 78 136 46 78 136 46 78 136 46 78 96 60 78 96 60
96 116 46 96 116 46 96 116 46 96 116 46 96 116 46 96 116 46 96 116 60 96 136 60 42 136 60 42 136 60 42 136 60 42 136 60 42 136 46 42 136 46 42 96 46 42 96 46 60 96 46 60 96 46 60 96 60 60 96 60 60 96 60 60 116 60 60 116 60 60 116 60 78 116 46 78 116 46 78 116 46 78 116 46 78 136 46 78 136 46 78 136 60 78 136 60 96 136 60 96 136 60 96 136 60 96 96 60 96 96 46 96 96 46 96 96 46 96 96 46 42 96 46 42 96 46 42 116 60 42 116 60 42 116 60 42 116 60 42 116 60 42 116 60 60 116 46 60 136 46 60 136 46 60 136 46 60 136 46 60 136 46 60 136 60 60 136 60 78 96 60 78 96 60 78 96 60 78 96 60 78 96 46 78 96 46 78 96 46 78 116 46 96 116 46 96 116 46 96 116 60 96 116 60 96 116 60 96 116 60 96 136 60 96 136 60 42 136 46 42 136 46 42 136 46 42 136 46 42 136 46 42 96 46 42 96 60 42 96 60 60 96 60 60 96 60 60 96 60 60 96 60 60 116 46 60 116 46 60 116 46 60 116 46 78 116 46 78 116 46 78 116 60 78 136 60 78 136 60 78 136 60 78 136 60 78 136 60 96 136 46 96 136 46 96 96 46 96 96 46 96 96 46 96 96 46 96 96 60 96 96 60 42 96 60 42 116 60 42 116 60 42 116 60 42 116 46 42 116 46 42 116 46 42 116 46 60 136 46 60 136 46 60 136 60 60 136 60 60 136 60 60 136 60 60 136 60 60 96 60 78 96 46 78 96 46 78 96 46 78 96 46 78 96 46 78 96 46 78 116 60 78 116 60
96 116 46 96 116 46 96 116 46 96 116 46 96 116 46 96 116 46 96 116 60 96 136 60 42 136 60 42 136 60 42 136 60 42 136 60 42 136 46 42 136 46 42 96 46 42 96 46 60 96 46 60 96 46 60 96 60 60 96 60 60 96 60 60 116 60 60 116 60 60 116 60 78 116 46 78 116 46 78 116 46 78 116 46 78 136 46 78 136 46 78 136 60 78 136 60 96 136 60 96 136 60 96 136 60 96 96 60 96 96 46 96 96 46 96 96 46 96 96 46 42 96 46 42 96 46 42 116 60 42 116 60 42 116 60 42 116 60 42 116 60 42 116 60 60 116 46 60 136 46 60 136 46 60 136 46 60 136 46 60 136 46 60 136 60 60 136 60 78 96 60 78 96 60 78 96 60 78 96 60 78 96 46 78 96 46 78 96 46 78 116 46 96 116 46 96 116 46 96 116 60 96 116 60 96 116 60 96 116 60 96 136 60 96 136 60 42 136 46 42 136 46 42 136 46 42 136 46 42 136 46 42 96 46 42 96 60 42 96 60 60 96 60 60 96 60 60 96 60 60 96 60 60 116 46 60 116 46 60 116 46 60 116 46 78 116 46 78 116 46 78 116 60 78 136 60 78 136 60 78 136 60 78 136 60 78 136 60 96 136 46 96 136 46 96 96 46 96 96 46 96 96 46 96 96 46 96 96 60 96 96 60 42 96 60 42 116 60 42 116 60 42 116 60 42 116 46 42 116 46 42 116 46 42 116 46 60 136 46 60 136 46 60 136 60 60 136 60 60 136 60 60 136 60 60 136 60 60 96 60 78 96 46 78 96 46 78 96 46 78 96 46 78 96 46 78 96 46 78 116 60 78 116 60
96 116 46 96 116 46 96 116 46 96 116 46 96 116 46 96 116 46 96 116 60 96 136 60 42 136 60 42 136 60 42 136 60 42 136 60 42 136 46 42 136 46 42 96 46 42 96 46 60 96 46 60 96 46 60 96 60 60 96 60 60 96 60 60 116 60 60 116 60 60 116 60 78 116 46 78 116 46 78 116 46 78 116 46 78 136 46 78 136 46 78 136 60 78 136 60 96 136 60 96 136 60 96 136 60 96 96 60 96 96 46 96 96 46 96 96 46 96 96 46 42 96 46 42 96 46 42 116 60 42 116 60 42 116 60 42 116 60 42 116 60 42 116 60 60 116 46 60 136 46 60 136 46 60 136 46 60 136 46 60 136 46 60 136 60 60 136 60 78 96 60 78 96 60 78 96 60 78 96 60 78 96 46 78 96 46 78 96 46 78 116 46 96 116 46 96 116 46 96 116 60 96 116 60 96 116 60 96 116 60 96 136 60 96 136 60 42 136 46 42 136 46 42 136 46 42 136 46 42 136 46 42 96 46 42 96 60 42 96 60 60 96 60 60 96 60 60 96 60 60 96 60 60 116 46 60 116 46 60 116 46 60 116 46 78 116 46 78 116 46 78 116 60 78 136 60 78 136 60 78 136 60 78 136 60 78 136 60 96 136 46 96 136 46 96 96 46 96 96 46 96 96 46 96 96 46 96 96 60 96 96 60 42 96 60 42 116 60 42 116 60 42 116 60 42 116 46 42 116 46 42 116 46 42 116 46 60 136 46 60 136 46 60 136 60 60 136 60 60 136 60 60 136 60 60 136 60 60 96 60 78 96 46 78 96 46 78 96 46 78 96 46 78 96 46 78 96 46 78 116 60 78 116 60
42 116 60 42 116 60 42 116 60 42 116 60 42 116 60 42 116 60 42 116 46 42 136 46 60 136 46 60 136 46 60 136 46 60 136 46 60 136 60 60 136 60 60 96 60 60 96 60 78 96 60 78 96 60 78 96 46 78 96 46 78 96 46 78 116 46 78 116 46 78 116 46 96 116 60 96 116 60 96 116 60 96 116 60 96 136 60 96 136 60 96 136 46 96 136 46 42 136 46 42 136 46 42 136 46 42 96 46 42 96 60 42 96 60 42 96 60 42 96 60 60 96 60 60 96 60 60 116 46 60 116 46 60 116 46 60 116 46 60 116 46 60 116 46 78 116 60 78 136 60 78 136 60 78 136 60 78 136 60 78 136 60 78 136 46 78 136 46 96 96 46 96 96 46 96 96 46 96 96 46 96 96 60 96 96 60 96 96 60 96 116 60 42 116 60 42 116 60 42 116 46 42 116 46 42 116 46 42 116 46 42 136 46 42 136 46 60 136 60 60 136 60 60 136 60 60 136 60 60 136 60 60 96 60 60 96 46 60 96 46 78 96 46 78 96 46 78 96 46 78 96 46 78 116 60 78 116 60 78 116 60 78 116 60 96 116 60 96 116 60 96 116 46 96 136 46 96 136 46 96 136 46 96 136 46 96 136 46 42 136 60 42 136 60 42 96 60 42 96 60 42 96 60 42 96 60 42 96 46 42 96 46 60 96 46 60 116 46 60 116 46 60 116 46 60 116 60 60 116 60 60 116 60 60 116 60 78 136 60 78 136 60 78 136 46 78 136 46 78 136 46 78 136 46 78 136 46 78 96 46 96 96 60 96 96 60 96 96 60 96 96 60 96 96 60 96 96 60 96 116 46 96 116 46
42 116 60 42 116 60 42 116 60 42 116 60 42 116 60 42 116 60 42 116 46 42 136 46 60 136 46 60 136 46 60 136 46 60 136 46 60 136 60 60 136 60 60 96 60 60 96 60 78 96 60 78 96 60 78 96 46 78 96 46 78 96 46 78 116 46 78 116 46 78 116 46 96 116 60 96 116 60 96 116 60 96 116 60 96 136 60 96 136 60 96 136 46 96 136 46 42 136 46 42 136 46 42 136 46 42 96 46 42 96 60 42 96 60 42 96 60 42 96 60 60 96 60 60 96 60 60 116 46 60 116 46 60 116 46 60 116 46 60 116 46 60 116 46 78 116 60 78 136 60 78 136 60 78 136 60 78 136 60 78 136 60 78 136 46 78 136 46 96 96 46 96 96 46 96 96 46 96 96 46 96 96 60 96 96 60 96 96 60 96 116 60 42 116 60 42 116 60 42 116 46 42 116 46 42 116 46 42 116 46 42 136 46 42 136 46 60 136 60 60 136 60 60 136 60 60 136 60 60 136 60 60 96 60 60 96 46 60 96 46 78 96 46 78 96 46 78 96 46 78 96 46 78 116 60 78 116 60 78 116 60 78 116 60 96 116 60 96 116 60 96 116 46 96 136 46 96 136 46 96 136 46 96 136 46 96 136 46 42 136 60 42 136 60 42 96 60 42 96 60 42 96 60 42 96 60 42 96 46 42 96 46 60 96 46 60 116 46 60 116 46 60 116 46 60 116 60 60 116 60 60 116 60 60 116 60 78 136 60 78 136 60 78 136 46 78 136 46 78 136 46 78 136 46 78 136 46 78 96 46 96 96 60 96 96 60 96 96 60 96 96 60 96 96 60 96 96 60 96 116 46 96 116 46
42 116 60 42 116 60 42 116 60 42 116 60 42 116 60 42 116 60 42 116 46 42 136 46 60 136 46 60 136 46 60 136 46 60 136 46 60 136 60 60 136 60 60 96 60 60 96 60 78 96 60 78 96 60 78 96 46 78 96 46 78 96 46 78 116 46 78 116 46 78 116 46 96 116 60 96 116 60 96 116 60 96 116 60 96 136 60 96 136 60 96 136 46 96 136 46 42 136 46 42 136 46 42 136 46 42 96 46 42 96 60 42 96 60 42 96 60 42 96 60 60 96 60 60 96 60 60 116 46 60 116 46 60 116 46 60 116 46 60 116 46 60 116 46 78 116 60 78 136 60 78 136 60 78 136 60 78 136 60 78 136 60 78 136 46 78 136 46 96 96 46 96 96 46 96 96 46 96 96 46 96 96 60 96 96 60 96 96 60 96 116 60 42 116 60 42 116 60 42 116 46 42 116 46 42 116 46 42 116 46 42 136 46 42 136 46 60 136 60 60 136 60 60 136 60 60 136 60 60 136 60 60 96 60 60 96 46 60 96 46 78 96 46 78 96 46 78 96 46 78 96 46 78 116 60 78 116 60 78 116 60 78 116 60 96 116 60 96 116 60 96 116 46 96 136 46 96 136 46 96 136 46 96 136 46 96 136 46 42 136 60 42 136 60 42 96 60 42 96 60 42 96 60 42 96 60 42 96 46 42 96 46 60 96 46 60 116 46 60 116 46 60 116 46 60 116 60 60 116 60 60 116 60 60 116 60 78 136 60 78 136 60 78 136 46 78 136 46 78 136 46 78 136 46 78 136 46 78 96 46 96 96 60 96 96 60 96 96 60 96 96 60 96 96 60 96 96 60 96 116 46 96 116 46
42 116 60 42 116 60 42 116 60 42 116 60 42 116 60 42 116 60 42 116 46 42 136 46 60 136 46 60 136 46 60 136 46 60 136 46 60 136 60 60 136 60 60 96 60 60 96 60 78 96 60 78 96 60 78 96 46 78 96 46 78 96 46 78 116 46 78 116 46 78 116 46 96 116 60 96 116 60 96 116 60 96 116 60 96 136 60 96 136 60 96 136 46 96 136 46 42 136 46 42 136 46 42 136 46 42 96 46 42 96 60 42 96 60 42 96 60 42 96 60 60 96 60 60 96 60 60 116 46 60 116 46 60 116 46 60 116 46 60 116 46 60 116 46 78 116 60 78 136 60 78 136 60 78 136 60 78 136 60 78 136 60 78 136 46 78 136 46 96 96 46 96 96 46 96 96 46 96 96 46 96 96 60 96 96 60 96 96 60 96 116 60 42 116 60 42 116 60 42 116 46 42 116 46 42 116 46 42 116 46 42 136 46 42 136 46 60 136 60 60 136 60 60 136 60 60 136 60 60 136 60 60 96 60 60 96 46 60 96 46 78 96 46 78 96 46 78 96 46 78 96 46 78 116 60 78 116 60 78 116 60 78 116 60 96 116 60 96 116 60 96 116 46 96 136 46 96 136 46 96 136 46 96 136 46 96 136 46 42 136 60 42 136 60 42 96 60 42 96 60 42 96 60 42 96 60 42 96 46 42 96 46 60 96 46 60 116 46 60 116 46 60 116 46 60 116 60 60 116 60 60 116 60 60 116 60 78 136 60 78 136 60 78 136 46 78 136 46 78 136 46 78 136 46 78 136 46 78 96 46 96 96 60 96 96 60 96 96 60 96 96 60 96 96 60 96 96 60 96 116 46 96 116 46
42 116 60 42 116 60 42 116 60 42 116 60 42 116 60 42 116 60 42 116 46 42 136 46 60 136 46 60 136 46 60 136 46 60 136 46 60 136 60 60 136 60 60 96 60 60 96 60 78 96 60 78 96 60 78 96 46 78 96 46 78 96 46 78 116 46 78 116 46 78 116 46 96 116 60 96 116 60 96 116 60 96 116 60 96 136 60 96 136 60 96 136 46 96 136 46 42 136 46 42 136 46 42 136 46 42 96 46 42 96 60 42 96 60 42 96 60 42 96 60 60 96 60 60 96 60 60 116 46 60 116 46 60 116 46 60 116 46 60 116 46 60 116 46 78 116 60 78 136 60 78 136 60 78 136 60 78 136 60 78 136 60 78 136 46 78 136 46 96 96 46 96 96 46 96 96 46 96 96 46 96 96 60 96 96 60 96 96 60 96 116 60 42 116 60 42 116 60 42 116 46 42 116 46 42 116 46 42 116 46 42 136 46 42 136 46 60 136 60 60 136 60 60 136 60 60 136 60 60 136 60 60 96 60 60 96 46 60 96 46 78 96 46 78 96 46 78 96 46 78 96 46 78 116 60 78 116 60 78 116 60 78 116 60 96 116 60 96 116 60 96 116 46 96 136 46 96 136 46 96 136 46 96 136 46 96 136 46 42 136 60 42 136 60 42 96 60 42 96 60 42 96 60 42 96 60 42 96 46 42 96 46 60 96 46 60 116 46 60 116 46 60 116 46 60 116 60 60 116 60 60 116 60 60 116 60 78 136 60 78 136 60 78 136 46 78 136 46 78 136 46 78 136 46 78 136 46 78 96 46 96 96 60 96 96 60 96 96 60 96 96 60 96 96 60 96 96 60 96 116 46 96 116 46
42 116 60 42 116 60 42 116 60 42 116 60 42 116 60 42 116 60 42 116 46 42 136 46 60 136 46 60 136 46 60 136 46 60 136 46 60 136 60 60 136 60 60 96 60 60 96 60 78 96 60 78 96 60 78 96 46 78 96 46 78 96 46 78 116 46 78 116 46 78 116 46 96 116 60 96 116 60 96 116 60 96 116 60 96 136 60 96 136 60 96 136 46 96 136 46 42 136 46 42 136 46 42 136 46 42 96 46 42 96 60 42 96 60 42 96 60 42 96 60 60 96 60 60 96 60 60 116 46 60 116 46 60 116 46 60 116 46 60 116 46 60 116 46 78 116 60 78 136 60 78 136 60 78 136 60 78 136 60 78 136 60 78 136 46 78 136 46 96 96 46 96 96 46 96 96 46 96 96 46 96 96 60 96 96 60 96 96 60 96 116 60 42 116 60 42 116 60 42 116 46 42 116 46 42 116 46 42 116 46 42 136 46 42 136 46 60 136 60 60 136 60 60 136 60 60 136 60 60 136 60 60 96 60 60 96 46 60 96 46 78 96 46 78 96 46 78 96 46 78 96 46 78 116 60 78 116 60 78 116 60 78 116 60 96 116 60 96 116 60 96 116 46 96 136 46 96 136 46 96 136 46 96 136 46 96 136 46 42 136 60 42 136 60 42 96 60 42 96 60 42 96 60 42 96 60 42 96 46 42 96 46 60 96 46 60 116 46 60 116 46 60 116 46 60 116 60 60 116 60 60 116 60 60 116 60 78 136 60 78 136 60 78 136 46 78 136 46 78 136 46 78 136 46 78 136 46 78 96 46 96 96 60 96 96 60 96 96 60 96 96 60 96 96 60 96 96 60 96 116 46 96 116 46
60 136 60 60 136 60 60 136 60 60 136 60 60 136 60 60 136 60 60 136 46 60 96 46 78 96 46 78 96 46 78 96 46 78 96 46 78 96 60 78 96 60 78 116 60 78 116 60 96 116 60 96 116 60 96 116 46 96 116 46 96 116 46 96 136 46 96 136 46 96 136 46 42 136 60 42 136 60 42 136 60 42 136 60 42 96 60 42 96 60 42 96 46 42 96 46 60 96 46 60 96 46 60 96 46 60 116 46 60 116 60 60 116 60 60 116 60 60 116 60 78 116 60 78 116 60 78 136 46 78 136 46 78 136 46 78 136 46 78 136 46 78 136 46 96 136 60 96 96 60 96 96 60 96 96 60 96 96 60 96 96 60 96 96 46 96 96 46 42 116 46 42 116 46 42 116 46 42 116 46 42 116 60 42 116 60 42 116 60 42 136 60 60 136 60 60 136 60 60 136 46 60 136 46 60 136 46 60 136 46 60 96 46 60 96 46 78 96 60 78 96 60 78 96 60 78 96 60 78 96 60 78 116 60 78 116 46 78 116 46 96 116 46 96 116 46 96 116 46 96 116 46 96 136 60 96 136 60 96 136 60 96 136 60 42 136 60 42 136 60 42 136 46 42 96 46 42 96 46 42 96 46 42 96 46 42 96 46 60 96 60 60 96 60 60 116 60 60 116 60 60 116 60 60 116 60 60 116 46 60 116 46 78 116 46 78 136 46 78 136 46 78 136 46 78 136 60 78 136 60 78 136 60 78 136 60 96 96 60 96 96 60 96 96 46 96 96 46 96 96 46 96 96 46 96 96 46 96 116 46 42 116 60 42 116 60 42 116 60 42 116 60 42 116 60 42 116 60 42 136 46 42 136 46
60 136 60 60 136 60 60 136 60 60 136 60 60 136 60 60 136 60 60 136 46 60 96 46 78 96 46 78 96 46 78 96 46 78 96 46 78 96 60 78 96 60 78 116 60 78 116 60 96 116 60 96 116 60 96 116 46 96 116 46 96 116 46 96 136 46 96 136 46 96 136 46 42 136 60 42 136 60 42 136 60 42 136 60 42 96 60 42 96 60 42 96 46 42 96 46 60 96 46 60 96 46 60 96 46 60 116 46 60 116 60 60 116 60 60 116 60 60 116 60 78 116 60 78 116 60 78 136 46 78 136 46 78 136 46 78 136 46 78 136 46 78 136 46 96 136 60 96 96 60 96 96 60 96 96 60 96 96 60 96 96 60 96 96 46 96 96 46 42 116 46 42 116 46 42 116 46 42 116 46 42 116 60 42 116 60 42 116 60 42 136 60 60 136 60 60 136 60 60 136 46 60 136 46 60 136 46 60 136 46 60 96 46 60 96 46 78 96 60 78 96 60 78 96 60 78 96 60 78 96 60 78 116 60 78 116 46 78 116 46 96 116 46 96 116 46 96 116 46 96 116 46 96 136 60 96 136 60 96 136 60 96 136 60 42 136 60 42 136 60 42 136 46 42 96 46 42 96 46 42 96 46 42 96 46 42 96 46 60 96 60 60 96 60 60 116 60 60 116 60 60 116 60 60 116 60 60 116 46 60 116 46 78 116 46 78 136 46 78 136 46 78 136 46 78 136 60 78 136 60 78 136 60 78 136 60 96 96 60 96 96 60 96 96 46 96 96 46 96 96 46 96 96 46 96 96 46 96 116 46 42 116 60 42 116 60 42 116 60 42 116 60 42 116 60 42 116 60 42 136 46 42 136 46
